; generated by Slic3r 1.1.7 on 2015-05-29 at 20:54:29

; perimeters extrusion width = 0.50mm
; infill extrusion width = 0.50mm
; solid infill extrusion width = 0.50mm
; top infill extrusion width = 0.50mm

G21 ; set units to millimeters
M107 ; disable fan
M190 S57 ; wait for bed temperature to be reached
M104 S185 ; set temperature

M109 S185 ; wait for temperature to be reached
G90 ; use absolute coordinates
M83 ; use relative distances for extrusion
G1 F1800.000 E-4.00000 ; retract
G1 Z0.240 F6000.000 ; move to next layer (0)
G1 X85.507 Y85.661 F6000.000 ; move to first skirt point
G1 E4.00000 F1800.000 ; compensate retraction
G1 X86.329 Y84.947 E0.04346 F600.000 ; skirt
G1 X87.262 Y84.386 E0.04344 ; skirt
G1 X88.279 Y83.996 E0.04348 ; skirt
G1 X89.347 Y83.788 E0.04344 ; skirt
G1 X90.000 Y83.750 E0.02610 ; skirt
G1 X110.436 Y83.769 E0.81564 ; skirt
G1 X111.511 Y83.939 E0.04344 F600.000 ; skirt
G1 X112.541 Y84.294 E0.04348 ; skirt
G1 X113.493 Y84.822 E0.04344 ; skirt
G1 X114.339 Y85.507 E0.04346 ; skirt
G1 X115.053 Y86.328 E0.04343 ; skirt
G1 X115.615 Y87.264 E0.04358 ; skirt
G1 X116.005 Y88.281 E0.04348 ; skirt
G1 X116.212 Y89.347 E0.04334 ; skirt
G1 X116.250 Y90.000 E0.02610 ; skirt
G1 X116.231 Y110.434 E0.81556 ; skirt
G1 X116.061 Y111.508 E0.04342 ; skirt
G1 X115.705 Y112.543 E0.04369 ; skirt
G1 X115.179 Y113.492 E0.04329 ; skirt
G1 X114.491 Y114.341 E0.04361 ; skirt
G1 X113.673 Y115.052 E0.04328 ; skirt
G1 X112.742 Y115.612 E0.04337 ; skirt
G1 X111.724 Y116.004 E0.04353 ; skirt
G1 X110.650 Y116.212 E0.04364 ; skirt
G1 X110.000 Y116.250 E0.02600 ; skirt
G1 X89.562 Y116.231 E0.81574 ; skirt
G1 X88.487 Y116.060 E0.04344 ; skirt
G1 X87.459 Y115.706 E0.04337 ; skirt
G1 X86.509 Y115.179 E0.04337 ; skirt
G1 X85.661 Y114.493 E0.04353 ; skirt
G1 X84.947 Y113.671 E0.04346 ; skirt
G1 X84.386 Y112.739 E0.04343 ; skirt
G1 X83.996 Y111.721 E0.04349 ; skirt
G1 X83.788 Y110.653 E0.04344 ; skirt
G1 X83.750 Y110.000 E0.02610 ; skirt
G1 X83.769 Y89.564 E0.81564 ; skirt
G1 X83.939 Y88.489 E0.04344 ; skirt
G1 X84.294 Y87.459 E0.04348 ; skirt
G1 X84.822 Y86.507 E0.04344 ; skirt
G1 X85.460 Y85.719 E0.04047 ; skirt
G1 X85.847 Y86.032 F6000.000 ; move to first skirt point
G1 X86.615 Y85.356 E0.04085 F600.000 ; skirt
G1 X87.473 Y84.839 E0.03996 ; skirt
G1 X88.408 Y84.479 E0.04000 ; skirt
G1 X89.391 Y84.286 E0.03997 ; skirt
G1 X90.000 Y84.250 E0.02436 ; skirt
G1 X110.392 Y84.267 E0.81390 ; skirt
G1 X111.382 Y84.422 E0.03997 F600.000 ; skirt
G1 X112.330 Y84.747 E0.04000 ; skirt
G1 X113.206 Y85.231 E0.03996 ; skirt
G1 X113.985 Y85.860 E0.03998 ; skirt
G1 X114.643 Y86.615 E0.03995 ; skirt
G1 X115.162 Y87.475 E0.04010 ; skirt
G1 X115.522 Y88.411 E0.04000 ; skirt
G1 X115.714 Y89.391 E0.03986 ; skirt
G1 X115.750 Y90.000 E0.02436 ; skirt
G1 X115.733 Y110.391 E0.81383 ; skirt
G1 X115.578 Y111.379 E0.03994 ; skirt
G1 X115.253 Y112.329 E0.04007 ; skirt
G1 X114.769 Y113.205 E0.03994 ; skirt
G1 X114.141 Y113.984 E0.03993 ; skirt
G1 X113.386 Y114.643 E0.04001 ; skirt
G1 X112.530 Y115.159 E0.03990 ; skirt
G1 X111.594 Y115.521 E0.04005 ; skirt
G1 X110.607 Y115.714 E0.04016 ; skirt
G1 X110.000 Y115.750 E0.02426 ; skirt
G1 X89.605 Y115.733 E0.81400 ; skirt
G1 X88.616 Y115.577 E0.03997 ; skirt
G1 X87.670 Y115.253 E0.03989 ; skirt
G1 X86.795 Y114.770 E0.03990 ; skirt
G1 X86.015 Y114.140 E0.04004 ; skirt
G1 X85.356 Y113.385 E0.03998 ; skirt
G1 X84.839 Y112.527 E0.03995 ; skirt
G1 X84.479 Y111.592 E0.04001 ; skirt
G1 X84.286 Y110.609 E0.03997 ; skirt
G1 X84.250 Y110.000 E0.02436 ; skirt
G1 X84.267 Y89.608 E0.81390 ; skirt
G1 X84.422 Y88.618 E0.03997 ; skirt
G1 X84.747 Y87.670 E0.04000 ; skirt
G1 X85.231 Y86.794 E0.03996 ; skirt
G1 X85.800 Y86.090 E0.03611 ; skirt
G1 F1800.000 E-4.00000 ; retract
G1 X88.876 Y89.989 F6000.000 ; move to first perimeter point
G1 E4.00000 F1800.000 ; compensate retraction
G1 X88.892 Y89.805 E0.00739 F900.000 ; perimeter
G1 X88.947 Y89.605 E0.00825 ; perimeter
G1 X89.026 Y89.438 E0.00739 ; perimeter
G1 X89.132 Y89.286 E0.00739 ; perimeter
G1 X89.269 Y89.146 E0.00782 ; perimeter
G1 X89.438 Y89.026 E0.00825 ; perimeter
G1 X89.615 Y88.943 E0.00783 ; perimeter
G1 X89.805 Y88.892 E0.00783 ; perimeter
G1 X90.005 Y88.875 E0.00804 ; perimeter
G1 X109.995 Y88.875 E0.79781 ; perimeter
G1 X110.195 Y88.892 E0.00804 ; perimeter
G1 X110.385 Y88.943 E0.00783 ; perimeter
G1 X110.562 Y89.026 E0.00783 ; perimeter
G1 X110.723 Y89.138 E0.00782 ; perimeter
G1 X110.868 Y89.286 E0.00825 ; perimeter
G1 X110.974 Y89.438 E0.00739 ; perimeter
G1 X111.053 Y89.605 E0.00739 ; perimeter
G1 X111.108 Y89.805 E0.00825 ; perimeter
G1 X111.125 Y90.005 E0.00804 ; perimeter
G1 X111.125 Y109.995 E0.79781 ; perimeter
G1 X111.108 Y110.195 E0.00804 ; perimeter
G1 X111.057 Y110.385 E0.00782 ; perimeter
G1 X110.974 Y110.562 E0.00783 ; perimeter
G1 X110.862 Y110.723 E0.00783 ; perimeter
G1 X110.714 Y110.868 E0.00825 ; perimeter
G1 X110.562 Y110.974 E0.00739 ; perimeter
G1 X110.395 Y111.053 E0.00739 ; perimeter
G1 X110.195 Y111.108 E0.00825 ; perimeter
G1 X109.995 Y111.125 E0.00804 ; perimeter
G1 X90.005 Y111.125 E0.79781 ; perimeter
G1 X89.805 Y111.108 E0.00804 ; perimeter
G1 X89.615 Y111.057 E0.00782 ; perimeter
G1 X89.438 Y110.974 E0.00783 ; perimeter
G1 X89.277 Y110.862 E0.00782 ; perimeter
G1 X89.132 Y110.714 E0.00825 ; perimeter
G1 X89.026 Y110.562 E0.00739 ; perimeter
G1 X88.947 Y110.395 E0.00739 ; perimeter
G1 X88.892 Y110.195 E0.00825 ; perimeter
G1 X88.875 Y109.995 E0.00804 ; perimeter
G1 X88.876 Y89.989 E0.79846 ; perimeter
G1 F1800.000 E-4.00000 ; retract
G1 Z0.480 F6000.000 ; move to next layer (1)
G1 X88.876 Y89.989 F6000.000 ; move to first perimeter point
G1 E4.00000 F1800.000 ; compensate retraction
G1 X88.892 Y89.805 E0.00739 F600.000 ; perimeter
G1 X88.947 Y89.605 E0.00825 ; perimeter
G1 X89.026 Y89.438 E0.00739 ; perimeter
G1 X89.132 Y89.286 E0.00739 ; perimeter
G1 X89.269 Y89.146 E0.00782 ; perimeter
G1 X89.438 Y89.026 E0.00826 ; perimeter
G1 X89.615 Y88.943 E0.00782 ; perimeter
G1 X89.805 Y88.892 E0.00783 ; perimeter
G1 X90.005 Y88.875 E0.00804 ; perimeter
G1 X109.995 Y88.875 E0.79781 ; perimeter
G1 X110.195 Y88.892 E0.00804 ; perimeter
G1 X110.385 Y88.943 E0.00783 ; perimeter
G1 X110.562 Y89.026 E0.00783 ; perimeter
G1 X110.723 Y89.138 E0.00783 ; perimeter
G1 X110.868 Y89.286 E0.00825 ; perimeter
G1 X110.974 Y89.438 E0.00739 ; perimeter
G1 X111.053 Y89.605 E0.00739 ; perimeter
G1 X111.108 Y89.805 E0.00825 ; perimeter
G1 X111.125 Y90.005 E0.00804 ; perimeter
G1 X111.125 Y109.995 E0.79781 ; perimeter
G1 X111.108 Y110.195 E0.00804 ; perimeter
G1 X111.057 Y110.385 E0.00783 ; perimeter
G1 X110.974 Y110.562 E0.00783 ; perimeter
G1 X110.862 Y110.723 E0.00782 ; perimeter
G1 X110.714 Y110.868 E0.00825 ; perimeter
G1 X110.562 Y110.974 E0.00739 ; perimeter
G1 X110.395 Y111.053 E0.00739 ; perimeter
G1 X110.195 Y111.108 E0.00825 ; perimeter
G1 X109.995 Y111.125 E0.00804 ; perimeter
G1 X90.005 Y111.125 E0.79781 ; perimeter
G1 X89.805 Y111.108 E0.00804 ; perimeter
G1 X89.615 Y111.057 E0.00782 ; perimeter
G1 X89.438 Y110.974 E0.00783 ; perimeter
G1 X89.277 Y110.862 E0.00782 ; perimeter
G1 X89.132 Y110.714 E0.00825 ; perimeter
G1 X89.026 Y110.562 E0.00739 ; perimeter
G1 X88.947 Y110.395 E0.00739 ; perimeter
G1 X88.892 Y110.195 E0.00825 ; perimeter
G1 X88.875 Y109.995 E0.00804 ; perimeter
G1 X88.876 Y89.989 E0.79846 ; perimeter
G1 F1800.000 E-4.00000 ; retract
G1 Z0.720 F6000.000 ; move to next layer (2)
G1 X88.875 Y89.998 F6000.000 ; move to first perimeter point
G1 E4.00000 F1800.000 ; compensate retraction
G1 X88.892 Y89.805 E0.00774 F600.000 ; perimeter
G1 X88.947 Y89.605 E0.00825 ; perimeter
G1 X89.026 Y89.438 E0.00739 ; perimeter
G1 X89.126 Y89.294 E0.00697 ; perimeter
G1 X89.269 Y89.146 E0.00823 ; perimeter
G1 X89.438 Y89.026 E0.00825 ; perimeter
G1 X89.615 Y88.943 E0.00783 ; perimeter
G1 X89.805 Y88.892 E0.00783 ; perimeter
G1 X90.005 Y88.875 E0.00804 ; perimeter
G1 X109.995 Y88.875 E0.79781 ; perimeter
G1 X110.195 Y88.892 E0.00804 ; perimeter
G1 X110.385 Y88.943 E0.00783 ; perimeter
G1 X110.562 Y89.026 E0.00783 ; perimeter
G1 X110.723 Y89.138 E0.00783 ; perimeter
G1 X110.868 Y89.286 E0.00825 ; perimeter
G1 X110.974 Y89.438 E0.00739 ; perimeter
G1 X111.053 Y89.605 E0.00739 ; perimeter
G1 X111.108 Y89.805 E0.00825 ; perimeter
G1 X111.125 Y90.005 E0.00804 ; perimeter
G1 X111.125 Y109.995 E0.79781 ; perimeter
G1 X111.108 Y110.195 E0.00804 ; perimeter
G1 X111.057 Y110.385 E0.00783 ; perimeter
G1 X110.974 Y110.562 E0.00782 ; perimeter
G1 X110.860 Y110.725 E0.00791 ; perimeter
G1 X110.714 Y110.868 E0.00817 ; perimeter
G1 X110.562 Y110.974 E0.00739 ; perimeter
G1 X110.395 Y111.053 E0.00739 ; perimeter
G1 X110.195 Y111.108 E0.00825 ; perimeter
G1 X109.995 Y111.125 E0.00804 ; perimeter
G1 X90.005 Y111.125 E0.79781 ; perimeter
G1 X89.805 Y111.108 E0.00804 ; perimeter
G1 X89.615 Y111.057 E0.00783 ; perimeter
G1 X89.438 Y110.974 E0.00782 ; perimeter
G1 X89.277 Y110.862 E0.00783 ; perimeter
G1 X89.132 Y110.714 E0.00825 ; perimeter
G1 X89.026 Y110.562 E0.00739 ; perimeter
G1 X88.947 Y110.395 E0.00739 ; perimeter
G1 X88.892 Y110.195 E0.00825 ; perimeter
G1 X88.875 Y109.995 E0.00804 ; perimeter
G1 X88.875 Y89.998 E0.79811 ; perimeter
M106 S255 ; enable fan
G1 F1800.000 E-4.00000 ; retract
G1 Z0.960 F6000.000 ; move to next layer (3)
G1 X88.876 Y89.993 F6000.000 ; move to first perimeter point
G1 E4.00000 F1800.000 ; compensate retraction
G1 X88.892 Y89.805 E0.00753 F600.000 ; perimeter
G1 X88.947 Y89.605 E0.00825 ; perimeter
G1 X89.026 Y89.438 E0.00739 ; perimeter
G1 X89.132 Y89.286 E0.00739 ; perimeter
G1 X89.269 Y89.146 E0.00782 ; perimeter
G1 X89.438 Y89.026 E0.00825 ; perimeter
G1 X89.615 Y88.943 E0.00783 ; perimeter
G1 X89.805 Y88.892 E0.00783 ; perimeter
G1 X90.005 Y88.875 E0.00804 ; perimeter
G1 X109.995 Y88.875 E0.79781 ; perimeter
G1 X110.195 Y88.892 E0.00804 ; perimeter
G1 X110.385 Y88.943 E0.00783 ; perimeter
G1 X110.562 Y89.026 E0.00783 ; perimeter
G1 X110.723 Y89.138 E0.00783 ; perimeter
G1 X110.868 Y89.286 E0.00825 ; perimeter
G1 X110.974 Y89.438 E0.00739 ; perimeter
G1 X111.053 Y89.605 E0.00739 ; perimeter
G1 X111.108 Y89.805 E0.00825 ; perimeter
G1 X111.125 Y90.005 E0.00804 ; perimeter
G1 X111.125 Y109.995 E0.79781 ; perimeter
G1 X111.108 Y110.195 E0.00804 ; perimeter
G1 X111.057 Y110.385 E0.00783 ; perimeter
G1 X110.974 Y110.562 E0.00782 ; perimeter
G1 X110.862 Y110.723 E0.00783 ; perimeter
G1 X110.714 Y110.868 E0.00825 ; perimeter
G1 X110.562 Y110.974 E0.00739 ; perimeter
G1 X110.395 Y111.053 E0.00739 ; perimeter
G1 X110.195 Y111.108 E0.00825 ; perimeter
G1 X109.995 Y111.125 E0.00804 ; perimeter
G1 X90.005 Y111.125 E0.79781 ; perimeter
G1 X89.805 Y111.108 E0.00804 ; perimeter
G1 X89.615 Y111.057 E0.00783 ; perimeter
G1 X89.438 Y110.974 E0.00783 ; perimeter
G1 X89.277 Y110.862 E0.00783 ; perimeter
G1 X89.132 Y110.714 E0.00825 ; perimeter
G1 X89.026 Y110.562 E0.00739 ; perimeter
G1 X88.947 Y110.395 E0.00739 ; perimeter
G1 X88.892 Y110.195 E0.00825 ; perimeter
G1 X88.875 Y109.995 E0.00804 ; perimeter
G1 X88.876 Y89.993 E0.79832 ; perimeter
G1 F1800.000 E-4.00000 ; retract
G1 Z1.200 F6000.000 ; move to next layer (4)
G1 X88.876 Y89.989 F6000.000 ; move to first perimeter point
G1 E4.00000 F1800.000 ; compensate retraction
G1 X88.892 Y89.805 E0.00739 F600.000 ; perimeter
G1 X88.948 Y89.604 E0.00832 ; perimeter
G1 X89.026 Y89.438 E0.00732 ; perimeter
G1 X89.132 Y89.286 E0.00739 ; perimeter
G1 X89.269 Y89.146 E0.00782 ; perimeter
G1 X89.438 Y89.026 E0.00826 ; perimeter
G1 X89.615 Y88.943 E0.00783 ; perimeter
G1 X89.805 Y88.892 E0.00783 ; perimeter
G1 X90.005 Y88.875 E0.00804 ; perimeter
G1 X109.995 Y88.875 E0.79781 ; perimeter
G1 X110.195 Y88.892 E0.00804 ; perimeter
G1 X110.385 Y88.943 E0.00783 ; perimeter
G1 X110.562 Y89.026 E0.00783 ; perimeter
G1 X110.723 Y89.138 E0.00783 ; perimeter
G1 X110.868 Y89.286 E0.00825 ; perimeter
G1 X110.974 Y89.438 E0.00739 ; perimeter
G1 X111.053 Y89.605 E0.00739 ; perimeter
G1 X111.108 Y89.805 E0.00825 ; perimeter
G1 X111.125 Y90.005 E0.00804 ; perimeter
G1 X111.125 Y109.995 E0.79781 ; perimeter
G1 X111.108 Y110.195 E0.00804 ; perimeter
G1 X111.057 Y110.385 E0.00783 ; perimeter
G1 X110.974 Y110.562 E0.00783 ; perimeter
G1 X110.862 Y110.723 E0.00783 ; perimeter
G1 X110.714 Y110.868 E0.00825 ; perimeter
G1 X110.562 Y110.974 E0.00739 ; perimeter
G1 X110.395 Y111.053 E0.00739 ; perimeter
G1 X110.195 Y111.108 E0.00825 ; perimeter
G1 X109.995 Y111.125 E0.00804 ; perimeter
G1 X90.005 Y111.125 E0.79781 ; perimeter
G1 X89.805 Y111.108 E0.00804 ; perimeter
G1 X89.615 Y111.057 E0.00782 ; perimeter
G1 X89.438 Y110.974 E0.00783 ; perimeter
G1 X89.277 Y110.862 E0.00782 ; perimeter
G1 X89.132 Y110.714 E0.00825 ; perimeter
G1 X89.026 Y110.562 E0.00739 ; perimeter
G1 X88.947 Y110.395 E0.00739 ; perimeter
G1 X88.892 Y110.195 E0.00825 ; perimeter
G1 X88.875 Y109.995 E0.00804 ; perimeter
G1 X88.876 Y89.989 E0.79846 ; perimeter
G1 F1800.000 E-4.00000 ; retract
G1 Z1.440 F6000.000 ; move to next layer (5)
G1 X88.876 Y89.989 F6000.000 ; move to first perimeter point
G1 E4.00000 F1800.000 ; compensate retraction
G1 X88.892 Y89.805 E0.00739 F600.000 ; perimeter
G1 X88.947 Y89.605 E0.00825 ; perimeter
G1 X89.026 Y89.438 E0.00739 ; perimeter
G1 X89.132 Y89.286 E0.00739 ; perimeter
G1 X89.269 Y89.146 E0.00782 ; perimeter
G1 X89.438 Y89.026 E0.00825 ; perimeter
G1 X89.615 Y88.943 E0.00783 ; perimeter
G1 X89.805 Y88.892 E0.00783 ; perimeter
G1 X90.005 Y88.875 E0.00804 ; perimeter
G1 X109.995 Y88.875 E0.79781 ; perimeter
G1 X110.195 Y88.892 E0.00804 ; perimeter
G1 X110.385 Y88.943 E0.00783 ; perimeter
G1 X110.562 Y89.026 E0.00783 ; perimeter
G1 X110.723 Y89.138 E0.00783 ; perimeter
G1 X110.868 Y89.286 E0.00825 ; perimeter
G1 X110.974 Y89.438 E0.00739 ; perimeter
G1 X111.053 Y89.605 E0.00739 ; perimeter
G1 X111.108 Y89.805 E0.00825 ; perimeter
G1 X111.125 Y90.005 E0.00804 ; perimeter
G1 X111.125 Y109.995 E0.79781 ; perimeter
G1 X111.108 Y110.195 E0.00804 ; perimeter
G1 X111.057 Y110.385 E0.00783 ; perimeter
G1 X110.974 Y110.562 E0.00783 ; perimeter
G1 X110.862 Y110.723 E0.00782 ; perimeter
G1 X110.714 Y110.868 E0.00825 ; perimeter
G1 X110.562 Y110.974 E0.00739 ; perimeter
G1 X110.395 Y111.053 E0.00739 ; perimeter
G1 X110.195 Y111.108 E0.00825 ; perimeter
G1 X109.995 Y111.125 E0.00804 ; perimeter
G1 X90.005 Y111.125 E0.79781 ; perimeter
G1 X89.805 Y111.108 E0.00804 ; perimeter
G1 X89.615 Y111.057 E0.00783 ; perimeter
G1 X89.438 Y110.974 E0.00783 ; perimeter
G1 X89.277 Y110.862 E0.00782 ; perimeter
G1 X89.132 Y110.714 E0.00825 ; perimeter
G1 X89.026 Y110.562 E0.00739 ; perimeter
G1 X88.947 Y110.395 E0.00739 ; perimeter
G1 X88.892 Y110.195 E0.00825 ; perimeter
G1 X88.875 Y109.995 E0.00804 ; perimeter
G1 X88.876 Y89.989 E0.79846 ; perimeter
G1 F1800.000 E-4.00000 ; retract
G1 Z1.680 F6000.000 ; move to next layer (6)
G1 X88.875 Y109.949 F6000.000 ; move to first perimeter point
G1 E4.00000 F1800.000 ; compensate retraction
G1 X88.875 Y90.005 E0.79597 F600.000 ; perimeter
G1 X88.892 Y89.805 E0.00804 ; perimeter
G1 X88.947 Y89.605 E0.00825 ; perimeter
G1 X89.026 Y89.438 E0.00739 ; perimeter
G1 X89.132 Y89.286 E0.00739 ; perimeter
G1 X89.277 Y89.138 E0.00825 ; perimeter
G1 X89.438 Y89.026 E0.00782 ; perimeter
G1 X89.615 Y88.943 E0.00783 ; perimeter
G1 X89.805 Y88.892 E0.00783 ; perimeter
G1 X90.005 Y88.875 E0.00804 ; perimeter
G1 X109.995 Y88.875 E0.79781 ; perimeter
G1 X110.195 Y88.892 E0.00804 ; perimeter
G1 X110.395 Y88.947 E0.00825 ; perimeter
G1 X110.562 Y89.026 E0.00739 ; perimeter
G1 X110.714 Y89.132 E0.00739 ; perimeter
G1 X110.862 Y89.277 E0.00825 ; perimeter
G1 X110.974 Y89.438 E0.00782 ; perimeter
G1 X111.057 Y89.615 E0.00783 ; perimeter
G1 X111.108 Y89.805 E0.00783 ; perimeter
G1 X111.125 Y90.005 E0.00804 ; perimeter
G1 X111.125 Y109.995 E0.79781 ; perimeter
G1 X111.108 Y110.195 E0.00804 ; perimeter
G1 X111.053 Y110.395 E0.00825 ; perimeter
G1 X110.974 Y110.562 E0.00739 ; perimeter
G1 X110.868 Y110.714 E0.00739 ; perimeter
G1 X110.723 Y110.862 E0.00825 ; perimeter
G1 X110.562 Y110.974 E0.00782 ; perimeter
