; generated by Slic3r 1.1.6 on 2014-12-14 at 20:27:39

; perimeters extrusion width = 0.50mm
; infill extrusion width = 0.50mm
; solid infill extrusion width = 0.50mm
; top infill extrusion width = 0.50mm

G21 ; set units to millimeters
M107 ; disable fan
M190 S57 ; wait for bed temperature to be reached
M104 S200 ; set temperature

M109 S200 ; wait for temperature to be reached
G90 ; use absolute coordinates
M83 ; use relative distances for extrusion
G1 F1800.000 E-2.40000 ; retract
G1 Z0.240 F6000.000 ; move to next layer (0)
G1 X85.155 Y85.310 F6000.000 ; move to first skirt point
G1 E2.40000 F1800.000 ; compensate retraction
G1 X86.044 Y84.539 E0.08780 F600.000 ; skirt
G1 X87.054 Y83.935 E0.08795 ; skirt
G1 X88.153 Y83.515 E0.08783 ; skirt
G1 X89.304 Y83.293 E0.08756 ; skirt
G1 X90.000 Y83.253 E0.05208 ; skirt
G1 X110.470 Y83.273 E1.52884 ; skirt
G1 X111.640 Y83.459 E0.08841 ; skirt
G1 X112.751 Y83.844 E0.08783 ; skirt
G1 X113.771 Y84.410 E0.08713 ; skirt
G1 X114.690 Y85.155 E0.08842 ; skirt
G1 X115.460 Y86.044 E0.08779 ; skirt
G1 X116.065 Y87.054 E0.08795 ; skirt
G1 X116.485 Y88.153 E0.08783 ; skirt
G1 X116.707 Y89.304 E0.08756 ; skirt
G1 X116.747 Y90.000 E0.05208 ; skirt
G1 X116.727 Y110.468 E1.52868 ; skirt
G1 X116.541 Y111.639 E0.08857 ; skirt
G1 X116.156 Y112.751 E0.08783 ; skirt
G1 X115.591 Y113.770 E0.08700 ; skirt
G1 X114.845 Y114.690 E0.08855 ; skirt
G1 X113.956 Y115.460 E0.08779 ; skirt
G1 X112.948 Y116.064 E0.08776 ; skirt
G1 X111.847 Y116.485 E0.08803 ; skirt
G1 X110.696 Y116.707 E0.08756 ; skirt
G1 X110.000 Y116.747 E0.05208 ; skirt
G1 X89.532 Y116.727 E1.52868 ; skirt
G1 X88.361 Y116.541 E0.08857 ; skirt
G1 X87.249 Y116.156 E0.08783 ; skirt
G1 X86.229 Y115.591 E0.08709 ; skirt
G1 X85.310 Y114.845 E0.08846 ; skirt
G1 X84.540 Y113.956 E0.08779 ; skirt
G1 X83.936 Y112.948 E0.08775 ; skirt
G1 X83.515 Y111.847 E0.08803 ; skirt
G1 X83.293 Y110.696 E0.08756 ; skirt
G1 X83.253 Y110.000 E0.05208 ; skirt
G1 X83.273 Y89.529 E1.52885 ; skirt
G1 X83.459 Y88.360 E0.08840 ; skirt
G1 X83.844 Y87.249 E0.08783 ; skirt
G1 X84.410 Y86.228 E0.08722 ; skirt
G1 X85.108 Y85.368 E0.08273 ; skirt
G1 X85.685 Y85.839 F6000.000 ; move to first skirt point
G1 X86.473 Y85.153 E0.07805 F600.000 ; skirt
G1 X87.370 Y84.613 E0.07821 ; skirt
G1 X88.346 Y84.238 E0.07808 ; skirt
G1 X89.369 Y84.039 E0.07782 ; skirt
G1 X90.000 Y84.002 E0.04720 ; skirt
G1 X110.406 Y84.019 E1.52405 ; skirt
G1 X111.446 Y84.182 E0.07859 ; skirt
G1 X112.435 Y84.522 E0.07808 ; skirt
G1 X113.343 Y85.024 E0.07748 ; skirt
G1 X114.161 Y85.685 E0.07859 ; skirt
G1 X114.847 Y86.473 E0.07805 ; skirt
G1 X115.387 Y87.370 E0.07821 ; skirt
G1 X115.762 Y88.346 E0.07808 ; skirt
G1 X115.961 Y89.369 E0.07782 ; skirt
G1 X115.998 Y90.000 E0.04720 ; skirt
G1 X115.981 Y110.405 E1.52392 ; skirt
G1 X115.818 Y111.446 E0.07872 ; skirt
G1 X115.478 Y112.435 E0.07808 ; skirt
G1 X114.977 Y113.341 E0.07736 ; skirt
G1 X114.315 Y114.161 E0.07870 ; skirt
G1 X113.527 Y114.847 E0.07805 ; skirt
G1 X112.632 Y115.386 E0.07802 ; skirt
G1 X111.654 Y115.762 E0.07828 ; skirt
G1 X110.631 Y115.961 E0.07782 ; skirt
G1 X110.000 Y115.998 E0.04720 ; skirt
G1 X89.595 Y115.981 E1.52392 ; skirt
G1 X88.554 Y115.818 E0.07872 ; skirt
G1 X87.565 Y115.478 E0.07808 ; skirt
G1 X86.658 Y114.977 E0.07744 ; skirt
G1 X85.839 Y114.315 E0.07862 ; skirt
G1 X85.153 Y113.527 E0.07805 ; skirt
G1 X84.614 Y112.632 E0.07802 ; skirt
G1 X84.238 Y111.654 E0.07828 ; skirt
G1 X84.039 Y110.631 E0.07782 ; skirt
G1 X84.002 Y110.000 E0.04721 ; skirt
G1 X84.019 Y89.593 E1.52406 ; skirt
G1 X84.182 Y88.554 E0.07857 ; skirt
G1 X84.522 Y87.565 E0.07808 ; skirt
G1 X85.024 Y86.657 E0.07755 ; skirt
G1 X85.638 Y85.897 E0.07291 ; skirt
G1 F1800.000 E-2.40000 ; retract
G1 X88.796 Y89.684 F6000.000 ; move to first perimeter point
G1 E2.40000 F1800.000 ; compensate retraction
G1 X89.036 Y89.747 E0.01860 F900.000 ; perimeter
G1 F1800.000 E-2.40000 ; retract
G1 X110.967 Y89.758 F6000.000 ; move to first perimeter point
G1 E2.40000 F1800.000 ; compensate retraction
G1 X111.208 Y89.698 E0.01860 F900.000 ; perimeter
G1 F1800.000 E-2.40000 ; retract
G1 X89.000 Y110.000 F6000.000 ; move to first perimeter point
G1 E2.40000 F1800.000 ; compensate retraction
G1 X88.750 Y110.000 E0.01867 F900.000 ; perimeter
G1 F1800.000 E-2.40000 ; retract
G1 X111.202 Y110.324 F6000.000 ; move to first perimeter point
G1 E2.40000 F1800.000 ; compensate retraction
G1 X110.962 Y110.259 E0.01860 F900.000 ; perimeter
G1 F1800.000 E-2.40000 ; retract
G1 X88.876 Y89.989 F6000.000 ; move to first perimeter point
G1 E2.40000 F1800.000 ; compensate retraction
G1 X88.892 Y89.805 E0.01383 F900.000 ; perimeter
G1 X88.947 Y89.605 E0.01545 ; perimeter
G1 X89.026 Y89.438 E0.01383 ; perimeter
G1 X89.132 Y89.286 E0.01383 ; perimeter
G1 X89.269 Y89.146 E0.01463 ; perimeter
G1 X89.438 Y89.026 E0.01545 ; perimeter
G1 X89.615 Y88.943 E0.01464 ; perimeter
G1 X89.805 Y88.892 E0.01464 ; perimeter
G1 X90.005 Y88.875 E0.01505 ; perimeter
G1 X109.995 Y88.875 E1.49289 ; perimeter
G1 X110.195 Y88.892 E0.01505 ; perimeter
G1 X110.385 Y88.943 E0.01464 ; perimeter
G1 X110.562 Y89.026 E0.01464 ; perimeter
G1 X110.723 Y89.138 E0.01464 ; perimeter
G1 X110.868 Y89.286 E0.01545 ; perimeter
G1 X110.974 Y89.438 E0.01383 ; perimeter
G1 X111.053 Y89.605 E0.01383 ; perimeter
G1 X111.108 Y89.805 E0.01545 ; perimeter
G1 X111.125 Y90.005 E0.01505 ; perimeter
G1 X111.125 Y109.995 E1.49289 ; perimeter
G1 X111.108 Y110.195 E0.01504 ; perimeter
G1 X111.057 Y110.385 E0.01464 ; perimeter
G1 X110.974 Y110.562 E0.01464 ; perimeter
G1 X110.862 Y110.723 E0.01464 ; perimeter
G1 X110.714 Y110.868 E0.01545 ; perimeter
G1 X110.562 Y110.974 E0.01383 ; perimeter
G1 X110.395 Y111.053 E0.01383 ; perimeter
G1 X110.195 Y111.108 E0.01545 ; perimeter
G1 X109.995 Y111.125 E0.01505 ; perimeter
G1 X90.005 Y111.125 E1.49289 ; perimeter
G1 X89.805 Y111.108 E0.01504 ; perimeter
G1 X89.615 Y111.057 E0.01464 ; perimeter
G1 X89.438 Y110.974 E0.01464 ; perimeter
G1 X89.277 Y110.862 E0.01464 ; perimeter
G1 X89.132 Y110.714 E0.01545 ; perimeter
G1 X89.026 Y110.562 E0.01383 ; perimeter
G1 X88.947 Y110.395 E0.01383 ; perimeter
G1 X88.892 Y110.195 E0.01545 ; perimeter
G1 X88.875 Y109.995 E0.01505 ; perimeter
G1 X88.876 Y89.989 E1.49411 ; perimeter
M104 S190 ; set temperature
G1 F1800.000 E-2.40000 ; retract
G1 Z0.480 F6000.000 ; move to next layer (1)
G1 X90.000 Y89.000 F6000.000 ; move to first perimeter point
G1 E2.40000 F1800.000 ; compensate retraction
G1 X89.989 Y88.751 E0.01244 F600.000 ; perimeter
G1 F1800.000 E-2.40000 ; retract
G1 X111.000 Y90.000 F6000.000 ; move to first perimeter point
G1 E2.40000 F1800.000 ; compensate retraction
G1 X111.249 Y89.989 E0.01244 F600.000 ; perimeter
G1 F1800.000 E-2.40000 ; retract
G1 X110.958 Y110.803 F6000.000 ; move to first perimeter point
G1 E2.40000 F1800.000 ; compensate retraction
G1 X110.766 Y110.643 E0.01247 F600.000 ; perimeter
G1 F1800.000 E-2.40000 ; retract
G1 X89.197 Y110.958 F6000.000 ; move to first perimeter point
G1 E2.40000 F1800.000 ; compensate retraction
G1 X89.357 Y110.766 E0.01247 F600.000 ; perimeter
G1 F1800.000 E-2.40000 ; retract
G1 X88.876 Y89.989 F6000.000 ; move to first perimeter point
G1 E2.40000 F1800.000 ; compensate retraction
G1 X88.892 Y89.805 E0.00924 F600.000 ; perimeter
G1 X88.947 Y89.605 E0.01032 ; perimeter
G1 X89.026 Y89.438 E0.00924 ; perimeter
G1 X89.132 Y89.286 E0.00924 ; perimeter
G1 X89.269 Y89.146 E0.00978 ; perimeter
G1 X89.438 Y89.026 E0.01032 ; perimeter
G1 X89.615 Y88.943 E0.00978 ; perimeter
G1 X89.805 Y88.892 E0.00978 ; perimeter
G1 X90.005 Y88.875 E0.01005 ; perimeter
G1 X109.995 Y88.875 E0.99726 ; perimeter
G1 X110.195 Y88.892 E0.01005 ; perimeter
G1 X110.385 Y88.943 E0.00978 ; perimeter
G1 X110.562 Y89.026 E0.00978 ; perimeter
G1 X110.723 Y89.138 E0.00978 ; perimeter
G1 X110.868 Y89.286 E0.01032 ; perimeter
G1 X110.974 Y89.438 E0.00924 ; perimeter
G1 X111.053 Y89.605 E0.00924 ; perimeter
G1 X111.108 Y89.805 E0.01031 ; perimeter
G1 X111.125 Y90.005 E0.01005 ; perimeter
G1 X111.125 Y109.995 E0.99726 ; perimeter
G1 X111.108 Y110.195 E0.01005 ; perimeter
G1 X111.057 Y110.385 E0.00978 ; perimeter
G1 X110.974 Y110.562 E0.00978 ; perimeter
G1 X110.862 Y110.723 E0.00978 ; perimeter
G1 X110.714 Y110.868 E0.01032 ; perimeter
G1 X110.562 Y110.974 E0.00924 ; perimeter
G1 X110.395 Y111.053 E0.00924 ; perimeter
G1 X110.195 Y111.108 E0.01031 ; perimeter
G1 X109.995 Y111.125 E0.01005 ; perimeter
G1 X90.005 Y111.125 E0.99726 ; perimeter
G1 X89.805 Y111.108 E0.01005 ; perimeter
G1 X89.615 Y111.057 E0.00978 ; perimeter
G1 X89.438 Y110.974 E0.00978 ; perimeter
G1 X89.277 Y110.862 E0.00978 ; perimeter
G1 X89.132 Y110.714 E0.01032 ; perimeter
G1 X89.026 Y110.562 E0.00924 ; perimeter
G1 X88.947 Y110.395 E0.00924 ; perimeter
G1 X88.892 Y110.195 E0.01031 ; perimeter
G1 X88.875 Y109.995 E0.01006 ; perimeter
G1 X88.876 Y89.989 E0.99807 ; perimeter
G1 F1800.000 E-2.40000 ; retract
G1 Z0.720 F6000.000 ; move to next layer (2)
G1 X89.754 Y89.035 F6000.000 ; move to first perimeter point
G1 E2.40000 F1800.000 ; compensate retraction
G1 X89.753 Y89.031 E0.00019 F600.000 ; perimeter
G1 F1800.000 E-2.40000 ; retract
G1 X110.963 Y89.743 F6000.000 ; move to first perimeter point
G1 E2.40000 F1800.000 ; compensate retraction
G1 X110.966 Y89.742 E0.00019 F600.000 ; perimeter
G1 F1800.000 E-2.40000 ; retract
G1 X89.037 Y110.257 F6000.000 ; move to first perimeter point
G1 E2.40000 F1800.000 ; compensate retraction
G1 X89.034 Y110.258 E0.00019 F600.000 ; perimeter
G1 F1800.000 E-2.40000 ; retract
G1 X110.258 Y110.966 F6000.000 ; move to first perimeter point
G1 E2.40000 F1800.000 ; compensate retraction
G1 X110.257 Y110.963 E0.00019 F600.000 ; perimeter
G1 F1800.000 E-2.40000 ; retract
G1 X88.875 Y89.998 F6000.000 ; move to first perimeter point
G1 E2.40000 F1800.000 ; compensate retraction
G1 X88.892 Y89.805 E0.00967 F600.000 ; perimeter
G1 X88.947 Y89.605 E0.01032 ; perimeter
G1 X89.026 Y89.438 E0.00924 ; perimeter
G1 X89.126 Y89.294 E0.00872 ; perimeter
G1 X89.269 Y89.146 E0.01029 ; perimeter
G1 X89.438 Y89.026 E0.01032 ; perimeter
G1 X89.615 Y88.943 E0.00978 ; perimeter
G1 X89.805 Y88.892 E0.00978 ; perimeter
G1 X90.005 Y88.875 E0.01005 ; perimeter
G1 X109.995 Y88.875 E0.99726 ; perimeter
G1 X110.195 Y88.892 E0.01005 ; perimeter
G1 X110.385 Y88.943 E0.00978 ; perimeter
G1 X110.562 Y89.026 E0.00978 ; perimeter
G1 X110.723 Y89.138 E0.00978 ; perimeter
G1 X110.868 Y89.286 E0.01032 ; perimeter
G1 X110.974 Y89.438 E0.00924 ; perimeter
G1 X111.053 Y89.605 E0.00924 ; perimeter
G1 X111.108 Y89.805 E0.01031 ; perimeter
G1 X111.125 Y90.005 E0.01005 ; perimeter
G1 X111.125 Y109.995 E0.99726 ; perimeter
G1 X111.108 Y110.195 E0.01005 ; perimeter
G1 X111.057 Y110.385 E0.00978 ; perimeter
G1 X110.974 Y110.562 E0.00978 ; perimeter
G1 X110.862 Y110.723 E0.00978 ; perimeter
G1 X110.714 Y110.868 E0.01032 ; perimeter
G1 X110.562 Y110.974 E0.00924 ; perimeter
G1 X110.395 Y111.053 E0.00924 ; perimeter
G1 X110.195 Y111.108 E0.01031 ; perimeter
G1 X109.995 Y111.125 E0.01005 ; perimeter
G1 X90.005 Y111.125 E0.99726 ; perimeter
G1 X89.805 Y111.108 E0.01005 ; perimeter
G1 X89.615 Y111.057 E0.00978 ; perimeter
G1 X89.438 Y110.974 E0.00978 ; perimeter
G1 X89.277 Y110.862 E0.00978 ; perimeter
G1 X89.132 Y110.714 E0.01032 ; perimeter
G1 X89.026 Y110.562 E0.00924 ; perimeter
G1 X88.947 Y110.395 E0.00924 ; perimeter
G1 X88.892 Y110.195 E0.01031 ; perimeter
G1 X88.875 Y109.995 E0.01005 ; perimeter
G1 X88.875 Y89.998 E0.99764 ; perimeter
M106 S255 ; enable fan
G1 F1800.000 E-2.40000 ; retract
G1 Z0.960 F6000.000 ; move to next layer (3)
G1 X90.000 Y89.000 F6000.000 ; move to first perimeter point
G1 E2.40000 F1800.000 ; compensate retraction
G1 X89.989 Y88.751 E0.01244 F600.000 ; perimeter
G1 F1800.000 E-2.40000 ; retract
G1 X111.000 Y90.000 F6000.000 ; move to first perimeter point
G1 E2.40000 F1800.000 ; compensate retraction
G1 X111.249 Y89.989 E0.01244 F600.000 ; perimeter
G1 F1800.000 E-2.40000 ; retract
G1 X111.231 Y110.217 F6000.000 ; move to first perimeter point
G1 E2.40000 F1800.000 ; compensate retraction
G1 X110.985 Y110.174 E0.01247 F600.000 ; perimeter
G1 F1800.000 E-2.40000 ; retract
G1 X88.876 Y89.993 F6000.000 ; move to first perimeter point
G1 E2.40000 F1800.000 ; compensate retraction
G1 X88.892 Y89.805 E0.00941 F600.000 ; perimeter
G1 X88.947 Y89.605 E0.01032 ; perimeter
G1 X89.026 Y89.438 E0.00924 ; perimeter
G1 X89.124 Y89.298 E0.00851 ; perimeter
G1 X89.269 Y89.146 E0.01050 ; perimeter
G1 X89.438 Y89.026 E0.01032 ; perimeter
G1 X89.615 Y88.943 E0.00978 ; perimeter
G1 X89.805 Y88.892 E0.00978 ; perimeter
G1 X90.005 Y88.875 E0.01005 ; perimeter
G1 X109.995 Y88.875 E0.99726 ; perimeter
G1 X110.195 Y88.892 E0.01005 ; perimeter
G1 X110.385 Y88.943 E0.00978 ; perimeter
G1 X110.562 Y89.026 E0.00978 ; perimeter
G1 X110.723 Y89.138 E0.00978 ; perimeter
G1 X110.868 Y89.286 E0.01032 ; perimeter
G1 X110.974 Y89.438 E0.00924 ; perimeter
G1 X111.053 Y89.605 E0.00924 ; perimeter
G1 X111.108 Y89.805 E0.01032 ; perimeter
G1 X111.125 Y90.005 E0.01005 ; perimeter
G1 X111.125 Y109.995 E0.99726 ; perimeter
G1 X111.108 Y110.195 E0.01005 ; perimeter
G1 X111.057 Y110.385 E0.00978 ; perimeter
G1 X110.974 Y110.562 E0.00978 ; perimeter
G1 X110.862 Y110.723 E0.00978 ; perimeter
G1 X110.714 Y110.868 E0.01032 ; perimeter
G1 X110.562 Y110.974 E0.00924 ; perimeter
G1 X110.395 Y111.053 E0.00924 ; perimeter
G1 X110.195 Y111.108 E0.01032 ; perimeter
G1 X109.995 Y111.125 E0.01005 ; perimeter
G1 X90.005 Y111.125 E0.99726 ; perimeter
G1 X89.805 Y111.108 E0.01005 ; perimeter
G1 X89.615 Y111.057 E0.00978 ; perimeter
G1 X89.438 Y110.974 E0.00978 ; perimeter
G1 X89.277 Y110.862 E0.00978 ; perimeter
G1 X89.132 Y110.714 E0.01032 ; perimeter
G1 X89.026 Y110.562 E0.00924 ; perimeter
G1 X88.947 Y110.395 E0.00924 ; perimeter
G1 X88.892 Y110.195 E0.01032 ; perimeter
G1 X88.875 Y109.995 E0.01005 ; perimeter
G1 X88.876 Y89.993 E0.99790 ; perimeter
G1 F1800.000 E-2.40000 ; retract
G1 X89.783 Y111.231 F6000.000 ; move to first perimeter point
G1 E2.40000 F1800.000 ; compensate retraction
G1 X89.826 Y110.985 E0.01247 F600.000 ; perimeter
G1 F1800.000 E-2.40000 ; retract
G1 Z1.200 F6000.000 ; move to next layer (4)
G1 X89.826 Y89.015 F6000.000 ; move to first perimeter point
G1 E2.40000 F1800.000 ; compensate retraction
G1 X89.783 Y88.769 E0.01247 F600.000 ; perimeter
G1 F1800.000 E-2.40000 ; retract
G1 X110.985 Y89.826 F6000.000 ; move to first perimeter point
G1 E2.40000 F1800.000 ; compensate retraction
G1 X111.231 Y89.783 E0.01247 F600.000 ; perimeter
G1 F1800.000 E-2.40000 ; retract
G1 X111.231 Y110.217 F6000.000 ; move to first perimeter point
G1 E2.40000 F1800.000 ; compensate retraction
G1 X110.985 Y110.174 E0.01247 F600.000 ; perimeter
G1 F1800.000 E-2.40000 ; retract
G1 X88.876 Y89.989 F6000.000 ; move to first perimeter point
G1 E2.40000 F1800.000 ; compensate retraction
G1 X88.892 Y89.805 E0.00924 F600.000 ; perimeter
G1 X88.947 Y89.605 E0.01032 ; perimeter
G1 X89.026 Y89.438 E0.00924 ; perimeter
G1 X89.132 Y89.286 E0.00924 ; perimeter
G1 X89.269 Y89.146 E0.00978 ; perimeter
G1 X89.438 Y89.026 E0.01032 ; perimeter
G1 X89.615 Y88.943 E0.00978 ; perimeter
G1 X89.805 Y88.892 E0.00978 ; perimeter
G1 X90.005 Y88.875 E0.01005 ; perimeter
G1 X109.995 Y88.875 E0.99726 ; perimeter
G1 X110.195 Y88.892 E0.01005 ; perimeter
G1 X110.385 Y88.943 E0.00978 ; perimeter
G1 X110.562 Y89.026 E0.00978 ; perimeter
G1 X110.723 Y89.138 E0.00978 ; perimeter
G1 X110.868 Y89.286 E0.01032 ; perimeter
G1 X110.974 Y89.438 E0.00924 ; perimeter
G1 X111.053 Y89.605 E0.00924 ; perimeter
G1 X111.108 Y89.805 E0.01032 ; perimeter
G1 X111.125 Y90.005 E0.01005 ; perimeter
G1 X111.125 Y109.995 E0.99726 ; perimeter
G1 X111.108 Y110.195 E0.01005 ; perimeter
G1 X111.057 Y110.385 E0.00978 ; perimeter
G1 X110.974 Y110.562 E0.00978 ; perimeter
G1 X110.862 Y110.723 E0.00978 ; perimeter
G1 X110.714 Y110.868 E0.01032 ; perimeter
G1 X110.562 Y110.974 E0.00924 ; perimeter
G1 X110.395 Y111.053 E0.00924 ; perimeter
G1 X110.195 Y111.108 E0.01032 ; perimeter
