; generated by Slic3r 1.1.6 on 2015-05-10 at 17:44:03

; perimeters extrusion width = 0.50mm
; infill extrusion width = 0.50mm
; solid infill extrusion width = 0.50mm
; top infill extrusion width = 0.50mm

G21 ; set units to millimeters
M107 ; disable fan
M190 S57 ; wait for bed temperature to be reached
M104 S185 ; set temperature

M109 S185 ; wait for temperature to be reached
G90 ; use absolute coordinates
M83 ; use relative distances for extrusion
G1 F1800.000 E-4.00000 ; retract
G1 Z0.240 F6000.000 ; move to next layer (0)
G1 X79.236 Y90.947 F6000.000 ; move to first skirt point
G1 E4.00000 F1800.000 ; compensate retraction
G1 X80.807 Y89.885 E0.07568 F600.000 ; skirt
G1 X93.215 Y84.582 E0.53856 ; skirt
G1 X95.180 Y84.180 E0.08005 ; skirt
G1 X104.820 Y84.180 E0.38475 ; skirt
G1 X106.785 Y84.582 E0.08005 ; skirt
G1 X119.193 Y89.885 E0.53856 ; skirt
G1 X120.764 Y90.947 E0.07568 ; skirt
G1 X123.356 Y93.539 E0.14630 ; skirt
G1 X124.455 Y95.198 E0.07942 ; skirt
G1 X124.820 Y97.075 E0.07630 ; skirt
G1 X124.820 Y110.820 E0.54861 ; skirt
G1 X124.424 Y112.770 E0.07942 ; skirt
G1 X123.299 Y114.411 E0.07942 ; skirt
G1 X121.622 Y115.484 E0.07942 ; skirt
G1 X119.820 Y115.820 E0.07318 ; skirt
G1 X80.180 Y115.820 E1.58212 ; skirt
G1 X78.230 Y115.424 E0.07942 ; skirt
G1 X76.589 Y114.299 E0.07942 ; skirt
G1 X75.516 Y112.622 E0.07942 ; skirt
G1 X75.180 Y110.820 E0.07318 ; skirt
G1 X75.180 Y97.075 E0.54861 ; skirt
G1 X75.576 Y95.124 E0.07942 ; skirt
G1 X76.644 Y93.539 E0.07630 ; skirt
G1 X79.183 Y91.000 E0.14331 ; skirt
G1 X79.590 Y91.301 F6000.000 ; move to first skirt point
G1 X81.004 Y90.345 E0.06811 F600.000 ; skirt
G1 X93.412 Y85.042 E0.53856 ; skirt
G1 X95.180 Y84.680 E0.07204 ; skirt
G1 X104.820 Y84.680 E0.38475 ; skirt
G1 X106.588 Y85.042 E0.07204 ; skirt
G1 X118.996 Y90.345 E0.53856 ; skirt
G1 X120.410 Y91.301 E0.06811 ; skirt
G1 X123.002 Y93.893 E0.14630 ; skirt
G1 X124.027 Y95.477 E0.07531 ; skirt
G1 X124.320 Y97.075 E0.06483 ; skirt
G1 X124.320 Y110.820 E0.54861 ; skirt
G1 X123.924 Y112.665 E0.07531 ; skirt
G1 X122.807 Y114.185 E0.07531 ; skirt
G1 X121.165 Y115.114 E0.07531 ; skirt
G1 X119.820 Y115.320 E0.05431 ; skirt
G1 X80.180 Y115.320 E1.58212 ; skirt
G1 X78.335 Y114.924 E0.07531 ; skirt
G1 X76.815 Y113.807 E0.07531 ; skirt
G1 X75.886 Y112.165 E0.07531 ; skirt
G1 X75.680 Y110.820 E0.05431 ; skirt
G1 X75.680 Y97.075 E0.54861 ; skirt
G1 X76.076 Y95.230 E0.07531 ; skirt
G1 X76.998 Y93.893 E0.06483 ; skirt
G1 X79.537 Y91.354 E0.14331 ; skirt
G1 F1800.000 E-4.00000 ; retract
G1 X119.570 Y110.570 F6000.000 ; move to first perimeter point
G1 E4.00000 F1800.000 ; compensate retraction
G1 X80.430 Y110.570 E1.56216 F900.000 ; perimeter
G1 X80.430 Y97.178 E0.53450 ; perimeter
G1 X82.796 Y94.812 E0.13358 ; perimeter
G1 X83.034 Y94.955 E0.01108 ; perimeter
G1 X83.379 Y95.091 E0.01481 ; perimeter
G1 X83.743 Y95.166 E0.01480 ; perimeter
G1 X84.114 Y95.178 E0.01481 ; perimeter
G1 X84.481 Y95.127 E0.01481 ; perimeter
G1 X84.835 Y95.015 E0.01481 ; perimeter
G1 X85.164 Y94.844 E0.01481 ; perimeter
G1 X85.274 Y94.761 E0.00549 ; perimeter
G1 X85.460 Y94.620 E0.00932 ; perimeter
G1 X85.713 Y94.349 E0.01481 ; perimeter
G1 X85.917 Y94.040 E0.01481 ; perimeter
G1 X86.066 Y93.699 E0.01481 ; perimeter
G1 X86.132 Y93.430 E0.01108 ; perimeter
G1 X92.011 Y93.430 E0.23464 ; perimeter
G1 X92.596 Y93.379 E0.02343 ; perimeter
G1 X93.173 Y93.224 E0.02387 ; perimeter
G1 X93.715 Y92.971 E0.02387 ; perimeter
G1 X94.205 Y92.628 E0.02387 ; perimeter
G1 X94.628 Y92.205 E0.02387 ; perimeter
G1 X94.971 Y91.715 E0.02387 ; perimeter
G1 X95.224 Y91.173 E0.02387 ; perimeter
G1 X95.379 Y90.596 E0.02387 ; perimeter
G1 X95.430 Y90.011 E0.02343 ; perimeter
G1 X95.430 Y89.430 E0.02319 ; perimeter
G1 X104.570 Y89.430 E0.36480 ; perimeter
G1 X104.570 Y90.011 E0.02319 ; perimeter
G1 X104.621 Y90.596 E0.02343 ; perimeter
G1 X104.776 Y91.173 E0.02387 ; perimeter
G1 X105.029 Y91.715 E0.02387 ; perimeter
G1 X105.372 Y92.205 E0.02387 ; perimeter
G1 X105.795 Y92.628 E0.02387 ; perimeter
G1 X106.285 Y92.971 E0.02387 ; perimeter
G1 X106.827 Y93.224 E0.02387 ; perimeter
G1 X107.404 Y93.379 E0.02387 ; perimeter
G1 X107.989 Y93.430 E0.02343 ; perimeter
G1 X113.867 Y93.430 E0.23458 ; perimeter
G1 X113.943 Y93.724 E0.01214 ; perimeter
G1 X114.094 Y94.061 E0.01472 ; perimeter
G1 X114.300 Y94.367 E0.01472 ; perimeter
G1 X114.555 Y94.634 E0.01472 ; perimeter
G1 X114.851 Y94.854 E0.01472 ; perimeter
G1 X115.180 Y95.021 E0.01473 ; perimeter
G1 X115.532 Y95.130 E0.01472 ; perimeter
G1 X115.897 Y95.179 E0.01471 ; perimeter
G1 X116.266 Y95.165 E0.01473 ; perimeter
G1 X116.627 Y95.089 E0.01472 ; perimeter
G1 X116.970 Y94.953 E0.01472 ; perimeter
G1 X117.203 Y94.812 E0.01090 ; perimeter
G1 X119.570 Y97.178 E0.13358 ; perimeter
G1 X119.570 Y110.495 E0.53151 ; perimeter
G1 X119.137 Y110.320 F6000.000 ; move inwards before travel
G1 X119.070 Y110.070 F6000.000 ; move to first perimeter point
G1 X80.930 Y110.070 E1.52225 F900.000 ; perimeter
G1 X80.930 Y97.385 E0.50628 ; perimeter
G1 X82.882 Y95.433 E0.11020 ; perimeter
G1 X83.237 Y95.572 E0.01519 ; perimeter
G1 X83.683 Y95.664 E0.01821 ; perimeter
G1 X84.140 Y95.679 E0.01822 ; perimeter
G1 X84.592 Y95.617 E0.01821 ; perimeter
G1 X85.027 Y95.479 E0.01822 ; perimeter
G1 X85.432 Y95.269 E0.01821 ; perimeter
G1 X85.796 Y94.993 E0.01822 ; perimeter
G1 X86.108 Y94.660 E0.01821 ; perimeter
G1 X86.358 Y94.279 E0.01821 ; perimeter
G1 X86.511 Y93.930 E0.01519 ; perimeter
G1 X92.033 Y93.930 E0.22040 ; perimeter
G1 X92.683 Y93.873 E0.02605 ; perimeter
G1 X93.345 Y93.696 E0.02736 ; perimeter
G1 X93.966 Y93.406 E0.02736 ; perimeter
G1 X94.528 Y93.013 E0.02736 ; perimeter
G1 X95.013 Y92.528 E0.02736 ; perimeter
G1 X95.406 Y91.966 E0.02736 ; perimeter
G1 X95.696 Y91.345 E0.02736 ; perimeter
G1 X95.873 Y90.683 E0.02736 ; perimeter
G1 X95.939 Y89.930 E0.03017 ; perimeter
G1 X104.061 Y89.930 E0.32417 ; perimeter
G1 X104.127 Y90.683 E0.03017 ; perimeter
G1 X104.304 Y91.345 E0.02736 ; perimeter
G1 X104.594 Y91.966 E0.02736 ; perimeter
G1 X104.987 Y92.528 E0.02736 ; perimeter
G1 X105.472 Y93.013 E0.02736 ; perimeter
G1 X106.034 Y93.406 E0.02736 ; perimeter
G1 X106.655 Y93.696 E0.02736 ; perimeter
G1 X107.317 Y93.873 E0.02736 ; perimeter
G1 X107.967 Y93.930 E0.02605 ; perimeter
G1 X113.487 Y93.930 E0.22031 ; perimeter
G1 X113.656 Y94.305 E0.01641 ; perimeter
G1 X113.909 Y94.681 E0.01811 ; perimeter
G1 X114.223 Y95.009 E0.01811 ; perimeter
G1 X114.586 Y95.280 E0.01810 ; perimeter
G1 X114.991 Y95.486 E0.01812 ; perimeter
G1 X115.424 Y95.620 E0.01809 ; perimeter
G1 X115.873 Y95.680 E0.01809 ; perimeter
G1 X116.327 Y95.663 E0.01813 ; perimeter
G1 X116.771 Y95.569 E0.01811 ; perimeter
G1 X117.117 Y95.433 E0.01486 ; perimeter
G1 X119.070 Y97.385 E0.11021 ; perimeter
G1 X119.070 Y109.995 E0.50328 ; perimeter
G1 F1800.000 E-4.00000 ; retract
G1 X109.302 Y105.040 F6000.000 ; move to first perimeter point
G1 E4.00000 F1800.000 ; compensate retraction
G1 X109.094 Y105.338 E0.01448 F900.000 ; perimeter
G1 X108.838 Y105.594 E0.01448 ; perimeter
G1 X108.540 Y105.802 E0.01448 ; perimeter
G1 X108.212 Y105.955 E0.01448 ; perimeter
G1 X107.994 Y106.014 E0.00901 ; perimeter
G1 X107.861 Y106.049 E0.00547 ; perimeter
G1 X107.500 Y106.081 E0.01448 ; perimeter
G1 X107.139 Y106.049 E0.01448 ; perimeter
G1 X106.788 Y105.955 E0.01448 ; perimeter
G1 X106.460 Y105.802 E0.01448 ; perimeter
G1 X106.162 Y105.594 E0.01448 ; perimeter
G1 X105.906 Y105.338 E0.01448 ; perimeter
G1 X105.698 Y105.040 E0.01448 ; perimeter
G1 X105.545 Y104.712 E0.01448 ; perimeter
G1 X105.486 Y104.494 E0.00901 ; perimeter
G1 X105.451 Y104.361 E0.00547 ; perimeter
G1 X105.419 Y104.000 E0.01448 ; perimeter
G1 X105.451 Y103.639 E0.01448 ; perimeter
G1 X105.545 Y103.288 E0.01448 ; perimeter
G1 X105.698 Y102.960 E0.01448 ; perimeter
G1 X105.906 Y102.662 E0.01448 ; perimeter
G1 X106.162 Y102.406 E0.01448 ; perimeter
G1 X106.460 Y102.198 E0.01448 ; perimeter
G1 X106.788 Y102.045 E0.01448 ; perimeter
G1 X107.006 Y101.986 E0.00901 ; perimeter
G1 X107.139 Y101.951 E0.00547 ; perimeter
G1 X107.500 Y101.919 E0.01448 ; perimeter
G1 X107.861 Y101.951 E0.01448 ; perimeter
G1 X108.212 Y102.045 E0.01448 ; perimeter
G1 X108.540 Y102.198 E0.01448 ; perimeter
G1 X108.838 Y102.406 E0.01448 ; perimeter
G1 X109.094 Y102.662 E0.01448 ; perimeter
G1 X109.302 Y102.960 E0.01448 ; perimeter
G1 X109.455 Y103.288 E0.01448 ; perimeter
G1 X109.549 Y103.639 E0.01448 ; perimeter
G1 X109.581 Y104.000 E0.01448 ; perimeter
G1 X109.549 Y104.361 E0.01448 ; perimeter
G1 X109.455 Y104.712 E0.01448 ; perimeter
G1 X109.334 Y104.973 E0.01148 ; perimeter
G1 X109.474 Y105.360 F6000.000 ; move inwards before travel
G1 X109.737 Y105.291 F6000.000 ; move to first perimeter point
G1 X109.479 Y105.660 E0.01797 F900.000 ; perimeter
G1 X109.160 Y105.979 E0.01797 ; perimeter
G1 X108.791 Y106.237 E0.01797 ; perimeter
G1 X108.383 Y106.427 E0.01797 ; perimeter
G1 X108.123 Y106.497 E0.01076 ; perimeter
G1 X107.948 Y106.544 E0.00721 ; perimeter
G1 X107.500 Y106.583 E0.01797 ; perimeter
G1 X107.051 Y106.544 E0.01797 ; perimeter
G1 X106.617 Y106.427 E0.01797 ; perimeter
G1 X106.209 Y106.237 E0.01797 ; perimeter
G1 X105.840 Y105.979 E0.01797 ; perimeter
G1 X105.521 Y105.660 E0.01797 ; perimeter
G1 X105.263 Y105.291 E0.01797 ; perimeter
G1 X105.073 Y104.883 E0.01797 ; perimeter
G1 X105.003 Y104.623 E0.01076 ; perimeter
G1 X104.956 Y104.448 E0.00721 ; perimeter
G1 X104.917 Y104.000 E0.01797 ; perimeter
G1 X104.956 Y103.551 E0.01797 ; perimeter
G1 X105.073 Y103.117 E0.01797 ; perimeter
G1 X105.263 Y102.709 E0.01797 ; perimeter
G1 X105.521 Y102.340 E0.01797 ; perimeter
G1 X105.840 Y102.021 E0.01797 ; perimeter
G1 X106.209 Y101.763 E0.01797 ; perimeter
G1 X106.617 Y101.573 E0.01797 ; perimeter
G1 X106.877 Y101.503 E0.01076 ; perimeter
G1 X107.052 Y101.456 E0.00721 ; perimeter
G1 X107.500 Y101.417 E0.01797 ; perimeter
G1 X107.949 Y101.456 E0.01797 ; perimeter
G1 X108.383 Y101.573 E0.01797 ; perimeter
G1 X108.791 Y101.763 E0.01797 ; perimeter
G1 X109.160 Y102.021 E0.01797 ; perimeter
G1 X109.479 Y102.340 E0.01797 ; perimeter
G1 X109.737 Y102.709 E0.01797 ; perimeter
G1 X109.927 Y103.117 E0.01797 ; perimeter
G1 X110.044 Y103.552 E0.01797 ; perimeter
G1 X110.083 Y104.000 E0.01797 ; perimeter
G1 X110.044 Y104.449 E0.01797 ; perimeter
G1 X109.927 Y104.883 E0.01797 ; perimeter
G1 X109.769 Y105.223 E0.01498 ; perimeter
G1 F1800.000 E-4.00000 ; retract
G1 X94.581 Y104.000 F6000.000 ; move to first perimeter point
G1 E4.00000 F1800.000 ; compensate retraction
G1 X94.549 Y104.361 E0.01448 F900.000 ; perimeter
G1 X94.455 Y104.712 E0.01448 ; perimeter
G1 X94.302 Y105.040 E0.01448 ; perimeter
G1 X94.094 Y105.338 E0.01448 ; perimeter
G1 X93.838 Y105.594 E0.01448 ; perimeter
G1 X93.540 Y105.802 E0.01448 ; perimeter
G1 X93.212 Y105.955 E0.01448 ; perimeter
G1 X92.861 Y106.049 E0.01448 ; perimeter
G1 X92.500 Y106.081 E0.01448 ; perimeter
G1 X92.139 Y106.049 E0.01448 ; perimeter
G1 X91.788 Y105.955 E0.01448 ; perimeter
G1 X91.584 Y105.860 E0.00901 ; perimeter
G1 X91.460 Y105.802 E0.00547 ; perimeter
G1 X91.162 Y105.594 E0.01448 ; perimeter
G1 X90.906 Y105.338 E0.01448 ; perimeter
G1 X90.698 Y105.040 E0.01448 ; perimeter
G1 X90.545 Y104.712 E0.01448 ; perimeter
G1 X90.451 Y104.361 E0.01448 ; perimeter
G1 X90.419 Y104.000 E0.01448 ; perimeter
G1 X90.451 Y103.639 E0.01448 ; perimeter
G1 X90.545 Y103.288 E0.01448 ; perimeter
G1 X90.640 Y103.084 E0.00901 ; perimeter
G1 X90.698 Y102.960 E0.00547 ; perimeter
G1 X90.906 Y102.662 E0.01448 ; perimeter
G1 X91.162 Y102.406 E0.01448 ; perimeter
G1 X91.460 Y102.198 E0.01448 ; perimeter
G1 X91.788 Y102.045 E0.01448 ; perimeter
G1 X92.139 Y101.951 E0.01448 ; perimeter
G1 X92.500 Y101.919 E0.01448 ; perimeter
G1 X92.861 Y101.951 E0.01448 ; perimeter
G1 X93.212 Y102.045 E0.01448 ; perimeter
G1 X93.416 Y102.140 E0.00901 ; perimeter
G1 X93.540 Y102.198 E0.00547 ; perimeter
G1 X93.838 Y102.406 E0.01448 ; perimeter
G1 X94.094 Y102.662 E0.01448 ; perimeter
G1 X94.302 Y102.960 E0.01448 ; perimeter
G1 X94.455 Y103.288 E0.01448 ; perimeter
G1 X94.549 Y103.639 E0.01448 ; perimeter
G1 X94.574 Y103.925 E0.01148 ; perimeter
G1 X94.890 Y104.190 F6000.000 ; move inwards before travel
G1 X95.083 Y104.000 F6000.000 ; move to first perimeter point
G1 X95.044 Y104.449 E0.01797 F900.000 ; perimeter
G1 X94.927 Y104.883 E0.01797 ; perimeter
G1 X94.737 Y105.291 E0.01797 ; perimeter
G1 X94.479 Y105.660 E0.01797 ; perimeter
G1 X94.160 Y105.979 E0.01797 ; perimeter
G1 X93.791 Y106.237 E0.01797 ; perimeter
G1 X93.383 Y106.427 E0.01797 ; perimeter
G1 X92.948 Y106.544 E0.01797 ; perimeter
G1 X92.500 Y106.583 E0.01797 ; perimeter
G1 X92.051 Y106.544 E0.01797 ; perimeter
G1 X91.617 Y106.427 E0.01797 ; perimeter
G1 X91.372 Y106.313 E0.01076 ; perimeter
G1 X91.209 Y106.237 E0.00721 ; perimeter
G1 X90.840 Y105.979 E0.01797 ; perimeter
G1 X90.521 Y105.660 E0.01797 ; perimeter
G1 X90.263 Y105.291 E0.01797 ; perimeter
G1 X90.073 Y104.883 E0.01797 ; perimeter
G1 X89.956 Y104.448 E0.01797 ; perimeter
G1 X89.917 Y104.000 E0.01797 ; perimeter
G1 X89.956 Y103.551 E0.01797 ; perimeter
G1 X90.073 Y103.117 E0.01797 ; perimeter
G1 X90.187 Y102.872 E0.01076 ; perimeter
G1 X90.263 Y102.709 E0.00721 ; perimeter
G1 X90.521 Y102.340 E0.01797 ; perimeter
G1 X90.840 Y102.021 E0.01797 ; perimeter
G1 X91.209 Y101.763 E0.01797 ; perimeter
G1 X91.617 Y101.573 E0.01797 ; perimeter
G1 X92.052 Y101.456 E0.01797 ; perimeter
G1 X92.500 Y101.417 E0.01797 ; perimeter
G1 X92.949 Y101.456 E0.01797 ; perimeter
G1 X93.383 Y101.573 E0.01797 ; perimeter
G1 X93.628 Y101.687 E0.01076 ; perimeter
G1 X93.791 Y101.763 E0.00721 ; perimeter
G1 X94.160 Y102.021 E0.01797 ; perimeter
G1 X94.479 Y102.340 E0.01797 ; perimeter
G1 X94.737 Y102.709 E0.01797 ; perimeter
G1 X94.927 Y103.117 E0.01797 ; perimeter
G1 X95.044 Y103.552 E0.01797 ; perimeter
G1 X95.076 Y103.925 E0.01498 ; perimeter
G1 F1800.000 E-4.00000 ; retract
G1 X91.903 Y106.858 F6000.000 ; move to first fill point
G1 E4.00000 F1800.000 ; compensate retraction
G1 X94.772 Y109.728 E0.16195 F900.000 ; fill
G1 X95.480 Y109.728 E0.02827 ; fill
G1 X92.665 Y106.912 E0.15891 ; fill
G1 X93.272 Y106.811 E0.02458 ; fill
G1 X96.189 Y109.728 E0.16460 ; fill
G1 X96.897 Y109.728 E0.02827 ; fill
G1 X93.787 Y106.617 E0.17557 ; fill
G1 X94.227 Y106.350 E0.02058 ; fill
G1 X97.605 Y109.728 E0.19066 ; fill
G1 X98.314 Y109.728 E0.02827 ; fill
G1 X94.605 Y106.018 E0.20936 ; fill
G1 X94.921 Y105.626 E0.02011 ; fill
G1 X99.022 Y109.728 E0.23151 ; fill
G1 X99.731 Y109.728 E0.02827 ; fill
G1 X95.172 Y105.169 E0.25731 ; fill
G1 X95.348 Y104.636 E0.02238 ; fill
G1 X100.439 Y109.728 E0.28736 ; fill
G1 X101.147 Y109.728 E0.02827 ; fill
G1 X95.426 Y104.006 E0.32293 ; fill
G1 X95.295 Y103.167 E0.03391 ; fill
G1 X101.856 Y109.728 E0.37031 ; fill
G1 X102.564 Y109.728 E0.02827 ; fill
G1 X87.109 Y94.272 E0.87235 ; fill
G1 X87.817 Y94.272 E0.02827 ; fill
G1 X103.273 Y109.728 E0.87235 ; fill
G1 X103.981 Y109.728 E0.02827 ; fill
G1 X88.526 Y94.272 E0.87235 ; fill
G1 X89.234 Y94.272 E0.02827 ; fill
G1 X104.689 Y109.728 E0.87235 ; fill
G1 X105.398 Y109.728 E0.02827 ; fill
G1 X89.943 Y94.272 E0.87235 ; fill
G1 X90.651 Y94.272 E0.02827 ; fill
G1 X106.106 Y109.728 E0.87235 ; fill
G1 X106.814 Y109.728 E0.02827 ; fill
G1 X91.359 Y94.272 E0.87235 ; fill
G1 X92.066 Y94.271 E0.02821 ; fill
G1 X107.523 Y109.728 E0.87244 ; fill
G1 X108.231 Y109.728 E0.02827 ; fill
G1 X92.718 Y94.214 E0.87566 ; fill
G1 X93.280 Y94.068 E0.02319 ; fill
G1 X108.940 Y109.728 E0.88391 ; fill
G1 F1800.000 E-4.00000 ; retract
G1 X106.733 Y106.813 F6000.000 ; move to first fill point
G1 E4.00000 F1800.000 ; compensate retraction
G1 X109.648 Y109.728 E0.16451 F900.000 ; fill
G1 X110.356 Y109.728 E0.02827 ; fill
G1 X107.551 Y106.922 E0.15835 ; fill
G1 X108.175 Y106.838 E0.02512 ; fill
G1 X111.065 Y109.728 E0.16312 ; fill
G1 X111.773 Y109.728 E0.02827 ; fill
G1 X108.702 Y106.656 E0.17335 ; fill
G1 X109.155 Y106.401 E0.02075 ; fill
G1 X112.482 Y109.728 E0.18779 ; fill
G1 X113.190 Y109.728 E0.02827 ; fill
G1 X109.543 Y106.080 E0.20586 ; fill
