; generated by Slic3r 1.0.1 on 2014-07-20 at 14:02:14

; layer_height = 0.24
; perimeters = 2
; top_solid_layers = 3
; bottom_solid_layers = 3
; fill_density = 0.25
; perimeter_speed = 30
; infill_speed = 30
; travel_speed = 100
; nozzle_diameter = 0.5
; filament_diameter = 1.75
; extrusion_multiplier = 1
; perimeters extrusion width = 0.50mm
; infill extrusion width = 0.50mm
; solid infill extrusion width = 0.50mm
; top infill extrusion width = 0.50mm
; first layer extrusion width = 0.80mm

G21 ; set units to millimeters
M107 ; disable fan
M190 S57 ; wait for bed temperature to be reached
M104 S200 ; set temperature

M109 S200 ; wait for temperature to be reached
G90 ; use absolute coordinates
M83 ; use relative distances for extrusion
G1 F1800.000 E-2.40000 ; retract
G1 Z0.240 F6000.000 ; move to next layer (0)
G1 X86.640 Y86.640 F6000.000 ; move to first skirt point
G1 E2.40000 F1800.000 ; compensate retraction
G1 X87.630 Y85.890 E0.09276 F900.000 ; skirt
G1 X88.770 Y85.410 E0.09238 ; skirt
G1 X90.000 Y85.250 E0.09264 ; skirt
G1 X110.000 Y85.250 E1.49370 ; skirt
G1 X111.230 Y85.410 E0.09264 ; skirt
G1 X112.370 Y85.890 E0.09238 ; skirt
G1 X113.360 Y86.640 E0.09276 ; skirt
G1 X114.110 Y87.630 E0.09276 ; skirt
G1 X114.590 Y88.770 E0.09238 ; skirt
G1 X114.750 Y90.000 E0.09264 ; skirt
G1 X114.750 Y110.000 E1.49370 ; skirt
G1 X114.590 Y111.230 E0.09264 ; skirt
G1 X114.110 Y112.370 E0.09238 ; skirt
G1 X113.360 Y113.360 E0.09276 ; skirt
G1 X112.370 Y114.110 E0.09276 ; skirt
G1 X111.230 Y114.590 E0.09238 ; skirt
G1 X110.000 Y114.750 E0.09264 ; skirt
G1 X90.000 Y114.750 E1.49370 ; skirt
G1 X88.770 Y114.590 E0.09264 ; skirt
G1 X87.630 Y114.110 E0.09238 ; skirt
G1 X86.640 Y113.360 E0.09276 ; skirt
G1 X85.890 Y112.370 E0.09276 ; skirt
G1 X85.410 Y111.230 E0.09238 ; skirt
G1 X85.250 Y110.000 E0.09264 ; skirt
G1 X85.250 Y90.000 E1.49370 ; skirt
G1 X85.410 Y88.770 E0.09264 ; skirt
G1 X85.890 Y87.630 E0.09238 ; skirt
G1 X86.572 Y86.729 E0.08437 ; skirt
G1 F1800.000 E-2.40000 ; retract
G1 X90.400 Y90.400 F6000.000 ; move to first perimeter point
G1 E2.40000 F1800.000 ; compensate retraction
G1 X109.600 Y90.400 E1.43396 F900.000 ; perimeter
G1 X109.600 Y109.600 E1.43396 ; perimeter
G1 X90.400 Y109.600 E1.43396 ; perimeter
G1 X90.400 Y90.512 E1.42557 ; perimeter
G1 X91.048 Y90.774 F6000.000 ; move inwards before travel
G1 X91.148 Y91.148 F6000.000 ; move to first perimeter point
G1 X108.852 Y91.148 E1.32215 F900.000 ; perimeter
G1 X108.852 Y108.852 E1.32215 ; perimeter
G1 X91.148 Y108.852 E1.32215 ; perimeter
G1 X91.148 Y91.261 E1.31377 ; perimeter
G1 F1800.000 E-2.40000 ; retract
G1 X91.701 Y108.319 F6000.000 ; move to first fill point
G1 E2.40000 F1800.000 ; compensate retraction
G1 X91.681 Y108.299 E0.00214 F900.000 ; fill
G1 X91.681 Y107.227 E0.08110 ; fill
G1 X92.773 Y108.319 E0.11683 ; fill
G1 X93.845 Y108.319 E0.08110 ; fill
G1 X91.681 Y106.155 E0.23152 ; fill
G1 X91.681 Y105.083 E0.08110 ; fill
G1 X94.917 Y108.319 E0.34621 ; fill
G1 X95.990 Y108.319 E0.08110 ; fill
G1 X91.681 Y104.010 E0.46090 ; fill
G1 X91.681 Y102.938 E0.08110 ; fill
G1 X97.062 Y108.319 E0.57559 ; fill
G1 X98.134 Y108.319 E0.08110 ; fill
G1 X91.681 Y101.866 E0.69028 ; fill
G1 X91.681 Y100.794 E0.08110 ; fill
G1 X99.206 Y108.319 E0.80497 ; fill
G1 X100.278 Y108.319 E0.08110 ; fill
G1 X91.681 Y99.722 E0.91966 ; fill
G1 X91.681 Y98.650 E0.08110 ; fill
G1 X101.350 Y108.319 E1.03435 ; fill
G1 X102.422 Y108.319 E0.08110 ; fill
G1 X91.681 Y97.578 E1.14904 ; fill
G1 X91.681 Y96.506 E0.08110 ; fill
G1 X103.494 Y108.319 E1.26373 ; fill
G1 X104.566 Y108.319 E0.08110 ; fill
G1 X91.681 Y95.434 E1.37842 ; fill
G1 X91.681 Y94.361 E0.08110 ; fill
G1 X105.639 Y108.319 E1.49311 ; fill
G1 X106.711 Y108.319 E0.08110 ; fill
G1 X91.681 Y93.289 E1.60780 ; fill
G1 X91.681 Y92.217 E0.08110 ; fill
G1 X107.783 Y108.319 E1.72249 ; fill
G1 X108.319 Y107.783 E0.05735 ; fill
G1 X92.217 Y91.681 E1.72249 ; fill
G1 X93.289 Y91.681 E0.08110 ; fill
G1 X108.319 Y106.711 E1.60780 ; fill
G1 X108.319 Y105.639 E0.08110 ; fill
G1 X94.361 Y91.681 E1.49311 ; fill
G1 X95.434 Y91.681 E0.08110 ; fill
G1 X108.319 Y104.566 E1.37842 ; fill
G1 X108.319 Y103.494 E0.08110 ; fill
G1 X96.506 Y91.681 E1.26373 ; fill
G1 X97.578 Y91.681 E0.08110 ; fill
G1 X108.319 Y102.422 E1.14904 ; fill
G1 X108.319 Y101.350 E0.08110 ; fill
G1 X98.650 Y91.681 E1.03435 ; fill
G1 X99.722 Y91.681 E0.08110 ; fill
G1 X108.319 Y100.278 E0.91966 ; fill
G1 X108.319 Y99.206 E0.08110 ; fill
G1 X100.794 Y91.681 E0.80497 ; fill
G1 X101.866 Y91.681 E0.08110 ; fill
G1 X108.319 Y98.134 E0.69028 ; fill
G1 X108.319 Y97.062 E0.08110 ; fill
G1 X102.938 Y91.681 E0.57559 ; fill
G1 X104.010 Y91.681 E0.08110 ; fill
G1 X108.319 Y95.990 E0.46090 ; fill
G1 X108.319 Y94.917 E0.08110 ; fill
G1 X105.083 Y91.681 E0.34621 ; fill
G1 X106.155 Y91.681 E0.08110 ; fill
G1 X108.319 Y93.845 E0.23152 ; fill
G1 X108.319 Y92.773 E0.08110 ; fill
G1 X107.227 Y91.681 E0.11683 ; fill
G1 X108.299 Y91.681 E0.08110 ; fill
G1 X108.319 Y91.701 E0.00214 ; fill
M104 S190 ; set temperature
G1 F1800.000 E-2.40000 ; retract
G1 Z0.480 F6000.000 ; move to next layer (1)
G1 X109.750 Y90.250 F6000.000 ; move to first perimeter point
G1 E2.40000 F1800.000 ; compensate retraction
G1 X109.750 Y109.750 E0.97286 F1800 ; perimeter
G1 X90.250 Y109.750 E0.97286 ; perimeter
G1 X90.250 Y90.250 E0.97286 ; perimeter
G1 X109.675 Y90.250 E0.96912 ; perimeter
G1 X109.500 Y90.683 F6000.000 ; move inwards before travel
G1 X109.250 Y90.750 F6000.000 ; move to first perimeter point
G1 X109.250 Y109.250 E0.92297 F1800 ; perimeter
G1 X90.750 Y109.250 E0.92297 ; perimeter
G1 X90.750 Y90.750 E0.92297 ; perimeter
G1 X109.175 Y90.750 E0.91923 ; perimeter
G1 F1800.000 E-2.40000 ; retract
G1 X91.102 Y91.122 F6000.000 ; move to first fill point
G1 E2.40000 F1800.000 ; compensate retraction
G1 X91.122 Y91.102 E0.00142 F1800 ; fill
G1 X91.833 Y91.102 E0.03567 ; fill
G1 X91.102 Y91.833 E0.05186 ; fill
G1 X91.102 Y92.544 E0.03567 ; fill
G1 X92.544 Y91.102 E0.10230 ; fill
G1 X93.255 Y91.102 E0.03567 ; fill
G1 X91.102 Y93.255 E0.15274 ; fill
G1 X91.102 Y93.966 E0.03567 ; fill
G1 X93.966 Y91.102 E0.20318 ; fill
G1 X94.677 Y91.102 E0.03567 ; fill
G1 X91.102 Y94.677 E0.25363 ; fill
G1 X91.102 Y95.388 E0.03567 ; fill
G1 X95.388 Y91.102 E0.30407 ; fill
G1 X96.099 Y91.102 E0.03567 ; fill
G1 X91.102 Y96.099 E0.35451 ; fill
G1 X91.102 Y96.810 E0.03567 ; fill
G1 X96.810 Y91.102 E0.40495 ; fill
G1 X97.521 Y91.102 E0.03567 ; fill
G1 X91.102 Y97.521 E0.45539 ; fill
G1 X91.102 Y98.232 E0.03567 ; fill
G1 X98.232 Y91.102 E0.50583 ; fill
G1 X98.943 Y91.102 E0.03567 ; fill
G1 X91.102 Y98.943 E0.55627 ; fill
G1 X91.102 Y99.654 E0.03567 ; fill
G1 X99.654 Y91.102 E0.60671 ; fill
G1 X100.366 Y91.102 E0.03567 ; fill
G1 X91.102 Y100.366 E0.65716 ; fill
G1 X91.102 Y101.077 E0.03567 ; fill
G1 X101.077 Y91.102 E0.70760 ; fill
G1 X101.788 Y91.102 E0.03567 ; fill
G1 X91.102 Y101.788 E0.75804 ; fill
G1 X91.102 Y102.499 E0.03567 ; fill
G1 X102.499 Y91.102 E0.80848 ; fill
G1 X103.210 Y91.102 E0.03567 ; fill
G1 X91.102 Y103.210 E0.85892 ; fill
G1 X91.102 Y103.921 E0.03567 ; fill
G1 X103.921 Y91.102 E0.90936 ; fill
G1 X104.632 Y91.102 E0.03567 ; fill
G1 X91.102 Y104.632 E0.95980 ; fill
G1 X91.102 Y105.343 E0.03567 ; fill
G1 X105.343 Y91.102 E1.01025 ; fill
G1 X106.054 Y91.102 E0.03567 ; fill
G1 X91.102 Y106.054 E1.06069 ; fill
G1 X91.102 Y106.765 E0.03567 ; fill
G1 X106.765 Y91.102 E1.11113 ; fill
G1 X107.476 Y91.102 E0.03567 ; fill
G1 X91.102 Y107.476 E1.16157 ; fill
G1 X91.102 Y108.187 E0.03567 ; fill
G1 X108.187 Y91.102 E1.21201 ; fill
G1 X108.888 Y91.112 E0.03517 ; fill
G1 X91.112 Y108.888 E1.26103 ; fill
G1 X91.813 Y108.898 E0.03517 ; fill
G1 X108.898 Y91.813 E1.21201 ; fill
G1 X108.898 Y92.524 E0.03567 ; fill
G1 X92.524 Y108.898 E1.16157 ; fill
G1 X93.235 Y108.898 E0.03567 ; fill
G1 X108.898 Y93.235 E1.11113 ; fill
G1 X108.898 Y93.946 E0.03567 ; fill
G1 X93.946 Y108.898 E1.06069 ; fill
G1 X94.657 Y108.898 E0.03567 ; fill
G1 X108.898 Y94.657 E1.01025 ; fill
G1 X108.898 Y95.368 E0.03567 ; fill
G1 X95.368 Y108.898 E0.95980 ; fill
G1 X96.079 Y108.898 E0.03567 ; fill
G1 X108.898 Y96.079 E0.90936 ; fill
G1 X108.898 Y96.790 E0.03567 ; fill
G1 X96.790 Y108.898 E0.85892 ; fill
G1 X97.501 Y108.898 E0.03567 ; fill
G1 X108.898 Y97.501 E0.80848 ; fill
G1 X108.898 Y98.212 E0.03567 ; fill
G1 X98.212 Y108.898 E0.75804 ; fill
G1 X98.923 Y108.898 E0.03567 ; fill
G1 X108.898 Y98.923 E0.70760 ; fill
G1 X108.898 Y99.634 E0.03567 ; fill
G1 X99.634 Y108.898 E0.65716 ; fill
G1 X100.346 Y108.898 E0.03567 ; fill
G1 X108.898 Y100.346 E0.60671 ; fill
G1 X108.898 Y101.057 E0.03567 ; fill
G1 X101.057 Y108.898 E0.55627 ; fill
G1 X101.768 Y108.898 E0.03567 ; fill
G1 X108.898 Y101.768 E0.50583 ; fill
G1 X108.898 Y102.479 E0.03567 ; fill
G1 X102.479 Y108.898 E0.45539 ; fill
G1 X103.190 Y108.898 E0.03567 ; fill
G1 X108.898 Y103.190 E0.40495 ; fill
G1 X108.898 Y103.901 E0.03567 ; fill
G1 X103.901 Y108.898 E0.35451 ; fill
G1 X104.612 Y108.898 E0.03567 ; fill
G1 X108.898 Y104.612 E0.30407 ; fill
G1 X108.898 Y105.323 E0.03567 ; fill
G1 X105.323 Y108.898 E0.25363 ; fill
G1 X106.034 Y108.898 E0.03567 ; fill
G1 X108.898 Y106.034 E0.20318 ; fill
G1 X108.898 Y106.745 E0.03567 ; fill
G1 X106.745 Y108.898 E0.15274 ; fill
G1 X107.456 Y108.898 E0.03567 ; fill
G1 X108.898 Y107.456 E0.10230 ; fill
G1 X108.898 Y108.167 E0.03567 ; fill
G1 X108.167 Y108.898 E0.05186 ; fill
G1 X108.878 Y108.898 E0.03567 ; fill
G1 X108.898 Y108.878 E0.00142 ; fill
G1 F1800.000 E-2.40000 ; retract
G1 Z0.720 F6000.000 ; move to next layer (2)
G1 X109.750 Y109.750 F6000.000 ; move to first perimeter point
G1 E2.40000 F1800.000 ; compensate retraction
G1 X90.250 Y109.750 E0.97286 F1800 ; perimeter
G1 X90.250 Y90.250 E0.97286 ; perimeter
G1 X109.750 Y90.250 E0.97286 ; perimeter
G1 X109.750 Y109.675 E0.96912 ; perimeter
G1 X109.317 Y109.500 F6000.000 ; move inwards before travel
G1 X109.250 Y109.250 F6000.000 ; move to first perimeter point
G1 X90.750 Y109.250 E0.92297 F1800 ; perimeter
G1 X90.750 Y90.750 E0.92297 ; perimeter
G1 X109.250 Y90.750 E0.92297 ; perimeter
G1 X109.250 Y109.175 E0.91923 ; perimeter
G1 F1800.000 E-2.40000 ; retract
G1 X108.878 Y91.102 F6000.000 ; move to first fill point
G1 E2.40000 F1800.000 ; compensate retraction
G1 X108.898 Y91.122 E0.00142 F1800 ; fill
G1 X108.898 Y91.833 E0.03567 ; fill
G1 X108.167 Y91.102 E0.05186 ; fill
G1 X107.456 Y91.102 E0.03567 ; fill
G1 X108.898 Y92.544 E0.10230 ; fill
G1 X108.898 Y93.255 E0.03567 ; fill
G1 X106.745 Y91.102 E0.15274 ; fill
G1 X106.034 Y91.102 E0.03567 ; fill
G1 X108.898 Y93.966 E0.20318 ; fill
G1 X108.898 Y94.677 E0.03567 ; fill
G1 X105.323 Y91.102 E0.25363 ; fill
G1 X104.612 Y91.102 E0.03567 ; fill
G1 X108.898 Y95.388 E0.30407 ; fill
G1 X108.898 Y96.099 E0.03567 ; fill
G1 X103.901 Y91.102 E0.35451 ; fill
G1 X103.190 Y91.102 E0.03567 ; fill
G1 X108.898 Y96.810 E0.40495 ; fill
G1 X108.898 Y97.521 E0.03567 ; fill
G1 X102.479 Y91.102 E0.45539 ; fill
G1 X101.768 Y91.102 E0.03567 ; fill
G1 X108.898 Y98.232 E0.50583 ; fill
G1 X108.898 Y98.943 E0.03567 ; fill
G1 X101.057 Y91.102 E0.55627 ; fill
G1 X100.346 Y91.102 E0.03567 ; fill
G1 X108.898 Y99.654 E0.60671 ; fill
G1 X108.898 Y100.366 E0.03567 ; fill
G1 X99.634 Y91.102 E0.65716 ; fill
G1 X98.923 Y91.102 E0.03567 ; fill
G1 X108.898 Y101.077 E0.70760 ; fill
G1 X108.898 Y101.788 E0.03567 ; fill
G1 X98.212 Y91.102 E0.75804 ; fill
G1 X97.501 Y91.102 E0.03567 ; fill
G1 X108.898 Y102.499 E0.80848 ; fill
G1 X108.898 Y103.210 E0.03567 ; fill
G1 X96.790 Y91.102 E0.85892 ; fill
G1 X96.079 Y91.102 E0.03567 ; fill
G1 X108.898 Y103.921 E0.90936 ; fill
G1 X108.898 Y104.632 E0.03567 ; fill
G1 X95.368 Y91.102 E0.95980 ; fill
G1 X94.657 Y91.102 E0.03567 ; fill
G1 X108.898 Y105.343 E1.01025 ; fill
G1 X108.898 Y106.054 E0.03567 ; fill
G1 X93.946 Y91.102 E1.06069 ; fill
G1 X93.235 Y91.102 E0.03567 ; fill
G1 X108.898 Y106.765 E1.11113 ; fill
G1 X108.898 Y107.476 E0.03567 ; fill
G1 X92.524 Y91.102 E1.16157 ; fill
G1 X91.813 Y91.102 E0.03567 ; fill
G1 X108.898 Y108.187 E1.21201 ; fill
G1 X108.888 Y108.888 E0.03517 ; fill
G1 X91.112 Y91.112 E1.26103 ; fill
G1 X91.102 Y91.813 E0.03517 ; fill
G1 X108.187 Y108.898 E1.21201 ; fill
G1 X107.476 Y108.898 E0.03567 ; fill
G1 X91.102 Y92.524 E1.16157 ; fill
G1 X91.102 Y93.235 E0.03567 ; fill
G1 X106.765 Y108.898 E1.11113 ; fill
G1 X106.054 Y108.898 E0.03567 ; fill
G1 X91.102 Y93.946 E1.06069 ; fill
G1 X91.102 Y94.657 E0.03567 ; fill
G1 X105.343 Y108.898 E1.01025 ; fill
G1 X104.632 Y108.898 E0.03567 ; fill
G1 X91.102 Y95.368 E0.95980 ; fill
G1 X91.102 Y96.079 E0.03567 ; fill
G1 X103.921 Y108.898 E0.90936 ; fill
G1 X103.210 Y108.898 E0.03567 ; fill
G1 X91.102 Y96.790 E0.85892 ; fill
G1 X91.102 Y97.501 E0.03567 ; fill
G1 X102.499 Y108.898 E0.80848 ; fill
G1 X101.788 Y108.898 E0.03567 ; fill
G1 X91.102 Y98.212 E0.75804 ; fill
G1 X91.102 Y98.923 E0.03567 ; fill
G1 X101.077 Y108.898 E0.70760 ; fill
G1 X100.366 Y108.898 E0.03567 ; fill
G1 X91.102 Y99.634 E0.65716 ; fill
G1 X91.102 Y100.346 E0.03567 ; fill
G1 X99.654 Y108.898 E0.60671 ; fill
G1 X98.943 Y108.898 E0.03567 ; fill
G1 X91.102 Y101.057 E0.55627 ; fill
G1 X91.102 Y101.768 E0.03567 ; fill
G1 X98.232 Y108.898 E0.50583 ; fill
G1 X97.521 Y108.898 E0.03567 ; fill
G1 X91.102 Y102.479 E0.45539 ; fill
G1 X91.102 Y103.190 E0.03567 ; fill
G1 X96.810 Y108.898 E0.40495 ; fill
G1 X96.099 Y108.898 E0.03567 ; fill
G1 X91.102 Y103.901 E0.35451 ; fill
G1 X91.102 Y104.612 E0.03567 ; fill
G1 X95.388 Y108.898 E0.30407 ; fill
G1 X94.677 Y108.898 E0.03567 ; fill
G1 X91.102 Y105.323 E0.25363 ; fill
G1 X91.102 Y106.034 E0.03567 ; fill
G1 X93.966 Y108.898 E0.20318 ; fill
G1 X93.255 Y108.898 E0.03567 ; fill
G1 X91.102 Y106.745 E0.15274 ; fill
G1 X91.102 Y107.456 E0.03567 ; fill
G1 X92.544 Y108.898 E0.10230 ; fill
G1 X91.833 Y108.898 E0.03567 ; fill
G1 X91.102 Y108.167 E0.05186 ; fill
G1 X91.102 Y108.878 E0.03567 ; fill
G1 X91.122 Y108.898 E0.00142 ; fill
M106 S255 ; enable fan
G1 F1800.000 E-2.40000 ; retract
G1 Z0.960 F6000.000 ; move to next layer (3)
G1 X90.250 Y109.750 F6000.000 ; move to first perimeter point
G1 E2.40000 F1800.000 ; compensate retraction
G1 X90.250 Y90.250 E0.97286 F1379.698 ; perimeter
G1 X109.750 Y90.250 E0.97286 ; perimeter
G1 X109.750 Y109.750 E0.97286 ; perimeter
G1 X90.325 Y109.750 E0.96912 ; perimeter
G1 X90.500 Y109.317 F6000.000 ; move inwards before travel
G1 X90.750 Y109.250 F6000.000 ; move to first perimeter point
G1 X90.750 Y90.750 E0.92297 F1379.698 ; perimeter
G1 X109.250 Y90.750 E0.92297 ; perimeter
G1 X109.250 Y109.250 E0.92297 ; perimeter
G1 X90.825 Y109.250 E0.91923 ; perimeter
G1 F1800.000 E-2.40000 ; retract
G1 X91.102 Y91.927 F6000.000 ; move to first fill point
G1 E2.40000 F1800.000 ; compensate retraction
G1 X91.927 Y91.102 E0.05817 F1379.698 ; fill
G1 X94.755 Y91.102 E0.14111 ; fill
G1 X91.102 Y94.755 E0.25773 ; fill
G1 X91.102 Y97.584 E0.14111 ; fill
G1 X97.584 Y91.102 E0.45729 ; fill
G1 X100.412 Y91.102 E0.14111 ; fill
G1 X91.102 Y100.412 E0.65685 ; fill
G1 X91.102 Y103.241 E0.14111 ; fill
G1 X103.241 Y91.102 E0.85641 ; fill
G1 X106.069 Y91.102 E0.14111 ; fill
G1 X91.102 Y106.069 E1.05597 ; fill
G1 X91.102 Y108.898 E0.14111 ; fill
G1 X108.888 Y91.112 E1.25483 ; fill
G1 X108.898 Y93.931 E0.14061 ; fill
G1 X93.931 Y108.898 E1.05597 ; fill
G1 X96.759 Y108.898 E0.14111 ; fill
G1 X108.898 Y96.759 E0.85641 ; fill
G1 X108.898 Y99.588 E0.14111 ; fill
G1 X99.588 Y108.898 E0.65685 ; fill
G1 X102.416 Y108.898 E0.14111 ; fill
G1 X108.898 Y102.416 E0.45729 ; fill
G1 X108.898 Y105.245 E0.14111 ; fill
G1 X105.245 Y108.898 E0.25773 ; fill
G1 X108.073 Y108.898 E0.14111 ; fill
G1 X108.898 Y108.073 E0.05817 ; fill
G1 F1800.000 E-2.40000 ; retract
G1 Z1.200 F6000.000 ; move to next layer (4)
G1 X109.750 Y109.750 F6000.000 ; move to first perimeter point
G1 E2.40000 F1800.000 ; compensate retraction
G1 X90.250 Y109.750 E0.97286 F1379.698 ; perimeter
G1 X90.250 Y90.250 E0.97286 ; perimeter
G1 X109.750 Y90.250 E0.97286 ; perimeter
G1 X109.750 Y109.675 E0.96912 ; perimeter
