; generated by Slic3r 1.2.5 on 2015-02-13 at 20:50:59

; external perimeters extrusion width = 0.50mm
; perimeters extrusion width = 0.50mm
; infill extrusion width = 0.50mm
; solid infill extrusion width = 0.50mm
; top infill extrusion width = 0.50mm

M107 ; disable fan
M190 S57 ; set bed temperature
M104 S185 ; set temperature

M109 S185 ; wait for temperature to be reached
G21 ; set units to millimeters
G90 ; use absolute coordinates
M83 ; use relative distances for extrusion
G1 E-4.00000 F1800.00000 ; retract
G1 Z0.240 F6000.000 ; move to next layer (0)
G1 X81.623 Y81.454 F6000.000 ; move to first skirt point
G1 E4.00000 F1800.00000 ; unretract
G1 X83.292 Y80.410 E0.07050 F600.000 ; skirt
G1 X85.000 Y80.103 E0.06211 ; skirt
G1 X115.000 Y80.103 E1.07403 ; skirt
G1 X116.929 Y80.499 E0.07050 ; skirt
G1 X118.546 Y81.623 E0.07050 F600.000 ; skirt
G1 X119.590 Y83.292 E0.07050 ; skirt
G1 X119.897 Y85.000 E0.06211 ; skirt
G1 X119.897 Y115.000 E1.07403 ; skirt
G1 X119.501 Y116.929 E0.07050 ; skirt
G1 X118.377 Y118.546 E0.07050 ; skirt
G1 X116.708 Y119.590 E0.07050 ; skirt
G1 X115.000 Y119.897 E0.06211 ; skirt
G1 X85.000 Y119.897 E1.07403 ; skirt
G1 X83.071 Y119.501 E0.07050 ; skirt
G1 X81.454 Y118.377 E0.07050 ; skirt
G1 X80.410 Y116.708 E0.07050 ; skirt
G1 X80.103 Y115.000 E0.06211 ; skirt
G1 X80.103 Y85.000 E1.07403 ; skirt
G1 X80.499 Y83.071 E0.07050 ; skirt
G1 X81.580 Y81.516 E0.06781 ; skirt
G1 X81.960 Y81.797 F6000.000 ; move to first skirt point
G1 X82.063 Y81.659 E0.00618 F600.000 ; skirt
G1 X83.702 Y80.745 E0.06716 ; skirt
G1 X85.000 Y80.552 E0.04700 ; skirt
G1 X115.000 Y80.552 E1.07403 ; skirt
G1 X116.834 Y80.947 E0.06716 ; skirt
G1 X118.341 Y82.063 E0.06716 F600.000 ; skirt
G1 X119.255 Y83.702 E0.06716 ; skirt
G1 X119.448 Y85.000 E0.04700 ; skirt
G1 X119.448 Y115.000 E1.07403 ; skirt
G1 X119.053 Y116.834 E0.06716 ; skirt
G1 X117.937 Y118.341 E0.06716 ; skirt
G1 X116.298 Y119.255 E0.06716 ; skirt
G1 X115.000 Y119.448 E0.04700 ; skirt
G1 X85.000 Y119.448 E1.07403 ; skirt
G1 X83.166 Y119.053 E0.06716 ; skirt
G1 X81.659 Y117.937 E0.06716 ; skirt
G1 X80.745 Y116.298 E0.06716 ; skirt
G1 X80.552 Y115.000 E0.04700 ; skirt
G1 X80.552 Y85.000 E1.07403 ; skirt
G1 X80.947 Y83.166 E0.06716 ; skirt
G1 X81.916 Y81.858 E0.05829 ; skirt
G1 E-4.00000 F1800.00000 ; retract
G1 X85.250 Y85.250 F6000.000 ; move to first perimeter point
G1 E4.00000 F1800.00000 ; unretract
G1 X114.750 Y85.250 E1.05613 F900.000 ; perimeter
G1 X114.750 Y114.750 E1.05613 ; perimeter
G1 X85.250 Y114.750 E1.05613 ; perimeter
G1 X85.250 Y85.325 E1.05344 ; perimeter
G1 X85.683 Y85.500 F6000.000 ; move inwards before travel
G1 X85.698 Y85.698 F6000.000 ; move to first perimeter point
G1 X114.302 Y85.698 E1.02401 F900.000 ; perimeter
G1 X114.302 Y114.302 E1.02401 ; perimeter
G1 X85.698 Y114.302 E1.02401 ; perimeter
G1 X85.698 Y85.773 E1.02133 ; perimeter
G1 E-4.00000 F1800.00000 ; retract
G1 X86.004 Y113.956 F6000.000 ; move to first infill point
G1 E4.00000 F1800.00000 ; unretract
G1 X86.044 Y113.996 E0.00202 F900.000 ; infill
G1 X86.679 Y113.996 E0.02278 ; infill
G1 X86.004 Y113.321 E0.03424 ; infill
G1 X86.004 Y112.686 E0.02278 ; infill
G1 X87.314 Y113.996 E0.06646 ; infill
G1 X87.949 Y113.996 E0.02278 ; infill
G1 X86.004 Y112.051 E0.09867 ; infill
G1 X86.004 Y111.415 E0.02278 ; infill
G1 X88.585 Y113.996 E0.13089 ; infill
G1 X89.220 Y113.996 E0.02278 ; infill
G1 X86.004 Y110.780 E0.16311 ; infill
G1 X86.004 Y110.145 E0.02278 ; infill
G1 X89.855 Y113.996 E0.19532 ; infill
G1 X90.491 Y113.996 E0.02278 ; infill
G1 X86.004 Y109.509 E0.22754 ; infill
G1 X86.004 Y108.874 E0.02278 ; infill
G1 X91.126 Y113.996 E0.25976 ; infill
G1 X91.761 Y113.996 E0.02278 ; infill
G1 X86.004 Y108.239 E0.29197 ; infill
G1 X86.004 Y107.604 E0.02278 ; infill
G1 X92.396 Y113.996 E0.32419 ; infill
G1 X93.032 Y113.996 E0.02278 ; infill
G1 X86.004 Y106.968 E0.35641 ; infill
G1 X86.004 Y106.333 E0.02278 ; infill
G1 X93.667 Y113.996 E0.38862 ; infill
G1 X94.302 Y113.996 E0.02278 ; infill
G1 X86.004 Y105.698 E0.42084 ; infill
G1 X86.004 Y105.062 E0.02278 ; infill
G1 X94.938 Y113.996 E0.45306 ; infill
G1 X95.573 Y113.996 E0.02278 ; infill
G1 X86.004 Y104.427 E0.48527 ; infill
G1 X86.004 Y103.792 E0.02278 ; infill
G1 X96.208 Y113.996 E0.51749 ; infill
G1 X96.843 Y113.996 E0.02278 ; infill
G1 X86.004 Y103.157 E0.54971 ; infill
G1 X86.004 Y102.521 E0.02278 ; infill
G1 X97.479 Y113.996 E0.58192 ; infill
G1 X98.114 Y113.996 E0.02278 ; infill
G1 X86.004 Y101.886 E0.61414 ; infill
G1 X86.004 Y101.251 E0.02278 ; infill
G1 X98.749 Y113.996 E0.64636 ; infill
G1 X99.385 Y113.996 E0.02278 ; infill
G1 X86.004 Y100.615 E0.67857 ; infill
G1 X86.004 Y99.980 E0.02278 ; infill
G1 X100.020 Y113.996 E0.71079 ; infill
G1 X100.655 Y113.996 E0.02278 ; infill
G1 X86.004 Y99.345 E0.74301 ; infill
G1 X86.004 Y98.709 E0.02278 ; infill
G1 X101.291 Y113.996 E0.77522 ; infill
G1 X101.926 Y113.996 E0.02278 ; infill
G1 X86.004 Y98.074 E0.80744 ; infill
G1 X86.004 Y97.439 E0.02278 ; infill
G1 X102.561 Y113.996 E0.83966 ; infill
G1 X103.196 Y113.996 E0.02278 ; infill
G1 X86.004 Y96.804 E0.87187 ; infill
G1 X86.004 Y96.168 E0.02278 ; infill
G1 X103.832 Y113.996 E0.90409 ; infill
G1 X104.467 Y113.996 E0.02278 ; infill
G1 X86.004 Y95.533 E0.93631 ; infill
G1 X86.004 Y94.898 E0.02278 ; infill
G1 X105.102 Y113.996 E0.96852 ; infill
G1 X105.738 Y113.996 E0.02278 ; infill
G1 X86.004 Y94.262 E1.00074 ; infill
G1 X86.004 Y93.627 E0.02278 ; infill
G1 X106.373 Y113.996 E1.03296 ; infill
G1 X107.008 Y113.996 E0.02278 ; infill
G1 X86.004 Y92.992 E1.06517 ; infill
G1 X86.004 Y92.357 E0.02278 ; infill
G1 X107.643 Y113.996 E1.09739 ; infill
G1 X108.279 Y113.996 E0.02278 ; infill
G1 X86.004 Y91.721 E1.12961 ; infill
G1 X86.004 Y91.086 E0.02278 ; infill
G1 X108.914 Y113.996 E1.16182 ; infill
G1 X109.549 Y113.996 E0.02278 ; infill
G1 X86.004 Y90.451 E1.19404 ; infill
G1 X86.004 Y89.815 E0.02278 ; infill
G1 X110.185 Y113.996 E1.22626 ; infill
G1 X110.820 Y113.996 E0.02278 ; infill
G1 X86.004 Y89.180 E1.25847 ; infill
G1 X86.004 Y88.545 E0.02278 ; infill
G1 X111.455 Y113.996 E1.29069 ; infill
G1 X112.090 Y113.996 E0.02278 ; infill
G1 X86.004 Y87.910 E1.32290 ; infill
G1 X86.004 Y87.274 E0.02278 ; infill
G1 X112.726 Y113.996 E1.35512 ; infill
G1 X113.361 Y113.996 E0.02278 ; infill
G1 X86.004 Y86.639 E1.38734 ; infill
G1 X86.024 Y86.024 E0.02208 ; infill
G1 X113.976 Y113.976 E1.41753 ; infill
G1 X113.996 Y113.361 E0.02207 ; infill
G1 X86.639 Y86.004 E1.38734 ; infill
G1 X87.274 Y86.004 E0.02278 ; infill
G1 X113.996 Y112.726 E1.35513 ; infill
G1 X113.996 Y112.091 E0.02278 ; infill
G1 X87.909 Y86.004 E1.32291 ; infill
G1 X88.545 Y86.004 E0.02278 ; infill
G1 X113.996 Y111.455 E1.29069 ; infill
G1 X113.996 Y110.820 E0.02278 ; infill
G1 X89.180 Y86.004 E1.25848 ; infill
G1 X89.815 Y86.004 E0.02278 ; infill
G1 X113.996 Y110.185 E1.22626 ; infill
G1 X113.996 Y109.549 E0.02278 ; infill
G1 X90.451 Y86.004 E1.19404 ; infill
G1 X91.086 Y86.004 E0.02278 ; infill
G1 X113.996 Y108.914 E1.16183 ; infill
G1 X113.996 Y108.279 E0.02278 ; infill
G1 X91.721 Y86.004 E1.12961 ; infill
G1 X92.356 Y86.004 E0.02278 ; infill
G1 X113.996 Y107.643 E1.09739 ; infill
G1 X113.996 Y107.008 E0.02278 ; infill
G1 X92.992 Y86.004 E1.06518 ; infill
G1 X93.627 Y86.004 E0.02278 ; infill
G1 X113.996 Y106.373 E1.03296 ; infill
G1 X113.996 Y105.738 E0.02278 ; infill
G1 X94.262 Y86.004 E1.00074 ; infill
G1 X94.898 Y86.004 E0.02278 ; infill
G1 X113.996 Y105.102 E0.96853 ; infill
G1 X113.996 Y104.467 E0.02278 ; infill
G1 X95.533 Y86.004 E0.93631 ; infill
G1 X96.168 Y86.004 E0.02278 ; infill
G1 X113.996 Y103.832 E0.90409 ; infill
G1 X113.996 Y103.196 E0.02278 ; infill
G1 X96.804 Y86.004 E0.87188 ; infill
G1 X97.439 Y86.004 E0.02278 ; infill
G1 X113.996 Y102.561 E0.83966 ; infill
G1 X113.996 Y101.926 E0.02278 ; infill
G1 X98.074 Y86.004 E0.80744 ; infill
G1 X98.709 Y86.004 E0.02278 ; infill
G1 X113.996 Y101.291 E0.77523 ; infill
G1 X113.996 Y100.655 E0.02278 ; infill
G1 X99.345 Y86.004 E0.74301 ; infill
G1 X99.980 Y86.004 E0.02278 ; infill
G1 X113.996 Y100.020 E0.71079 ; infill
G1 X113.996 Y99.385 E0.02278 ; infill
G1 X100.615 Y86.004 E0.67858 ; infill
G1 X101.251 Y86.004 E0.02278 ; infill
G1 X113.996 Y98.749 E0.64636 ; infill
G1 X113.996 Y98.114 E0.02278 ; infill
G1 X101.886 Y86.004 E0.61414 ; infill
G1 X102.521 Y86.004 E0.02278 ; infill
G1 X113.996 Y97.479 E0.58193 ; infill
G1 X113.996 Y96.844 E0.02278 ; infill
G1 X103.156 Y86.004 E0.54971 ; infill
G1 X103.792 Y86.004 E0.02278 ; infill
G1 X113.996 Y96.208 E0.51749 ; infill
G1 X113.996 Y95.573 E0.02278 ; infill
G1 X104.427 Y86.004 E0.48528 ; infill
G1 X105.062 Y86.004 E0.02278 ; infill
G1 X113.996 Y94.938 E0.45306 ; infill
G1 X113.996 Y94.302 E0.02278 ; infill
G1 X105.698 Y86.004 E0.42084 ; infill
G1 X106.333 Y86.004 E0.02278 ; infill
G1 X113.996 Y93.667 E0.38863 ; infill
G1 X113.996 Y93.032 E0.02278 ; infill
G1 X106.968 Y86.004 E0.35641 ; infill
G1 X107.603 Y86.004 E0.02278 ; infill
G1 X113.996 Y92.397 E0.32419 ; infill
G1 X113.996 Y91.761 E0.02278 ; infill
G1 X108.239 Y86.004 E0.29198 ; infill
G1 X108.874 Y86.004 E0.02278 ; infill
G1 X113.996 Y91.126 E0.25976 ; infill
G1 X113.996 Y90.491 E0.02278 ; infill
G1 X109.509 Y86.004 E0.22754 ; infill
G1 X110.145 Y86.004 E0.02278 ; infill
G1 X113.996 Y89.855 E0.19533 ; infill
G1 X113.996 Y89.220 E0.02278 ; infill
G1 X110.780 Y86.004 E0.16311 ; infill
G1 X111.415 Y86.004 E0.02278 ; infill
G1 X113.996 Y88.585 E0.13089 ; infill
G1 X113.996 Y87.950 E0.02278 ; infill
G1 X112.050 Y86.004 E0.09868 ; infill
G1 X112.686 Y86.004 E0.02278 ; infill
G1 X113.996 Y87.314 E0.06646 ; infill
G1 X113.996 Y86.679 E0.02278 ; infill
G1 X113.321 Y86.004 E0.03425 ; infill
G1 X113.956 Y86.004 E0.02278 ; infill
G1 X113.996 Y86.044 E0.00203 ; infill
G1 E-4.00000 F1800.00000 ; retract
G1 Z0.480 F6000.000 ; move to next layer (1)
G1 X114.750 Y85.250 F6000.000 ; move to first perimeter point
G1 E4.00000 F1800.00000 ; unretract
G1 X114.750 Y114.750 E1.05613 F1800.000 ; perimeter
G1 X85.250 Y114.750 E1.05613 ; perimeter
G1 X85.250 Y85.250 E1.05613 ; perimeter
G1 X114.675 Y85.250 E1.05344 ; perimeter
G1 X114.500 Y85.683 F6000.000 ; move inwards before travel
G1 X114.302 Y85.698 F6000.000 ; move to first perimeter point
G1 X114.302 Y114.302 E1.02401 F1800.000 ; perimeter
G1 X85.698 Y114.302 E1.02401 ; perimeter
G1 X85.698 Y85.698 E1.02401 ; perimeter
G1 X114.227 Y85.698 E1.02133 ; perimeter
G1 E-4.00000 F1800.00000 ; retract
G1 X86.044 Y86.004 F6000.000 ; move to first infill point
G1 E4.00000 F1800.00000 ; unretract
G1 X86.004 Y86.044 E0.00202 F1800.000 ; infill
G1 X86.004 Y86.679 E0.02278 ; infill
G1 X86.679 Y86.004 E0.03424 ; infill
G1 X87.314 Y86.004 E0.02278 ; infill
G1 X86.004 Y87.314 E0.06646 ; infill
G1 X86.004 Y87.949 E0.02278 ; infill
G1 X87.949 Y86.004 E0.09867 ; infill
G1 X88.585 Y86.004 E0.02278 ; infill
G1 X86.004 Y88.585 E0.13089 ; infill
G1 X86.004 Y89.220 E0.02278 ; infill
G1 X89.220 Y86.004 E0.16311 ; infill
G1 X89.855 Y86.004 E0.02278 ; infill
G1 X86.004 Y89.855 E0.19532 ; infill
G1 X86.004 Y90.491 E0.02278 ; infill
G1 X90.491 Y86.004 E0.22754 ; infill
G1 X91.126 Y86.004 E0.02278 ; infill
G1 X86.004 Y91.126 E0.25976 ; infill
G1 X86.004 Y91.761 E0.02278 ; infill
G1 X91.761 Y86.004 E0.29197 ; infill
G1 X92.396 Y86.004 E0.02278 ; infill
G1 X86.004 Y92.396 E0.32419 ; infill
G1 X86.004 Y93.032 E0.02278 ; infill
G1 X93.032 Y86.004 E0.35641 ; infill
G1 X93.667 Y86.004 E0.02278 ; infill
G1 X86.004 Y93.667 E0.38862 ; infill
G1 X86.004 Y94.302 E0.02278 ; infill
G1 X94.302 Y86.004 E0.42084 ; infill
G1 X94.938 Y86.004 E0.02278 ; infill
G1 X86.004 Y94.938 E0.45306 ; infill
G1 X86.004 Y95.573 E0.02278 ; infill
G1 X95.573 Y86.004 E0.48527 ; infill
G1 X96.208 Y86.004 E0.02278 ; infill
G1 X86.004 Y96.208 E0.51749 ; infill
G1 X86.004 Y96.843 E0.02278 ; infill
G1 X96.843 Y86.004 E0.54971 ; infill
G1 X97.479 Y86.004 E0.02278 ; infill
G1 X86.004 Y97.479 E0.58192 ; infill
G1 X86.004 Y98.114 E0.02278 ; infill
G1 X98.114 Y86.004 E0.61414 ; infill
G1 X98.749 Y86.004 E0.02278 ; infill
G1 X86.004 Y98.749 E0.64636 ; infill
G1 X86.004 Y99.385 E0.02278 ; infill
G1 X99.385 Y86.004 E0.67857 ; infill
G1 X100.020 Y86.004 E0.02278 ; infill
G1 X86.004 Y100.020 E0.71079 ; infill
G1 X86.004 Y100.655 E0.02278 ; infill
G1 X100.655 Y86.004 E0.74301 ; infill
G1 X101.291 Y86.004 E0.02278 ; infill
G1 X86.004 Y101.291 E0.77522 ; infill
G1 X86.004 Y101.926 E0.02278 ; infill
G1 X101.926 Y86.004 E0.80744 ; infill
G1 X102.561 Y86.004 E0.02278 ; infill
G1 X86.004 Y102.561 E0.83966 ; infill
G1 X86.004 Y103.196 E0.02278 ; infill
G1 X103.196 Y86.004 E0.87187 ; infill
G1 X103.832 Y86.004 E0.02278 ; infill
G1 X86.004 Y103.832 E0.90409 ; infill
G1 X86.004 Y104.467 E0.02278 ; infill
G1 X104.467 Y86.004 E0.93631 ; infill
G1 X105.102 Y86.004 E0.02278 ; infill
G1 X86.004 Y105.102 E0.96852 ; infill
G1 X86.004 Y105.738 E0.02278 ; infill
G1 X105.738 Y86.004 E1.00074 ; infill
G1 X106.373 Y86.004 E0.02278 ; infill
G1 X86.004 Y106.373 E1.03296 ; infill
G1 X86.004 Y107.008 E0.02278 ; infill
G1 X107.008 Y86.004 E1.06517 ; infill
G1 X107.643 Y86.004 E0.02278 ; infill
G1 X86.004 Y107.643 E1.09739 ; infill
G1 X86.004 Y108.279 E0.02278 ; infill
G1 X108.279 Y86.004 E1.12961 ; infill
G1 X108.914 Y86.004 E0.02278 ; infill
G1 X86.004 Y108.914 E1.16182 ; infill
G1 X86.004 Y109.549 E0.02278 ; infill
G1 X109.549 Y86.004 E1.19404 ; infill
G1 X110.185 Y86.004 E0.02278 ; infill
G1 X86.004 Y110.185 E1.22626 ; infill
G1 X86.004 Y110.820 E0.02278 ; infill
G1 X110.820 Y86.004 E1.25847 ; infill
G1 X111.455 Y86.004 E0.02278 ; infill
G1 X86.004 Y111.455 E1.29069 ; infill
G1 X86.004 Y112.090 E0.02278 ; infill
G1 X112.090 Y86.004 E1.32290 ; infill
G1 X112.726 Y86.004 E0.02278 ; infill
G1 X86.004 Y112.726 E1.35512 ; infill
G1 X86.004 Y113.361 E0.02278 ; infill
G1 X113.361 Y86.004 E1.38734 ; infill
G1 X113.976 Y86.024 E0.02208 ; infill
G1 X86.024 Y113.976 E1.41753 ; infill
G1 X86.639 Y113.996 E0.02207 ; infill
G1 X113.996 Y86.639 E1.38734 ; infill
G1 X113.996 Y87.274 E0.02278 ; infill
G1 X87.274 Y113.996 E1.35512 ; infill
G1 X87.909 Y113.996 E0.02278 ; infill
G1 X113.996 Y87.909 E1.32291 ; infill
G1 X113.996 Y88.545 E0.02278 ; infill
G1 X88.545 Y113.996 E1.29069 ; infill
G1 X89.180 Y113.996 E0.02278 ; infill
G1 X113.996 Y89.180 E1.25848 ; infill
G1 X113.996 Y89.815 E0.02278 ; infill
G1 X89.815 Y113.996 E1.22626 ; infill
G1 X90.451 Y113.996 E0.02278 ; infill
G1 X113.996 Y90.451 E1.19404 ; infill
G1 X113.996 Y91.086 E0.02278 ; infill
G1 X91.086 Y113.996 E1.16183 ; infill
G1 X91.721 Y113.996 E0.02278 ; infill
G1 X113.996 Y91.721 E1.12961 ; infill
G1 X113.996 Y92.356 E0.02278 ; infill
G1 X92.356 Y113.996 E1.09739 ; infill
G1 X92.992 Y113.996 E0.02278 ; infill
G1 X113.996 Y92.992 E1.06518 ; infill
G1 X113.996 Y93.627 E0.02278 ; infill
G1 X93.627 Y113.996 E1.03296 ; infill
G1 X94.262 Y113.996 E0.02278 ; infill
G1 X113.996 Y94.262 E1.00074 ; infill
G1 X113.996 Y94.898 E0.02278 ; infill
G1 X94.898 Y113.996 E0.96853 ; infill
G1 X95.533 Y113.996 E0.02278 ; infill
G1 X113.996 Y95.533 E0.93631 ; infill
G1 X113.996 Y96.168 E0.02278 ; infill
G1 X96.168 Y113.996 E0.90409 ; infill
G1 X96.804 Y113.996 E0.02278 ; infill
G1 X113.996 Y96.804 E0.87188 ; infill
G1 X113.996 Y97.439 E0.02278 ; infill
G1 X97.439 Y113.996 E0.83966 ; infill
G1 X98.074 Y113.996 E0.02278 ; infill
G1 X113.996 Y98.074 E0.80744 ; infill
G1 X113.996 Y98.709 E0.02278 ; infill
G1 X98.709 Y113.996 E0.77523 ; infill
G1 X99.345 Y113.996 E0.02278 ; infill
G1 X113.996 Y99.345 E0.74301 ; infill
G1 X113.996 Y99.980 E0.02278 ; infill
G1 X99.980 Y113.996 E0.71079 ; infill
G1 X100.615 Y113.996 E0.02278 ; infill
G1 X113.996 Y100.615 E0.67858 ; infill
G1 X113.996 Y101.251 E0.02278 ; infill
G1 X101.251 Y113.996 E0.64636 ; infill
G1 X101.886 Y113.996 E0.02278 ; infill
G1 X113.996 Y101.886 E0.61414 ; infill
G1 X113.996 Y102.521 E0.02278 ; infill
G1 X102.521 Y113.996 E0.58193 ; infill
G1 X103.156 Y113.996 E0.02278 ; infill
G1 X113.996 Y103.156 E0.54971 ; infill
G1 X113.996 Y103.792 E0.02278 ; infill
G1 X103.792 Y113.996 E0.51749 ; infill
