; generated by Slic3r 1.1.6 on 2015-01-11 at 16:43:10

; perimeters extrusion width = 0.50mm
; infill extrusion width = 0.50mm
; solid infill extrusion width = 0.50mm
; top infill extrusion width = 0.50mm

G21 ; set units to millimeters
M107 ; disable fan
M190 S57 ; wait for bed temperature to be reached
M104 S200 ; set temperature

M109 S200 ; wait for temperature to be reached
G90 ; use absolute coordinates
M83 ; use relative distances for extrusion
G1 F1800.000 E-4.00000 ; retract
G1 Z0.240 F6000.000 ; move to next layer (0)
G1 X52.027 Y86.797 F6000.000 ; move to first skirt point
G1 E4.00000 F1800.000 ; compensate retraction
G1 X91.660 Y51.439 E3.17340 F600.000 ; skirt
G1 X92.386 Y50.839 E0.05625 ; skirt
G1 X92.945 Y50.433 E0.04127 ; skirt
G1 X93.738 Y49.930 E0.05613 ; skirt
G1 X94.345 Y49.596 E0.04139 ; skirt
G1 X95.839 Y48.941 E0.09747 ; skirt
G1 X97.403 Y48.478 E0.09748 ; skirt
G1 X98.326 Y48.302 E0.05612 ; skirt
G1 X99.013 Y48.215 E0.04140 ; skirt
G1 X100.644 Y48.156 E0.09748 ; skirt
G1 X102.269 Y48.301 E0.09747 ; skirt
G1 X103.862 Y48.649 E0.09748 ; skirt
G1 X104.755 Y48.939 E0.05606 ; skirt
G1 X105.400 Y49.195 E0.04146 ; skirt
G1 X106.249 Y49.594 E0.05606 ; skirt
G1 X106.857 Y49.928 E0.04146 ; skirt
G1 X108.211 Y50.839 E0.09748 ; skirt
G1 X109.223 Y51.693 E0.07914 ; skirt
G1 X148.321 Y88.926 E3.22582 ; skirt
G1 X149.405 Y90.145 E0.09748 ; skirt
G1 X150.329 Y91.490 E0.09747 ; skirt
G1 X151.077 Y92.940 E0.09747 ; skirt
G1 X151.637 Y94.472 E0.09748 ; skirt
G1 X151.870 Y95.383 E0.05618 ; skirt
G1 X152.000 Y96.062 E0.04134 ; skirt
G1 X152.162 Y97.686 E0.09747 ; skirt
G1 X152.118 Y99.317 E0.09747 ; skirt
G1 X152.001 Y100.247 E0.05606 ; skirt
G1 X151.871 Y100.929 E0.04146 ; skirt
G1 X151.423 Y102.498 E0.09747 ; skirt
G1 X151.077 Y103.372 E0.05618 ; skirt
G1 X150.783 Y103.998 E0.04134 ; skirt
G1 X150.330 Y104.822 E0.05615 ; skirt
G1 X149.959 Y105.406 E0.04136 ; skirt
G1 X149.407 Y106.166 E0.05609 ; skirt
G1 X148.965 Y106.700 E0.04144 ; skirt
G1 X148.259 Y107.451 E0.06158 ; skirt
G1 X108.340 Y148.561 E3.42373 ; skirt
G1 X107.614 Y149.161 E0.05623 ; skirt
G1 X107.055 Y149.567 E0.04129 ; skirt
G1 X106.261 Y150.071 E0.05621 ; skirt
G1 X105.655 Y150.404 E0.04131 ; skirt
G1 X104.161 Y151.059 E0.09748 ; skirt
G1 X103.269 Y151.349 E0.05603 ; skirt
G1 X102.597 Y151.522 E0.04148 ; skirt
G1 X101.673 Y151.698 E0.05620 ; skirt
G1 X100.987 Y151.785 E0.04131 ; skirt
G1 X100.051 Y151.844 E0.05602 ; skirt
G1 X99.356 Y151.844 E0.04150 ; skirt
G1 X98.421 Y151.785 E0.05600 ; skirt
G1 X97.731 Y151.699 E0.04152 ; skirt
G1 X96.138 Y151.351 E0.09747 ; skirt
G1 X94.600 Y150.805 E0.09748 ; skirt
G1 X93.751 Y150.406 E0.05605 ; skirt
G1 X93.143 Y150.072 E0.04146 ; skirt
G1 X91.789 Y149.161 E0.09747 ; skirt
G1 X90.560 Y148.088 E0.09748 ; skirt
G1 X89.867 Y147.350 E0.06052 ; skirt
G1 X50.595 Y104.377 E3.47822 ; skirt
G1 X49.671 Y103.033 E0.09747 ; skirt
G1 X48.923 Y101.583 E0.09747 ; skirt
G1 X48.363 Y100.050 E0.09747 ; skirt
G1 X48.129 Y99.139 E0.05624 ; skirt
G1 X48.000 Y98.460 E0.04129 ; skirt
G1 X47.838 Y96.837 E0.09747 ; skirt
G1 X47.882 Y95.206 E0.09747 ; skirt
G1 X47.999 Y94.274 E0.05611 ; skirt
G1 X48.129 Y93.593 E0.04142 ; skirt
G1 X48.577 Y92.024 E0.09747 ; skirt
G1 X48.923 Y91.150 E0.05622 ; skirt
G1 X49.217 Y90.524 E0.04130 ; skirt
G1 X49.670 Y89.701 E0.05613 ; skirt
G1 X50.041 Y89.116 E0.04139 ; skirt
G1 X50.592 Y88.357 E0.05601 ; skirt
G1 X51.035 Y87.822 E0.04151 ; skirt
G1 X51.677 Y87.138 E0.05605 ; skirt
G1 X51.973 Y86.849 E0.02474 ; skirt
G1 X52.525 Y87.355 F6000.000 ; move to first skirt point
G1 X92.138 Y52.016 E3.17173 F600.000 ; skirt
G1 X92.863 Y51.416 E0.05622 ; skirt
G1 X93.346 Y51.065 E0.03569 ; skirt
G1 X94.139 Y50.562 E0.05611 ; skirt
G1 X94.664 Y50.273 E0.03580 ; skirt
G1 X96.070 Y49.652 E0.09186 ; skirt
G1 X97.544 Y49.213 E0.09186 ; skirt
G1 X98.466 Y49.037 E0.05610 ; skirt
G1 X99.060 Y48.962 E0.03580 ; skirt
G1 X100.597 Y48.903 E0.09186 ; skirt
G1 X102.128 Y49.037 E0.09186 ; skirt
G1 X103.631 Y49.361 E0.09186 ; skirt
G1 X104.523 Y49.651 E0.05605 ; skirt
G1 X105.081 Y49.872 E0.03585 ; skirt
G1 X105.930 Y50.271 E0.05605 ; skirt
G1 X106.456 Y50.560 E0.03586 ; skirt
G1 X107.734 Y51.415 E0.09186 ; skirt
G1 X108.707 Y52.235 E0.07602 ; skirt
G1 X147.775 Y89.439 E3.22332 ; skirt
G1 X148.800 Y90.585 E0.09186 ; skirt
G1 X149.673 Y91.850 E0.09186 ; skirt
G1 X150.381 Y93.215 E0.09186 ; skirt
G1 X150.912 Y94.658 E0.09186 ; skirt
G1 X151.145 Y95.569 E0.05616 ; skirt
G1 X151.258 Y96.156 E0.03575 ; skirt
G1 X151.413 Y97.686 E0.09186 ; skirt
G1 X151.376 Y99.223 E0.09186 ; skirt
G1 X151.258 Y100.153 E0.05605 ; skirt
G1 X151.146 Y100.743 E0.03585 ; skirt
G1 X150.727 Y102.222 E0.09186 ; skirt
G1 X150.381 Y103.096 E0.05615 ; skirt
G1 X150.127 Y103.638 E0.03575 ; skirt
G1 X149.674 Y104.461 E0.05613 ; skirt
G1 X149.353 Y104.966 E0.03577 ; skirt
G1 X148.802 Y105.726 E0.05607 ; skirt
G1 X148.420 Y106.188 E0.03583 ; skirt
G1 X147.722 Y106.930 E0.06086 ; skirt
G1 X107.862 Y147.984 E3.41884 ; skirt
G1 X107.138 Y148.584 E0.05620 ; skirt
G1 X106.654 Y148.935 E0.03570 ; skirt
G1 X105.860 Y149.439 E0.05618 ; skirt
G1 X105.336 Y149.727 E0.03572 ; skirt
G1 X103.930 Y150.348 E0.09186 ; skirt
G1 X103.038 Y150.637 E0.05603 ; skirt
G1 X102.456 Y150.787 E0.03587 ; skirt
G1 X101.533 Y150.963 E0.05617 ; skirt
G1 X100.940 Y151.038 E0.03573 ; skirt
G1 X100.004 Y151.097 E0.05602 ; skirt
G1 X99.403 Y151.097 E0.03589 ; skirt
G1 X98.468 Y151.038 E0.05600 ; skirt
G1 X97.872 Y150.963 E0.03590 ; skirt
G1 X96.369 Y150.639 E0.09186 ; skirt
G1 X94.919 Y150.128 E0.09186 ; skirt
G1 X94.070 Y149.729 E0.05604 ; skirt
G1 X93.544 Y149.440 E0.03586 ; skirt
G1 X92.266 Y148.585 E0.09186 ; skirt
G1 X91.106 Y147.576 E0.09186 ; skirt
G1 X90.419 Y146.844 E0.05994 ; skirt
G1 X51.200 Y103.937 E3.47319 ; skirt
G1 X50.327 Y102.672 E0.09186 ; skirt
G1 X49.619 Y101.307 E0.09186 ; skirt
G1 X49.088 Y99.864 E0.09186 ; skirt
G1 X48.854 Y98.953 E0.05620 ; skirt
G1 X48.742 Y98.366 E0.03570 ; skirt
G1 X48.587 Y96.837 E0.09186 ; skirt
G1 X48.624 Y95.300 E0.09186 ; skirt
G1 X48.742 Y94.368 E0.05609 ; skirt
G1 X48.854 Y93.779 E0.03581 ; skirt
G1 X49.273 Y92.300 E0.09186 ; skirt
G1 X49.619 Y91.426 E0.05619 ; skirt
G1 X49.873 Y90.885 E0.03572 ; skirt
G1 X50.326 Y90.062 E0.05611 ; skirt
G1 X50.647 Y89.556 E0.03580 ; skirt
G1 X51.198 Y88.797 E0.05601 ; skirt
G1 X51.580 Y88.334 E0.03589 ; skirt
G1 X52.471 Y87.408 E0.07682 ; skirt
G1 F1800.000 E-4.00000 ; retract
G1 X105.888 Y56.159 F6000.000 ; move to first perimeter point
G1 E4.00000 F1800.000 ; compensate retraction
G1 X105.905 Y57.198 E0.06205 F900.000 ; perimeter
G1 X106.168 Y57.597 E0.02854 ; perimeter
G1 X106.137 Y58.061 E0.02779 ; perimeter
G1 X106.058 Y58.766 E0.04242 ; perimeter
G1 F1800.000 E-4.00000 ; retract
G1 X101.212 Y56.345 F6000.000 ; move to first perimeter point
G1 E4.00000 F1800.000 ; compensate retraction
G1 X100.814 Y56.522 E0.02598 F900.000 ; perimeter
G1 X98.748 Y54.225 E0.18461 ; perimeter
G1 X99.409 Y54.099 E0.04017 ; perimeter
G1 X100.299 Y54.043 E0.05327 ; perimeter
G1 X100.977 Y54.085 E0.04064 ; perimeter
G1 X101.204 Y56.271 E0.13129 ; perimeter
G1 X100.786 Y56.255 F6000.000 ; move inwards before travel
G1 F1800.000 E-4.00000 ; retract
G1 X97.915 Y56.881 F6000.000 ; move to first perimeter point
G1 E4.00000 F1800.000 ; compensate retraction
G1 X97.724 Y57.271 E0.02598 F900.000 ; perimeter
G1 X94.625 Y56.834 E0.18702 ; perimeter
G1 X95.439 Y55.967 E0.07106 ; perimeter
G1 X96.265 Y55.283 E0.06409 ; perimeter
G1 X97.861 Y56.828 E0.13274 ; perimeter
G1 X97.531 Y57.084 F6000.000 ; move inwards before travel
G1 F1800.000 E-4.00000 ; retract
G1 X103.663 Y57.934 F6000.000 ; move to first perimeter point
G1 E4.00000 F1800.000 ; compensate retraction
G1 X103.556 Y54.818 E0.18632 F900.000 ; perimeter
G1 X104.471 Y55.398 E0.06475 ; perimeter
G1 X105.158 Y55.967 E0.05327 ; perimeter
G1 X105.353 Y56.174 E0.01701 ; perimeter
G1 X104.081 Y58.055 E0.13564 ; perimeter
G1 X103.735 Y57.955 E0.02150 ; perimeter
G1 X103.943 Y57.520 F6000.000 ; move inwards before travel
G1 F1800.000 E-4.00000 ; retract
G1 X104.938 Y60.848 F6000.000 ; move to first perimeter point
G1 E4.00000 F1800.000 ; compensate retraction
G1 X106.840 Y58.416 E0.18443 F900.000 ; perimeter
G1 X107.050 Y58.948 E0.03417 ; perimeter
G1 X107.272 Y59.812 E0.05326 ; perimeter
G1 X107.370 Y60.584 E0.04651 ; perimeter
G1 X105.181 Y61.208 E0.13601 ; perimeter
G1 X104.980 Y60.910 E0.02150 ; perimeter
G1 X105.418 Y60.710 F6000.000 ; move inwards before travel
G1 F1800.000 E-4.00000 ; retract
G1 X95.838 Y59.832 F6000.000 ; move to first perimeter point
G1 E4.00000 F1800.000 ; compensate retraction
G1 X93.213 Y61.470 E0.18488 F900.000 ; perimeter
G1 X93.213 Y60.696 E0.04622 ; perimeter
G1 X93.325 Y59.812 E0.05327 ; perimeter
G1 X93.470 Y59.248 E0.03475 ; perimeter
G1 X95.734 Y59.410 E0.13561 ; perimeter
G1 X95.820 Y59.759 E0.02150 ; perimeter
G1 X95.340 Y59.796 F6000.000 ; move inwards before travel
G1 F1800.000 E-4.00000 ; retract
G1 X104.041 Y63.898 F6000.000 ; move to first perimeter point
G1 E4.00000 F1800.000 ; compensate retraction
G1 X107.083 Y63.254 E0.18573 F900.000 ; perimeter
G1 X106.722 Y64.164 E0.05851 ; perimeter
G1 X106.293 Y64.946 E0.05327 ; perimeter
G1 X106.067 Y65.256 E0.02294 ; perimeter
G1 X103.996 Y64.331 E0.13555 ; perimeter
G1 X104.034 Y63.973 E0.02150 ; perimeter
G1 X104.498 Y64.102 F6000.000 ; move inwards before travel
G1 F1800.000 E-4.00000 ; retract
G1 X96.040 Y63.005 F6000.000 ; move to first perimeter point
G1 E4.00000 F1800.000 ; compensate retraction
G1 X95.066 Y65.994 E0.18784 F900.000 ; perimeter
G1 X94.304 Y64.946 E0.07744 ; perimeter
G1 X93.835 Y64.092 E0.05823 ; perimeter
G1 X95.688 Y62.749 E0.13673 ; perimeter
G1 X95.979 Y62.961 E0.02150 ; perimeter
G1 X95.635 Y63.299 F6000.000 ; move inwards before travel
G1 F1800.000 E-4.00000 ; retract
G1 X101.081 Y65.961 F6000.000 ; move to first perimeter point
G1 E4.00000 F1800.000 ; compensate retraction
G1 X101.394 Y65.659 E0.02598 F900.000 ; perimeter
G1 X104.183 Y67.144 E0.18878 ; perimeter
G1 X102.912 Y67.742 E0.08391 ; perimeter
G1 X102.078 Y68.013 E0.05237 ; perimeter
G1 X101.114 Y66.029 E0.13185 ; perimeter
G1 X101.511 Y65.901 F6000.000 ; move inwards before travel
G1 F1800.000 E-4.00000 ; retract
G1 X99.393 Y68.182 F6000.000 ; move to first perimeter point
G1 E4.00000 F1800.000 ; compensate retraction
G1 X98.533 Y68.018 E0.05233 F900.000 ; perimeter
G1 X97.685 Y67.742 E0.05327 ; perimeter
G1 X97.248 Y67.537 E0.02886 ; perimeter
G1 X97.800 Y65.336 E0.13554 ; perimeter
G1 X98.234 Y65.307 E0.02598 ; perimeter
G1 X99.365 Y68.113 E0.18077 ; perimeter
G1 X98.960 Y67.933 F6000.000 ; move inwards before travel
G1 X98.243 Y66.726 F6000.000 ; move to first fill point
G1 X98.188 Y66.671 E0.00464 F900.000 ; fill
G1 F1800.000 E-4.00000 ; retract
G1 X94.869 Y64.847 F6000.000 ; move to first fill point
G1 E4.00000 F1800.000 ; compensate retraction
G1 X94.819 Y64.796 E0.00428 F900.000 ; fill
G1 X95.146 Y64.063 E0.04796 ; fill
G1 X95.039 Y63.956 E0.00903 ; fill
G1 F1800.000 E-4.00000 ; retract
G1 X93.771 Y60.453 F6000.000 ; move to first fill point
G1 E4.00000 F1800.000 ; compensate retraction
G1 X93.803 Y60.486 E0.00274 F900.000 ; fill
G1 X94.453 Y59.888 E0.05276 ; fill
G1 X94.404 Y59.839 E0.00414 ; fill
G1 F1800.000 E-4.00000 ; retract
G1 X96.638 Y56.400 F6000.000 ; move to first fill point
G1 E4.00000 F1800.000 ; compensate retraction
G1 X96.229 Y55.991 E0.03456 F900.000 ; fill
G1 F1800.000 E-4.00000 ; retract
G1 X100.464 Y54.577 F6000.000 ; move to first fill point
G1 E4.00000 F1800.000 ; compensate retraction
G1 X100.507 Y54.620 E0.00370 F900.000 ; fill
G1 F1800.000 E-4.00000 ; retract
G1 X104.497 Y56.098 F6000.000 ; move to first fill point
G1 E4.00000 F1800.000 ; compensate retraction
G1 X104.662 Y56.263 E0.01392 F900.000 ; fill
G1 F1800.000 E-4.00000 ; retract
G1 X106.644 Y59.547 F6000.000 ; move to first fill point
G1 E4.00000 F1800.000 ; compensate retraction
G1 X106.672 Y59.575 E0.00235 F900.000 ; fill
G1 X106.182 Y60.264 E0.05049 ; fill
G1 X106.272 Y60.354 E0.00760 ; fill
G1 F1800.000 E-4.00000 ; retract
G1 X106.178 Y63.980 F6000.000 ; move to first fill point
G1 E4.00000 F1800.000 ; compensate retraction
G1 X106.210 Y64.011 E0.00267 F900.000 ; fill
G1 X105.419 Y64.394 E0.05251 ; fill
G1 X105.361 Y64.336 E0.00488 ; fill
G1 F1800.000 E-4.00000 ; retract
G1 X102.923 Y67.066 F6000.000 ; move to first fill point
G1 E4.00000 F1800.000 ; compensate retraction
G1 X102.972 Y67.115 E0.00410 F900.000 ; fill
G1 F1800.000 E-4.00000 ; retract
G1 X66.410 Y91.383 F6000.000 ; move to first perimeter point
G1 E4.00000 F1800.000 ; compensate retraction
G1 X66.428 Y92.422 E0.06205 F900.000 ; perimeter
G1 X66.690 Y92.821 E0.02854 ; perimeter
G1 X66.659 Y93.285 E0.02779 ; perimeter
G1 X66.580 Y93.990 E0.04242 ; perimeter
G1 F1800.000 E-4.00000 ; retract
G1 X61.336 Y91.746 F6000.000 ; move to first perimeter point
G1 E4.00000 F1800.000 ; compensate retraction
G1 X59.270 Y89.448 E0.18461 F900.000 ; perimeter
G1 X59.931 Y89.322 E0.04017 ; perimeter
G1 X60.821 Y89.266 E0.05327 ; perimeter
G1 X61.499 Y89.309 E0.04064 ; perimeter
G1 X61.734 Y91.569 E0.13577 ; perimeter
G1 X61.405 Y91.715 E0.02150 ; perimeter
G1 X61.285 Y91.249 F6000.000 ; move inwards before travel
G1 F1800.000 E-4.00000 ; retract
G1 X58.437 Y92.104 F6000.000 ; move to first perimeter point
G1 E4.00000 F1800.000 ; compensate retraction
G1 X58.246 Y92.495 E0.02598 F900.000 ; perimeter
G1 X55.147 Y92.058 E0.18702 ; perimeter
G1 X55.961 Y91.191 E0.07106 ; perimeter
G1 X56.787 Y90.507 E0.06409 ; perimeter
G1 X58.383 Y92.052 E0.13274 ; perimeter
G1 X58.053 Y92.308 F6000.000 ; move inwards before travel
G1 F1800.000 E-4.00000 ; retract
G1 X64.185 Y93.158 F6000.000 ; move to first perimeter point
G1 E4.00000 F1800.000 ; compensate retraction
G1 X64.078 Y90.042 E0.18632 F900.000 ; perimeter
G1 X64.993 Y90.622 E0.06475 ; perimeter
G1 X65.680 Y91.191 E0.05327 ; perimeter
G1 X65.875 Y91.398 E0.01701 ; perimeter
G1 X64.603 Y93.279 E0.13564 ; perimeter
G1 X64.257 Y93.179 E0.02150 ; perimeter
G1 X64.465 Y92.744 F6000.000 ; move inwards before travel
G1 F1800.000 E-4.00000 ; retract
G1 X65.460 Y96.071 F6000.000 ; move to first perimeter point
G1 E4.00000 F1800.000 ; compensate retraction
G1 X67.362 Y93.640 E0.18443 F900.000 ; perimeter
G1 X67.572 Y94.172 E0.03417 ; perimeter
G1 X67.794 Y95.035 E0.05326 ; perimeter
G1 X67.892 Y95.808 E0.04651 ; perimeter
G1 X65.703 Y96.432 E0.13601 ; perimeter
G1 X65.502 Y96.134 E0.02150 ; perimeter
G1 X65.941 Y95.934 F6000.000 ; move inwards before travel
G1 F1800.000 E-4.00000 ; retract
G1 X56.361 Y95.055 F6000.000 ; move to first perimeter point
G1 E4.00000 F1800.000 ; compensate retraction
G1 X53.735 Y96.694 E0.18488 F900.000 ; perimeter
G1 X53.735 Y95.920 E0.04622 ; perimeter
G1 X53.847 Y95.035 E0.05327 ; perimeter
G1 X53.992 Y94.472 E0.03475 ; perimeter
G1 X56.256 Y94.633 E0.13561 ; perimeter
G1 X56.343 Y94.983 E0.02150 ; perimeter
G1 X55.862 Y95.020 F6000.000 ; move inwards before travel
G1 F1800.000 E-4.00000 ; retract
G1 X64.564 Y99.122 F6000.000 ; move to first perimeter point
G1 E4.00000 F1800.000 ; compensate retraction
G1 X67.605 Y98.478 E0.18573 F900.000 ; perimeter
G1 X67.244 Y99.388 E0.05851 ; perimeter
G1 X66.815 Y100.170 E0.05327 ; perimeter
G1 X66.589 Y100.480 E0.02294 ; perimeter
G1 X64.518 Y99.555 E0.13555 ; perimeter
G1 X64.556 Y99.197 E0.02150 ; perimeter
G1 X65.020 Y99.326 F6000.000 ; move inwards before travel
G1 F1800.000 E-4.00000 ; retract
G1 X56.562 Y98.229 F6000.000 ; move to first perimeter point
G1 E4.00000 F1800.000 ; compensate retraction
G1 X55.588 Y101.218 E0.18784 F900.000 ; perimeter
G1 X54.827 Y100.170 E0.07744 ; perimeter
G1 X54.357 Y99.316 E0.05823 ; perimeter
G1 X56.210 Y97.973 E0.13673 ; perimeter
G1 X56.501 Y98.185 E0.02150 ; perimeter
G1 X56.157 Y98.522 F6000.000 ; move inwards before travel
G1 F1800.000 E-4.00000 ; retract
G1 X61.603 Y101.185 F6000.000 ; move to first perimeter point
G1 E4.00000 F1800.000 ; compensate retraction
G1 X61.916 Y100.883 E0.02598 F900.000 ; perimeter
