; generated by Slic3r 1.1.6 on 2015-06-15 at 23:31:02

; perimeters extrusion width = 0.50mm
; infill extrusion width = 0.50mm
; solid infill extrusion width = 0.50mm
; top infill extrusion width = 0.50mm

G21 ; set units to millimeters
M107 ; disable fan
M190 S57 ; wait for bed temperature to be reached
M104 S185 ; set temperature

M109 S185 ; wait for temperature to be reached
G90 ; use absolute coordinates
M83 ; use relative distances for extrusion
G1 F1800.000 E-4.00000 ; retract
G1 Z0.240 F6000.000 ; move to next layer (0)
G1 X84.324 Y83.409 F6000.000 ; move to first skirt point
G1 E4.00000 F1800.000 ; compensate retraction
G1 X86.000 Y82.336 E0.07942 F600.000 ; skirt
G1 X87.803 Y82.000 E0.07318 ; skirt
G1 X112.138 Y82.000 E0.97127 ; skirt
G1 X114.088 Y82.396 E0.07942 ; skirt
G1 X115.729 Y83.521 E0.07942 F600.000 ; skirt
G1 X116.802 Y85.198 E0.07942 ; skirt
G1 X117.138 Y87.000 E0.07318 ; skirt
G1 X117.138 Y113.000 E1.03772 ; skirt
G1 X116.742 Y114.950 E0.07942 ; skirt
G1 X115.616 Y116.591 E0.07942 ; skirt
G1 X113.940 Y117.664 E0.07942 ; skirt
G1 X112.138 Y118.000 E0.07318 ; skirt
G1 X87.803 Y118.000 E0.97127 ; skirt
G1 X85.852 Y117.604 E0.07942 ; skirt
G1 X84.211 Y116.479 E0.07942 ; skirt
G1 X83.139 Y114.802 E0.07942 ; skirt
G1 X82.803 Y113.000 E0.07318 ; skirt
G1 X82.803 Y87.000 E1.03772 ; skirt
G1 X83.199 Y85.050 E0.07942 ; skirt
G1 X84.282 Y83.470 E0.07643 ; skirt
G1 X84.707 Y83.783 F6000.000 ; move to first skirt point
G1 X84.815 Y83.635 E0.00733 F600.000 ; skirt
G1 X86.458 Y82.706 E0.07531 ; skirt
G1 X87.803 Y82.500 E0.05431 ; skirt
G1 X112.138 Y82.500 E0.97127 ; skirt
G1 X113.983 Y82.896 E0.07531 ; skirt
G1 X115.503 Y84.013 E0.07531 F600.000 ; skirt
G1 X116.432 Y85.655 E0.07531 ; skirt
G1 X116.638 Y87.000 E0.05431 ; skirt
G1 X116.638 Y113.000 E1.03772 ; skirt
G1 X116.242 Y114.845 E0.07531 ; skirt
G1 X115.125 Y116.365 E0.07531 ; skirt
G1 X113.483 Y117.294 E0.07531 ; skirt
G1 X112.138 Y117.500 E0.05431 ; skirt
G1 X87.803 Y117.500 E0.97127 ; skirt
G1 X85.958 Y117.104 E0.07531 ; skirt
G1 X84.437 Y115.987 E0.07531 ; skirt
G1 X83.508 Y114.345 E0.07531 ; skirt
G1 X83.303 Y113.000 E0.05431 ; skirt
G1 X83.303 Y87.000 E1.03772 ; skirt
G1 X83.698 Y85.155 E0.07531 ; skirt
G1 X84.662 Y83.843 E0.06498 ; skirt
G1 F1800.000 E-4.00000 ; retract
G1 X94.981 Y110.588 F6000.000 ; move to first perimeter point
G1 E4.00000 F1800.000 ; compensate retraction
G1 X94.981 Y112.750 E0.08627 F900.000 ; perimeter
G1 X91.830 Y112.750 E0.12576 F900.000 ; perimeter
G1 X91.751 Y112.454 E0.01225 ; perimeter
G1 X94.916 Y110.626 E0.14588 ; perimeter
G1 F1800.000 E-4.00000 ; retract
G1 X94.481 Y112.735 F6000.000 ; move inwards before travel
G1 X94.265 Y111.579 F6000.000 ; move to first perimeter point
G1 E4.00000 F1800.000 ; compensate retraction
G1 X94.481 Y111.454 E0.00995 F900.000 ; perimeter
G1 X94.481 Y112.250 E0.03175 ; perimeter
G1 X93.696 Y112.250 E0.03133 ; perimeter
G1 X93.617 Y111.954 E0.01225 ; perimeter
G1 X94.200 Y111.617 E0.02689 F900.000 ; perimeter
G1 F1800.000 E-4.00000 ; retract
G1 X91.235 Y112.454 F6000.000 ; move to first perimeter point
G1 E4.00000 F1800.000 ; compensate retraction
G1 X91.156 Y112.750 E0.01225 F900.000 ; perimeter
G1 X88.053 Y112.750 E0.12386 ; perimeter
G1 X88.053 Y110.616 E0.08517 ; perimeter
G1 X88.879 Y111.093 E0.03810 ; perimeter
G1 X91.170 Y112.416 E0.10558 F900.000 ; perimeter
G1 F1800.000 E-4.00000 ; retract
G1 X89.201 Y111.476 F6000.000 ; move inwards before travel
G1 X89.304 Y111.916 F6000.000 ; move to first perimeter point
G1 E4.00000 F1800.000 ; compensate retraction
G1 X89.369 Y111.954 E0.00302 F900.000 ; perimeter
G1 X89.290 Y112.250 E0.01225 ; perimeter
G1 X88.553 Y112.250 E0.02943 ; perimeter
G1 X88.553 Y111.482 E0.03065 F900.000 ; perimeter
G1 X89.239 Y111.878 E0.03163 ; perimeter
G1 F1800.000 E-4.00000 ; retract
G1 X88.053 Y105.351 F6000.000 ; move to first perimeter point
G1 E4.00000 F1800.000 ; compensate retraction
G1 X88.053 Y103.250 E0.08385 F900.000 ; perimeter
G1 X91.099 Y103.250 E0.12157 ; perimeter
G1 X91.178 Y103.546 E0.01225 ; perimeter
G1 X88.118 Y105.313 E0.14104 F900.000 ; perimeter
G1 F1800.000 E-4.00000 ; retract
G1 X91.007 Y103.077 F6000.000 ; move inwards before travel
G1 X88.644 Y104.432 F6000.000 ; move to first perimeter point
G1 E4.00000 F1800.000 ; compensate retraction
G1 X88.553 Y104.485 E0.00420 F900.000 ; perimeter
G1 X88.553 Y103.750 E0.02933 ; perimeter
G1 X89.233 Y103.750 E0.02714 F900.000 ; perimeter
G1 X89.312 Y104.046 E0.01225 ; perimeter
G1 X88.709 Y104.395 E0.02780 ; perimeter
G1 F1800.000 E-4.00000 ; retract
G1 X91.808 Y103.546 F6000.000 ; move to first perimeter point
G1 E4.00000 F1800.000 ; compensate retraction
G1 X91.887 Y103.250 E0.01225 F900.000 ; perimeter
G1 X94.981 Y103.250 E0.12347 ; perimeter
G1 X94.981 Y105.378 E0.08495 ; perimeter
G1 X91.873 Y103.584 E0.14324 F900.000 ; perimeter
G1 F1800.000 E-4.00000 ; retract
G1 X95.152 Y104.909 F6000.000 ; move inwards before travel
G1 X94.481 Y103.866 F6000.000 ; move to first perimeter point
G1 E4.00000 F1800.000 ; compensate retraction
G1 X94.481 Y104.512 E0.02581 F900.000 ; perimeter
G1 X93.674 Y104.046 E0.03719 ; perimeter
G1 X93.753 Y103.750 E0.01225 ; perimeter
G1 X94.481 Y103.750 E0.02904 F900.000 ; perimeter
G1 X94.481 Y103.791 E0.00162 ; perimeter
G1 F1800.000 E-4.00000 ; retract
G1 X94.481 Y96.750 F6000.000 ; move to first perimeter point
G1 E4.00000 F1800.000 ; compensate retraction
G1 X91.830 Y96.750 E0.10581 F900.000 ; perimeter
G1 X91.751 Y96.454 E0.01225 ; perimeter
G1 X94.981 Y94.588 E0.14888 ; perimeter
G1 X94.981 Y96.750 E0.08627 ; perimeter
G1 X94.556 Y96.750 E0.01696 F900.000 ; perimeter
G1 X94.981 Y96.325 F6000.000 ; move inwards before travel
G1 X93.851 Y95.818 F6000.000 ; move to first perimeter point
G1 X94.481 Y95.454 E0.02903 F900.000 ; perimeter
G1 X94.481 Y96.250 E0.03175 ; perimeter
G1 X93.696 Y96.250 E0.03133 ; perimeter
G1 X93.617 Y95.954 E0.01225 ; perimeter
G1 X93.786 Y95.856 E0.00781 F900.000 ; perimeter
G1 F1800.000 E-4.00000 ; retract
G1 X91.235 Y96.454 F6000.000 ; move to first perimeter point
G1 E4.00000 F1800.000 ; compensate retraction
G1 X91.156 Y96.750 E0.01225 F900.000 ; perimeter
G1 X88.053 Y96.750 E0.12386 ; perimeter
G1 X88.053 Y94.616 E0.08517 ; perimeter
G1 X88.879 Y95.093 E0.03810 ; perimeter
G1 X91.170 Y96.416 E0.10558 F900.000 ; perimeter
G1 F1800.000 E-4.00000 ; retract
G1 X89.201 Y95.476 F6000.000 ; move inwards before travel
G1 X89.042 Y96.250 F6000.000 ; move to first perimeter point
G1 E4.00000 F1800.000 ; compensate retraction
G1 X88.553 Y96.250 E0.01953 F900.000 ; perimeter
G1 X88.553 Y95.482 E0.03065 F900.000 ; perimeter
G1 X89.369 Y95.954 E0.03764 ; perimeter
G1 X89.290 Y96.250 E0.01225 ; perimeter
G1 X89.117 Y96.250 E0.00690 ; perimeter
G1 F1800.000 E-4.00000 ; retract
G1 X88.053 Y89.351 F6000.000 ; move to first perimeter point
G1 E4.00000 F1800.000 ; compensate retraction
G1 X88.053 Y87.250 E0.08385 F900.000 ; perimeter
G1 X91.099 Y87.250 E0.12157 ; perimeter
G1 X91.178 Y87.546 E0.01225 ; perimeter
G1 X88.118 Y89.313 E0.14104 F900.000 ; perimeter
G1 F1800.000 E-4.00000 ; retract
G1 X91.007 Y87.077 F6000.000 ; move inwards before travel
G1 X88.553 Y87.991 F6000.000 ; move to first perimeter point
G1 E4.00000 F1800.000 ; compensate retraction
G1 X88.553 Y87.750 E0.00962 F900.000 ; perimeter
G1 X89.233 Y87.750 E0.02714 F900.000 ; perimeter
G1 X89.312 Y88.046 E0.01225 ; perimeter
G1 X88.553 Y88.485 E0.03500 ; perimeter
G1 X88.553 Y88.066 E0.01672 ; perimeter
G1 F1800.000 E-4.00000 ; retract
G1 X91.808 Y87.546 F6000.000 ; move to first perimeter point
G1 E4.00000 F1800.000 ; compensate retraction
G1 X91.887 Y87.250 E0.01225 F900.000 ; perimeter
G1 X94.981 Y87.250 E0.12347 ; perimeter
G1 X94.981 Y89.378 E0.08495 ; perimeter
G1 X91.873 Y87.584 E0.14324 F900.000 ; perimeter
G1 F1800.000 E-4.00000 ; retract
G1 X95.152 Y88.909 F6000.000 ; move inwards before travel
G1 X93.783 Y88.110 F6000.000 ; move to first perimeter point
G1 E4.00000 F1800.000 ; compensate retraction
G1 X93.674 Y88.046 E0.00504 F900.000 ; perimeter
G1 X93.753 Y87.750 E0.01225 ; perimeter
G1 X94.481 Y87.750 E0.02904 F900.000 ; perimeter
G1 X94.481 Y88.512 E0.03043 ; perimeter
G1 X93.848 Y88.147 E0.02916 ; perimeter
G1 F1800.000 E-4.00000 ; retract
G1 X108.657 Y96.454 F6000.000 ; move to first perimeter point
G1 E4.00000 F1800.000 ; compensate retraction
G1 X111.888 Y94.588 E0.14888 F900.000 ; perimeter
G1 X111.888 Y96.750 E0.08627 ; perimeter
G1 X108.737 Y96.750 E0.12576 F900.000 ; perimeter
G1 X108.677 Y96.526 E0.00926 ; perimeter
G1 F1800.000 E-4.00000 ; retract
G1 X112.138 Y96.317 F6000.000 ; move inwards before travel
G1 X111.257 Y96.250 F6000.000 ; move to first perimeter point
G1 E4.00000 F1800.000 ; compensate retraction
G1 X110.603 Y96.250 E0.02611 F900.000 ; perimeter
G1 X110.523 Y95.954 E0.01225 ; perimeter
G1 X111.388 Y95.454 E0.03984 F900.000 ; perimeter
G1 X111.388 Y96.250 E0.03175 ; perimeter
G1 X111.332 Y96.250 E0.00223 ; perimeter
G1 F1800.000 E-4.00000 ; retract
G1 X108.142 Y96.454 F6000.000 ; move to first perimeter point
G1 E4.00000 F1800.000 ; compensate retraction
G1 X108.063 Y96.750 E0.01225 F900.000 ; perimeter
G1 X104.959 Y96.750 E0.12386 ; perimeter
G1 X104.959 Y94.616 E0.08517 ; perimeter
G1 X105.786 Y95.093 E0.03810 ; perimeter
G1 X108.077 Y96.416 E0.10558 F900.000 ; perimeter
G1 F1800.000 E-4.00000 ; retract
G1 X106.108 Y95.476 F6000.000 ; move inwards before travel
G1 X105.936 Y95.757 F6000.000 ; move to first perimeter point
G1 E4.00000 F1800.000 ; compensate retraction
G1 X106.276 Y95.954 E0.01567 F900.000 ; perimeter
G1 X106.197 Y96.250 E0.01225 ; perimeter
G1 X105.459 Y96.250 E0.02943 ; perimeter
G1 X105.459 Y95.482 E0.03065 F900.000 ; perimeter
G1 X105.871 Y95.720 E0.01898 ; perimeter
G1 F1800.000 E-4.00000 ; retract
G1 X104.959 Y89.351 F6000.000 ; move to first perimeter point
G1 E4.00000 F1800.000 ; compensate retraction
G1 X104.959 Y87.250 E0.08385 F900.000 ; perimeter
G1 X108.005 Y87.250 E0.12157 ; perimeter
G1 X108.085 Y87.546 E0.01225 ; perimeter
G1 X105.024 Y89.313 E0.14104 F900.000 ; perimeter
G1 F1800.000 E-4.00000 ; retract
G1 X107.914 Y87.077 F6000.000 ; move inwards before travel
G1 X106.050 Y88.144 F6000.000 ; move to first perimeter point
G1 E4.00000 F1800.000 ; compensate retraction
G1 X105.459 Y88.485 E0.02721 F900.000 ; perimeter
G1 X105.459 Y87.750 E0.02933 ; perimeter
G1 X106.139 Y87.750 E0.02714 F900.000 ; perimeter
G1 X106.219 Y88.046 E0.01225 ; perimeter
G1 X106.115 Y88.106 E0.00479 ; perimeter
G1 F1800.000 E-4.00000 ; retract
G1 X108.715 Y87.546 F6000.000 ; move to first perimeter point
G1 E4.00000 F1800.000 ; compensate retraction
G1 X108.794 Y87.250 E0.01225 F900.000 ; perimeter
G1 X111.888 Y87.250 E0.12347 ; perimeter
G1 X111.888 Y89.378 E0.08495 ; perimeter
G1 X108.780 Y87.584 E0.14324 F900.000 ; perimeter
G1 F1800.000 E-4.00000 ; retract
G1 X112.059 Y88.909 F6000.000 ; move inwards before travel
G1 X111.388 Y87.853 F6000.000 ; move to first perimeter point
G1 E4.00000 F1800.000 ; compensate retraction
G1 X111.388 Y88.512 E0.02633 F900.000 ; perimeter
G1 X110.581 Y88.046 E0.03719 ; perimeter
G1 X110.660 Y87.750 E0.01225 ; perimeter
G1 X111.388 Y87.750 E0.02904 F900.000 ; perimeter
G1 X111.388 Y87.778 E0.00111 ; perimeter
G1 F1800.000 E-4.00000 ; retract
G1 X111.888 Y110.588 F6000.000 ; move to first perimeter point
G1 E4.00000 F1800.000 ; compensate retraction
G1 X111.888 Y112.750 E0.08627 F900.000 ; perimeter
G1 X108.737 Y112.750 E0.12576 F900.000 ; perimeter
G1 X108.657 Y112.454 E0.01225 ; perimeter
G1 X111.823 Y110.626 E0.14588 ; perimeter
G1 F1800.000 E-4.00000 ; retract
G1 X111.388 Y112.735 F6000.000 ; move inwards before travel
G1 X110.981 Y112.250 F6000.000 ; move to first perimeter point
G1 E4.00000 F1800.000 ; compensate retraction
G1 X110.603 Y112.250 E0.01510 F900.000 ; perimeter
G1 X110.523 Y111.954 E0.01225 ; perimeter
G1 X111.388 Y111.454 E0.03984 F900.000 ; perimeter
G1 X111.388 Y112.250 E0.03175 ; perimeter
G1 X111.056 Y112.250 E0.01324 ; perimeter
G1 F1800.000 E-4.00000 ; retract
G1 X108.142 Y112.454 F6000.000 ; move to first perimeter point
G1 E4.00000 F1800.000 ; compensate retraction
G1 X108.063 Y112.750 E0.01225 F900.000 ; perimeter
G1 X104.959 Y112.750 E0.12386 ; perimeter
G1 X104.959 Y110.616 E0.08517 ; perimeter
G1 X105.786 Y111.093 E0.03810 ; perimeter
G1 X108.077 Y112.416 E0.10558 F900.000 ; perimeter
G1 F1800.000 E-4.00000 ; retract
G1 X106.108 Y111.476 F6000.000 ; move inwards before travel
G1 X105.571 Y111.546 F6000.000 ; move to first perimeter point
G1 E4.00000 F1800.000 ; compensate retraction
G1 X106.276 Y111.954 E0.03251 F900.000 ; perimeter
G1 X106.197 Y112.250 E0.01225 ; perimeter
G1 X105.459 Y112.250 E0.02943 ; perimeter
G1 X105.459 Y111.482 E0.03065 F900.000 ; perimeter
G1 X105.506 Y111.509 E0.00214 ; perimeter
G1 F1800.000 E-4.00000 ; retract
G1 X104.959 Y105.351 F6000.000 ; move to first perimeter point
G1 E4.00000 F1800.000 ; compensate retraction
G1 X104.959 Y103.250 E0.08385 F900.000 ; perimeter
G1 X108.005 Y103.250 E0.12157 ; perimeter
G1 X108.085 Y103.546 E0.01225 ; perimeter
G1 X105.024 Y105.313 E0.14104 F900.000 ; perimeter
G1 F1800.000 E-4.00000 ; retract
G1 X107.914 Y103.077 F6000.000 ; move inwards before travel
G1 X106.050 Y103.750 F6000.000 ; move to first perimeter point
G1 E4.00000 F1800.000 ; compensate retraction
G1 X106.139 Y103.750 E0.00356 F900.000 ; perimeter
G1 X106.219 Y104.046 E0.01225 ; perimeter
G1 X105.459 Y104.485 E0.03500 ; perimeter
G1 X105.459 Y103.750 E0.02933 ; perimeter
G1 X105.975 Y103.750 E0.02059 F900.000 ; perimeter
G1 F1800.000 E-4.00000 ; retract
G1 X108.715 Y103.546 F6000.000 ; move to first perimeter point
G1 E4.00000 F1800.000 ; compensate retraction
G1 X108.794 Y103.250 E0.01225 F900.000 ; perimeter
G1 X111.888 Y103.250 E0.12347 ; perimeter
G1 X111.888 Y105.378 E0.08495 ; perimeter
G1 X108.780 Y103.584 E0.14324 F900.000 ; perimeter
G1 F1800.000 E-4.00000 ; retract
G1 X112.059 Y104.909 F6000.000 ; move inwards before travel
G1 X111.388 Y103.936 F6000.000 ; move to first perimeter point
G1 E4.00000 F1800.000 ; compensate retraction
G1 X111.388 Y104.512 E0.02302 F900.000 ; perimeter
G1 X110.581 Y104.046 E0.03719 ; perimeter
G1 X110.660 Y103.750 E0.01225 ; perimeter
G1 X111.388 Y103.750 E0.02904 F900.000 ; perimeter
G1 X111.388 Y103.861 E0.00441 ; perimeter
G1 F1800.000 E-4.00000 ; retract
G1 Z0.480 F6000.000 ; move to next layer (1)
G1 X91.178 Y103.546 F6000.000 ; move to first perimeter point
G1 E4.00000 F1800.000 ; compensate retraction
G1 X87.817 Y105.487 E0.15489 F837.642 ; perimeter
G1 X87.817 Y103.250 E0.08928 ; perimeter
G1 X91.024 Y103.250 E0.12798 ; perimeter
G1 X90.703 Y103.704 F6000.000 ; move inwards before travel
G1 X89.094 Y103.750 F6000.000 ; move to first perimeter point
G1 X89.233 Y103.750 E0.00551 F837.642 ; perimeter
G1 X89.312 Y104.046 E0.01225 ; perimeter
G1 X88.317 Y104.621 E0.04585 ; perimeter
G1 X88.317 Y103.750 E0.03476 ; perimeter
G1 X89.019 Y103.750 E0.02803 F837.642 ; perimeter
G1 F1800.000 E-4.00000 ; retract
G1 X91.808 Y103.546 F6000.000 ; move to first perimeter point
G1 E4.00000 F1800.000 ; compensate retraction
G1 X91.887 Y103.250 E0.01225 F837.642 ; perimeter
G1 X95.225 Y103.250 E0.13320 ; perimeter
G1 X95.225 Y105.519 E0.09057 ; perimeter
G1 X91.873 Y103.584 E0.15447 F837.642 ; perimeter
G1 F1800.000 E-4.00000 ; retract
G1 X95.396 Y105.049 F6000.000 ; move inwards before travel
G1 X94.349 Y103.750 F6000.000 ; move to first perimeter point
G1 E4.00000 F1800.000 ; compensate retraction
G1 X94.725 Y103.750 E0.01500 F837.642 ; perimeter
G1 X94.725 Y104.653 E0.03605 ; perimeter
G1 X93.674 Y104.046 E0.04842 ; perimeter
G1 X93.753 Y103.750 E0.01225 ; perimeter
G1 X94.274 Y103.750 E0.02077 F837.642 ; perimeter
G1 F1800.000 E-4.00000 ; retract
G1 X95.225 Y110.448 F6000.000 ; move to first perimeter point
G1 E4.00000 F1800.000 ; compensate retraction
G1 X95.225 Y112.750 E0.09189 F837.642 ; perimeter
G1 X91.830 Y112.750 E0.13549 F837.642 ; perimeter
G1 X91.751 Y112.454 E0.01225 ; perimeter
