; generated by Slic3r 1.0.1 on 2014-07-20 at 14:02:30

; layer_height = 0.24
; perimeters = 2
; top_solid_layers = 3
; bottom_solid_layers = 3
; fill_density = 0.25
; perimeter_speed = 30
; infill_speed = 30
; travel_speed = 100
; nozzle_diameter = 0.5
; filament_diameter = 1.75
; extrusion_multiplier = 1
; perimeters extrusion width = 0.50mm
; infill extrusion width = 0.50mm
; solid infill extrusion width = 0.50mm
; top infill extrusion width = 0.50mm
; first layer extrusion width = 0.80mm

G21 ; set units to millimeters
M107 ; disable fan
M190 S57 ; wait for bed temperature to be reached
M104 S200 ; set temperature

M109 S200 ; wait for temperature to be reached
G90 ; use absolute coordinates
M83 ; use relative distances for extrusion
G1 F1800.000 E-2.40000 ; retract
G1 Z0.240 F6000.000 ; move to next layer (0)
G1 X71.640 Y71.640 F6000.000 ; move to first skirt point
G1 E2.40000 F1800.000 ; compensate retraction
G1 X72.630 Y70.890 E0.09276 F900.000 ; skirt
G1 X73.770 Y70.410 E0.09238 ; skirt
G1 X75.000 Y70.250 E0.09264 ; skirt
G1 X125.000 Y70.250 E3.73426 ; skirt
G1 X126.230 Y70.410 E0.09264 ; skirt
G1 X127.370 Y70.890 E0.09238 ; skirt
G1 X128.360 Y71.640 E0.09276 ; skirt
G1 X129.110 Y72.630 E0.09276 ; skirt
G1 X129.590 Y73.770 E0.09238 ; skirt
G1 X129.750 Y75.000 E0.09264 ; skirt
G1 X129.750 Y125.000 E3.73426 ; skirt
G1 X129.590 Y126.230 E0.09264 ; skirt
G1 X129.110 Y127.370 E0.09238 ; skirt
G1 X128.360 Y128.360 E0.09276 ; skirt
G1 X127.370 Y129.110 E0.09276 ; skirt
G1 X126.230 Y129.590 E0.09238 ; skirt
G1 X125.000 Y129.750 E0.09264 ; skirt
G1 X75.000 Y129.750 E3.73426 ; skirt
G1 X73.770 Y129.590 E0.09264 ; skirt
G1 X72.630 Y129.110 E0.09238 ; skirt
G1 X71.640 Y128.360 E0.09276 ; skirt
G1 X70.890 Y127.370 E0.09276 ; skirt
G1 X70.410 Y126.230 E0.09238 ; skirt
G1 X70.250 Y125.000 E0.09264 ; skirt
G1 X70.250 Y75.000 E3.73426 ; skirt
G1 X70.410 Y73.770 E0.09264 ; skirt
G1 X70.890 Y72.630 E0.09238 ; skirt
G1 X71.572 Y71.729 E0.08437 ; skirt
G1 F1800.000 E-2.40000 ; retract
G1 X75.400 Y75.400 F6000.000 ; move to first perimeter point
G1 E2.40000 F1800.000 ; compensate retraction
G1 X124.600 Y75.400 E3.67451 F900.000 ; perimeter
G1 X124.600 Y124.600 E3.67451 ; perimeter
G1 X75.400 Y124.600 E3.67451 ; perimeter
G1 X75.400 Y75.512 E3.66613 ; perimeter
G1 X76.048 Y75.774 F6000.000 ; move inwards before travel
G1 X76.148 Y76.148 F6000.000 ; move to first perimeter point
G1 X123.852 Y76.148 E3.56271 F900.000 ; perimeter
G1 X123.852 Y123.852 E3.56271 ; perimeter
G1 X76.148 Y123.852 E3.56271 ; perimeter
G1 X76.148 Y76.261 E3.55432 ; perimeter
G1 F1800.000 E-2.40000 ; retract
G1 X76.701 Y123.319 F6000.000 ; move to first fill point
G1 E2.40000 F1800.000 ; compensate retraction
G1 X76.681 Y123.299 E0.00211 F900.000 ; fill
G1 X76.681 Y122.239 E0.07920 ; fill
G1 X77.761 Y123.319 E0.11412 ; fill
G1 X78.820 Y123.319 E0.07920 ; fill
G1 X76.681 Y121.180 E0.22613 ; fill
G1 X76.681 Y120.120 E0.07920 ; fill
G1 X79.880 Y123.319 E0.33813 ; fill
G1 X80.939 Y123.319 E0.07920 ; fill
G1 X76.681 Y119.061 E0.45014 ; fill
G1 X76.681 Y118.001 E0.07920 ; fill
G1 X81.999 Y123.319 E0.56215 ; fill
G1 X83.058 Y123.319 E0.07920 ; fill
G1 X76.681 Y116.942 E0.67415 ; fill
G1 X76.681 Y115.882 E0.07920 ; fill
G1 X84.118 Y123.319 E0.78616 ; fill
G1 X85.177 Y123.319 E0.07920 ; fill
G1 X76.681 Y114.823 E0.89817 ; fill
G1 X76.681 Y113.763 E0.07920 ; fill
G1 X86.237 Y123.319 E1.01017 ; fill
G1 X87.296 Y123.319 E0.07920 ; fill
G1 X76.681 Y112.704 E1.12218 ; fill
G1 X76.681 Y111.644 E0.07920 ; fill
G1 X88.356 Y123.319 E1.23418 ; fill
G1 X89.415 Y123.319 E0.07920 ; fill
G1 X76.681 Y110.585 E1.34619 ; fill
G1 X76.681 Y109.525 E0.07920 ; fill
G1 X90.475 Y123.319 E1.45820 ; fill
G1 X91.534 Y123.319 E0.07920 ; fill
G1 X76.681 Y108.466 E1.57020 ; fill
G1 X76.681 Y107.406 E0.07920 ; fill
G1 X92.594 Y123.319 E1.68221 ; fill
G1 X93.653 Y123.319 E0.07920 ; fill
G1 X76.681 Y106.347 E1.79422 ; fill
G1 X76.681 Y105.287 E0.07920 ; fill
G1 X94.713 Y123.319 E1.90622 ; fill
G1 X95.772 Y123.319 E0.07920 ; fill
G1 X76.681 Y104.228 E2.01823 ; fill
G1 X76.681 Y103.168 E0.07920 ; fill
G1 X96.832 Y123.319 E2.13024 ; fill
G1 X97.891 Y123.319 E0.07920 ; fill
G1 X76.681 Y102.109 E2.24224 ; fill
G1 X76.681 Y101.049 E0.07920 ; fill
G1 X98.951 Y123.319 E2.35425 ; fill
G1 X100.010 Y123.319 E0.07920 ; fill
G1 X76.681 Y99.990 E2.46626 ; fill
G1 X76.681 Y98.930 E0.07920 ; fill
G1 X101.070 Y123.319 E2.57826 ; fill
G1 X102.129 Y123.319 E0.07920 ; fill
G1 X76.681 Y97.871 E2.69027 ; fill
G1 X76.681 Y96.811 E0.07920 ; fill
G1 X103.189 Y123.319 E2.80227 ; fill
G1 X104.248 Y123.319 E0.07920 ; fill
G1 X76.681 Y95.752 E2.91428 ; fill
G1 X76.681 Y94.693 E0.07920 ; fill
G1 X105.307 Y123.319 E3.02629 ; fill
G1 X106.367 Y123.319 E0.07920 ; fill
G1 X76.681 Y93.633 E3.13829 ; fill
G1 X76.681 Y92.574 E0.07920 ; fill
G1 X107.426 Y123.319 E3.25030 ; fill
G1 X108.486 Y123.319 E0.07920 ; fill
G1 X76.681 Y91.514 E3.36231 ; fill
G1 X76.681 Y90.455 E0.07920 ; fill
G1 X109.545 Y123.319 E3.47431 ; fill
G1 X110.605 Y123.319 E0.07920 ; fill
G1 X76.681 Y89.395 E3.58632 ; fill
G1 X76.681 Y88.336 E0.07920 ; fill
G1 X111.664 Y123.319 E3.69833 ; fill
G1 X112.724 Y123.319 E0.07920 ; fill
G1 X76.681 Y87.276 E3.81033 ; fill
G1 X76.681 Y86.217 E0.07920 ; fill
G1 X113.783 Y123.319 E3.92234 ; fill
G1 X114.843 Y123.319 E0.07920 ; fill
G1 X76.681 Y85.157 E4.03434 ; fill
G1 X76.681 Y84.098 E0.07920 ; fill
G1 X115.902 Y123.319 E4.14635 ; fill
G1 X116.962 Y123.319 E0.07920 ; fill
G1 X76.681 Y83.038 E4.25836 ; fill
G1 X76.681 Y81.979 E0.07920 ; fill
G1 X118.021 Y123.319 E4.37036 ; fill
G1 X119.081 Y123.319 E0.07920 ; fill
G1 X76.681 Y80.919 E4.48237 ; fill
G1 X76.681 Y79.860 E0.07920 ; fill
G1 X120.140 Y123.319 E4.59438 ; fill
G1 X121.200 Y123.319 E0.07920 ; fill
G1 X76.681 Y78.800 E4.70638 ; fill
G1 X76.681 Y77.741 E0.07920 ; fill
G1 X122.259 Y123.319 E4.81839 ; fill
G1 X123.309 Y123.309 E0.07846 ; fill
G1 X76.691 Y76.691 E4.92828 ; fill
G1 X77.741 Y76.681 E0.07846 ; fill
G1 X123.319 Y122.259 E4.81838 ; fill
G1 X123.319 Y121.200 E0.07920 ; fill
G1 X78.800 Y76.681 E4.70638 ; fill
G1 X79.860 Y76.681 E0.07920 ; fill
G1 X123.319 Y120.140 E4.59437 ; fill
G1 X123.319 Y119.081 E0.07920 ; fill
G1 X80.919 Y76.681 E4.48236 ; fill
G1 X81.979 Y76.681 E0.07920 ; fill
G1 X123.319 Y118.021 E4.37036 ; fill
G1 X123.319 Y116.962 E0.07920 ; fill
G1 X83.038 Y76.681 E4.25835 ; fill
G1 X84.098 Y76.681 E0.07920 ; fill
G1 X123.319 Y115.902 E4.14634 ; fill
G1 X123.319 Y114.843 E0.07920 ; fill
G1 X85.157 Y76.681 E4.03434 ; fill
G1 X86.217 Y76.681 E0.07920 ; fill
G1 X123.319 Y113.783 E3.92233 ; fill
G1 X123.319 Y112.724 E0.07920 ; fill
G1 X87.276 Y76.681 E3.81032 ; fill
G1 X88.336 Y76.681 E0.07920 ; fill
G1 X123.319 Y111.664 E3.69832 ; fill
G1 X123.319 Y110.605 E0.07920 ; fill
G1 X89.395 Y76.681 E3.58631 ; fill
G1 X90.455 Y76.681 E0.07920 ; fill
G1 X123.319 Y109.545 E3.47431 ; fill
G1 X123.319 Y108.486 E0.07920 ; fill
G1 X91.514 Y76.681 E3.36230 ; fill
G1 X92.574 Y76.681 E0.07920 ; fill
G1 X123.319 Y107.426 E3.25029 ; fill
G1 X123.319 Y106.367 E0.07920 ; fill
G1 X93.633 Y76.681 E3.13829 ; fill
G1 X94.693 Y76.681 E0.07920 ; fill
G1 X123.319 Y105.307 E3.02628 ; fill
G1 X123.319 Y104.248 E0.07920 ; fill
G1 X95.752 Y76.681 E2.91427 ; fill
G1 X96.812 Y76.681 E0.07920 ; fill
G1 X123.319 Y103.188 E2.80227 ; fill
G1 X123.319 Y102.129 E0.07920 ; fill
G1 X97.871 Y76.681 E2.69026 ; fill
G1 X98.931 Y76.681 E0.07920 ; fill
G1 X123.319 Y101.069 E2.57825 ; fill
G1 X123.319 Y100.010 E0.07920 ; fill
G1 X99.990 Y76.681 E2.46625 ; fill
G1 X101.050 Y76.681 E0.07920 ; fill
G1 X123.319 Y98.950 E2.35424 ; fill
G1 X123.319 Y97.891 E0.07920 ; fill
G1 X102.109 Y76.681 E2.24223 ; fill
G1 X103.169 Y76.681 E0.07920 ; fill
G1 X123.319 Y96.831 E2.13023 ; fill
G1 X123.319 Y95.772 E0.07920 ; fill
G1 X104.228 Y76.681 E2.01822 ; fill
G1 X105.288 Y76.681 E0.07920 ; fill
G1 X123.319 Y94.712 E1.90622 ; fill
G1 X123.319 Y93.653 E0.07920 ; fill
G1 X106.347 Y76.681 E1.79421 ; fill
G1 X107.407 Y76.681 E0.07920 ; fill
G1 X123.319 Y92.593 E1.68220 ; fill
G1 X123.319 Y91.534 E0.07920 ; fill
G1 X108.466 Y76.681 E1.57020 ; fill
G1 X109.526 Y76.681 E0.07920 ; fill
G1 X123.319 Y90.474 E1.45819 ; fill
G1 X123.319 Y89.415 E0.07920 ; fill
G1 X110.585 Y76.681 E1.34618 ; fill
G1 X111.644 Y76.681 E0.07920 ; fill
G1 X123.319 Y88.356 E1.23418 ; fill
G1 X123.319 Y87.296 E0.07920 ; fill
G1 X112.704 Y76.681 E1.12217 ; fill
G1 X113.763 Y76.681 E0.07920 ; fill
G1 X123.319 Y86.237 E1.01016 ; fill
G1 X123.319 Y85.177 E0.07920 ; fill
G1 X114.823 Y76.681 E0.89816 ; fill
G1 X115.882 Y76.681 E0.07920 ; fill
G1 X123.319 Y84.118 E0.78615 ; fill
G1 X123.319 Y83.058 E0.07920 ; fill
G1 X116.942 Y76.681 E0.67415 ; fill
G1 X118.001 Y76.681 E0.07920 ; fill
G1 X123.319 Y81.999 E0.56214 ; fill
G1 X123.319 Y80.939 E0.07920 ; fill
G1 X119.061 Y76.681 E0.45013 ; fill
G1 X120.120 Y76.681 E0.07920 ; fill
G1 X123.319 Y79.880 E0.33813 ; fill
G1 X123.319 Y78.820 E0.07920 ; fill
G1 X121.180 Y76.681 E0.22612 ; fill
G1 X122.239 Y76.681 E0.07920 ; fill
G1 X123.319 Y77.761 E0.11411 ; fill
G1 X123.319 Y76.701 E0.07920 ; fill
G1 X123.299 Y76.681 E0.00211 ; fill
M104 S190 ; set temperature
G1 F1800.000 E-2.40000 ; retract
G1 Z0.480 F6000.000 ; move to next layer (1)
G1 X124.750 Y75.250 F6000.000 ; move to first perimeter point
G1 E2.40000 F1800.000 ; compensate retraction
G1 X124.750 Y124.750 E2.46957 F1800 ; perimeter
G1 X75.250 Y124.750 E2.46957 ; perimeter
G1 X75.250 Y75.250 E2.46957 ; perimeter
G1 X124.675 Y75.250 E2.46582 ; perimeter
G1 X124.500 Y75.683 F6000.000 ; move inwards before travel
G1 X124.250 Y75.750 F6000.000 ; move to first perimeter point
G1 X124.250 Y124.250 E2.41967 F1800 ; perimeter
G1 X75.750 Y124.250 E2.41967 ; perimeter
G1 X75.750 Y75.750 E2.41967 ; perimeter
G1 X124.175 Y75.750 E2.41593 ; perimeter
G1 F1800.000 E-2.40000 ; retract
G1 X76.122 Y76.102 F6000.000 ; move to first fill point
G1 E2.40000 F1800.000 ; compensate retraction
G1 X76.102 Y76.122 E0.00141 F1800 ; fill
G1 X76.102 Y76.830 E0.03534 ; fill
G1 X76.830 Y76.102 E0.05140 ; fill
G1 X77.538 Y76.102 E0.03534 ; fill
G1 X76.102 Y77.538 E0.10138 ; fill
G1 X76.102 Y78.246 E0.03534 ; fill
G1 X78.246 Y76.102 E0.15137 ; fill
G1 X78.954 Y76.102 E0.03534 ; fill
G1 X76.102 Y78.954 E0.20135 ; fill
G1 X76.102 Y79.661 E0.03534 ; fill
G1 X79.661 Y76.102 E0.25134 ; fill
G1 X80.369 Y76.102 E0.03534 ; fill
G1 X76.102 Y80.369 E0.30132 ; fill
G1 X76.102 Y81.077 E0.03534 ; fill
G1 X81.077 Y76.102 E0.35131 ; fill
G1 X81.785 Y76.102 E0.03534 ; fill
G1 X76.102 Y81.785 E0.40129 ; fill
G1 X76.102 Y82.492 E0.03534 ; fill
G1 X82.492 Y76.102 E0.45128 ; fill
G1 X83.200 Y76.102 E0.03534 ; fill
G1 X76.102 Y83.200 E0.50126 ; fill
G1 X76.102 Y83.908 E0.03534 ; fill
G1 X83.908 Y76.102 E0.55125 ; fill
G1 X84.616 Y76.102 E0.03534 ; fill
G1 X76.102 Y84.616 E0.60123 ; fill
G1 X76.102 Y85.324 E0.03534 ; fill
G1 X85.324 Y76.102 E0.65122 ; fill
G1 X86.031 Y76.102 E0.03534 ; fill
G1 X76.102 Y86.031 E0.70120 ; fill
G1 X76.102 Y86.739 E0.03534 ; fill
G1 X86.739 Y76.102 E0.75119 ; fill
G1 X87.447 Y76.102 E0.03534 ; fill
G1 X76.102 Y87.447 E0.80117 ; fill
G1 X76.102 Y88.155 E0.03534 ; fill
G1 X88.155 Y76.102 E0.85116 ; fill
G1 X88.862 Y76.102 E0.03534 ; fill
G1 X76.102 Y88.862 E0.90114 ; fill
G1 X76.102 Y89.570 E0.03534 ; fill
G1 X89.570 Y76.102 E0.95113 ; fill
G1 X90.278 Y76.102 E0.03534 ; fill
G1 X76.102 Y90.278 E1.00111 ; fill
G1 X76.102 Y90.986 E0.03534 ; fill
G1 X90.986 Y76.102 E1.05110 ; fill
G1 X91.694 Y76.102 E0.03534 ; fill
G1 X76.102 Y91.694 E1.10108 ; fill
G1 X76.102 Y92.401 E0.03534 ; fill
G1 X92.401 Y76.102 E1.15107 ; fill
G1 X93.109 Y76.102 E0.03534 ; fill
G1 X76.102 Y93.109 E1.20105 ; fill
G1 X76.102 Y93.817 E0.03534 ; fill
G1 X93.817 Y76.102 E1.25104 ; fill
G1 X94.525 Y76.102 E0.03534 ; fill
G1 X76.102 Y94.525 E1.30102 ; fill
G1 X76.102 Y95.232 E0.03534 ; fill
G1 X95.232 Y76.102 E1.35101 ; fill
G1 X95.940 Y76.102 E0.03534 ; fill
G1 X76.102 Y95.940 E1.40099 ; fill
G1 X76.102 Y96.648 E0.03534 ; fill
G1 X96.648 Y76.102 E1.45098 ; fill
G1 X97.356 Y76.102 E0.03534 ; fill
G1 X76.102 Y97.356 E1.50096 ; fill
G1 X76.102 Y98.064 E0.03534 ; fill
G1 X98.064 Y76.102 E1.55095 ; fill
G1 X98.771 Y76.102 E0.03534 ; fill
G1 X76.102 Y98.771 E1.60093 ; fill
G1 X76.102 Y99.479 E0.03534 ; fill
G1 X99.479 Y76.102 E1.65092 ; fill
G1 X100.187 Y76.102 E0.03534 ; fill
G1 X76.102 Y100.187 E1.70090 ; fill
G1 X76.102 Y100.895 E0.03534 ; fill
G1 X100.895 Y76.102 E1.75089 ; fill
G1 X101.603 Y76.102 E0.03534 ; fill
G1 X76.102 Y101.603 E1.80087 ; fill
G1 X76.102 Y102.310 E0.03534 ; fill
G1 X102.310 Y76.102 E1.85086 ; fill
G1 X103.018 Y76.102 E0.03534 ; fill
G1 X76.102 Y103.018 E1.90084 ; fill
G1 X76.102 Y103.726 E0.03534 ; fill
G1 X103.726 Y76.102 E1.95083 ; fill
G1 X104.434 Y76.102 E0.03534 ; fill
G1 X76.102 Y104.434 E2.00081 ; fill
G1 X76.102 Y105.141 E0.03534 ; fill
G1 X105.141 Y76.102 E2.05080 ; fill
G1 X105.849 Y76.102 E0.03534 ; fill
G1 X76.102 Y105.849 E2.10078 ; fill
G1 X76.102 Y106.557 E0.03534 ; fill
G1 X106.557 Y76.102 E2.15077 ; fill
G1 X107.265 Y76.102 E0.03534 ; fill
G1 X76.102 Y107.265 E2.20075 ; fill
G1 X76.102 Y107.973 E0.03534 ; fill
G1 X107.973 Y76.102 E2.25074 ; fill
G1 X108.680 Y76.102 E0.03534 ; fill
G1 X76.102 Y108.680 E2.30072 ; fill
G1 X76.102 Y109.388 E0.03534 ; fill
G1 X109.388 Y76.102 E2.35071 ; fill
G1 X110.096 Y76.102 E0.03534 ; fill
G1 X76.102 Y110.096 E2.40069 ; fill
G1 X76.102 Y110.804 E0.03534 ; fill
G1 X110.804 Y76.102 E2.45068 ; fill
G1 X111.511 Y76.102 E0.03534 ; fill
G1 X76.102 Y111.511 E2.50066 ; fill
G1 X76.102 Y112.219 E0.03534 ; fill
G1 X112.219 Y76.102 E2.55065 ; fill
G1 X112.927 Y76.102 E0.03534 ; fill
G1 X76.102 Y112.927 E2.60063 ; fill
G1 X76.102 Y113.635 E0.03534 ; fill
G1 X113.635 Y76.102 E2.65062 ; fill
G1 X114.343 Y76.102 E0.03534 ; fill
G1 X76.102 Y114.343 E2.70060 ; fill
G1 X76.102 Y115.050 E0.03534 ; fill
G1 X115.050 Y76.102 E2.75059 ; fill
G1 X115.758 Y76.102 E0.03534 ; fill
G1 X76.102 Y115.758 E2.80057 ; fill
G1 X76.102 Y116.466 E0.03534 ; fill
G1 X116.466 Y76.102 E2.85056 ; fill
G1 X117.174 Y76.102 E0.03534 ; fill
G1 X76.102 Y117.174 E2.90054 ; fill
G1 X76.102 Y117.881 E0.03534 ; fill
G1 X117.881 Y76.102 E2.95053 ; fill
G1 X118.589 Y76.102 E0.03534 ; fill
G1 X76.102 Y118.589 E3.00051 ; fill
G1 X76.102 Y119.297 E0.03534 ; fill
G1 X119.297 Y76.102 E3.05050 ; fill
G1 X120.005 Y76.102 E0.03534 ; fill
G1 X76.102 Y120.005 E3.10048 ; fill
G1 X76.102 Y120.713 E0.03534 ; fill
G1 X120.713 Y76.102 E3.15047 ; fill
G1 X121.420 Y76.102 E0.03534 ; fill
G1 X76.102 Y121.420 E3.20045 ; fill
G1 X76.102 Y122.128 E0.03534 ; fill
G1 X122.128 Y76.102 E3.25044 ; fill
G1 X122.836 Y76.102 E0.03534 ; fill
G1 X76.102 Y122.836 E3.30042 ; fill
G1 X76.102 Y123.544 E0.03534 ; fill
G1 X123.544 Y76.102 E3.35041 ; fill
G1 X123.898 Y76.456 E0.02499 ; fill
G1 X76.456 Y123.898 E3.35041 ; fill
G1 X77.164 Y123.898 E0.03534 ; fill
G1 X123.898 Y77.164 E3.30042 ; fill
G1 X123.898 Y77.872 E0.03534 ; fill
G1 X77.872 Y123.898 E3.25044 ; fill
G1 X78.580 Y123.898 E0.03534 ; fill
G1 X123.898 Y78.580 E3.20045 ; fill
G1 X123.898 Y79.287 E0.03534 ; fill
G1 X79.287 Y123.898 E3.15047 ; fill
G1 X79.995 Y123.898 E0.03534 ; fill
G1 X123.898 Y79.995 E3.10048 ; fill
G1 X123.898 Y80.703 E0.03534 ; fill
G1 X80.703 Y123.898 E3.05050 ; fill
G1 X81.411 Y123.898 E0.03534 ; fill
G1 X123.898 Y81.411 E3.00051 ; fill
G1 X123.898 Y82.119 E0.03534 ; fill
G1 X82.119 Y123.898 E2.95053 ; fill
G1 X82.826 Y123.898 E0.03534 ; fill
G1 X123.898 Y82.826 E2.90054 ; fill
G1 X123.898 Y83.534 E0.03534 ; fill
G1 X83.534 Y123.898 E2.85056 ; fill
G1 X84.242 Y123.898 E0.03534 ; fill
G1 X123.898 Y84.242 E2.80057 ; fill
G1 X123.898 Y84.950 E0.03534 ; fill
G1 X84.950 Y123.898 E2.75059 ; fill
G1 X85.657 Y123.898 E0.03534 ; fill
G1 X123.898 Y85.657 E2.70060 ; fill
G1 X123.898 Y86.365 E0.03534 ; fill
G1 X86.365 Y123.898 E2.65062 ; fill
G1 X87.073 Y123.898 E0.03534 ; fill
G1 X123.898 Y87.073 E2.60063 ; fill
G1 X123.898 Y87.781 E0.03534 ; fill
G1 X87.781 Y123.898 E2.55065 ; fill
G1 X88.489 Y123.898 E0.03534 ; fill
G1 X123.898 Y88.489 E2.50066 ; fill
