; generated by Slic3r 1.1.6 on 2015-05-10 at 16:09:47

; perimeters extrusion width = 0.50mm
; infill extrusion width = 0.50mm
; solid infill extrusion width = 0.50mm
; top infill extrusion width = 0.50mm

G21 ; set units to millimeters
M107 ; disable fan
M190 S57 ; wait for bed temperature to be reached
M104 S185 ; set temperature

M109 S185 ; wait for temperature to be reached
G90 ; use absolute coordinates
M83 ; use relative distances for extrusion
G1 F1800.000 E-4.00000 ; retract
G1 Z0.240 F6000.000 ; move to next layer (0)
G1 X78.901 Y78.789 F6000.000 ; move to first skirt point
G1 E4.00000 F1800.000 ; compensate retraction
G1 X80.578 Y77.716 E0.07942 F600.000 ; skirt
G1 X82.380 Y77.380 E0.07318 ; skirt
G1 X101.120 Y77.380 E0.74795 ; skirt
G1 X102.127 Y77.483 E0.04042 ; skirt
G1 X119.627 Y81.083 E0.71309 ; skirt
G1 X121.458 Y81.863 E0.07942 ; skirt
G1 X122.839 Y83.296 E0.07942 ; skirt
G1 X123.620 Y85.980 E0.11156 ; skirt
G1 X123.620 Y92.528 E0.26133 ; skirt
G1 X123.269 Y94.367 E0.07475 ; skirt
G1 X117.147 Y109.840 E0.66413 ; skirt
G1 X116.061 Y111.507 E0.07942 ; skirt
G1 X114.410 Y112.619 E0.07942 ; skirt
G1 X112.497 Y113.000 E0.07785 ; skirt
G1 X83.000 Y113.000 E1.17730 ; skirt
G1 X81.050 Y112.604 E0.07942 ; skirt
G1 X79.464 Y111.536 E0.07630 ; skirt
G1 X78.844 Y110.916 E0.03500 ; skirt
G1 X77.745 Y109.257 E0.07942 ; skirt
G1 X77.380 Y107.380 E0.07630 ; skirt
G1 X77.380 Y82.380 E0.99780 ; skirt
G1 X77.776 Y80.430 E0.07942 ; skirt
G1 X78.859 Y78.850 E0.07643 ; skirt
G1 X79.393 Y79.015 F6000.000 ; move to first skirt point
G1 X81.035 Y78.086 E0.07531 F600.000 ; skirt
G1 X82.380 Y77.880 E0.05431 ; skirt
G1 X102.027 Y77.972 E0.78415 ; skirt
G1 X119.527 Y81.572 E0.71309 ; skirt
G1 X121.254 Y82.331 E0.07531 ; skirt
G1 X122.518 Y83.732 E0.07531 ; skirt
G1 X123.120 Y85.980 E0.09288 ; skirt
G1 X123.120 Y92.528 E0.26133 ; skirt
G1 X122.804 Y94.183 E0.06728 ; skirt
G1 X116.682 Y109.656 E0.66413 ; skirt
G1 X115.635 Y111.226 E0.07531 ; skirt
G1 X114.037 Y112.228 E0.07531 ; skirt
G1 X112.497 Y112.500 E0.06239 ; skirt
G1 X83.000 Y112.500 E1.17730 ; skirt
G1 X81.155 Y112.104 E0.07531 ; skirt
G1 X79.818 Y111.182 E0.06483 ; skirt
G1 X79.198 Y110.562 E0.03500 ; skirt
G1 X78.173 Y108.978 E0.07531 ; skirt
G1 X77.880 Y107.380 E0.06483 ; skirt
G1 X77.880 Y82.380 E0.99780 ; skirt
G1 X78.276 Y80.535 E0.07531 ; skirt
G1 X79.348 Y79.075 E0.07231 ; skirt
G1 F1800.000 E-4.00000 ; retract
G1 X101.250 Y88.850 F6000.000 ; move to first perimeter point
G1 E4.00000 F1800.000 ; compensate retraction
G1 X108.104 Y88.850 E0.27354 F900.000 ; perimeter
G1 X110.724 Y86.230 E0.14788 ; perimeter
G1 X118.370 Y86.230 E0.30519 ; perimeter
G1 X118.370 Y92.480 E0.24945 ; perimeter
G1 X112.327 Y107.750 E0.65545 ; perimeter
G1 X106.631 Y107.750 E0.22736 ; perimeter
G1 X107.040 Y107.032 E0.03299 ; perimeter
G1 X107.722 Y105.341 E0.07278 ; perimeter
G1 X108.122 Y103.558 E0.07292 ; perimeter
G1 X108.228 Y101.734 E0.07292 ; perimeter
G1 X108.036 Y99.917 E0.07292 ; perimeter
G1 X107.989 Y99.748 E0.00703 ; perimeter
G1 X107.552 Y98.156 E0.06589 ; perimeter
G1 X106.789 Y96.496 E0.07292 ; perimeter
G1 X105.767 Y94.981 E0.07292 ; perimeter
G1 X105.610 Y94.814 E0.00918 ; perimeter
G1 X104.513 Y93.652 E0.06374 ; perimeter
G1 X103.060 Y92.545 E0.07292 ; perimeter
G1 X101.447 Y91.687 E0.07292 ; perimeter
G1 X99.716 Y91.103 E0.07292 ; perimeter
G1 X97.913 Y90.806 E0.07292 ; perimeter
G1 X96.087 Y90.806 E0.07292 ; perimeter
G1 X94.284 Y91.103 E0.07292 ; perimeter
G1 X92.553 Y91.687 E0.07292 ; perimeter
G1 X90.940 Y92.545 E0.07292 ; perimeter
G1 X89.487 Y93.652 E0.07292 ; perimeter
G1 X88.233 Y94.981 E0.07292 ; perimeter
G1 X87.211 Y96.496 E0.07292 ; perimeter
G1 X86.448 Y98.156 E0.07292 ; perimeter
G1 X85.964 Y99.917 E0.07292 ; perimeter
G1 X85.772 Y101.734 E0.07292 ; perimeter
G1 X85.878 Y103.558 E0.07292 ; perimeter
G1 X86.278 Y105.341 E0.07292 ; perimeter
G1 X86.961 Y107.034 E0.07285 ; perimeter
G1 X87.375 Y107.750 E0.03303 ; perimeter
G1 X83.104 Y107.750 E0.17049 ; perimeter
G1 X82.630 Y107.276 E0.02673 ; perimeter
G1 X82.630 Y82.630 E0.98369 ; perimeter
G1 X100.870 Y82.630 E0.72800 ; perimeter
G1 X100.870 Y85.070 E0.09739 ; perimeter
G1 X93.870 Y85.070 E0.27939 ; perimeter
G1 X93.870 Y88.330 E0.13011 ; perimeter
G1 X101.250 Y88.330 E0.29455 ; perimeter
G1 X101.250 Y88.775 E0.01776 ; perimeter
G1 X101.250 Y89.350 F6000.000 ; move inwards before travel
G1 X100.750 Y89.350 F6000.000 ; move to first perimeter point
G1 X108.311 Y89.350 E0.30176 F900.000 ; perimeter
G1 X110.931 Y86.730 E0.14788 ; perimeter
G1 X117.870 Y86.730 E0.27696 ; perimeter
G1 X117.870 Y92.385 E0.22569 ; perimeter
G1 X111.988 Y107.250 E0.63808 ; perimeter
G1 X107.491 Y107.250 E0.17945 ; perimeter
G1 X108.201 Y105.490 E0.07574 ; perimeter
G1 X108.619 Y103.628 E0.07618 ; perimeter
G1 X108.729 Y101.722 E0.07618 ; perimeter
G1 X108.529 Y99.824 E0.07618 ; perimeter
G1 X108.024 Y97.984 E0.07618 ; perimeter
G1 X107.926 Y97.770 E0.00937 ; perimeter
G1 X107.227 Y96.250 E0.06680 ; perimeter
G1 X106.159 Y94.668 E0.07618 ; perimeter
G1 X104.849 Y93.280 E0.07618 ; perimeter
G1 X103.331 Y92.122 E0.07618 ; perimeter
G1 X101.849 Y91.334 E0.06701 ; perimeter
G1 X101.646 Y91.227 E0.00917 ; perimeter
G1 X99.838 Y90.616 E0.07617 ; perimeter
G1 X97.954 Y90.306 E0.07618 ; perimeter
G1 X96.046 Y90.306 E0.07618 ; perimeter
G1 X94.162 Y90.616 E0.07617 ; perimeter
G1 X92.354 Y91.227 E0.07618 ; perimeter
G1 X90.669 Y92.122 E0.07618 ; perimeter
G1 X89.151 Y93.280 E0.07617 ; perimeter
G1 X87.841 Y94.668 E0.07618 ; perimeter
G1 X86.773 Y96.250 E0.07617 ; perimeter
G1 X85.976 Y97.984 E0.07617 ; perimeter
G1 X85.471 Y99.824 E0.07618 ; perimeter
G1 X85.271 Y101.722 E0.07618 ; perimeter
G1 X85.381 Y103.628 E0.07618 ; perimeter
G1 X85.799 Y105.490 E0.07618 ; perimeter
G1 X86.509 Y107.250 E0.07574 ; perimeter
G1 X83.311 Y107.250 E0.12764 ; perimeter
G1 X83.130 Y107.069 E0.01020 ; perimeter
G1 X83.130 Y83.130 E0.95547 ; perimeter
G1 X100.370 Y83.130 E0.68809 ; perimeter
G1 X100.370 Y84.570 E0.05747 ; perimeter
G1 X93.370 Y84.570 E0.27939 ; perimeter
G1 X93.370 Y88.830 E0.17003 ; perimeter
G1 X100.750 Y88.830 E0.29455 ; perimeter
G1 X100.750 Y89.275 E0.01776 ; perimeter
G1 X101.358 Y90.768 F6000.000 ; move to first fill point
G1 X99.763 Y89.172 E0.09005 F900.000 ; fill
G1 X99.055 Y89.172 E0.02826 ; fill
G1 X100.289 Y90.407 E0.06967 ; fill
G1 X100.991 Y89.692 E0.03997 ; fill
G1 X102.694 Y91.396 E0.09615 ; fill
G1 F1800.000 E-4.00000 ; retract
G1 X104.876 Y92.869 F6000.000 ; move to first fill point
G1 E4.00000 F1800.000 ; compensate retraction
G1 X101.699 Y89.692 E0.17931 F900.000 ; fill
G1 X102.407 Y89.692 E0.02826 ; fill
G1 X113.985 Y101.271 E0.65353 ; fill
G1 X114.186 Y100.764 E0.02177 ; fill
G1 X103.115 Y89.692 E0.62490 ; fill
G1 X103.823 Y89.692 E0.02826 ; fill
G1 X114.387 Y100.256 E0.59627 ; fill
G1 X114.587 Y99.749 E0.02177 ; fill
G1 X104.531 Y89.692 E0.56763 ; fill
G1 X105.239 Y89.692 E0.02826 ; fill
G1 X114.788 Y99.242 E0.53900 ; fill
G1 X114.989 Y98.734 E0.02177 ; fill
G1 X105.947 Y89.692 E0.51037 ; fill
G1 X106.655 Y89.692 E0.02826 ; fill
G1 X115.190 Y98.227 E0.48173 ; fill
G1 X115.390 Y97.720 E0.02177 ; fill
G1 X107.363 Y89.692 E0.45310 ; fill
G1 X108.071 Y89.692 E0.02826 ; fill
G1 X115.591 Y97.213 E0.42447 ; fill
G1 X115.792 Y96.705 E0.02177 ; fill
G1 X108.616 Y89.529 E0.40505 ; fill
G1 X108.970 Y89.175 E0.01998 ; fill
G1 X115.993 Y96.198 E0.39640 ; fill
G1 X116.193 Y95.691 E0.02177 ; fill
G1 X109.324 Y88.821 E0.38775 ; fill
G1 X109.678 Y88.467 E0.01998 ; fill
G1 X116.394 Y95.183 E0.37910 ; fill
G1 X116.595 Y94.676 E0.02177 ; fill
G1 X110.032 Y88.113 E0.37044 ; fill
G1 X110.386 Y87.759 E0.01998 ; fill
G1 X116.796 Y94.169 E0.36179 ; fill
G1 X116.996 Y93.662 E0.02177 ; fill
G1 X110.740 Y87.405 E0.35314 ; fill
G1 X111.115 Y87.072 E0.02002 ; fill
G1 X117.197 Y93.154 E0.34328 ; fill
G1 X117.398 Y92.647 E0.02177 ; fill
G1 X111.823 Y87.072 E0.31465 ; fill
G1 X112.531 Y87.072 E0.02826 ; fill
G1 X117.528 Y92.069 E0.28201 ; fill
G1 X117.528 Y91.361 E0.02826 ; fill
G1 X113.239 Y87.072 E0.24204 ; fill
G1 X113.947 Y87.072 E0.02826 ; fill
G1 X117.528 Y90.653 E0.20208 ; fill
G1 X117.528 Y89.945 E0.02826 ; fill
G1 X114.655 Y87.072 E0.16211 ; fill
G1 X115.363 Y87.072 E0.02826 ; fill
G1 X117.528 Y89.237 E0.12215 ; fill
G1 X117.528 Y88.529 E0.02826 ; fill
G1 X116.071 Y87.072 E0.08219 ; fill
G1 X116.779 Y87.072 E0.02826 ; fill
G1 X117.528 Y87.821 E0.04222 ; fill
G1 X117.528 Y87.112 E0.02826 ; fill
G1 X117.488 Y87.072 E0.00226 ; fill
G1 F1800.000 E-4.00000 ; retract
G1 X105.891 Y93.884 F6000.000 ; move to first fill point
G1 E4.00000 F1800.000 ; compensate retraction
G1 X113.784 Y101.778 E0.44557 F900.000 ; fill
G1 X113.584 Y102.285 E0.02177 ; fill
G1 X107.651 Y96.353 E0.33487 ; fill
G1 X108.253 Y97.663 F6000.000 ; move to first fill point
G1 X113.383 Y102.793 E0.28956 F900.000 ; fill
G1 X113.182 Y103.300 E0.02177 ; fill
G1 X108.573 Y98.691 E0.26017 ; fill
G1 X108.841 Y99.667 E0.04039 ; fill
G1 X112.982 Y103.807 E0.23372 ; fill
G1 X112.781 Y104.315 E0.02177 ; fill
G1 X108.942 Y100.476 E0.21667 ; fill
G1 X109.026 Y101.267 E0.03177 ; fill
G1 X112.580 Y104.822 E0.20063 ; fill
G1 X112.379 Y105.329 E0.02177 ; fill
G1 X109.056 Y102.006 E0.18759 ; fill
G1 X109.017 Y102.675 E0.02676 ; fill
G1 X112.179 Y105.836 E0.17844 ; fill
G1 X111.978 Y106.344 E0.02177 ; fill
G1 X108.978 Y103.344 E0.16930 ; fill
G1 X108.894 Y103.968 E0.02511 ; fill
G1 X111.777 Y106.851 E0.16275 ; fill
G1 X111.126 Y106.908 E0.02610 ; fill
G1 X108.764 Y104.546 E0.13329 ; fill
G1 X108.634 Y105.124 E0.02366 ; fill
G1 X110.418 Y106.908 E0.10065 ; fill
G1 X109.709 Y106.908 E0.02826 ; fill
G1 X108.491 Y105.689 E0.06880 ; fill
G1 X108.287 Y106.193 E0.02171 ; fill
G1 X109.001 Y106.908 E0.04032 ; fill
G1 X108.293 Y106.908 E0.02826 ; fill
G1 X108.084 Y106.698 E0.01185 ; fill
G1 F1800.000 E-4.00000 ; retract
G1 X99.365 Y90.191 F6000.000 ; move to first fill point
G1 E4.00000 F1800.000 ; compensate retraction
G1 X98.347 Y89.172 E0.05750 F900.000 ; fill
G1 X97.639 Y89.172 E0.02826 ; fill
G1 X98.518 Y90.052 E0.04964 ; fill
G1 X97.722 Y89.964 E0.03197 ; fill
G1 X96.931 Y89.172 E0.04467 ; fill
G1 X96.223 Y89.172 E0.02826 ; fill
G1 X97.014 Y89.964 E0.04467 ; fill
G1 X96.306 Y89.964 E0.02826 ; fill
G1 X95.515 Y89.172 E0.04467 ; fill
G1 X94.807 Y89.172 E0.02826 ; fill
G1 X95.657 Y90.023 E0.04801 ; fill
G1 X95.049 Y90.123 E0.02460 ; fill
G1 X94.099 Y89.172 E0.05365 ; fill
G1 X93.391 Y89.172 E0.02826 ; fill
G1 X94.441 Y90.223 E0.05929 ; fill
G1 X93.865 Y90.355 E0.02359 ; fill
G1 X86.982 Y83.472 E0.38847 ; fill
G1 X87.691 Y83.472 E0.02826 ; fill
G1 X93.028 Y88.809 E0.30124 ; fill
G1 X93.028 Y88.101 E0.02826 ; fill
G1 X88.399 Y83.472 E0.26128 ; fill
G1 X89.107 Y83.472 E0.02826 ; fill
G1 X93.028 Y87.393 E0.22132 ; fill
G1 X93.028 Y86.685 E0.02826 ; fill
G1 X89.815 Y83.472 E0.18135 ; fill
G1 X90.523 Y83.472 E0.02826 ; fill
G1 X93.028 Y85.977 E0.14139 ; fill
G1 X93.028 Y85.269 E0.02826 ; fill
G1 X91.231 Y83.472 E0.10142 ; fill
G1 X91.939 Y83.472 E0.02826 ; fill
G1 X93.028 Y84.561 E0.06146 ; fill
G1 X93.402 Y84.228 E0.02001 ; fill
G1 X92.647 Y83.472 E0.04262 ; fill
G1 X93.355 Y83.472 E0.02826 ; fill
G1 X94.110 Y84.228 E0.04262 ; fill
G1 X94.818 Y84.228 E0.02826 ; fill
G1 X94.063 Y83.472 E0.04262 ; fill
G1 X94.771 Y83.472 E0.02826 ; fill
G1 X95.526 Y84.228 E0.04262 ; fill
G1 X96.234 Y84.228 E0.02826 ; fill
G1 X95.479 Y83.472 E0.04262 ; fill
G1 X96.187 Y83.472 E0.02826 ; fill
G1 X96.942 Y84.228 E0.04262 ; fill
G1 X97.650 Y84.228 E0.02826 ; fill
G1 X96.895 Y83.472 E0.04262 ; fill
G1 X97.603 Y83.472 E0.02826 ; fill
G1 X98.358 Y84.228 E0.04262 ; fill
G1 X99.066 Y84.228 E0.02826 ; fill
G1 X98.311 Y83.472 E0.04262 ; fill
G1 X99.019 Y83.472 E0.02826 ; fill
G1 X99.774 Y84.228 E0.04262 ; fill
G1 X100.028 Y83.773 E0.02077 ; fill
G1 X99.727 Y83.472 E0.01696 ; fill
G1 F1800.000 E-4.00000 ; retract
G1 X93.336 Y90.534 F6000.000 ; move to first fill point
G1 E4.00000 F1800.000 ; compensate retraction
G1 X86.274 Y83.472 E0.39856 F900.000 ; fill
G1 X85.566 Y83.472 E0.02826 ; fill
G1 X92.806 Y90.712 E0.40865 ; fill
G1 X92.277 Y90.891 E0.02230 ; fill
G1 X84.858 Y83.472 E0.41874 ; fill
G1 X84.150 Y83.472 E0.02826 ; fill
G1 X91.807 Y91.129 E0.43219 ; fill
G1 X91.345 Y91.375 E0.02090 ; fill
G1 X83.477 Y83.508 E0.44408 ; fill
G1 X83.472 Y84.211 E0.02806 ; fill
G1 X90.883 Y91.621 E0.41826 ; fill
G1 X90.429 Y91.875 E0.02076 ; fill
G1 X83.472 Y84.919 E0.39264 ; fill
G1 X83.472 Y85.627 E0.02826 ; fill
G1 X90.027 Y92.181 E0.36996 ; fill
G1 X89.625 Y92.487 E0.02016 ; fill
G1 X83.472 Y86.335 E0.34729 ; fill
G1 X83.472 Y87.043 E0.02826 ; fill
G1 X89.223 Y92.794 E0.32461 ; fill
G1 X88.836 Y93.114 E0.02007 ; fill
G1 X83.472 Y87.751 E0.30274 ; fill
G1 X83.472 Y88.459 E0.02826 ; fill
G1 X88.492 Y93.479 E0.28334 ; fill
G1 X88.149 Y93.843 E0.01999 ; fill
G1 X83.472 Y89.167 E0.26394 ; fill
G1 X83.472 Y89.875 E0.02826 ; fill
G1 X87.805 Y94.207 E0.24453 ; fill
G1 X87.480 Y94.590 E0.02005 ; fill
G1 X83.472 Y90.583 E0.22620 ; fill
G1 X83.472 Y91.291 E0.02826 ; fill
G1 X87.195 Y95.013 E0.21010 ; fill
G1 X86.909 Y95.436 E0.02036 ; fill
G1 X83.472 Y91.999 E0.19399 ; fill
G1 X83.472 Y92.707 E0.02826 ; fill
G1 X86.624 Y95.859 E0.17789 ; fill
G1 X86.368 Y96.311 E0.02074 ; fill
G1 X83.472 Y93.415 E0.16345 ; fill
G1 X83.472 Y94.123 E0.02826 ; fill
G1 X86.145 Y96.796 E0.15087 ; fill
G1 X85.922 Y97.281 E0.02131 ; fill
G1 X83.472 Y94.831 E0.13828 ; fill
G1 X83.472 Y95.539 E0.02826 ; fill
G1 X85.699 Y97.766 E0.12570 ; fill
G1 X85.532 Y98.307 E0.02260 ; fill
G1 X83.472 Y96.247 E0.11627 ; fill
G1 X83.472 Y96.955 E0.02826 ; fill
G1 X85.380 Y98.863 E0.10766 ; fill
G1 X85.227 Y99.418 E0.02299 ; fill
G1 X83.472 Y97.663 E0.09905 ; fill
G1 X83.472 Y98.371 E0.02826 ; fill
G1 X85.107 Y100.006 E0.09228 ; fill
G1 X85.040 Y100.647 E0.02570 ; fill
G1 X83.472 Y99.079 E0.08847 ; fill
G1 X83.472 Y99.787 E0.02826 ; fill
G1 X84.972 Y101.287 E0.08466 ; fill
G1 X84.942 Y101.965 E0.02707 ; fill
G1 X83.472 Y100.495 E0.08293 ; fill
G1 X83.472 Y101.203 E0.02826 ; fill
G1 X84.985 Y102.716 E0.08538 ; fill
G1 X85.029 Y103.468 E0.03004 ; fill
G1 X83.472 Y101.911 E0.08784 ; fill
G1 X83.472 Y102.619 E0.02826 ; fill
G1 X85.189 Y104.336 E0.09687 ; fill
G1 X85.393 Y105.248 E0.03733 ; fill
G1 X83.472 Y103.327 E0.10843 ; fill
G1 X83.472 Y104.035 E0.02826 ; fill
G1 X85.769 Y106.332 E0.12962 ; fill
G1 X85.637 Y106.908 E0.02357 ; fill
G1 X83.472 Y104.743 E0.12215 ; fill
G1 X83.472 Y105.451 E0.02826 ; fill
G1 X84.929 Y106.908 E0.08219 ; fill
G1 X84.221 Y106.908 E0.02826 ; fill
G1 X83.472 Y106.159 E0.04222 ; fill
G1 X83.472 Y106.868 E0.02826 ; fill
G1 X83.512 Y106.908 E0.00226 ; fill
G1 F1800.000 E-4.00000 ; retract
G1 Z0.480 F6000.000 ; move to next layer (1)
G1 X101.250 Y88.850 F6000.000 ; move to first perimeter point
G1 E4.00000 F1800.000 ; compensate retraction
G1 X108.104 Y88.850 E0.27354 F1800.000 ; perimeter
G1 X110.964 Y85.990 E0.16143 ; perimeter
G1 X118.610 Y85.990 E0.30519 ; perimeter
G1 X118.610 Y92.526 E0.26085 ; perimeter
G1 X112.585 Y107.750 E0.65348 ; perimeter
G1 X106.344 Y107.750 E0.24910 ; perimeter
G1 X106.826 Y106.924 E0.03814 ; perimeter
G1 X107.493 Y105.270 E0.07122 ; perimeter
G1 X107.885 Y103.525 E0.07136 ; perimeter
G1 X107.988 Y101.740 E0.07136 ; perimeter
G1 X107.800 Y99.962 E0.07136 ; perimeter
G1 X107.327 Y98.238 E0.07136 ; perimeter
G1 X106.580 Y96.613 E0.07136 ; perimeter
G1 X105.580 Y95.131 E0.07136 ; perimeter
G1 X104.353 Y93.831 E0.07136 ; perimeter
G1 X102.931 Y92.747 E0.07136 ; perimeter
G1 X101.352 Y91.908 E0.07136 ; perimeter
G1 X99.658 Y91.335 E0.07136 ; perimeter
G1 X97.894 Y91.046 E0.07136 ; perimeter
G1 X96.106 Y91.046 E0.07136 ; perimeter
G1 X94.342 Y91.335 E0.07136 ; perimeter
G1 X92.648 Y91.908 E0.07136 ; perimeter
G1 X91.069 Y92.747 E0.07136 ; perimeter
G1 X89.647 Y93.831 E0.07136 ; perimeter
G1 X88.420 Y95.131 E0.07136 ; perimeter
G1 X87.420 Y96.613 E0.07136 ; perimeter
G1 X86.673 Y98.238 E0.07136 ; perimeter
G1 X86.200 Y99.962 E0.07136 ; perimeter
G1 X86.012 Y101.740 E0.07136 ; perimeter
G1 X86.115 Y103.525 E0.07136 ; perimeter
