; generated by Slic3r 1.0.1 on 2014-09-22 at 21:20:35

; layer_height = 0.24
; perimeters = 2
; top_solid_layers = 4
; bottom_solid_layers = 3
; fill_density = 0.25
; perimeter_speed = 30
; infill_speed = 30
; travel_speed = 100
; nozzle_diameter = 0.5
; filament_diameter = 1.75
; extrusion_multiplier = 1
; perimeters extrusion width = 0.50mm
; infill extrusion width = 0.50mm
; solid infill extrusion width = 0.50mm
; top infill extrusion width = 0.50mm
; first layer extrusion width = 0.80mm

G21 ; set units to millimeters
M107 ; disable fan
M190 S57 ; wait for bed temperature to be reached
M104 S200 ; set temperature

M109 S200 ; wait for temperature to be reached
G90 ; use absolute coordinates
M83 ; use relative distances for extrusion
G1 F1800.000 E-2.40000 ; retract
G1 Z0.240 F6000.000 ; move to next layer (0)
G1 X71.640 Y71.640 F6000.000 ; move to first skirt point
G1 E2.40000 F1800.000 ; compensate retraction
G1 X72.630 Y70.890 E0.09276 F900.000 ; skirt
G1 X73.770 Y70.410 E0.09238 ; skirt
G1 X75.000 Y70.250 E0.09264 ; skirt
G1 X125.000 Y70.250 E3.73426 ; skirt
G1 X126.230 Y70.410 E0.09264 ; skirt
G1 X127.370 Y70.890 E0.09238 ; skirt
G1 X128.360 Y71.640 E0.09276 ; skirt
G1 X129.110 Y72.630 E0.09276 ; skirt
G1 X129.590 Y73.770 E0.09238 ; skirt
G1 X129.750 Y75.000 E0.09264 ; skirt
G1 X129.750 Y92.990 E1.34359 ; skirt
G1 X129.640 Y94.260 E0.09521 ; skirt
G1 X129.570 Y94.720 E0.03475 ; skirt
G1 X129.460 Y95.170 E0.03460 ; skirt
G1 X129.230 Y95.920 E0.05859 ; skirt
G1 X128.940 Y96.650 E0.05866 ; skirt
G1 X114.940 Y124.650 E2.33802 ; skirt
G1 X114.260 Y125.880 E0.10497 ; skirt
G1 X113.970 Y126.260 E0.03570 ; skirt
G1 X113.470 Y126.860 E0.05833 ; skirt
G1 X113.180 Y127.180 E0.03225 ; skirt
G1 X112.860 Y127.470 E0.03225 ; skirt
G1 X112.260 Y127.970 E0.05833 ; skirt
G1 X111.880 Y128.260 E0.03570 ; skirt
G1 X110.770 Y128.870 E0.09459 ; skirt
G1 X110.360 Y129.070 E0.03407 ; skirt
G1 X109.920 Y129.230 E0.03497 ; skirt
G1 X109.170 Y129.460 E0.05859 ; skirt
G1 X108.720 Y129.570 E0.03460 ; skirt
G1 X108.260 Y129.640 E0.03475 ; skirt
G1 X107.480 Y129.720 E0.05856 ; skirt
G1 X107.000 Y129.750 E0.03592 ; skirt
G1 X93.000 Y129.750 E1.04559 ; skirt
G1 X92.520 Y129.720 E0.03592 ; skirt
G1 X91.730 Y129.640 E0.05930 ; skirt
G1 X91.270 Y129.570 E0.03475 ; skirt
G1 X90.820 Y129.460 E0.03460 ; skirt
G1 X90.070 Y129.230 E0.05859 ; skirt
G1 X89.630 Y129.070 E0.03497 ; skirt
G1 X88.530 Y128.500 E0.09253 ; skirt
G1 X88.110 Y128.260 E0.03613 ; skirt
G1 X87.730 Y127.970 E0.03570 ; skirt
G1 X86.810 Y127.180 E0.09057 ; skirt
G1 X86.020 Y126.260 E0.09057 ; skirt
G1 X85.730 Y125.880 E0.03570 ; skirt
G1 X85.050 Y124.650 E0.10497 ; skirt
G1 X71.050 Y96.650 E2.33802 ; skirt
G1 X70.760 Y95.920 E0.05866 ; skirt
G1 X70.530 Y95.170 E0.05859 ; skirt
G1 X70.410 Y94.690 E0.03695 ; skirt
G1 X70.340 Y94.200 E0.03697 ; skirt
G1 X70.250 Y93.000 E0.08987 ; skirt
G1 X70.250 Y75.000 E1.34433 ; skirt
G1 X70.410 Y73.770 E0.09264 ; skirt
G1 X70.890 Y72.630 E0.09238 ; skirt
G1 X71.572 Y71.729 E0.08437 ; skirt
G1 F1800.000 E-2.40000 ; retract
G1 X103.400 Y75.400 F6000.000 ; move to first perimeter point
G1 E2.40000 F1800.000 ; compensate retraction
G1 X104.500 Y75.400 E0.08215 F900.000 ; perimeter
G1 X104.500 Y78.764 E0.25124 ; perimeter
G1 X104.402 Y79.000 E0.01908 ; perimeter
G1 X105.163 Y80.837 E0.14849 ; perimeter
G1 X107.000 Y81.598 E0.14849 ; perimeter
G1 X108.837 Y80.837 E0.14849 ; perimeter
G1 X109.598 Y79.000 E0.14849 ; perimeter
G1 X109.500 Y78.764 E0.01908 ; perimeter
G1 X109.500 Y75.400 E0.25124 ; perimeter
G1 X110.600 Y75.400 E0.08215 ; perimeter
G1 X110.600 Y92.980 E1.31299 ; perimeter
G1 X110.529 Y93.702 E0.05416 ; perimeter
G1 X110.324 Y94.377 E0.05267 ; perimeter
G1 X109.992 Y94.999 E0.05268 ; perimeter
G1 X109.544 Y95.544 E0.05268 ; perimeter
G1 X108.999 Y95.992 E0.05268 ; perimeter
G1 X108.377 Y96.324 E0.05268 ; perimeter
G1 X107.702 Y96.529 E0.05268 ; perimeter
G1 X107.000 Y96.598 E0.05268 ; perimeter
G1 X106.298 Y96.529 E0.05268 ; perimeter
G1 X105.623 Y96.324 E0.05268 ; perimeter
G1 X105.001 Y95.992 E0.05268 ; perimeter
G1 X104.456 Y95.544 E0.05268 ; perimeter
G1 X104.008 Y94.999 E0.05268 ; perimeter
G1 X103.676 Y94.377 E0.05268 ; perimeter
G1 X103.471 Y93.702 E0.05267 ; perimeter
G1 X103.400 Y92.980 E0.05416 ; perimeter
G1 X103.400 Y75.512 E1.30461 ; perimeter
G1 X104.048 Y75.774 F6000.000 ; move inwards before travel
G1 F1800.000 E-2.40000 ; retract
G1 X104.148 Y81.227 F6000.000 ; move to first perimeter point
G1 E2.40000 F1800.000 ; compensate retraction
G1 X107.000 Y82.408 E0.23051 F780.000 ; perimeter
G1 X109.852 Y81.227 E0.23051 ; perimeter
G1 X109.852 Y91.907 E0.79764 ; perimeter
G1 X109.584 Y91.978 E0.02069 ; perimeter
G1 X108.587 Y90.252 E0.14893 ; perimeter
G1 X105.413 Y90.252 E0.23703 ; perimeter
G1 X104.416 Y91.978 E0.14893 ; perimeter
G1 X104.148 Y91.907 E0.02069 ; perimeter
G1 X104.148 Y81.339 E0.78925 ; perimeter
G1 F1800.000 E-2.40000 ; retract
G1 X105.845 Y91.000 F6000.000 ; move to first perimeter point
G1 E2.40000 F1800.000 ; compensate retraction
G1 X108.155 Y91.000 E0.17248 F780.000 ; perimeter
G1 X109.309 Y93.000 E0.17248 ; perimeter
G1 X108.155 Y95.000 E0.17248 ; perimeter
G1 X105.845 Y95.000 E0.17248 ; perimeter
G1 X104.691 Y93.000 E0.17248 ; perimeter
G1 X105.789 Y91.097 E0.16409 ; perimeter
G1 X105.975 Y90.263 F6000.000 ; move inwards before travel
G1 X104.705 Y90.395 F6000.000 ; move to first fill point
G1 X104.681 Y90.371 E0.00260 F900.000 ; fill
G1 X105.109 Y89.719 E0.05943 ; fill
G1 X104.681 Y89.291 E0.04612 ; fill
G1 X104.681 Y88.211 E0.08229 ; fill
G1 X106.189 Y89.719 E0.16250 ; fill
G1 X107.269 Y89.719 E0.08229 ; fill
G1 X104.681 Y87.131 E0.27888 ; fill
G1 X104.681 Y86.051 E0.08229 ; fill
G1 X108.349 Y89.719 E0.39526 ; fill
G1 X109.319 Y89.609 E0.07437 ; fill
G1 X104.681 Y84.971 E0.49976 ; fill
G1 X104.681 Y83.891 E0.08229 ; fill
G1 X109.319 Y88.529 E0.49976 ; fill
G1 X109.319 Y87.449 E0.08229 ; fill
G1 X104.681 Y82.811 E0.49976 ; fill
G1 X105.181 Y82.231 E0.05835 ; fill
G1 X109.319 Y86.369 E0.44589 ; fill
G1 X109.319 Y85.289 E0.08229 ; fill
G1 X107.010 Y82.980 E0.24878 ; fill
G1 X107.774 Y82.664 E0.06298 ; fill
G1 X109.319 Y84.209 E0.16649 ; fill
G1 X109.319 Y83.129 E0.08229 ; fill
G1 X108.538 Y82.348 E0.08419 ; fill
G1 X109.301 Y82.031 E0.06298 ; fill
G1 X109.319 Y82.049 E0.00190 ; fill
G1 X109.427 Y80.835 F6000.000 ; move to first fill point
G1 X109.411 Y80.820 E0.00084 F300.000 ; fill
G1 X109.573 Y80.430 E0.01646 F300.000 ; fill
G1 X109.817 Y80.674 E0.01344 F300.000 ; fill
G1 X110.076 Y80.380 E0.01524 F300.000 ; fill
G1 X109.735 Y80.039 E0.01879 F300.000 ; fill
G1 X110.076 Y79.828 E0.01562 F300.000 ; fill
G1 X109.896 Y79.649 E0.00988 F300.000 ; fill
G1 X110.076 Y79.276 E0.01611 F300.000 ; fill
G1 X110.066 Y79.266 E0.00055 F300.000 ; fill
G1 X110.066 Y78.734 F6000.000 ; move to first fill point
G1 X110.047 Y78.715 E0.00103 F300.000 ; fill
G1 X110.076 Y78.184 E0.02103 F300.000 ; fill
G1 X110.024 Y78.132 E0.00288 F300.000 ; fill
G1 X110.076 Y77.624 E0.02019 F300.000 ; fill
G1 X110.024 Y77.572 E0.00288 F300.000 ; fill
G1 X110.076 Y77.064 E0.02019 F300.000 ; fill
G1 X110.024 Y77.013 E0.00288 F300.000 ; fill
G1 X110.076 Y76.504 E0.02019 F300.000 ; fill
G1 X110.024 Y76.453 E0.00288 F300.000 ; fill
G1 X110.076 Y75.944 E0.02019 F300.000 ; fill
G1 X110.056 Y75.924 E0.00112 F300.000 ; fill
G1 F1800.000 E-2.40000 ; retract
G1 X103.976 Y75.944 F6000.000 ; move to first fill point
G1 E2.40000 F1800.000 ; compensate retraction
G1 X103.956 Y75.924 E0.00113 F300.000 ; fill
G1 X103.976 Y75.944 F6000.000 ; move to first fill point
G1 X103.924 Y76.459 E0.02067 F300.000 ; fill
G1 X103.976 Y76.510 E0.00291 F300.000 ; fill
G1 X103.924 Y77.025 E0.02067 F300.000 ; fill
G1 X103.976 Y77.077 E0.00291 F300.000 ; fill
G1 X103.924 Y77.591 E0.02067 F300.000 ; fill
G1 X103.976 Y77.643 E0.00291 F300.000 ; fill
G1 X103.924 Y78.158 E0.02067 F300.000 ; fill
G1 X103.976 Y78.209 E0.00291 F300.000 ; fill
G1 X103.924 Y78.724 E0.02067 F300.000 ; fill
G1 X103.934 Y78.734 E0.00056 F300.000 ; fill
G1 X103.934 Y79.266 F6000.000 ; move to first fill point
G1 X103.953 Y79.285 E0.00119 F300.000 ; fill
G1 X103.924 Y79.903 E0.02825 F300.000 ; fill
G1 X104.410 Y80.389 E0.03135 F300.000 ; fill
G1 X103.924 Y80.550 E0.02336 F300.000 ; fill
G1 X103.953 Y80.578 E0.00184 F300.000 ; fill
G1 F1800.000 E-2.40000 ; retract
G1 X104.340 Y92.501 F6000.000 ; move to first fill point
G1 E2.40000 F1800.000 ; compensate retraction
G1 X104.361 Y92.522 E0.00149 F300.000 ; fill
G1 X104.340 Y92.501 F6000.000 ; move to first fill point
G1 X103.924 Y92.783 E0.02470 F300.000 ; fill
G1 X103.942 Y92.800 E0.00122 F300.000 ; fill
G1 F1800.000 E-2.40000 ; retract
G1 X104.738 Y94.683 F6000.000 ; move to first fill point
G1 E2.40000 F1800.000 ; compensate retraction
G1 X104.810 Y94.756 E0.00762 F300.000 ; fill
G1 F1800.000 E-2.40000 ; retract
G1 X106.535 Y95.774 F6000.000 ; move to first fill point
G1 E2.40000 F1800.000 ; compensate retraction
G1 X106.546 Y95.785 E0.00118 F300.000 ; fill
G1 F1800.000 E-2.40000 ; retract
G1 X109.183 Y94.748 F6000.000 ; move to first fill point
G1 E2.40000 F1800.000 ; compensate retraction
G1 X109.641 Y93.996 E0.07530 F300.000 ; fill
G1 X109.633 Y93.988 E0.00097 F300.000 ; fill
G1 X109.183 Y94.748 F6000.000 ; move to first fill point
G1 X109.190 Y94.756 E0.00088 F300.000 ; fill
G1 F1800.000 E-2.40000 ; retract
G1 X109.749 Y92.687 F6000.000 ; move to first fill point
G1 E2.40000 F1800.000 ; compensate retraction
G1 X109.714 Y92.653 E0.00208 F300.000 ; fill
G1 X110.058 Y92.394 E0.01824 F300.000 ; fill
G1 X110.076 Y92.412 E0.00109 F300.000 ; fill
G1 F1800.000 E-2.40000 ; retract
G1 X117.400 Y92.980 F6000.000 ; move to first perimeter point
G1 E2.40000 F1800.000 ; compensate retraction
G1 X117.400 Y75.400 E1.31299 F900.000 ; perimeter
G1 X118.500 Y75.400 E0.08215 ; perimeter
G1 X118.500 Y78.764 E0.25124 ; perimeter
G1 X118.402 Y79.000 E0.01908 ; perimeter
G1 X119.163 Y80.837 E0.14849 ; perimeter
G1 X121.000 Y81.598 E0.14849 ; perimeter
G1 X122.837 Y80.837 E0.14849 ; perimeter
G1 X123.598 Y79.000 E0.14849 ; perimeter
G1 X123.500 Y78.764 E0.01908 ; perimeter
G1 X123.500 Y75.400 E0.25124 ; perimeter
G1 X124.600 Y75.400 E0.08215 ; perimeter
G1 X124.600 Y92.980 E1.31299 ; perimeter
G1 X124.529 Y93.702 E0.05416 ; perimeter
G1 X124.324 Y94.377 E0.05267 ; perimeter
G1 X123.992 Y94.999 E0.05268 ; perimeter
G1 X123.544 Y95.544 E0.05268 ; perimeter
G1 X122.999 Y95.992 E0.05268 ; perimeter
G1 X122.377 Y96.324 E0.05268 ; perimeter
G1 X121.702 Y96.529 E0.05268 ; perimeter
G1 X121.000 Y96.598 E0.05268 ; perimeter
G1 X120.298 Y96.529 E0.05268 ; perimeter
G1 X119.623 Y96.324 E0.05268 ; perimeter
G1 X119.001 Y95.992 E0.05268 ; perimeter
G1 X118.456 Y95.544 E0.05268 ; perimeter
G1 X118.008 Y94.999 E0.05268 ; perimeter
G1 X117.676 Y94.377 E0.05268 ; perimeter
G1 X117.471 Y93.702 E0.05267 ; perimeter
G1 X117.411 Y93.092 E0.04577 ; perimeter
G1 X118.036 Y92.585 F6000.000 ; move inwards before travel
G1 X118.148 Y91.907 F6000.000 ; move to first perimeter point
G1 X118.148 Y81.227 E0.79764 F780.000 ; perimeter
G1 X121.000 Y82.408 E0.23051 ; perimeter
G1 X123.852 Y81.227 E0.23051 ; perimeter
G1 X123.852 Y91.907 E0.79764 ; perimeter
G1 X123.584 Y91.978 E0.02069 ; perimeter
G1 X122.587 Y90.252 E0.14893 ; perimeter
G1 X119.413 Y90.252 E0.23703 ; perimeter
G1 X118.416 Y91.978 E0.14893 ; perimeter
G1 X118.257 Y91.936 E0.01231 ; perimeter
G1 X118.691 Y93.000 F6000.000 ; move to first perimeter point
G1 X119.845 Y91.000 E0.17248 F780.000 ; perimeter
G1 X122.155 Y91.000 E0.17248 ; perimeter
G1 X123.309 Y93.000 E0.17248 ; perimeter
G1 X122.155 Y95.000 E0.17248 ; perimeter
G1 X119.845 Y95.000 E0.17248 ; perimeter
G1 X118.747 Y93.097 E0.16409 ; perimeter
G1 X118.117 Y92.519 F6000.000 ; move inwards before travel
G1 F1800.000 E-2.40000 ; retract
G1 X118.705 Y90.395 F6000.000 ; move to first fill point
G1 E2.40000 F1800.000 ; compensate retraction
G1 X118.681 Y90.371 E0.00260 F900.000 ; fill
G1 X119.109 Y89.719 E0.05943 ; fill
G1 X118.681 Y89.291 E0.04612 ; fill
G1 X118.681 Y88.211 E0.08229 ; fill
G1 X120.189 Y89.719 E0.16250 ; fill
G1 X121.269 Y89.719 E0.08229 ; fill
G1 X118.681 Y87.131 E0.27888 ; fill
G1 X118.681 Y86.051 E0.08229 ; fill
G1 X122.349 Y89.719 E0.39526 ; fill
G1 X123.319 Y89.609 E0.07437 ; fill
G1 X118.681 Y84.971 E0.49976 ; fill
G1 X118.681 Y83.891 E0.08229 ; fill
G1 X123.319 Y88.529 E0.49976 ; fill
G1 X123.319 Y87.449 E0.08229 ; fill
G1 X118.681 Y82.811 E0.49976 ; fill
G1 X119.181 Y82.231 E0.05835 ; fill
G1 X123.319 Y86.369 E0.44589 ; fill
G1 X123.319 Y85.289 E0.08229 ; fill
G1 X121.010 Y82.980 E0.24878 ; fill
G1 X121.774 Y82.664 E0.06298 ; fill
G1 X123.319 Y84.209 E0.16649 ; fill
G1 X123.319 Y83.129 E0.08229 ; fill
G1 X122.538 Y82.348 E0.08419 ; fill
G1 X123.301 Y82.031 E0.06298 ; fill
G1 X123.319 Y82.049 E0.00190 ; fill
G1 X123.427 Y80.835 F6000.000 ; move to first fill point
G1 X123.411 Y80.820 E0.00084 F300.000 ; fill
G1 X123.573 Y80.430 E0.01646 F300.000 ; fill
G1 X123.817 Y80.674 E0.01344 F300.000 ; fill
G1 X124.076 Y80.380 E0.01524 F300.000 ; fill
G1 X123.735 Y80.039 E0.01879 F300.000 ; fill
G1 X124.076 Y79.828 E0.01562 F300.000 ; fill
G1 X123.896 Y79.649 E0.00988 F300.000 ; fill
G1 X124.076 Y79.276 E0.01611 F300.000 ; fill
G1 X124.066 Y79.266 E0.00055 F300.000 ; fill
G1 X124.066 Y78.734 F6000.000 ; move to first fill point
G1 X124.047 Y78.715 E0.00103 F300.000 ; fill
G1 X124.076 Y78.184 E0.02103 F300.000 ; fill
G1 X124.024 Y78.132 E0.00288 F300.000 ; fill
G1 X124.076 Y77.624 E0.02019 F300.000 ; fill
G1 X124.024 Y77.572 E0.00288 F300.000 ; fill
G1 X124.076 Y77.064 E0.02019 F300.000 ; fill
G1 X124.024 Y77.013 E0.00288 F300.000 ; fill
G1 X124.076 Y76.504 E0.02019 F300.000 ; fill
G1 X124.024 Y76.453 E0.00288 F300.000 ; fill
G1 X124.076 Y75.944 E0.02019 F300.000 ; fill
G1 X124.056 Y75.924 E0.00112 F300.000 ; fill
G1 F1800.000 E-2.40000 ; retract
G1 X117.976 Y75.944 F6000.000 ; move to first fill point
G1 E2.40000 F1800.000 ; compensate retraction
G1 X117.956 Y75.924 E0.00113 F300.000 ; fill
G1 X117.976 Y75.944 F6000.000 ; move to first fill point
G1 X117.924 Y76.459 E0.02067 F300.000 ; fill
G1 X117.976 Y76.510 E0.00291 F300.000 ; fill
G1 X117.924 Y77.025 E0.02067 F300.000 ; fill
G1 X117.976 Y77.077 E0.00291 F300.000 ; fill
G1 X117.924 Y77.591 E0.02067 F300.000 ; fill
G1 X117.976 Y77.643 E0.00291 F300.000 ; fill
G1 X117.924 Y78.158 E0.02067 F300.000 ; fill
G1 X117.976 Y78.209 E0.00291 F300.000 ; fill
G1 X117.924 Y78.724 E0.02067 F300.000 ; fill
G1 X117.934 Y78.734 E0.00056 F300.000 ; fill
G1 X117.934 Y79.266 F6000.000 ; move to first fill point
G1 X117.953 Y79.285 E0.00119 F300.000 ; fill
G1 X117.924 Y79.903 E0.02825 F300.000 ; fill
G1 X118.410 Y80.389 E0.03135 F300.000 ; fill
G1 X117.924 Y80.550 E0.02336 F300.000 ; fill
G1 X117.953 Y80.578 E0.00184 F300.000 ; fill
G1 F1800.000 E-2.40000 ; retract
G1 X118.340 Y92.501 F6000.000 ; move to first fill point
G1 E2.40000 F1800.000 ; compensate retraction
G1 X118.361 Y92.522 E0.00149 F300.000 ; fill
G1 X118.340 Y92.501 F6000.000 ; move to first fill point
G1 X117.924 Y92.783 E0.02470 F300.000 ; fill
G1 X117.942 Y92.800 E0.00122 F300.000 ; fill
G1 F1800.000 E-2.40000 ; retract
G1 X118.738 Y94.683 F6000.000 ; move to first fill point
G1 E2.40000 F1800.000 ; compensate retraction
G1 X118.810 Y94.756 E0.00762 F300.000 ; fill
G1 F1800.000 E-2.40000 ; retract
G1 X120.535 Y95.774 F6000.000 ; move to first fill point
G1 E2.40000 F1800.000 ; compensate retraction
G1 X120.546 Y95.785 E0.00118 F300.000 ; fill
G1 F1800.000 E-2.40000 ; retract
G1 X123.183 Y94.748 F6000.000 ; move to first fill point
G1 E2.40000 F1800.000 ; compensate retraction
G1 X123.641 Y93.996 E0.07530 F300.000 ; fill
G1 X123.633 Y93.988 E0.00097 F300.000 ; fill
G1 X123.183 Y94.748 F6000.000 ; move to first fill point
G1 X123.190 Y94.756 E0.00088 F300.000 ; fill
G1 F1800.000 E-2.40000 ; retract
G1 X123.749 Y92.687 F6000.000 ; move to first fill point
G1 E2.40000 F1800.000 ; compensate retraction
G1 X123.714 Y92.653 E0.00208 F300.000 ; fill
