; generated by Slic3r 1.2.5 on 2015-02-16 at 19:36:00

; external perimeters extrusion width = 0.50mm
; perimeters extrusion width = 0.50mm
; infill extrusion width = 0.50mm
; solid infill extrusion width = 0.50mm
; top infill extrusion width = 0.50mm

M107 ; disable fan
M190 S57 ; set bed temperature
M104 S185 ; set temperature

M109 S185 ; wait for temperature to be reached
G21 ; set units to millimeters
G90 ; use absolute coordinates
M83 ; use relative distances for extrusion
G1 E-4.00000 F1800.00000 ; retract
G1 Z0.240 F6000.000 ; move to next layer (0)
G1 X76.413 Y69.927 F6000.000 ; move to first skirt point
G1 E4.00000 F1800.00000 ; unretract
G1 X77.987 Y68.743 E0.07050 F600.000 ; skirt
G1 X80.084 Y68.271 E0.07696 ; skirt
G1 X119.916 Y68.271 E1.42603 ; skirt
G1 X121.845 Y68.667 E0.07050 ; skirt
G1 X123.462 Y69.791 E0.07050 F600.000 ; skirt
G1 X124.567 Y71.635 E0.07696 ; skirt
G1 X125.819 Y75.434 E0.14320 ; skirt
G1 X126.056 Y77.278 E0.06655 ; skirt
G1 X123.848 Y112.005 E1.24579 ; skirt
G1 X123.702 Y113.538 E0.05513 ; skirt
G1 X123.515 Y114.749 E0.04388 ; skirt
G1 X123.193 Y116.254 E0.05508 ; skirt
G1 X122.775 Y117.736 E0.05514 ; skirt
G1 X122.145 Y119.481 E0.06640 ; skirt
G1 X121.521 Y120.888 E0.05512 ; skirt
G1 X120.961 Y121.977 E0.04383 ; skirt
G1 X120.182 Y123.297 E0.05486 ; skirt
G1 X119.312 Y124.576 E0.05539 ; skirt
G1 X118.366 Y125.791 E0.05512 ; skirt
G1 X117.125 Y127.169 E0.06641 ; skirt
G1 X116.016 Y128.238 E0.05513 ; skirt
G1 X115.087 Y129.035 E0.04383 ; skirt
G1 X113.868 Y129.964 E0.05486 ; skirt
G1 X112.580 Y130.820 E0.05539 ; skirt
G1 X111.245 Y131.588 E0.05512 ; skirt
G1 X109.864 Y132.269 E0.05513 ; skirt
G1 X108.146 Y132.969 E0.06641 ; skirt
G1 X106.984 Y133.356 E0.04383 ; skirt
G1 X105.505 Y133.757 E0.05486 ; skirt
G1 X103.989 Y134.065 E0.05539 ; skirt
G1 X102.463 Y134.273 E0.05515 ; skirt
G1 X100.612 Y134.392 E0.06638 ; skirt
G1 X99.072 Y134.382 E0.05513 ; skirt
G1 X97.851 Y134.303 E0.04383 ; skirt
G1 X96.322 Y134.115 E0.05512 ; skirt
G1 X94.809 Y133.829 E0.05515 ; skirt
G1 X93.016 Y133.356 E0.06639 ; skirt
G1 X91.558 Y132.859 E0.05513 ; skirt
G1 X90.424 Y132.397 E0.04385 ; skirt
G1 X89.041 Y131.738 E0.05484 ; skirt
G1 X87.689 Y130.985 E0.05541 ; skirt
G1 X86.395 Y130.149 E0.05514 ; skirt
G1 X84.913 Y129.035 E0.06638 ; skirt
G1 X83.751 Y128.025 E0.05513 ; skirt
G1 X82.875 Y127.169 E0.04384 ; skirt
G1 X81.842 Y126.037 E0.05485 ; skirt
G1 X80.875 Y124.830 E0.05539 ; skirt
G1 X79.992 Y123.568 E0.05516 ; skirt
G1 X79.192 Y122.252 E0.05513 ; skirt
G1 X78.344 Y120.603 E0.06638 ; skirt
G1 X77.738 Y119.187 E0.05512 ; skirt
G1 X77.225 Y117.736 E0.05513 ; skirt
G1 X76.807 Y116.254 E0.05512 ; skirt
G1 X76.485 Y114.748 E0.05513 ; skirt
G1 X76.260 Y113.225 E0.05512 ; skirt
G1 X76.143 Y111.883 E0.04822 ; skirt
G1 X73.944 Y77.278 E1.24141 ; skirt
G1 X74.181 Y75.434 E0.06655 ; skirt
G1 X75.433 Y71.635 E0.14320 ; skirt
G1 X76.376 Y69.992 E0.06781 ; skirt
G1 X76.770 Y70.224 F6000.000 ; move to first skirt point
G1 X76.809 Y70.158 E0.00273 F600.000 ; skirt
G1 X78.341 Y69.075 E0.06716 ; skirt
G1 X80.084 Y68.720 E0.06369 ; skirt
G1 X119.916 Y68.720 E1.42603 ; skirt
G1 X121.750 Y69.115 E0.06716 ; skirt
G1 X123.257 Y70.231 E0.06716 F600.000 ; skirt
G1 X124.141 Y71.775 E0.06369 ; skirt
G1 X125.393 Y75.574 E0.14320 ; skirt
G1 X125.608 Y77.249 E0.06045 ; skirt
G1 X123.401 Y111.966 E1.24539 ; skirt
G1 X123.258 Y113.470 E0.05409 ; skirt
G1 X123.019 Y114.962 E0.05409 ; skirt
G1 X122.684 Y116.435 E0.05409 ; skirt
G1 X122.255 Y117.883 E0.05409 ; skirt
G1 X121.734 Y119.302 E0.05409 ; skirt
G1 X121.245 Y120.424 E0.04383 ; skirt
G1 X120.562 Y121.772 E0.05409 ; skirt
G1 X119.794 Y123.073 E0.05409 ; skirt
G1 X118.773 Y124.552 E0.06434 ; skirt
G1 X117.829 Y125.732 E0.05409 ; skirt
G1 X117.010 Y126.642 E0.04384 ; skirt
G1 X115.936 Y127.704 E0.05408 ; skirt
G1 X114.795 Y128.694 E0.05409 ; skirt
G1 X113.592 Y129.610 E0.05411 ; skirt
G1 X112.089 Y130.595 E0.06433 ; skirt
G1 X110.770 Y131.332 E0.05409 ; skirt
G1 X109.668 Y131.865 E0.04383 ; skirt
G1 X108.273 Y132.444 E0.05409 ; skirt
G1 X106.842 Y132.931 E0.05409 ; skirt
G1 X105.383 Y133.325 E0.05411 ; skirt
G1 X103.903 Y133.624 E0.05407 ; skirt
G1 X102.405 Y133.828 E0.05412 ; skirt
G1 X100.612 Y133.944 E0.06432 ; skirt
G1 X99.101 Y133.934 E0.05409 ; skirt
G1 X97.879 Y133.855 E0.04383 ; skirt
G1 X96.380 Y133.670 E0.05409 ; skirt
G1 X94.895 Y133.389 E0.05411 ; skirt
G1 X93.158 Y132.931 E0.06432 ; skirt
G1 X91.727 Y132.444 E0.05409 ; skirt
G1 X90.593 Y131.982 E0.04385 ; skirt
G1 X89.236 Y131.335 E0.05381 ; skirt
G1 X87.910 Y130.594 E0.05437 ; skirt
G1 X86.641 Y129.774 E0.05411 ; skirt
G1 X85.205 Y128.694 E0.06431 ; skirt
G1 X84.064 Y127.704 E0.05409 ; skirt
G1 X83.188 Y126.848 E0.04384 ; skirt
G1 X82.176 Y125.737 E0.05382 ; skirt
G1 X81.227 Y124.552 E0.05435 ; skirt
G1 X80.361 Y123.313 E0.05412 ; skirt
G1 X79.577 Y122.022 E0.05409 ; skirt
G1 X78.755 Y120.424 E0.06431 ; skirt
G1 X78.160 Y119.035 E0.05409 ; skirt
G1 X77.656 Y117.611 E0.05409 ; skirt
G1 X77.245 Y116.157 E0.05409 ; skirt
G1 X76.928 Y114.680 E0.05409 ; skirt
G1 X76.707 Y113.185 E0.05409 ; skirt
G1 X76.590 Y111.855 E0.04781 ; skirt
G1 X74.392 Y77.249 E1.24141 ; skirt
G1 X74.607 Y75.574 E0.06045 ; skirt
G1 X75.859 Y71.775 E0.14320 ; skirt
G1 X76.732 Y70.288 E0.06174 ; skirt
G1 E-4.00000 F1800.00000 ; retract
G1 X80.409 Y73.539 F6000.000 ; move to first perimeter point
G1 E4.00000 F1800.00000 ; unretract
G1 X89.810 Y76.638 E0.35438 F900.000 ; perimeter
G1 X90.101 Y76.763 E0.01135 ; perimeter
G1 X90.357 Y76.931 E0.01095 ; perimeter
G1 X90.579 Y77.141 E0.01095 ; perimeter
G1 X90.762 Y77.386 E0.01095 ; perimeter
G1 X90.899 Y77.660 E0.01095 ; perimeter
G1 X90.989 Y77.964 E0.01135 ; perimeter
G1 X94.423 Y94.785 E0.61464 ; perimeter
G1 X94.459 Y95.127 E0.01230 ; perimeter
G1 X94.432 Y95.457 E0.01187 ; perimeter
G1 X94.342 Y95.777 E0.01187 ; perimeter
G1 X94.194 Y96.073 E0.01187 ; perimeter
G1 X93.993 Y96.336 E0.01187 ; perimeter
G1 X93.745 Y96.557 E0.01187 ; perimeter
G1 X93.446 Y96.735 E0.01246 ; perimeter
G1 X92.474 Y97.241 E0.03922 ; perimeter
G1 X91.528 Y97.825 E0.03981 ; perimeter
G1 X90.626 Y98.476 E0.03981 ; perimeter
G1 X89.775 Y99.191 E0.03981 ; perimeter
G1 X88.978 Y99.966 E0.03981 ; perimeter
G1 X88.239 Y100.797 E0.03981 ; perimeter
G1 X87.563 Y101.680 E0.03981 ; perimeter
G1 X86.953 Y102.609 E0.03981 ; perimeter
G1 X86.412 Y103.581 E0.03981 ; perimeter
G1 X85.944 Y104.590 E0.03981 ; perimeter
G1 X85.550 Y105.630 E0.03981 ; perimeter
G1 X85.230 Y106.711 E0.04037 ; perimeter
G1 X84.995 Y107.782 E0.03925 ; perimeter
G1 X84.836 Y108.882 E0.03981 ; perimeter
G1 X84.758 Y109.991 E0.03981 ; perimeter
G1 X84.762 Y111.103 E0.03981 ; perimeter
G1 X84.846 Y112.212 E0.03981 ; perimeter
G1 X85.010 Y113.312 E0.03981 ; perimeter
G1 X85.255 Y114.397 E0.03981 ; perimeter
G1 X85.578 Y115.461 E0.03981 ; perimeter
G1 X85.977 Y116.498 E0.03981 ; perimeter
G1 X86.451 Y117.504 E0.03981 ; perimeter
G1 X86.997 Y118.473 E0.03981 ; perimeter
G1 X87.612 Y119.399 E0.03981 ; perimeter
G1 X88.293 Y120.278 E0.03981 ; perimeter
G1 X89.036 Y121.105 E0.03981 ; perimeter
G1 X89.838 Y121.876 E0.03981 ; perimeter
G1 X90.694 Y122.586 E0.03981 ; perimeter
G1 X91.599 Y123.232 E0.03981 ; perimeter
G1 X92.548 Y123.811 E0.03981 ; perimeter
G1 X93.538 Y124.318 E0.03981 ; perimeter
G1 X94.576 Y124.757 E0.04037 ; perimeter
G1 X95.614 Y125.111 E0.03925 ; perimeter
G1 X96.690 Y125.392 E0.03981 ; perimeter
G1 X97.783 Y125.593 E0.03981 ; perimeter
G1 X98.889 Y125.715 E0.03981 ; perimeter
G1 X100.000 Y125.755 E0.03981 ; perimeter
G1 X101.111 Y125.715 E0.03981 ; perimeter
G1 X102.232 Y125.590 E0.04037 ; perimeter
G1 X103.310 Y125.392 E0.03925 ; perimeter
G1 X104.386 Y125.111 E0.03981 ; perimeter
G1 X105.439 Y124.752 E0.03981 ; perimeter
G1 X106.462 Y124.318 E0.03981 ; perimeter
G1 X107.452 Y123.811 E0.03981 ; perimeter
G1 X108.401 Y123.232 E0.03981 ; perimeter
G1 X109.306 Y122.586 E0.03981 ; perimeter
G1 X110.162 Y121.876 E0.03981 ; perimeter
G1 X110.964 Y121.105 E0.03981 ; perimeter
G1 X111.707 Y120.278 E0.03981 ; perimeter
G1 X112.388 Y119.399 E0.03981 ; perimeter
G1 X113.003 Y118.473 E0.03981 ; perimeter
G1 X113.549 Y117.504 E0.03981 ; perimeter
G1 X114.023 Y116.498 E0.03981 ; perimeter
G1 X114.422 Y115.461 E0.03981 ; perimeter
G1 X114.749 Y114.381 E0.04037 ; perimeter
G1 X114.990 Y113.312 E0.03925 ; perimeter
G1 X115.154 Y112.212 E0.03981 ; perimeter
G1 X115.238 Y111.103 E0.03981 ; perimeter
G1 X115.242 Y109.991 E0.03981 ; perimeter
G1 X115.164 Y108.882 E0.03981 ; perimeter
G1 X115.005 Y107.782 E0.03981 ; perimeter
G1 X114.767 Y106.695 E0.03981 ; perimeter
G1 X114.450 Y105.630 E0.03981 ; perimeter
G1 X114.056 Y104.590 E0.03981 ; perimeter
G1 X113.588 Y103.581 E0.03981 ; perimeter
G1 X113.047 Y102.609 E0.03981 ; perimeter
G1 X112.437 Y101.680 E0.03981 ; perimeter
G1 X111.761 Y100.797 E0.03981 ; perimeter
G1 X111.022 Y99.966 E0.03981 ; perimeter
G1 X110.225 Y99.191 E0.03981 ; perimeter
G1 X109.374 Y98.476 E0.03981 ; perimeter
G1 X108.472 Y97.825 E0.03981 ; perimeter
G1 X107.526 Y97.241 E0.03981 ; perimeter
G1 X106.554 Y96.735 E0.03922 ; perimeter
G1 X106.255 Y96.557 E0.01246 ; perimeter
G1 X106.007 Y96.336 E0.01187 ; perimeter
G1 X105.806 Y96.073 E0.01187 ; perimeter
G1 X105.658 Y95.777 E0.01187 ; perimeter
G1 X105.568 Y95.457 E0.01187 ; perimeter
G1 X105.541 Y95.127 E0.01187 ; perimeter
G1 X105.577 Y94.785 E0.01230 ; perimeter
G1 X109.011 Y77.964 E0.61464 ; perimeter
G1 X109.101 Y77.660 E0.01135 ; perimeter
G1 X109.238 Y77.386 E0.01095 ; perimeter
G1 X109.421 Y77.141 E0.01095 ; perimeter
G1 X109.643 Y76.931 E0.01095 ; perimeter
G1 X109.899 Y76.763 E0.01095 ; perimeter
G1 X110.190 Y76.638 E0.01135 ; perimeter
G1 X119.757 Y73.484 E0.36063 ; perimeter
G1 X120.853 Y76.808 E0.12530 ; perimeter
G1 X113.468 Y79.242 E0.27838 ; perimeter
G1 X113.116 Y79.394 E0.01370 ; perimeter
G1 X112.787 Y79.610 E0.01410 ; perimeter
G1 X112.501 Y79.880 E0.01410 ; perimeter
G1 X112.266 Y80.196 E0.01410 ; perimeter
G1 X112.090 Y80.548 E0.01410 ; perimeter
G1 X111.981 Y80.915 E0.01370 ; perimeter
G1 X109.578 Y92.686 E0.43008 ; perimeter
G1 X109.534 Y93.112 E0.01533 ; perimeter
G1 X109.575 Y93.550 E0.01578 ; perimeter
G1 X109.700 Y93.973 E0.01578 ; perimeter
G1 X109.905 Y94.363 E0.01578 ; perimeter
G1 X110.183 Y94.705 E0.01578 ; perimeter
G1 X110.509 Y94.976 E0.01519 ; perimeter
G1 X111.500 Y95.696 E0.04384 ; perimeter
G1 X112.430 Y96.467 E0.04325 ; perimeter
G1 X113.308 Y97.297 E0.04326 ; perimeter
G1 X114.131 Y98.181 E0.04326 ; perimeter
G1 X114.895 Y99.117 E0.04326 ; perimeter
G1 X115.598 Y100.100 E0.04326 ; perimeter
G1 X116.236 Y101.126 E0.04325 ; perimeter
G1 X116.806 Y102.191 E0.04326 ; perimeter
G1 X117.307 Y103.291 E0.04326 ; perimeter
G1 X117.735 Y104.421 E0.04326 ; perimeter
G1 X118.090 Y105.576 E0.04326 ; perimeter
G1 X118.370 Y106.751 E0.04325 ; perimeter
G1 X118.574 Y107.942 E0.04326 ; perimeter
G1 X118.700 Y109.143 E0.04325 ; perimeter
G1 X118.749 Y110.351 E0.04325 ; perimeter
G1 X118.720 Y111.559 E0.04326 ; perimeter
G1 X118.614 Y112.762 E0.04326 ; perimeter
G1 X118.430 Y113.956 E0.04325 ; perimeter
G1 X118.169 Y115.136 E0.04326 ; perimeter
G1 X117.833 Y116.297 E0.04325 ; perimeter
G1 X117.423 Y117.433 E0.04326 ; perimeter
G1 X116.941 Y118.541 E0.04325 ; perimeter
G1 X116.388 Y119.615 E0.04325 ; perimeter
G1 X115.767 Y120.652 E0.04325 ; perimeter
G1 X115.081 Y121.646 E0.04326 ; perimeter
G1 X114.332 Y122.594 E0.04325 ; perimeter
G1 X113.524 Y123.492 E0.04325 ; perimeter
G1 X112.659 Y124.336 E0.04326 ; perimeter
G1 X111.742 Y125.123 E0.04326 ; perimeter
G1 X110.776 Y125.849 E0.04325 ; perimeter
G1 X109.765 Y126.511 E0.04326 ; perimeter
G1 X108.714 Y127.107 E0.04325 ; perimeter
G1 X107.627 Y127.633 E0.04325 ; perimeter
G1 X106.508 Y128.089 E0.04326 ; perimeter
G1 X105.362 Y128.472 E0.04326 ; perimeter
G1 X104.194 Y128.780 E0.04325 ; perimeter
G1 X103.008 Y129.012 E0.04326 ; perimeter
G1 X101.810 Y129.167 E0.04325 ; perimeter
G1 X100.604 Y129.245 E0.04326 ; perimeter
G1 X99.396 Y129.245 E0.04326 ; perimeter
G1 X98.190 Y129.167 E0.04326 ; perimeter
G1 X96.992 Y129.012 E0.04325 ; perimeter
G1 X95.806 Y128.780 E0.04325 ; perimeter
G1 X94.638 Y128.472 E0.04326 ; perimeter
G1 X93.492 Y128.089 E0.04325 ; perimeter
G1 X92.373 Y127.633 E0.04326 ; perimeter
G1 X91.286 Y127.107 E0.04326 ; perimeter
G1 X90.234 Y126.511 E0.04326 ; perimeter
G1 X89.224 Y125.849 E0.04325 ; perimeter
G1 X88.258 Y125.123 E0.04326 ; perimeter
G1 X87.341 Y124.336 E0.04325 ; perimeter
G1 X86.476 Y123.492 E0.04326 ; perimeter
G1 X85.668 Y122.594 E0.04326 ; perimeter
G1 X84.919 Y121.646 E0.04326 ; perimeter
G1 X84.233 Y120.652 E0.04325 ; perimeter
G1 X83.612 Y119.615 E0.04326 ; perimeter
G1 X83.059 Y118.541 E0.04326 ; perimeter
G1 X82.577 Y117.433 E0.04325 ; perimeter
G1 X82.167 Y116.297 E0.04325 ; perimeter
G1 X81.831 Y115.136 E0.04326 ; perimeter
G1 X81.570 Y113.956 E0.04326 ; perimeter
G1 X81.386 Y112.762 E0.04326 ; perimeter
G1 X81.280 Y111.559 E0.04325 ; perimeter
G1 X81.251 Y110.351 E0.04325 ; perimeter
G1 X81.300 Y109.143 E0.04326 ; perimeter
G1 X81.426 Y107.942 E0.04326 ; perimeter
G1 X81.630 Y106.751 E0.04326 ; perimeter
G1 X81.910 Y105.576 E0.04325 ; perimeter
G1 X82.265 Y104.421 E0.04325 ; perimeter
G1 X82.693 Y103.291 E0.04326 ; perimeter
G1 X83.194 Y102.191 E0.04326 ; perimeter
G1 X83.764 Y101.126 E0.04325 ; perimeter
G1 X84.402 Y100.100 E0.04326 ; perimeter
G1 X85.105 Y99.117 E0.04325 ; perimeter
G1 X85.869 Y98.181 E0.04326 ; perimeter
G1 X86.692 Y97.297 E0.04325 ; perimeter
G1 X87.570 Y96.467 E0.04326 ; perimeter
G1 X88.500 Y95.696 E0.04326 ; perimeter
G1 X89.491 Y94.976 E0.04384 ; perimeter
G1 X89.817 Y94.705 E0.01519 ; perimeter
G1 X90.095 Y94.363 E0.01578 ; perimeter
G1 X90.300 Y93.973 E0.01578 ; perimeter
G1 X90.425 Y93.550 E0.01578 ; perimeter
G1 X90.466 Y93.112 E0.01578 ; perimeter
G1 X90.422 Y92.685 E0.01533 ; perimeter
G1 X88.019 Y80.915 E0.43008 ; perimeter
G1 X87.910 Y80.548 E0.01370 ; perimeter
G1 X87.734 Y80.196 E0.01410 ; perimeter
G1 X87.499 Y79.880 E0.01410 ; perimeter
G1 X87.213 Y79.610 E0.01410 ; perimeter
G1 X86.884 Y79.394 E0.01410 ; perimeter
G1 X86.532 Y79.242 E0.01370 ; perimeter
G1 X79.147 Y76.808 E0.27838 ; perimeter
G1 X80.243 Y73.484 E0.12530 ; perimeter
G1 X80.338 Y73.515 E0.00357 ; perimeter
G1 X80.511 Y74.028 F6000.000 ; move inwards before travel
G1 X80.529 Y74.050 F6000.000 ; move to first perimeter point
G1 X89.651 Y77.058 E0.34387 F900.000 ; perimeter
G1 X89.888 Y77.159 E0.00923 ; perimeter
G1 X90.078 Y77.284 E0.00813 ; perimeter
G1 X90.243 Y77.440 E0.00813 ; perimeter
G1 X90.378 Y77.622 E0.00813 ; perimeter
G1 X90.480 Y77.826 E0.00813 ; perimeter
G1 X90.554 Y78.073 E0.00923 ; perimeter
G1 X93.979 Y94.854 E0.61318 ; perimeter
G1 X94.009 Y95.132 E0.01000 ; perimeter
G1 X93.988 Y95.377 E0.00881 ; perimeter
G1 X93.922 Y95.614 E0.00881 ; perimeter
G1 X93.812 Y95.835 E0.00881 ; perimeter
G1 X93.662 Y96.030 E0.00881 ; perimeter
G1 X93.479 Y96.194 E0.00881 ; perimeter
G1 X93.228 Y96.344 E0.01046 ; perimeter
G1 X92.253 Y96.851 E0.03934 ; perimeter
G1 X91.279 Y97.451 E0.04098 ; perimeter
G1 X90.351 Y98.122 E0.04098 ; perimeter
G1 X89.474 Y98.858 E0.04098 ; perimeter
G1 X88.653 Y99.656 E0.04098 ; perimeter
G1 X87.893 Y100.511 E0.04098 ; perimeter
G1 X87.197 Y101.420 E0.04098 ; perimeter
G1 X86.569 Y102.377 E0.04098 ; perimeter
G1 X86.012 Y103.377 E0.04099 ; perimeter
G1 X85.530 Y104.416 E0.04098 ; perimeter
G1 X85.125 Y105.486 E0.04098 ; perimeter
G1 X84.792 Y106.615 E0.04212 ; perimeter
G1 X84.553 Y107.701 E0.03984 ; perimeter
G1 X84.390 Y108.834 E0.04098 ; perimeter
G1 X84.310 Y109.976 E0.04098 ; perimeter
G1 X84.313 Y111.121 E0.04098 ; perimeter
G1 X84.400 Y112.262 E0.04098 ; perimeter
G1 X84.569 Y113.394 E0.04098 ; perimeter
G1 X84.821 Y114.511 E0.04098 ; perimeter
G1 X85.153 Y115.606 E0.04098 ; perimeter
G1 X85.564 Y116.675 E0.04098 ; perimeter
G1 X86.052 Y117.710 E0.04098 ; perimeter
G1 X86.614 Y118.707 E0.04098 ; perimeter
G1 X87.248 Y119.661 E0.04098 ; perimeter
G1 X87.949 Y120.566 E0.04098 ; perimeter
G1 X88.714 Y121.417 E0.04098 ; perimeter
