; generated by Slic3r 1.1.6 on 2014-12-14 at 19:40:24

; perimeters extrusion width = 0.50mm
; infill extrusion width = 0.50mm
; solid infill extrusion width = 0.50mm
; top infill extrusion width = 0.50mm

G21 ; set units to millimeters
M107 ; disable fan
M190 S57 ; wait for bed temperature to be reached
M104 S200 ; set temperature

M109 S200 ; wait for temperature to be reached
G90 ; use absolute coordinates
M83 ; use relative distances for extrusion
G1 F1800.000 E-2.40000 ; retract
G1 Z0.240 F6000.000 ; move to next layer (0)
G1 X95.329 Y57.326 F6000.000 ; move to first skirt point
G1 E2.40000 F1800.000 ; compensate retraction
G1 X96.259 Y56.364 E0.09990 F600.000 ; skirt
G1 X96.833 Y55.860 E0.05710 ; skirt
G1 X97.282 Y55.503 E0.04284 ; skirt
G1 X98.389 Y54.752 E0.09990 ; skirt
G1 X99.568 Y54.119 E0.09991 ; skirt
G1 X100.805 Y53.610 E0.09991 ; skirt
G1 X101.534 Y53.377 E0.05714 ; skirt
G1 X102.088 Y53.231 E0.04279 ; skirt
G1 X102.837 Y53.074 E0.05722 ; skirt
G1 X103.403 Y52.986 E0.04272 ; skirt
G1 X104.594 Y52.879 E0.08931 ; skirt
G1 X155.264 Y52.869 E3.78429 ; skirt
G1 X156.073 Y52.906 E0.06054 ; skirt
G1 X157.401 Y53.073 E0.09991 ; skirt
G1 X158.704 Y53.375 E0.09990 ; skirt
G1 X159.969 Y53.809 E0.09991 ; skirt
G1 X160.670 Y54.116 E0.05712 ; skirt
G1 X161.183 Y54.372 E0.04283 ; skirt
G1 X161.850 Y54.749 E0.05722 ; skirt
G1 X162.332 Y55.056 E0.04271 ; skirt
G1 X162.955 Y55.498 E0.05704 ; skirt
G1 X163.406 Y55.855 E0.04290 ; skirt
G1 X164.391 Y56.759 E0.09990 ; skirt
G1 X165.278 Y57.761 E0.09990 ; skirt
G1 X166.057 Y58.848 E0.09991 ; skirt
G1 X166.451 Y59.504 E0.05713 ; skirt
G1 X166.721 Y60.009 E0.04280 ; skirt
G1 X167.045 Y60.701 E0.05705 ; skirt
G1 X167.261 Y61.233 E0.04289 ; skirt
G1 X167.513 Y61.955 E0.05711 ; skirt
G1 X167.673 Y62.506 E0.04282 ; skirt
G1 X167.952 Y63.814 E0.09991 ; skirt
G1 X168.050 Y64.572 E0.05707 ; skirt
G1 X168.093 Y65.073 E0.03759 ; skirt
G1 X168.116 Y66.128 E0.07883 ; skirt
G1 X168.041 Y67.245 E0.08357 ; skirt
G1 X167.968 Y67.813 E0.04276 ; skirt
G1 X167.831 Y68.566 E0.05716 ; skirt
G1 X167.699 Y69.123 E0.04278 ; skirt
G1 X167.486 Y69.857 E0.05709 ; skirt
G1 X167.298 Y70.399 E0.04285 ; skirt
G1 X166.767 Y71.627 E0.09992 ; skirt
G1 X166.408 Y72.302 E0.05707 ; skirt
G1 X166.113 Y72.794 E0.04287 ; skirt
G1 X165.686 Y73.429 E0.05714 ; skirt
G1 X165.342 Y73.887 E0.04279 ; skirt
G1 X164.747 Y74.596 E0.06911 ; skirt
G1 X104.091 Y143.287 E6.84401 ; skirt
G1 X103.553 Y143.798 E0.05543 ; skirt
G1 X103.118 Y144.173 E0.04288 ; skirt
G1 X102.532 Y144.627 E0.05539 ; skirt
G1 X102.061 Y144.956 E0.04294 ; skirt
G1 X100.929 Y145.628 E0.09830 ; skirt
G1 X99.735 Y146.183 E0.09829 ; skirt
G1 X98.491 Y146.613 E0.09830 ; skirt
G1 X97.773 Y146.799 E0.05543 ; skirt
G1 X97.210 Y146.916 E0.04289 ; skirt
G1 X96.477 Y147.028 E0.05542 ; skirt
G1 X95.905 Y147.087 E0.04291 ; skirt
G1 X94.868 Y147.133 E0.07753 ; skirt
G1 X44.590 Y147.126 E3.75505 ; skirt
G1 X43.277 Y147.031 E0.09830 ; skirt
G1 X41.981 Y146.804 E0.09830 ; skirt
G1 X40.714 Y146.446 E0.09830 ; skirt
G1 X40.018 Y146.189 E0.05545 ; skirt
G1 X39.490 Y145.963 E0.04287 ; skirt
G1 X38.824 Y145.636 E0.05542 ; skirt
G1 X38.321 Y145.358 E0.04292 ; skirt
G1 X37.691 Y144.965 E0.05545 ; skirt
G1 X37.219 Y144.638 E0.04287 ; skirt
G1 X36.632 Y144.184 E0.05540 ; skirt
G1 X36.196 Y143.811 E0.04292 ; skirt
G1 X35.261 Y142.883 E0.09830 ; skirt
G1 X34.426 Y141.867 E0.09830 ; skirt
G1 X34.002 Y141.258 E0.05542 ; skirt
G1 X33.697 Y140.771 E0.04291 ; skirt
G1 X33.337 Y140.122 E0.05540 ; skirt
G1 X33.083 Y139.606 E0.04292 ; skirt
G1 X32.590 Y138.386 E0.09829 ; skirt
G1 X32.368 Y137.677 E0.05547 ; skirt
G1 X32.223 Y137.122 E0.04287 ; skirt
G1 X31.986 Y135.828 E0.09828 ; skirt
G1 X31.881 Y134.515 E0.09830 ; skirt
G1 X31.909 Y133.200 E0.09830 ; skirt
G1 X31.984 Y132.461 E0.05544 ; skirt
G1 X32.070 Y131.893 E0.04288 ; skirt
G1 X32.220 Y131.167 E0.05542 ; skirt
G1 X32.363 Y130.610 E0.04292 ; skirt
G1 X32.784 Y129.363 E0.09829 ; skirt
G1 X33.076 Y128.681 E0.05543 ; skirt
G1 X33.328 Y128.165 E0.04289 ; skirt
G1 X33.992 Y127.028 E0.09830 ; skirt
G1 X34.767 Y125.964 E0.09830 ; skirt
G1 X35.311 Y125.331 E0.06236 ; skirt
G1 X95.279 Y57.382 E6.76849 ; skirt
G1 X95.878 Y57.834 F6000.000 ; move to first skirt point
G1 X96.753 Y56.927 E0.09415 F600.000 ; skirt
G1 X97.327 Y56.422 E0.05710 ; skirt
G1 X97.716 Y56.113 E0.03709 ; skirt
G1 X98.758 Y55.404 E0.09415 ; skirt
G1 X99.867 Y54.805 E0.09416 ; skirt
G1 X101.032 Y54.323 E0.09415 ; skirt
G1 X101.761 Y54.090 E0.05713 ; skirt
G1 X102.241 Y53.964 E0.03705 ; skirt
G1 X102.990 Y53.807 E0.05719 ; skirt
G1 X103.480 Y53.730 E0.03699 ; skirt
G1 X104.613 Y53.627 E0.08500 ; skirt
G1 X155.244 Y53.617 E3.78141 ; skirt
G1 X155.996 Y53.651 E0.05623 ; skirt
G1 X157.248 Y53.806 E0.09415 ; skirt
G1 X158.476 Y54.088 E0.09415 ; skirt
G1 X159.669 Y54.495 E0.09415 ; skirt
G1 X160.370 Y54.802 E0.05711 ; skirt
G1 X160.814 Y55.023 E0.03708 ; skirt
G1 X161.481 Y55.400 E0.05719 ; skirt
G1 X161.899 Y55.666 E0.03698 ; skirt
G1 X162.521 Y56.108 E0.05704 ; skirt
G1 X162.911 Y56.417 E0.03715 ; skirt
G1 X163.841 Y57.268 E0.09415 ; skirt
G1 X164.679 Y58.210 E0.09415 ; skirt
G1 X165.416 Y59.233 E0.09416 ; skirt
G1 X165.809 Y59.889 E0.05712 ; skirt
G1 X166.043 Y60.327 E0.03706 ; skirt
G1 X166.367 Y61.018 E0.05705 ; skirt
G1 X166.554 Y61.479 E0.03714 ; skirt
G1 X166.806 Y62.201 E0.05710 ; skirt
G1 X166.945 Y62.678 E0.03708 ; skirt
G1 X167.210 Y63.910 E0.09415 ; skirt
G1 X167.308 Y64.668 E0.05706 ; skirt
G1 X167.345 Y65.102 E0.03256 ; skirt
G1 X167.368 Y66.119 E0.07593 ; skirt
G1 X167.295 Y67.187 E0.07998 ; skirt
G1 X167.232 Y67.679 E0.03702 ; skirt
G1 X167.094 Y68.431 E0.05714 ; skirt
G1 X166.981 Y68.914 E0.03704 ; skirt
G1 X166.767 Y69.648 E0.05708 ; skirt
G1 X166.604 Y70.117 E0.03710 ; skirt
G1 X166.106 Y71.275 E0.09416 ; skirt
G1 X165.747 Y71.950 E0.05707 ; skirt
G1 X165.492 Y72.376 E0.03711 ; skirt
G1 X165.065 Y73.011 E0.05713 ; skirt
G1 X164.767 Y73.408 E0.03705 ; skirt
G1 X164.186 Y74.101 E0.06755 ; skirt
G1 X103.576 Y142.745 E6.83912 ; skirt
G1 X103.038 Y143.256 E0.05543 ; skirt
G1 X102.660 Y143.581 E0.03723 ; skirt
G1 X102.074 Y144.035 E0.05539 ; skirt
G1 X101.665 Y144.321 E0.03728 ; skirt
G1 X100.599 Y144.956 E0.09264 ; skirt
G1 X99.475 Y145.481 E0.09263 ; skirt
G1 X98.304 Y145.889 E0.09264 ; skirt
G1 X97.585 Y146.075 E0.05543 ; skirt
G1 X97.097 Y146.176 E0.03724 ; skirt
G1 X96.364 Y146.288 E0.05542 ; skirt
G1 X95.868 Y146.340 E0.03725 ; skirt
G1 X94.868 Y146.384 E0.07470 ; skirt
G1 X44.628 Y146.378 E3.75222 ; skirt
G1 X43.390 Y146.291 E0.09264 ; skirt
G1 X42.168 Y146.079 E0.09264 ; skirt
G1 X40.974 Y145.745 E0.09264 ; skirt
G1 X40.278 Y145.487 E0.05544 ; skirt
G1 X39.819 Y145.291 E0.03722 ; skirt
G1 X39.153 Y144.964 E0.05541 ; skirt
G1 X38.717 Y144.723 E0.03726 ; skirt
G1 X38.087 Y144.330 E0.05544 ; skirt
G1 X37.677 Y144.046 E0.03722 ; skirt
G1 X37.091 Y143.592 E0.05540 ; skirt
G1 X36.712 Y143.268 E0.03726 ; skirt
G1 X35.829 Y142.396 E0.09264 ; skirt
G1 X35.040 Y141.439 E0.09264 ; skirt
G1 X34.616 Y140.830 E0.05541 ; skirt
G1 X34.352 Y140.407 E0.03725 ; skirt
G1 X33.992 Y139.759 E0.05540 ; skirt
G1 X33.771 Y139.311 E0.03726 ; skirt
G1 X33.304 Y138.162 E0.09263 ; skirt
G1 X33.082 Y137.453 E0.05546 ; skirt
G1 X32.956 Y136.971 E0.03722 ; skirt
G1 X32.731 Y135.752 E0.09263 ; skirt
G1 X32.629 Y134.515 E0.09264 ; skirt
G1 X32.654 Y133.275 E0.09264 ; skirt
G1 X32.729 Y132.537 E0.05543 ; skirt
G1 X32.804 Y132.044 E0.03722 ; skirt
G1 X32.953 Y131.317 E0.05542 ; skirt
G1 X33.077 Y130.834 E0.03726 ; skirt
G1 X33.472 Y129.658 E0.09263 ; skirt
G1 X33.764 Y128.976 E0.05543 ; skirt
G1 X33.983 Y128.528 E0.03723 ; skirt
G1 X34.606 Y127.456 E0.09264 ; skirt
G1 X35.335 Y126.452 E0.09264 ; skirt
G1 X35.872 Y125.826 E0.06159 ; skirt
G1 X95.828 Y57.891 E6.76717 ; skirt
G1 F1800.000 E-2.40000 ; retract
G1 X98.924 Y139.963 F6000.000 ; move to first perimeter point
G1 E2.40000 F1800.000 ; compensate retraction
G1 X98.314 Y140.343 E0.05371 F900.000 ; perimeter
G1 X97.668 Y140.660 E0.05371 ; perimeter
G1 X96.994 Y140.910 E0.05371 ; perimeter
G1 X96.297 Y141.090 E0.05371 ; perimeter
G1 X95.587 Y141.199 E0.05371 ; perimeter
G1 X94.858 Y141.236 E0.05447 ; perimeter
G1 X44.878 Y141.236 E3.73275 ; perimeter
G1 X44.150 Y141.199 E0.05447 ; perimeter
G1 X43.439 Y141.090 E0.05371 ; perimeter
G1 X42.743 Y140.910 E0.05371 ; perimeter
G1 X42.069 Y140.660 E0.05371 ; perimeter
G1 X41.423 Y140.343 E0.05371 ; perimeter
G1 X40.813 Y139.963 E0.05371 ; perimeter
G1 X40.244 Y139.522 E0.05371 ; perimeter
G1 X39.723 Y139.027 E0.05371 ; perimeter
G1 X39.254 Y138.481 E0.05371 ; perimeter
G1 X38.843 Y137.891 E0.05371 ; perimeter
G1 X38.494 Y137.262 E0.05371 ; perimeter
G1 X38.211 Y136.601 E0.05371 ; perimeter
G1 X37.995 Y135.915 E0.05371 ; perimeter
G1 X37.851 Y135.211 E0.05372 ; perimeter
G1 X37.778 Y134.495 E0.05371 ; perimeter
G1 X37.778 Y133.776 E0.05371 ; perimeter
G1 X37.851 Y133.061 E0.05371 ; perimeter
G1 X37.995 Y132.356 E0.05371 ; perimeter
G1 X38.211 Y131.670 E0.05372 ; perimeter
G1 X38.494 Y131.009 E0.05371 ; perimeter
G1 X38.843 Y130.380 E0.05371 ; perimeter
G1 X39.254 Y129.790 E0.05371 ; perimeter
G1 X39.723 Y129.244 E0.05371 ; perimeter
G1 X40.244 Y128.749 E0.05371 ; perimeter
G1 X40.813 Y128.309 E0.05371 ; perimeter
G1 X41.423 Y127.928 E0.05371 ; perimeter
G1 X42.069 Y127.611 E0.05371 ; perimeter
G1 X42.743 Y127.362 E0.05371 ; perimeter
G1 X43.439 Y127.181 E0.05371 ; perimeter
G1 X44.150 Y127.073 E0.05371 ; perimeter
G1 X44.878 Y127.036 E0.05447 ; perimeter
G1 X46.378 Y127.036 E0.11200 ; perimeter
G1 X47.143 Y126.998 E0.05717 ; perimeter
G1 X47.910 Y126.884 E0.05790 ; perimeter
G1 X48.662 Y126.696 E0.05791 ; perimeter
G1 X49.392 Y126.435 E0.05790 ; perimeter
G1 X50.125 Y126.084 E0.06068 ; perimeter
G1 X50.758 Y125.705 E0.05512 ; perimeter
G1 X51.380 Y125.243 E0.05791 ; perimeter
G1 X51.955 Y124.722 E0.05790 ; perimeter
G1 X52.498 Y124.118 E0.06068 ; perimeter
G1 X52.937 Y123.525 E0.05512 ; perimeter
G1 X53.336 Y122.860 E0.05790 ; perimeter
G1 X53.667 Y122.159 E0.05790 ; perimeter
G1 X53.929 Y121.429 E0.05791 ; perimeter
G1 X54.117 Y120.677 E0.05790 ; perimeter
G1 X54.231 Y119.910 E0.05790 ; perimeter
G1 X54.307 Y118.047 E0.13922 ; perimeter
G1 X54.420 Y116.965 E0.08132 ; perimeter
G1 X54.609 Y115.892 E0.08132 ; perimeter
G1 X54.873 Y114.836 E0.08132 ; perimeter
G1 X55.209 Y113.800 E0.08132 ; perimeter
G1 X55.617 Y112.791 E0.08132 ; perimeter
G1 X56.095 Y111.812 E0.08132 ; perimeter
G1 X56.639 Y110.869 E0.08132 ; perimeter
G1 X57.248 Y109.966 E0.08132 ; perimeter
G1 X57.910 Y109.118 E0.08036 ; perimeter
G1 X58.647 Y108.299 E0.08228 ; perimeter
G1 X59.430 Y107.543 E0.08132 ; perimeter
G1 X60.264 Y106.843 E0.08132 ; perimeter
G1 X61.145 Y106.203 E0.08132 ; perimeter
G1 X62.068 Y105.626 E0.08132 ; perimeter
G1 X63.030 Y105.115 E0.08132 ; perimeter
G1 X64.025 Y104.672 E0.08132 ; perimeter
G1 X65.048 Y104.299 E0.08132 ; perimeter
G1 X66.094 Y103.999 E0.08132 ; perimeter
G1 X67.159 Y103.773 E0.08132 ; perimeter
G1 X68.238 Y103.621 E0.08132 ; perimeter
G1 X69.324 Y103.545 E0.08132 ; perimeter
G1 X70.413 Y103.545 E0.08132 ; perimeter
G1 X71.499 Y103.621 E0.08132 ; perimeter
G1 X72.577 Y103.773 E0.08132 ; perimeter
G1 X73.630 Y103.997 E0.08036 ; perimeter
G1 X74.689 Y104.299 E0.08228 ; perimeter
G1 X75.712 Y104.672 E0.08132 ; perimeter
G1 X76.707 Y105.115 E0.08132 ; perimeter
G1 X77.668 Y105.626 E0.08132 ; perimeter
G1 X78.592 Y106.203 E0.08132 ; perimeter
G1 X79.472 Y106.843 E0.08132 ; perimeter
G1 X80.307 Y107.543 E0.08132 ; perimeter
G1 X81.090 Y108.299 E0.08132 ; perimeter
G1 X81.810 Y109.099 E0.08036 ; perimeter
G1 X82.489 Y109.966 E0.08228 ; perimeter
G1 X83.098 Y110.869 E0.08132 ; perimeter
G1 X83.642 Y111.812 E0.08132 ; perimeter
G1 X84.119 Y112.791 E0.08132 ; perimeter
G1 X84.527 Y113.800 E0.08132 ; perimeter
G1 X84.860 Y114.824 E0.08036 ; perimeter
G1 X85.127 Y115.892 E0.08228 ; perimeter
G1 X85.316 Y116.965 E0.08132 ; perimeter
G1 X85.430 Y118.047 E0.08132 ; perimeter
G1 X85.506 Y119.910 E0.13922 ; perimeter
G1 X85.620 Y120.677 E0.05790 ; perimeter
G1 X85.808 Y121.429 E0.05790 ; perimeter
G1 X86.069 Y122.159 E0.05791 ; perimeter
G1 X86.401 Y122.860 E0.05790 ; perimeter
G1 X86.799 Y123.525 E0.05791 ; perimeter
G1 X87.261 Y124.148 E0.05790 ; perimeter
G1 X87.809 Y124.747 E0.06068 ; perimeter
G1 X88.356 Y125.243 E0.05512 ; perimeter
G1 X88.979 Y125.705 E0.05790 ; perimeter
G1 X89.644 Y126.103 E0.05790 ; perimeter
G1 X90.345 Y126.435 E0.05790 ; perimeter
G1 X91.075 Y126.696 E0.05791 ; perimeter
G1 X91.827 Y126.884 E0.05790 ; perimeter
G1 X92.594 Y126.998 E0.05791 ; perimeter
G1 X93.358 Y127.036 E0.05717 ; perimeter
G1 X94.858 Y127.036 E0.11200 ; perimeter
G1 X95.587 Y127.073 E0.05447 ; perimeter
G1 X96.297 Y127.181 E0.05371 ; perimeter
G1 X96.994 Y127.362 E0.05371 ; perimeter
G1 X97.668 Y127.611 E0.05371 ; perimeter
G1 X98.314 Y127.928 E0.05371 ; perimeter
G1 X98.924 Y128.309 E0.05371 ; perimeter
G1 X99.493 Y128.749 E0.05371 ; perimeter
G1 X100.014 Y129.244 E0.05371 ; perimeter
G1 X100.482 Y129.790 E0.05371 ; perimeter
G1 X100.893 Y130.380 E0.05371 ; perimeter
G1 X101.242 Y131.009 E0.05371 ; perimeter
G1 X101.526 Y131.670 E0.05371 ; perimeter
G1 X101.741 Y132.356 E0.05371 ; perimeter
G1 X101.886 Y133.061 E0.05371 ; perimeter
G1 X101.959 Y133.776 E0.05371 ; perimeter
G1 X101.959 Y134.495 E0.05371 ; perimeter
G1 X101.886 Y135.211 E0.05371 ; perimeter
G1 X101.741 Y135.915 E0.05371 ; perimeter
G1 X101.526 Y136.601 E0.05371 ; perimeter
G1 X101.242 Y137.262 E0.05371 ; perimeter
G1 X100.893 Y137.891 E0.05371 ; perimeter
G1 X100.482 Y138.481 E0.05371 ; perimeter
G1 X100.014 Y139.027 E0.05371 ; perimeter
G1 X99.493 Y139.522 E0.05371 ; perimeter
G1 X98.983 Y139.917 E0.04811 ; perimeter
G1 X98.475 Y139.742 F6000.000 ; move inwards before travel
G1 X98.496 Y139.347 F6000.000 ; move to first perimeter point
G1 X97.950 Y139.688 E0.04804 F900.000 ; perimeter
G1 X97.372 Y139.971 E0.04804 ; perimeter
G1 X96.769 Y140.194 E0.04804 ; perimeter
G1 X96.147 Y140.356 E0.04804 ; perimeter
G1 X95.511 Y140.453 E0.04804 ; perimeter
G1 X94.839 Y140.487 E0.05021 ; perimeter
G1 X44.897 Y140.487 E3.72992 ; perimeter
G1 X44.226 Y140.453 E0.05022 ; perimeter
G1 X43.590 Y140.356 E0.04804 ; perimeter
G1 X42.967 Y140.194 E0.04804 ; perimeter
G1 X42.364 Y139.971 E0.04804 ; perimeter
G1 X41.787 Y139.688 E0.04804 ; perimeter
G1 X41.241 Y139.348 E0.04804 ; perimeter
G1 X40.732 Y138.954 E0.04804 ; perimeter
G1 X40.266 Y138.511 E0.04804 ; perimeter
G1 X39.847 Y138.022 E0.04804 ; perimeter
G1 X39.479 Y137.495 E0.04804 ; perimeter
G1 X39.167 Y136.932 E0.04804 ; perimeter
G1 X38.914 Y136.341 E0.04805 ; perimeter
G1 X38.721 Y135.727 E0.04803 ; perimeter
G1 X38.592 Y135.097 E0.04805 ; perimeter
G1 X38.526 Y134.457 E0.04804 ; perimeter
G1 X38.526 Y133.814 E0.04804 ; perimeter
G1 X38.592 Y133.174 E0.04804 ; perimeter
G1 X38.721 Y132.544 E0.04804 ; perimeter
G1 X38.914 Y131.930 E0.04804 ; perimeter
G1 X39.167 Y131.339 E0.04804 ; perimeter
G1 X39.479 Y130.777 E0.04804 ; perimeter
G1 X39.847 Y130.249 E0.04804 ; perimeter
G1 X40.266 Y129.761 E0.04804 ; perimeter
G1 X40.732 Y129.317 E0.04804 ; perimeter
G1 X41.241 Y128.924 E0.04804 ; perimeter
G1 X41.787 Y128.583 E0.04804 ; perimeter
G1 X42.364 Y128.300 E0.04804 ; perimeter
G1 X42.967 Y128.077 E0.04804 ; perimeter
G1 X43.590 Y127.916 E0.04804 ; perimeter
G1 X44.226 Y127.818 E0.04804 ; perimeter
G1 X44.897 Y127.784 E0.05021 ; perimeter
G1 X46.396 Y127.784 E0.11196 ; perimeter
G1 X47.216 Y127.744 E0.06129 ; perimeter
G1 X48.056 Y127.619 E0.06339 ; perimeter
G1 X48.879 Y127.413 E0.06341 ; perimeter
G1 X49.679 Y127.127 E0.06340 ; perimeter
G1 X50.509 Y126.726 E0.06890 ; perimeter
G1 X51.174 Y126.328 E0.05786 ; perimeter
G1 X51.856 Y125.822 E0.06340 ; perimeter
G1 X52.485 Y125.252 E0.06339 ; perimeter
G1 X53.055 Y124.623 E0.06339 ; perimeter
G1 X53.560 Y123.941 E0.06341 ; perimeter
G1 X53.997 Y123.213 E0.06339 ; perimeter
G1 X54.360 Y122.446 E0.06340 ; perimeter
G1 X54.646 Y121.647 E0.06340 ; perimeter
G1 X54.852 Y120.823 E0.06339 ; perimeter
G1 X54.977 Y119.984 E0.06339 ; perimeter
