; generated by Slic3r 1.2.5 on 2015-01-24 at 13:42:55

; external perimeters extrusion width = 0.50mm
; perimeters extrusion width = 0.50mm
; infill extrusion width = 0.50mm
; solid infill extrusion width = 0.50mm
; top infill extrusion width = 0.50mm

M107 ; disable fan
M190 S57 ; set bed temperature
M104 S200 ; set temperature

M109 S200 ; wait for temperature to be reached
G21 ; set units to millimeters
G90 ; use absolute coordinates
M83 ; use relative distances for extrusion
G1 E-4.00000 F1800.00000 ; retract
G1 Z0.240 F6000.000 ; move to next layer (0)
G1 X16.031 Y16.197 F6000.000 ; move to first skirt point
G1 E4.00000 F1800.00000 ; unretract
G1 X17.736 Y14.991 E0.12472 F600.000 ; skirt
G1 X20.000 Y14.503 E0.13840 ; skirt
G1 X180.000 Y14.503 E9.55970 ; skirt
G1 X182.050 Y14.899 E0.12472 ; skirt
G1 X183.803 Y16.031 E0.12472 F600.000 ; skirt
G1 X185.009 Y17.736 E0.12472 ; skirt
G1 X185.497 Y20.000 E0.13840 ; skirt
G1 X185.497 Y180.000 E9.55970 ; skirt
G1 X185.101 Y182.050 E0.12472 ; skirt
G1 X183.969 Y183.803 E0.12472 ; skirt
G1 X182.264 Y185.009 E0.12472 ; skirt
G1 X180.000 Y185.497 E0.13840 ; skirt
G1 X20.000 Y185.497 E9.55970 ; skirt
G1 X17.950 Y185.101 E0.12472 ; skirt
G1 X16.197 Y183.969 E0.12472 ; skirt
G1 X14.991 Y182.264 E0.12472 ; skirt
G1 X14.503 Y180.000 E0.13840 ; skirt
G1 X14.503 Y20.000 E9.55970 ; skirt
G1 X14.899 Y17.950 E0.12472 ; skirt
G1 X15.991 Y16.260 E0.12024 ; skirt
G1 X16.632 Y16.714 F6000.000 ; move to first skirt point
G1 X16.769 Y16.521 E0.01417 F600.000 ; skirt
G1 X18.429 Y15.519 E0.11584 ; skirt
G1 X20.000 Y15.252 E0.09523 ; skirt
G1 X180.000 Y15.252 E9.55970 ; skirt
G1 X181.898 Y15.647 E0.11584 ; skirt
G1 X183.479 Y16.769 E0.11584 F600.000 ; skirt
G1 X184.481 Y18.429 E0.11584 ; skirt
G1 X184.748 Y20.000 E0.09523 ; skirt
G1 X184.748 Y180.000 E9.55970 ; skirt
G1 X184.353 Y181.898 E0.11584 ; skirt
G1 X183.231 Y183.479 E0.11584 ; skirt
G1 X181.571 Y184.481 E0.11584 ; skirt
G1 X180.000 Y184.748 E0.09523 ; skirt
G1 X20.000 Y184.748 E9.55970 ; skirt
G1 X18.102 Y184.353 E0.11584 ; skirt
G1 X16.521 Y183.231 E0.11584 ; skirt
G1 X15.519 Y181.571 E0.11584 ; skirt
G1 X15.252 Y180.000 E0.09523 ; skirt
G1 X15.252 Y20.000 E9.55970 ; skirt
G1 X15.647 Y18.102 E0.11584 ; skirt
G1 X16.588 Y16.775 E0.09719 ; skirt
G1 E-4.00000 F1800.00000 ; retract
G1 X30.400 Y49.600 F6000.000 ; move to first perimeter point
G1 E4.00000 F1800.00000 ; unretract
G1 X20.400 Y49.600 E0.59748 F900.000 ; perimeter
G1 X20.400 Y20.400 E1.74465 ; perimeter
G1 X49.600 Y20.400 E1.74465 ; perimeter
G1 X49.600 Y30.400 E0.59748 ; perimeter
G1 X85.400 Y30.400 E2.13898 ; perimeter
G1 X85.400 Y20.400 E0.59748 ; perimeter
G1 X114.600 Y20.400 E1.74465 ; perimeter
G1 X114.600 Y30.400 E0.59748 ; perimeter
G1 X150.400 Y30.400 E2.13898 ; perimeter
G1 X150.400 Y20.400 E0.59748 ; perimeter
G1 X179.600 Y20.400 E1.74465 ; perimeter
G1 X179.600 Y49.600 E1.74465 ; perimeter
G1 X169.600 Y49.600 E0.59748 ; perimeter
G1 X169.600 Y85.400 E2.13898 ; perimeter
G1 X179.600 Y85.400 E0.59748 ; perimeter
G1 X179.600 Y114.600 E1.74465 ; perimeter
G1 X169.600 Y114.600 E0.59748 ; perimeter
G1 X169.600 Y150.400 E2.13898 ; perimeter
G1 X179.600 Y150.400 E0.59748 ; perimeter
G1 X179.600 Y179.600 E1.74465 ; perimeter
G1 X150.400 Y179.600 E1.74465 ; perimeter
G1 X150.400 Y169.600 E0.59748 ; perimeter
G1 X114.600 Y169.600 E2.13898 ; perimeter
G1 X114.600 Y179.600 E0.59748 ; perimeter
G1 X85.400 Y179.600 E1.74465 ; perimeter
G1 X85.400 Y169.600 E0.59748 ; perimeter
G1 X49.600 Y169.600 E2.13898 ; perimeter
G1 X49.600 Y179.600 E0.59748 ; perimeter
G1 X20.400 Y179.600 E1.74465 ; perimeter
G1 X20.400 Y150.400 E1.74465 ; perimeter
G1 X30.400 Y150.400 E0.59748 ; perimeter
G1 X30.400 Y114.600 E2.13898 ; perimeter
G1 X20.400 Y114.600 E0.59748 ; perimeter
G1 X20.400 Y85.400 E1.74465 ; perimeter
G1 X30.400 Y85.400 E0.59748 ; perimeter
G1 X30.400 Y49.675 E2.13450 ; perimeter
G1 X30.400 Y49.100 F6000.000 ; move inwards before travel
G1 X31.148 Y48.852 F6000.000 ; move to first perimeter point
G1 X21.148 Y48.852 E0.59748 F900.000 ; perimeter
G1 X21.148 Y21.148 E1.65520 ; perimeter
G1 X48.852 Y21.148 E1.65520 ; perimeter
G1 X48.852 Y31.148 E0.59748 ; perimeter
G1 X86.148 Y31.148 E2.22843 ; perimeter
G1 X86.148 Y21.148 E0.59748 ; perimeter
G1 X113.852 Y21.148 E1.65520 ; perimeter
G1 X113.852 Y31.148 E0.59748 ; perimeter
G1 X151.148 Y31.148 E2.22843 ; perimeter
G1 X151.148 Y21.148 E0.59748 ; perimeter
G1 X178.852 Y21.148 E1.65520 ; perimeter
G1 X178.852 Y48.852 E1.65520 ; perimeter
G1 X168.852 Y48.852 E0.59748 ; perimeter
G1 X168.852 Y86.148 E2.22843 ; perimeter
G1 X178.852 Y86.148 E0.59748 ; perimeter
G1 X178.852 Y113.852 E1.65520 ; perimeter
G1 X168.852 Y113.852 E0.59748 ; perimeter
G1 X168.852 Y151.148 E2.22843 ; perimeter
G1 X178.852 Y151.148 E0.59748 ; perimeter
G1 X178.852 Y178.852 E1.65520 ; perimeter
G1 X151.148 Y178.852 E1.65520 ; perimeter
G1 X151.148 Y168.852 E0.59748 ; perimeter
G1 X113.852 Y168.852 E2.22843 ; perimeter
G1 X113.852 Y178.852 E0.59748 ; perimeter
G1 X86.148 Y178.852 E1.65520 ; perimeter
G1 X86.148 Y168.852 E0.59748 ; perimeter
G1 X48.852 Y168.852 E2.22843 ; perimeter
G1 X48.852 Y178.852 E0.59748 ; perimeter
G1 X21.148 Y178.852 E1.65520 ; perimeter
G1 X21.148 Y151.148 E1.65520 ; perimeter
G1 X31.148 Y151.148 E0.59748 ; perimeter
G1 X31.148 Y113.852 E2.22843 ; perimeter
G1 X21.148 Y113.852 E0.59748 ; perimeter
G1 X21.148 Y86.148 E1.65520 ; perimeter
G1 X31.148 Y86.148 E0.59748 ; perimeter
G1 X31.148 Y48.927 E2.22395 ; perimeter
G1 E-4.00000 F1800.00000 ; retract
G1 X114.600 Y114.600 F6000.000 ; move to first perimeter point
G1 E4.00000 F1800.00000 ; unretract
G1 X114.600 Y104.600 E0.59748 F900.000 ; perimeter
G1 X150.400 Y104.600 E2.13898 ; perimeter
G1 X150.400 Y114.600 E0.59748 ; perimeter
G1 X160.400 Y114.600 E0.59748 ; perimeter
G1 X160.400 Y150.400 E2.13898 ; perimeter
G1 X150.400 Y150.400 E0.59748 ; perimeter
G1 X150.400 Y160.400 E0.59748 ; perimeter
G1 X114.600 Y160.400 E2.13898 ; perimeter
G1 X114.600 Y150.400 E0.59748 ; perimeter
G1 X104.600 Y150.400 E0.59748 ; perimeter
G1 X104.600 Y114.600 E2.13898 ; perimeter
G1 X114.525 Y114.600 E0.59300 ; perimeter
G1 X114.350 Y114.167 F6000.000 ; move inwards before travel
G1 X113.852 Y113.852 F6000.000 ; move to first perimeter point
G1 X113.852 Y103.852 E0.59748 F900.000 ; perimeter
G1 X151.148 Y103.852 E2.22843 ; perimeter
G1 X151.148 Y113.852 E0.59748 ; perimeter
G1 X161.148 Y113.852 E0.59748 ; perimeter
G1 X161.148 Y151.148 E2.22843 ; perimeter
G1 X151.148 Y151.148 E0.59748 ; perimeter
G1 X151.148 Y161.148 E0.59748 ; perimeter
G1 X113.852 Y161.148 E2.22843 ; perimeter
G1 X113.852 Y151.148 E0.59748 ; perimeter
G1 X103.852 Y151.148 E0.59748 ; perimeter
G1 X103.852 Y113.852 E2.22843 ; perimeter
G1 X113.777 Y113.852 E0.59300 ; perimeter
G1 E-4.00000 F1800.00000 ; retract
G1 X114.600 Y85.400 F6000.000 ; move to first perimeter point
G1 E4.00000 F1800.00000 ; unretract
G1 X104.600 Y85.400 E0.59748 F900.000 ; perimeter
G1 X104.600 Y49.600 E2.13898 ; perimeter
G1 X114.600 Y49.600 E0.59748 ; perimeter
G1 X114.600 Y39.600 E0.59748 ; perimeter
G1 X150.400 Y39.600 E2.13898 ; perimeter
G1 X150.400 Y49.600 E0.59748 ; perimeter
G1 X160.400 Y49.600 E0.59748 ; perimeter
G1 X160.400 Y85.400 E2.13898 ; perimeter
G1 X150.400 Y85.400 E0.59748 ; perimeter
G1 X150.400 Y95.400 E0.59748 ; perimeter
G1 X114.600 Y95.400 E2.13898 ; perimeter
G1 X114.600 Y85.475 E0.59300 ; perimeter
G1 X114.167 Y85.650 F6000.000 ; move inwards before travel
G1 X113.852 Y86.148 F6000.000 ; move to first perimeter point
G1 X103.852 Y86.148 E0.59748 F900.000 ; perimeter
G1 X103.852 Y48.852 E2.22843 ; perimeter
G1 X113.852 Y48.852 E0.59748 ; perimeter
G1 X113.852 Y38.852 E0.59748 ; perimeter
G1 X151.148 Y38.852 E2.22843 ; perimeter
G1 X151.148 Y48.852 E0.59748 ; perimeter
G1 X161.148 Y48.852 E0.59748 ; perimeter
G1 X161.148 Y86.148 E2.22843 ; perimeter
G1 X151.148 Y86.148 E0.59748 ; perimeter
G1 X151.148 Y96.148 E0.59748 ; perimeter
G1 X113.852 Y96.148 E2.22843 ; perimeter
G1 X113.852 Y86.223 E0.59300 ; perimeter
G1 E-4.00000 F1800.00000 ; retract
G1 X85.400 Y85.400 F6000.000 ; move to first perimeter point
G1 E4.00000 F1800.00000 ; unretract
G1 X85.400 Y95.400 E0.59748 F900.000 ; perimeter
G1 X49.600 Y95.400 E2.13898 ; perimeter
G1 X49.600 Y85.400 E0.59748 ; perimeter
G1 X39.600 Y85.400 E0.59748 ; perimeter
G1 X39.600 Y49.600 E2.13898 ; perimeter
G1 X49.600 Y49.600 E0.59748 ; perimeter
G1 X49.600 Y39.600 E0.59748 ; perimeter
G1 X85.400 Y39.600 E2.13898 ; perimeter
G1 X85.400 Y49.600 E0.59748 ; perimeter
G1 X95.400 Y49.600 E0.59748 ; perimeter
G1 X95.400 Y85.400 E2.13898 ; perimeter
G1 X85.475 Y85.400 E0.59300 ; perimeter
G1 X85.650 Y85.833 F6000.000 ; move inwards before travel
G1 X86.148 Y86.148 F6000.000 ; move to first perimeter point
G1 X86.148 Y96.148 E0.59748 F900.000 ; perimeter
G1 X48.852 Y96.148 E2.22843 ; perimeter
G1 X48.852 Y86.148 E0.59748 ; perimeter
G1 X38.852 Y86.148 E0.59748 ; perimeter
G1 X38.852 Y48.852 E2.22843 ; perimeter
G1 X48.852 Y48.852 E0.59748 ; perimeter
G1 X48.852 Y38.852 E0.59748 ; perimeter
G1 X86.148 Y38.852 E2.22843 ; perimeter
G1 X86.148 Y48.852 E0.59748 ; perimeter
G1 X96.148 Y48.852 E0.59748 ; perimeter
G1 X96.148 Y86.148 E2.22843 ; perimeter
G1 X86.223 Y86.148 E0.59300 ; perimeter
G1 E-4.00000 F1800.00000 ; retract
G1 X85.400 Y114.600 F6000.000 ; move to first perimeter point
G1 E4.00000 F1800.00000 ; unretract
G1 X95.400 Y114.600 E0.59748 F900.000 ; perimeter
G1 X95.400 Y150.400 E2.13898 ; perimeter
G1 X85.400 Y150.400 E0.59748 ; perimeter
G1 X85.400 Y160.400 E0.59748 ; perimeter
G1 X49.600 Y160.400 E2.13898 ; perimeter
G1 X49.600 Y150.400 E0.59748 ; perimeter
G1 X39.600 Y150.400 E0.59748 ; perimeter
G1 X39.600 Y114.600 E2.13898 ; perimeter
G1 X49.600 Y114.600 E0.59748 ; perimeter
G1 X49.600 Y104.600 E0.59748 ; perimeter
G1 X85.400 Y104.600 E2.13898 ; perimeter
G1 X85.400 Y114.525 E0.59300 ; perimeter
G1 X85.833 Y114.350 F6000.000 ; move inwards before travel
G1 X86.148 Y113.852 F6000.000 ; move to first perimeter point
G1 X96.148 Y113.852 E0.59748 F900.000 ; perimeter
G1 X96.148 Y151.148 E2.22843 ; perimeter
G1 X86.148 Y151.148 E0.59748 ; perimeter
G1 X86.148 Y161.148 E0.59748 ; perimeter
G1 X48.852 Y161.148 E2.22843 ; perimeter
G1 X48.852 Y151.148 E0.59748 ; perimeter
G1 X38.852 Y151.148 E0.59748 ; perimeter
G1 X38.852 Y113.852 E2.22843 ; perimeter
G1 X48.852 Y113.852 E0.59748 ; perimeter
G1 X48.852 Y103.852 E0.59748 ; perimeter
G1 X86.148 Y103.852 E2.22843 ; perimeter
G1 X86.148 Y113.777 E0.59300 ; perimeter
G1 X87.314 Y113.329 F6000.000 ; move to first infill point
G1 X86.671 Y112.686 E0.05451 F900.000 ; infill
G1 X86.671 Y111.624 E0.06364 ; infill
G1 X88.376 Y113.329 E0.14451 ; infill
G1 X89.438 Y113.329 E0.06364 ; infill
G1 X86.671 Y110.562 E0.23451 ; infill
G1 X86.671 Y109.500 E0.06364 ; infill
G1 X90.500 Y113.329 E0.32450 ; infill
G1 X91.562 Y113.329 E0.06364 ; infill
G1 X86.671 Y108.438 E0.41450 ; infill
G1 X86.671 Y107.377 E0.06364 ; infill
G1 X92.623 Y113.329 E0.50450 ; infill
G1 X93.685 Y113.329 E0.06364 ; infill
G1 X86.671 Y106.315 E0.59450 ; infill
G1 X86.671 Y105.253 E0.06364 ; infill
G1 X94.747 Y113.329 E0.68450 ; infill
G1 X95.809 Y113.329 E0.06364 ; infill
G1 X86.671 Y104.191 E0.77450 ; infill
G1 E-4.00000 F1800.00000 ; retract
G1 X79.151 Y96.671 F6000.000 ; move to first infill point
G1 E4.00000 F1800.00000 ; unretract
G1 X85.809 Y103.329 E0.56430 F900.000 ; infill
G1 X84.747 Y103.329 E0.06364 ; infill
G1 X78.089 Y96.671 E0.56430 ; infill
G1 X77.027 Y96.671 E0.06364 ; infill
G1 X83.685 Y103.329 E0.56430 ; infill
G1 X82.623 Y103.329 E0.06364 ; infill
G1 X75.966 Y96.671 E0.56430 ; infill
G1 X74.904 Y96.671 E0.06364 ; infill
G1 X81.562 Y103.329 E0.56430 ; infill
G1 X80.500 Y103.329 E0.06364 ; infill
G1 X73.842 Y96.671 E0.56430 ; infill
G1 X72.780 Y96.671 E0.06364 ; infill
G1 X79.438 Y103.329 E0.56430 ; infill
G1 X78.376 Y103.329 E0.06364 ; infill
G1 X71.718 Y96.671 E0.56430 ; infill
G1 X70.657 Y96.671 E0.06364 ; infill
G1 X77.314 Y103.329 E0.56430 ; infill
G1 X76.252 Y103.329 E0.06364 ; infill
G1 X69.595 Y96.671 E0.56430 ; infill
G1 X68.533 Y96.671 E0.06364 ; infill
G1 X75.191 Y103.329 E0.56430 ; infill
G1 X74.129 Y103.329 E0.06364 ; infill
G1 X67.471 Y96.671 E0.56430 ; infill
G1 X66.409 Y96.671 E0.06364 ; infill
G1 X73.067 Y103.329 E0.56430 ; infill
G1 X72.005 Y103.329 E0.06364 ; infill
G1 X65.347 Y96.671 E0.56430 ; infill
G1 X64.286 Y96.671 E0.06364 ; infill
G1 X70.943 Y103.329 E0.56430 ; infill
G1 X69.882 Y103.329 E0.06364 ; infill
G1 X63.224 Y96.671 E0.56430 ; infill
G1 X62.162 Y96.671 E0.06364 ; infill
G1 X68.820 Y103.329 E0.56430 ; infill
G1 X67.758 Y103.329 E0.06364 ; infill
G1 X61.100 Y96.671 E0.56430 ; infill
G1 X60.038 Y96.671 E0.06364 ; infill
G1 X66.696 Y103.329 E0.56430 ; infill
G1 X65.634 Y103.329 E0.06364 ; infill
G1 X58.977 Y96.671 E0.56430 ; infill
G1 X57.915 Y96.671 E0.06364 ; infill
G1 X64.572 Y103.329 E0.56430 ; infill
G1 X63.511 Y103.329 E0.06364 ; infill
G1 X56.853 Y96.671 E0.56430 ; infill
G1 X55.791 Y96.671 E0.06364 ; infill
G1 X62.449 Y103.329 E0.56430 ; infill
G1 X61.387 Y103.329 E0.06364 ; infill
G1 X54.729 Y96.671 E0.56430 ; infill
G1 X53.667 Y96.671 E0.06364 ; infill
G1 X60.325 Y103.329 E0.56430 ; infill
G1 X59.263 Y103.329 E0.06364 ; infill
G1 X52.606 Y96.671 E0.56430 ; infill
G1 X51.544 Y96.671 E0.06364 ; infill
G1 X58.202 Y103.329 E0.56430 ; infill
G1 X57.140 Y103.329 E0.06364 ; infill
G1 X50.482 Y96.671 E0.56430 ; infill
G1 X49.420 Y96.671 E0.06364 ; infill
G1 X56.078 Y103.329 E0.56430 ; infill
G1 X55.016 Y103.329 E0.06364 ; infill
G1 X31.671 Y79.984 E1.97869 ; infill
G1 X31.671 Y78.922 E0.06364 ; infill
G1 X38.329 Y85.580 E0.56430 ; infill
G1 X38.329 Y84.518 E0.06364 ; infill
G1 X31.671 Y77.860 E0.56430 ; infill
G1 X31.671 Y76.798 E0.06364 ; infill
G1 X38.329 Y83.456 E0.56430 ; infill
G1 X38.329 Y82.394 E0.06364 ; infill
G1 X31.671 Y75.737 E0.56430 ; infill
G1 X31.671 Y74.675 E0.06364 ; infill
G1 X38.329 Y81.333 E0.56430 ; infill
G1 X38.329 Y80.271 E0.06364 ; infill
G1 X31.671 Y73.613 E0.56430 ; infill
G1 X31.671 Y72.551 E0.06364 ; infill
G1 X38.329 Y79.209 E0.56430 ; infill
G1 X38.329 Y78.147 E0.06364 ; infill
G1 X31.671 Y71.489 E0.56430 ; infill
G1 X31.671 Y70.428 E0.06364 ; infill
G1 X38.329 Y77.085 E0.56430 ; infill
G1 X38.329 Y76.023 E0.06364 ; infill
G1 X31.671 Y69.366 E0.56430 ; infill
G1 X31.671 Y68.304 E0.06364 ; infill
G1 X38.329 Y74.962 E0.56430 ; infill
G1 X38.329 Y73.900 E0.06364 ; infill
G1 X31.671 Y67.242 E0.56430 ; infill
G1 X31.671 Y66.180 E0.06364 ; infill
G1 X38.329 Y72.838 E0.56430 ; infill
G1 X38.329 Y71.776 E0.06364 ; infill
G1 X31.671 Y65.118 E0.56430 ; infill
G1 X31.671 Y64.057 E0.06364 ; infill
G1 X38.329 Y70.714 E0.56430 ; infill
G1 X38.329 Y69.653 E0.06364 ; infill
G1 X31.671 Y62.995 E0.56430 ; infill
G1 X31.671 Y61.933 E0.06364 ; infill
G1 X38.329 Y68.591 E0.56430 ; infill
G1 X38.329 Y67.529 E0.06364 ; infill
G1 X31.671 Y60.871 E0.56430 ; infill
G1 X31.671 Y59.809 E0.06364 ; infill
G1 X38.329 Y66.467 E0.56430 ; infill
G1 X38.329 Y65.405 E0.06364 ; infill
G1 X31.671 Y58.748 E0.56430 ; infill
G1 X31.671 Y57.686 E0.06364 ; infill
G1 X38.329 Y64.343 E0.56430 ; infill
G1 X38.329 Y63.282 E0.06364 ; infill
G1 X31.671 Y56.624 E0.56430 ; infill
G1 X31.671 Y55.562 E0.06364 ; infill
G1 X38.329 Y62.220 E0.56430 ; infill
G1 X38.329 Y61.158 E0.06364 ; infill
G1 X31.671 Y54.500 E0.56430 ; infill
G1 X31.671 Y53.438 E0.06364 ; infill
G1 X38.329 Y60.096 E0.56430 ; infill
G1 X38.329 Y59.034 E0.06364 ; infill
G1 X31.671 Y52.377 E0.56430 ; infill
G1 X31.671 Y51.315 E0.06364 ; infill
G1 X38.329 Y57.973 E0.56430 ; infill
G1 X38.329 Y56.911 E0.06364 ; infill
G1 X31.671 Y50.253 E0.56430 ; infill
G1 X31.671 Y49.191 E0.06364 ; infill
G1 X38.329 Y55.849 E0.56430 ; infill
G1 X38.329 Y54.787 E0.06364 ; infill
G1 X21.671 Y38.129 E1.41189 ; infill
G1 X21.671 Y37.068 E0.06364 ; infill
G1 X38.329 Y53.725 E1.41189 ; infill
G1 X38.329 Y52.663 E0.06364 ; infill
G1 X21.671 Y36.006 E1.41189 ; infill
G1 X21.671 Y34.944 E0.06364 ; infill
