; generated by Slic3r 1.1.7 on 2015-05-29 at 21:46:09

; perimeters extrusion width = 0.50mm
; infill extrusion width = 0.50mm
; solid infill extrusion width = 0.50mm
; top infill extrusion width = 0.50mm

G21 ; set units to millimeters
M107 ; disable fan
M190 S57 ; wait for bed temperature to be reached
M104 S185 ; set temperature

M109 S185 ; wait for temperature to be reached
G90 ; use absolute coordinates
M83 ; use relative distances for extrusion
G1 F1800.000 E-4.00000 ; retract
G1 Z0.240 F6000.000 ; move to next layer (0)
G1 X29.021 Y38.909 F6000.000 ; move to first skirt point
G1 E4.00000 F1800.000 ; compensate retraction
G1 X30.698 Y37.836 E0.07942 F600.000 ; skirt
G1 X32.500 Y37.500 E0.07318 ; skirt
G1 X167.500 Y37.500 E5.38814 ; skirt
G1 X169.450 Y37.896 E0.07942 ; skirt
G1 X171.091 Y39.021 E0.07942 F600.000 ; skirt
G1 X172.164 Y40.698 E0.07942 ; skirt
G1 X172.500 Y42.500 E0.07318 ; skirt
G1 X172.500 Y157.500 E4.58990 ; skirt
G1 X172.104 Y159.450 E0.07942 ; skirt
G1 X170.979 Y161.091 E0.07942 ; skirt
G1 X169.302 Y162.164 E0.07942 ; skirt
G1 X167.500 Y162.500 E0.07318 ; skirt
G1 X32.500 Y162.500 E5.38814 ; skirt
G1 X30.550 Y162.104 E0.07942 ; skirt
G1 X28.909 Y160.979 E0.07942 ; skirt
G1 X27.836 Y159.302 E0.07942 ; skirt
G1 X27.500 Y157.500 E0.07318 ; skirt
G1 X27.500 Y42.500 E4.58990 ; skirt
G1 X27.896 Y40.550 E0.07942 ; skirt
G1 X28.979 Y38.970 E0.07643 ; skirt
G1 X29.404 Y39.283 F6000.000 ; move to first skirt point
G1 X29.513 Y39.135 E0.00733 F600.000 ; skirt
G1 X31.155 Y38.206 E0.07531 ; skirt
G1 X32.500 Y38.000 E0.05431 ; skirt
G1 X167.500 Y38.000 E5.38814 ; skirt
G1 X169.345 Y38.396 E0.07531 ; skirt
G1 X170.865 Y39.513 E0.07531 F600.000 ; skirt
G1 X171.794 Y41.155 E0.07531 ; skirt
G1 X172.000 Y42.500 E0.05431 ; skirt
G1 X172.000 Y157.500 E4.58990 ; skirt
G1 X171.604 Y159.345 E0.07531 ; skirt
G1 X170.487 Y160.865 E0.07531 ; skirt
G1 X168.845 Y161.794 E0.07531 ; skirt
G1 X167.500 Y162.000 E0.05431 ; skirt
G1 X32.500 Y162.000 E5.38814 ; skirt
G1 X30.655 Y161.604 E0.07531 ; skirt
G1 X29.135 Y160.487 E0.07531 ; skirt
G1 X28.206 Y158.845 E0.07531 ; skirt
G1 X28.000 Y157.500 E0.05431 ; skirt
G1 X28.000 Y42.500 E4.58990 ; skirt
G1 X28.396 Y40.655 E0.07531 ; skirt
G1 X29.359 Y39.343 E0.06498 ; skirt
G1 F1800.000 E-4.00000 ; retract
G1 X32.750 Y42.750 F6000.000 ; move to first perimeter point
G1 E4.00000 F1800.000 ; compensate retraction
G1 X167.250 Y42.750 E5.36819 F900.000 ; perimeter
G1 X167.250 Y157.250 E4.56994 ; perimeter
G1 X32.750 Y157.250 E5.36819 F900.000 ; perimeter
G1 X32.750 Y42.825 E4.56695 ; perimeter
G1 F1800.000 E-4.00000 ; retract
G1 X167.500 Y156.817 F6000.000 ; move inwards before travel
G1 X99.750 Y156.750 F6000.000 ; move to first perimeter point
G1 E4.00000 F1800.000 ; compensate retraction
G1 X33.250 Y156.750 E2.65416 F900.000 ; perimeter
G1 X33.250 Y100.250 E2.25504 ; perimeter
G1 X99.675 Y100.250 E2.65117 ; perimeter
G1 F1800.000 E-4.00000 ; retract
G1 X99.892 Y157.229 F6000.000 ; move inwards before travel
G1 X99.750 Y99.750 F6000.000 ; move to first perimeter point
G1 E4.00000 F1800.000 ; compensate retraction
G1 X33.250 Y99.750 E2.65416 F900.000 ; perimeter
G1 X33.250 Y43.250 E2.25504 ; perimeter
G1 X99.675 Y43.250 E2.65117 ; perimeter
G1 F1800.000 E-4.00000 ; retract
G1 X99.892 Y100.229 F6000.000 ; move inwards before travel
G1 X100.250 Y99.750 F6000.000 ; move to first perimeter point
G1 E4.00000 F1800.000 ; compensate retraction
G1 X100.250 Y43.250 E2.25504 F900.000 ; perimeter
G1 X166.750 Y43.250 E2.65416 ; perimeter
G1 X166.750 Y99.750 E2.25504 ; perimeter
G1 X100.325 Y99.750 E2.65117 F900.000 ; perimeter
G1 F1800.000 E-4.00000 ; retract
G1 X166.317 Y100.000 F6000.000 ; move inwards before travel
G1 X166.317 Y100.250 F6000.000 ; move to first perimeter point
G1 E4.00000 F1800.000 ; compensate retraction
G1 X166.750 Y100.250 E0.01728 F900.000 ; perimeter
G1 X166.750 Y156.750 E2.25504 ; perimeter
G1 X100.250 Y156.750 E2.65416 F900.000 ; perimeter
G1 X100.250 Y100.250 E2.25504 ; perimeter
G1 X166.242 Y100.250 E2.63388 ; perimeter
G1 F1800.000 E-4.00000 ; retract
G1 X166.892 Y157.229 F6000.000 ; move inwards before travel
G1 X2 Y190; park the machine
M1

; filament used = 96.9mm (0.2cm3)

; avoid_crossing_perimeters = 0
; bed_size = 200,200
; bed_temperature = 57
; bridge_acceleration = 0
; bridge_fan_speed = 100
; bridge_flow_ratio = 1
; brim_width = 0
; complete_objects = 0
; cooling = 1
; default_acceleration = 0
; disable_fan_first_layers = 3
; duplicate_distance = 6
; end_gcode = G1 X2 Y190; park the machine\nM1\n
; external_perimeters_first = 1
; extruder_clearance_height = 20
; extruder_clearance_radius = 20
; extruder_offset = 0x0
; extrusion_axis = E
; extrusion_multiplier = 0.8
; fan_always_on = 0
; fan_below_layer_time = 60
; filament_diameter = 1.75
; first_layer_acceleration = 0
; first_layer_bed_temperature = 57
; first_layer_extrusion_width = 0.5
; first_layer_speed = 50%
; first_layer_temperature = 185
; g0 = 0
; gcode_arcs = 0
; gcode_comments = 1
; gcode_flavor = reprap
; infill_acceleration = 0
; infill_first = 0
; layer_gcode = 
; max_fan_speed = 100
; min_fan_speed = 35
; min_print_speed = 10
; min_skirt_length = 0
; notes = 
; nozzle_diameter = 0.5
; only_retract_when_crossing_perimeters = 0
; ooze_prevention = 0
; output_filename_format = [input_filename_base].gcode
; perimeter_acceleration = 0
; post_process = 
; print_center = 100,100
; resolution = 0
; retract_before_travel = 2
; retract_layer_change = 1
; retract_length = 4
; retract_length_toolchange = 10
; retract_lift = 0
; retract_restart_extra = 0
; retract_restart_extra_toolchange = 0
; retract_speed = 30
; skirt_distance = 4
; skirt_height = 1
; skirts = 2
; slowdown_below_layer_time = 15
; spiral_vase = 0
; standby_temperature_delta = -5
; start_gcode = 
; temperature = 185
; threads = 2
; toolchange_gcode = 
; travel_speed = 100
; use_firmware_retraction = 0
; use_relative_e_distances = 1
; vibration_limit = 0
; wipe = 0
; z_offset = 0
; dont_support_bridges = 1
; extrusion_width = 0.5
; first_layer_height = 0.24
; infill_only_where_needed = 0
; interface_shells = 0
; layer_height = 0.24
; raft_layers = 0
; seam_position = random
; support_material = 0
; support_material_angle = 0
; support_material_enforce_layers = 0
; support_material_extruder = 1
; support_material_extrusion_width = 0
; support_material_interface_extruder = 1
; support_material_interface_layers = 0
; support_material_interface_spacing = 0
; support_material_interface_speed = 100%
; support_material_pattern = rectilinear
; support_material_spacing = 2.5
; support_material_speed = 20
; support_material_threshold = 0
; bottom_solid_layers = 4
; bridge_speed = 30
; external_perimeter_speed = 30
; extra_perimeters = 1
; fill_angle = 45
; fill_density = 50%
; fill_pattern = rectilinear
; gap_fill_speed = 10
; infill_every_layers = 1
; infill_extruder = 1
; infill_extrusion_width = 0.5
; infill_speed = 30
; overhangs = 1
; perimeter_extruder = 1
; perimeter_extrusion_width = 0.5
; perimeter_speed = 30
; perimeters = 2
; small_perimeter_speed = 26
; solid_fill_pattern = rectilinear
; solid_infill_below_area = 70
; solid_infill_every_layers = 0
; solid_infill_extrusion_width = 0.5
; solid_infill_speed = 30
; thin_walls = 1
; top_infill_extrusion_width = 0.5
; top_solid_infill_speed = 30
; top_solid_layers = 4
