; generated by Slic3r 1.0.1 on 2014-08-23 at 14:51:49

; layer_height = 0.24
; perimeters = 2
; top_solid_layers = 4
; bottom_solid_layers = 3
; fill_density = 0.25
; perimeter_speed = 30
; infill_speed = 30
; travel_speed = 100
; nozzle_diameter = 0.5
; filament_diameter = 1.75
; extrusion_multiplier = 1
; perimeters extrusion width = 0.50mm
; infill extrusion width = 0.50mm
; solid infill extrusion width = 0.50mm
; top infill extrusion width = 0.50mm
; first layer extrusion width = 0.80mm

G21 ; set units to millimeters
M107 ; disable fan
M190 S57 ; wait for bed temperature to be reached
M104 S200 ; set temperature

M109 S200 ; wait for temperature to be reached
G90 ; use absolute coordinates
M83 ; use relative distances for extrusion
G1 F1800.000 E-2.40000 ; retract
G1 Z0.240 F6000.000 ; move to next layer (0)
G1 X71.640 Y77.640 F6000.000 ; move to first skirt point
G1 E2.40000 F1800.000 ; compensate retraction
G1 X72.630 Y76.890 E0.09276 F900.000 ; skirt
G1 X73.770 Y76.410 E0.09238 ; skirt
G1 X75.000 Y76.250 E0.09264 ; skirt
G1 X125.000 Y76.250 E3.73426 ; skirt
G1 X126.230 Y76.410 E0.09264 ; skirt
G1 X127.370 Y76.890 E0.09238 ; skirt
G1 X128.360 Y77.640 E0.09276 ; skirt
G1 X129.110 Y78.630 E0.09276 ; skirt
G1 X129.590 Y79.770 E0.09238 ; skirt
G1 X129.750 Y81.000 E0.09264 ; skirt
G1 X129.750 Y119.000 E2.83804 ; skirt
G1 X129.590 Y120.230 E0.09264 ; skirt
G1 X129.110 Y121.370 E0.09238 ; skirt
G1 X128.360 Y122.360 E0.09276 ; skirt
G1 X127.370 Y123.110 E0.09276 ; skirt
G1 X126.230 Y123.590 E0.09238 ; skirt
G1 X125.000 Y123.750 E0.09264 ; skirt
G1 X75.000 Y123.750 E3.73426 ; skirt
G1 X73.770 Y123.590 E0.09264 ; skirt
G1 X72.630 Y123.110 E0.09238 ; skirt
G1 X71.640 Y122.360 E0.09276 ; skirt
G1 X70.890 Y121.370 E0.09276 ; skirt
G1 X70.410 Y120.230 E0.09238 ; skirt
G1 X70.250 Y119.000 E0.09264 ; skirt
G1 X70.250 Y81.000 E2.83804 ; skirt
G1 X70.410 Y79.770 E0.09264 ; skirt
G1 X70.890 Y78.630 E0.09238 ; skirt
G1 X71.572 Y77.729 E0.08437 ; skirt
G1 F1800.000 E-2.40000 ; retract
G1 X75.400 Y103.400 F6000.000 ; move to first perimeter point
G1 E2.40000 F1800.000 ; compensate retraction
G1 X95.599 Y103.400 E1.50854 F900.000 ; perimeter
G1 X95.762 Y104.187 E0.06006 ; perimeter
G1 X95.963 Y104.753 E0.04486 ; perimeter
G1 X96.260 Y105.316 E0.04749 ; perimeter
G1 X96.586 Y105.777 E0.04221 ; perimeter
G1 X96.996 Y106.216 E0.04486 ; perimeter
G1 X97.462 Y106.595 E0.04486 ; perimeter
G1 X97.975 Y106.908 E0.04486 ; perimeter
G1 X98.751 Y107.245 E0.06318 ; perimeter
G1 X98.751 Y107.260 E0.00118 ; perimeter
G1 X99.700 Y107.391 E0.07150 ; perimeter
G1 X100.300 Y107.391 E0.04486 ; perimeter
G1 X100.895 Y107.309 E0.04486 ; perimeter
G1 X101.474 Y107.147 E0.04486 ; perimeter
G1 X102.025 Y106.908 E0.04486 ; perimeter
G1 X102.538 Y106.595 E0.04486 ; perimeter
G1 X103.004 Y106.216 E0.04486 ; perimeter
G1 X103.414 Y105.777 E0.04486 ; perimeter
G1 X103.760 Y105.287 E0.04486 ; perimeter
G1 X104.037 Y104.753 E0.04486 ; perimeter
G1 X104.238 Y104.187 E0.04486 ; perimeter
G1 X104.401 Y103.400 E0.06006 ; perimeter
G1 X124.600 Y103.400 E1.50854 ; perimeter
G1 X124.600 Y118.600 E1.13521 ; perimeter
G1 X75.400 Y118.600 E3.67451 ; perimeter
G1 X75.400 Y103.512 E1.12683 ; perimeter
G1 X76.048 Y103.774 F6000.000 ; move inwards before travel
G1 X76.148 Y104.148 F6000.000 ; move to first perimeter point
G1 X94.954 Y104.148 E1.40450 F900.000 ; perimeter
G1 X95.275 Y105.052 E0.07163 ; perimeter
G1 X95.599 Y105.676 E0.05251 ; perimeter
G1 X96.004 Y106.251 E0.05251 ; perimeter
G1 X96.484 Y106.765 E0.05250 ; perimeter
G1 X97.029 Y107.208 E0.05251 ; perimeter
G1 X97.630 Y107.574 E0.05250 ; perimeter
G1 X98.003 Y107.735 E0.03034 ; perimeter
G1 X98.003 Y107.913 E0.01325 ; perimeter
G1 X99.648 Y108.139 E0.12407 ; perimeter
G1 X100.352 Y108.139 E0.05251 ; perimeter
G1 X101.048 Y108.043 E0.05251 ; perimeter
G1 X101.725 Y107.854 E0.05251 ; perimeter
G1 X102.370 Y107.574 E0.05251 ; perimeter
G1 X102.971 Y107.208 E0.05251 ; perimeter
G1 X103.516 Y106.765 E0.05251 ; perimeter
G1 X103.996 Y106.251 E0.05251 ; perimeter
G1 X104.401 Y105.676 E0.05251 ; perimeter
G1 X104.725 Y105.052 E0.05251 ; perimeter
G1 X105.046 Y104.148 E0.07163 ; perimeter
G1 X123.852 Y104.148 E1.40450 ; perimeter
G1 X123.852 Y117.852 E1.02341 ; perimeter
G1 X121.326 Y117.852 E0.18860 ; perimeter
G1 X121.262 Y117.654 E0.01551 ; perimeter
G1 X121.944 Y117.159 E0.06294 ; perimeter
G1 X122.350 Y116.707 E0.04535 ; perimeter
G1 X122.654 Y116.181 E0.04535 ; perimeter
G1 X122.841 Y115.604 E0.04535 ; perimeter
G1 X122.905 Y115.000 E0.04534 ; perimeter
G1 X122.841 Y114.396 E0.04535 ; perimeter
G1 X122.654 Y113.819 E0.04536 ; perimeter
G1 X122.350 Y113.293 E0.04535 ; perimeter
G1 X121.944 Y112.841 E0.04536 ; perimeter
G1 X121.723 Y112.681 E0.02034 ; perimeter
G1 X121.723 Y112.413 E0.02004 ; perimeter
G1 X120.304 Y112.111 E0.10841 ; perimeter
G1 X119.696 Y112.111 E0.04534 ; perimeter
G1 X119.102 Y112.237 E0.04536 ; perimeter
G1 X118.548 Y112.484 E0.04536 ; perimeter
G1 X118.446 Y112.558 E0.00942 ; perimeter
G1 X118.056 Y112.841 E0.03593 ; perimeter
G1 X117.650 Y113.293 E0.04535 ; perimeter
G1 X117.346 Y113.819 E0.04536 ; perimeter
G1 X117.159 Y114.396 E0.04535 ; perimeter
G1 X117.095 Y115.000 E0.04535 ; perimeter
G1 X117.108 Y115.125 E0.00942 ; perimeter
G1 X117.159 Y115.604 E0.03594 ; perimeter
G1 X117.346 Y116.181 E0.04535 ; perimeter
G1 X117.650 Y116.707 E0.04535 ; perimeter
G1 X118.056 Y117.159 E0.04536 ; perimeter
G1 X118.738 Y117.654 E0.06293 ; perimeter
G1 X118.674 Y117.852 E0.01551 ; perimeter
G1 X81.326 Y117.852 E2.78931 ; perimeter
G1 X81.262 Y117.654 E0.01551 ; perimeter
G1 X81.944 Y117.159 E0.06293 ; perimeter
G1 X82.350 Y116.707 E0.04537 ; perimeter
G1 X82.654 Y116.181 E0.04534 ; perimeter
G1 X82.841 Y115.604 E0.04535 ; perimeter
G1 X82.855 Y115.478 E0.00943 ; perimeter
G1 X82.905 Y115.000 E0.03593 ; perimeter
G1 X82.841 Y114.396 E0.04535 ; perimeter
G1 X82.654 Y113.819 E0.04536 ; perimeter
G1 X82.350 Y113.293 E0.04535 ; perimeter
G1 X81.944 Y112.841 E0.04536 ; perimeter
G1 X81.452 Y112.484 E0.04536 ; perimeter
G1 X81.337 Y112.433 E0.00943 ; perimeter
G1 X80.898 Y112.237 E0.03592 ; perimeter
G1 X80.304 Y112.111 E0.04536 ; perimeter
G1 X79.697 Y112.111 E0.04534 ; perimeter
G1 X79.102 Y112.237 E0.04536 ; perimeter
G1 X78.548 Y112.484 E0.04535 ; perimeter
G1 X78.446 Y112.558 E0.00943 ; perimeter
G1 X78.056 Y112.841 E0.03593 ; perimeter
G1 X77.650 Y113.293 E0.04535 ; perimeter
G1 X77.346 Y113.818 E0.04536 ; perimeter
G1 X77.159 Y114.396 E0.04535 ; perimeter
G1 X77.095 Y115.000 E0.04535 ; perimeter
G1 X77.159 Y115.604 E0.04537 ; perimeter
G1 X77.346 Y116.182 E0.04536 ; perimeter
G1 X77.650 Y116.707 E0.04534 ; perimeter
G1 X78.056 Y117.159 E0.04537 ; perimeter
G1 X78.738 Y117.654 E0.06292 ; perimeter
G1 X78.674 Y117.852 E0.01552 ; perimeter
G1 X76.148 Y117.852 E0.18860 ; perimeter
G1 X76.148 Y104.261 E1.01503 ; perimeter
G1 F1800.000 E-2.40000 ; retract
G1 X79.335 Y112.953 F6000.000 ; move to first perimeter point
G1 E2.40000 F1800.000 ; compensate retraction
G1 X79.775 Y112.860 E0.03361 F780.000 ; perimeter
G1 X80.225 Y112.860 E0.03360 ; perimeter
G1 X80.665 Y112.953 E0.03361 ; perimeter
G1 X81.076 Y113.136 E0.03360 ; perimeter
G1 X81.440 Y113.401 E0.03360 ; perimeter
G1 X81.741 Y113.735 E0.03360 ; perimeter
G1 X81.966 Y114.125 E0.03360 ; perimeter
G1 X82.090 Y114.507 E0.03005 ; perimeter
G1 X82.152 Y115.000 E0.03708 ; perimeter
G1 X82.105 Y115.447 E0.03361 ; perimeter
G1 X81.966 Y115.875 E0.03360 ; perimeter
G1 X81.741 Y116.265 E0.03360 ; perimeter
G1 X81.440 Y116.599 E0.03361 ; perimeter
G1 X81.076 Y116.864 E0.03360 ; perimeter
G1 X80.665 Y117.047 E0.03360 ; perimeter
G1 X80.225 Y117.140 E0.03361 ; perimeter
G1 X79.775 Y117.140 E0.03360 ; perimeter
G1 X79.335 Y117.047 E0.03360 ; perimeter
G1 X78.924 Y116.864 E0.03361 ; perimeter
G1 X78.560 Y116.599 E0.03360 ; perimeter
G1 X78.259 Y116.265 E0.03361 ; perimeter
G1 X78.034 Y115.875 E0.03360 ; perimeter
G1 X77.895 Y115.447 E0.03361 ; perimeter
G1 X77.848 Y115.000 E0.03361 ; perimeter
G1 X77.895 Y114.553 E0.03360 ; perimeter
G1 X78.034 Y114.125 E0.03360 ; perimeter
G1 X78.259 Y113.735 E0.03360 ; perimeter
G1 X78.560 Y113.401 E0.03360 ; perimeter
G1 X78.924 Y113.136 E0.03361 ; perimeter
G1 X79.232 Y112.999 E0.02522 ; perimeter
G1 X79.444 Y112.517 F6000.000 ; move inwards before travel
G1 F1800.000 E-2.40000 ; retract
G1 X117.848 Y115.000 F6000.000 ; move to first perimeter point
G1 E2.40000 F1800.000 ; compensate retraction
G1 X117.895 Y114.553 E0.03360 F780.000 ; perimeter
G1 X118.034 Y114.125 E0.03360 ; perimeter
G1 X118.259 Y113.735 E0.03361 ; perimeter
G1 X118.560 Y113.401 E0.03360 ; perimeter
G1 X118.924 Y113.136 E0.03360 ; perimeter
G1 X119.335 Y112.953 E0.03360 ; perimeter
G1 X119.775 Y112.860 E0.03360 ; perimeter
G1 X120.225 Y112.860 E0.03360 ; perimeter
G1 X120.975 Y113.019 E0.05726 ; perimeter
G1 X120.975 Y113.063 E0.00326 ; perimeter
G1 X121.440 Y113.401 E0.04294 ; perimeter
G1 X121.741 Y113.735 E0.03360 ; perimeter
G1 X121.966 Y114.125 E0.03360 ; perimeter
G1 X122.105 Y114.553 E0.03361 ; perimeter
G1 X122.152 Y115.000 E0.03360 ; perimeter
G1 X122.105 Y115.447 E0.03360 ; perimeter
G1 X121.966 Y115.875 E0.03360 ; perimeter
G1 X121.741 Y116.265 E0.03360 ; perimeter
G1 X121.440 Y116.599 E0.03360 ; perimeter
G1 X121.076 Y116.864 E0.03361 ; perimeter
G1 X120.665 Y117.047 E0.03360 ; perimeter
G1 X120.225 Y117.140 E0.03360 ; perimeter
G1 X119.775 Y117.140 E0.03361 ; perimeter
G1 X119.335 Y117.047 E0.03360 ; perimeter
G1 X118.924 Y116.864 E0.03361 ; perimeter
G1 X118.560 Y116.599 E0.03360 ; perimeter
G1 X118.259 Y116.265 E0.03360 ; perimeter
G1 X118.034 Y115.875 E0.03360 ; perimeter
G1 X117.895 Y115.447 E0.03360 ; perimeter
G1 X117.860 Y115.112 E0.02522 ; perimeter
G1 X117.466 Y114.762 F6000.000 ; move inwards before travel
G1 F1800.000 E-2.40000 ; retract
G1 X123.319 Y104.701 F6000.000 ; move to first fill point
G1 E2.40000 F1800.000 ; compensate retraction
G1 X123.299 Y104.681 E0.00214 F900.000 ; fill
G1 X122.222 Y104.681 E0.08180 ; fill
G1 X123.319 Y105.778 E0.11783 ; fill
G1 X123.319 Y106.855 E0.08180 ; fill
G1 X121.145 Y104.681 E0.23351 ; fill
G1 X120.069 Y104.681 E0.08180 ; fill
G1 X123.319 Y107.931 E0.34919 ; fill
G1 X123.319 Y109.008 E0.08180 ; fill
G1 X118.992 Y104.681 E0.46488 ; fill
G1 X117.915 Y104.681 E0.08180 ; fill
G1 X123.319 Y110.085 E0.58056 ; fill
G1 X123.319 Y111.162 E0.08180 ; fill
G1 X116.838 Y104.681 E0.69624 ; fill
G1 X115.762 Y104.681 E0.08180 ; fill
G1 X122.794 Y111.713 E0.75552 ; fill
G1 X121.565 Y111.561 E0.09406 ; fill
G1 X114.685 Y104.681 E0.73918 ; fill
G1 X113.608 Y104.681 E0.08180 ; fill
G1 X120.545 Y111.618 E0.74526 ; fill
G1 X119.466 Y111.616 E0.08197 ; fill
G1 X112.531 Y104.681 E0.74502 ; fill
G1 X111.455 Y104.681 E0.08180 ; fill
G1 X118.636 Y111.862 E0.77151 ; fill
G1 X117.954 Y112.257 E0.05985 ; fill
G1 X110.378 Y104.681 E0.81395 ; fill
G1 X109.301 Y104.681 E0.08180 ; fill
G1 X117.397 Y112.777 E0.86982 ; fill
G1 X116.962 Y113.419 E0.05889 ; fill
G1 X108.225 Y104.681 E0.93875 ; fill
G1 X107.148 Y104.681 E0.08180 ; fill
G1 X116.663 Y114.197 E1.02233 ; fill
G1 X116.580 Y115.190 E0.07570 ; fill
G1 X106.071 Y104.681 E1.12901 ; fill
G1 X105.310 Y104.997 E0.06260 ; fill
G1 X117.055 Y116.741 E1.26183 ; fill
G1 X116.555 Y117.319 E0.05799 ; fill
G1 X104.971 Y105.735 E1.24459 ; fill
G1 X104.550 Y106.390 E0.05919 ; fill
G1 X115.479 Y117.319 E1.17418 ; fill
G1 X114.402 Y117.319 E0.08180 ; fill
G1 X104.053 Y106.970 E1.11186 ; fill
G1 X103.484 Y107.478 E0.05794 ; fill
G1 X113.325 Y117.319 E1.05733 ; fill
G1 X112.248 Y117.319 E0.08180 ; fill
G1 X102.840 Y107.911 E1.01077 ; fill
G1 X102.117 Y108.264 E0.06116 ; fill
G1 X111.172 Y117.319 E0.97281 ; fill
G1 X110.095 Y117.319 E0.08180 ; fill
G1 X101.302 Y108.526 E0.94473 ; fill
G1 X100.371 Y108.672 E0.07156 ; fill
G1 X109.018 Y117.319 E0.92902 ; fill
G1 X107.941 Y117.319 E0.08180 ; fill
G1 X99.244 Y108.621 E0.93446 ; fill
G1 X97.995 Y108.450 E0.09573 ; fill
G1 X106.865 Y117.319 E0.95289 ; fill
G1 X105.788 Y117.319 E0.08180 ; fill
G1 X93.150 Y104.681 E1.35777 ; fill
G1 X92.073 Y104.681 E0.08180 ; fill
G1 X104.711 Y117.319 E1.35777 ; fill
G1 X103.634 Y117.319 E0.08180 ; fill
G1 X90.997 Y104.681 E1.35777 ; fill
G1 X89.920 Y104.681 E0.08180 ; fill
G1 X102.558 Y117.319 E1.35777 ; fill
G1 X101.481 Y117.319 E0.08180 ; fill
G1 X88.843 Y104.681 E1.35777 ; fill
G1 X87.766 Y104.681 E0.08180 ; fill
G1 X100.404 Y117.319 E1.35777 ; fill
G1 X99.327 Y117.319 E0.08180 ; fill
G1 X86.690 Y104.681 E1.35777 ; fill
G1 X85.613 Y104.681 E0.08180 ; fill
G1 X98.251 Y117.319 E1.35777 ; fill
G1 X97.174 Y117.319 E0.08180 ; fill
G1 X84.536 Y104.681 E1.35777 ; fill
G1 X83.459 Y104.681 E0.08180 ; fill
G1 X96.097 Y117.319 E1.35777 ; fill
G1 X95.020 Y117.319 E0.08180 ; fill
G1 X82.383 Y104.681 E1.35777 ; fill
G1 X81.306 Y104.681 E0.08180 ; fill
G1 X93.944 Y117.319 E1.35777 ; fill
G1 X92.867 Y117.319 E0.08180 ; fill
G1 X80.229 Y104.681 E1.35777 ; fill
G1 X79.152 Y104.681 E0.08180 ; fill
G1 X91.790 Y117.319 E1.35777 ; fill
G1 X90.713 Y117.319 E0.08180 ; fill
G1 X78.076 Y104.681 E1.35777 ; fill
G1 X76.999 Y104.681 E0.08180 ; fill
G1 X89.637 Y117.319 E1.35777 ; fill
G1 X88.560 Y117.319 E0.08180 ; fill
G1 X76.681 Y105.440 E1.27624 ; fill
G1 X76.681 Y106.517 E0.08180 ; fill
G1 X87.483 Y117.319 E1.16055 ; fill
G1 X86.407 Y117.319 E0.08180 ; fill
G1 X83.362 Y114.274 E0.32712 ; fill
G1 X83.400 Y115.389 F6000.000 ; move to first fill point
G1 X85.330 Y117.319 E0.20738 F900.000 ; fill
G1 X84.253 Y117.319 E0.08180 ; fill
G1 X83.190 Y116.256 E0.11424 ; fill
G1 X82.819 Y116.961 E0.06057 ; fill
G1 X83.176 Y117.319 E0.03843 ; fill
G1 F1800.000 E-2.40000 ; retract
G1 X80.749 Y111.661 F6000.000 ; move to first fill point
G1 E2.40000 F1800.000 ; compensate retraction
G1 X76.681 Y107.593 E0.43702 F900.000 ; fill
G1 X76.681 Y108.670 E0.08180 ; fill
G1 X79.598 Y111.587 E0.31342 ; fill
G1 X78.606 Y111.672 E0.07568 ; fill
G1 X76.681 Y109.747 E0.20678 ; fill
G1 X76.681 Y110.824 E0.08180 ; fill
G1 X77.719 Y111.861 E0.11146 ; fill
G1 X76.681 Y111.900 E0.07887 ; fill
G1 X77.208 Y112.428 E0.05665 ; fill
G1 X76.681 Y112.977 E0.05785 ; fill
G1 X76.698 Y112.994 E0.00184 ; fill
G1 F1800.000 E-2.40000 ; retract
G1 X94.227 Y104.681 F6000.000 ; move to first fill point
G1 E2.40000 F1800.000 ; compensate retraction
G1 X94.772 Y105.226 E0.05854 F900.000 ; fill
G1 F1800.000 E-2.40000 ; retract
G1 X80.695 Y117.606 F6000.000 ; move to first fill point
G1 E2.40000 F1800.000 ; compensate retraction
G1 X80.671 Y117.582 E0.00159 F300.000 ; fill
G1 X80.695 Y117.606 F6000.000 ; move to first fill point
G1 X80.502 Y118.076 E0.02378 F300.000 ; fill
G1 X80.091 Y117.665 E0.02720 F300.000 ; fill
G1 X79.839 Y118.076 E0.02256 F300.000 ; fill
G1 X79.349 Y117.586 E0.03242 F300.000 ; fill
G1 X79.158 Y118.058 E0.02382 F300.000 ; fill
G1 X79.176 Y118.076 E0.00119 F300.000 ; fill
G1 F1800.000 E-2.40000 ; retract
G1 X76.933 Y117.087 F6000.000 ; move to first fill point
G1 E2.40000 F1800.000 ; compensate retraction
G1 X76.913 Y117.067 E0.00211 F300.000 ; fill
G1 F1800.000 E-2.40000 ; retract
G1 X76.683 Y114.132 F6000.000 ; move to first fill point
G1 E2.40000 F1800.000 ; compensate retraction
G1 X76.673 Y114.122 E0.00051 F300.000 ; fill
G1 F1800.000 E-2.40000 ; retract
G1 X119.158 Y118.058 F6000.000 ; move to first fill point
G1 E2.40000 F1800.000 ; compensate retraction
G1 X119.349 Y117.586 E0.02383 F300.000 ; fill
G1 X119.839 Y118.076 E0.03242 F300.000 ; fill
G1 X120.091 Y117.665 E0.02256 F300.000 ; fill
G1 X120.502 Y118.076 E0.02720 F300.000 ; fill
G1 X120.695 Y117.606 E0.02378 F300.000 ; fill
G1 X120.671 Y117.582 E0.00159 F300.000 ; fill
G1 X119.176 Y118.076 F6000.000 ; move to first fill point
G1 X119.158 Y118.058 E0.00119 F300.000 ; fill
G1 F1800.000 E-2.40000 ; retract
G1 X123.023 Y117.070 F6000.000 ; move to first fill point
G1 E2.40000 F1800.000 ; compensate retraction
G1 X123.041 Y117.087 E0.00183 F300.000 ; fill
G1 F1800.000 E-2.40000 ; retract
G1 X123.077 Y113.004 F6000.000 ; move to first fill point
G1 E2.40000 F1800.000 ; compensate retraction
