; generated by Slic3r 1.0.1 on 2014-08-23 at 14:51:28

; layer_height = 0.24
; perimeters = 2
; top_solid_layers = 4
; bottom_solid_layers = 3
; fill_density = 0.25
; perimeter_speed = 30
; infill_speed = 30
; travel_speed = 100
; nozzle_diameter = 0.5
; filament_diameter = 1.75
; extrusion_multiplier = 1
; perimeters extrusion width = 0.50mm
; infill extrusion width = 0.50mm
; solid infill extrusion width = 0.50mm
; top infill extrusion width = 0.50mm
; first layer extrusion width = 0.80mm

G21 ; set units to millimeters
M107 ; disable fan
M190 S57 ; wait for bed temperature to be reached
M104 S200 ; set temperature

M109 S200 ; wait for temperature to be reached
G90 ; use absolute coordinates
M83 ; use relative distances for extrusion
G1 F1800.000 E-2.40000 ; retract
G1 Z0.240 F6000.000 ; move to next layer (0)
G1 X71.640 Y88.640 F6000.000 ; move to first skirt point
G1 E2.40000 F1800.000 ; compensate retraction
G1 X72.630 Y87.890 E0.09276 F900.000 ; skirt
G1 X73.770 Y87.410 E0.09238 ; skirt
G1 X75.000 Y87.250 E0.09264 ; skirt
G1 X125.000 Y87.250 E3.73426 ; skirt
G1 X126.230 Y87.410 E0.09264 ; skirt
G1 X127.370 Y87.890 E0.09238 ; skirt
G1 X128.360 Y88.640 E0.09276 ; skirt
G1 X129.110 Y89.630 E0.09276 ; skirt
G1 X129.590 Y90.770 E0.09238 ; skirt
G1 X129.750 Y92.000 E0.09264 ; skirt
G1 X129.750 Y108.000 E1.19496 ; skirt
G1 X129.590 Y109.230 E0.09264 ; skirt
G1 X129.110 Y110.370 E0.09238 ; skirt
G1 X128.360 Y111.360 E0.09276 ; skirt
G1 X127.370 Y112.110 E0.09276 ; skirt
G1 X126.230 Y112.590 E0.09238 ; skirt
G1 X125.000 Y112.750 E0.09264 ; skirt
G1 X75.000 Y112.750 E3.73426 ; skirt
G1 X73.770 Y112.590 E0.09264 ; skirt
G1 X72.630 Y112.110 E0.09238 ; skirt
G1 X71.640 Y111.360 E0.09276 ; skirt
G1 X70.890 Y110.370 E0.09276 ; skirt
G1 X70.410 Y109.230 E0.09238 ; skirt
G1 X70.250 Y108.000 E0.09264 ; skirt
G1 X70.250 Y92.000 E1.19496 ; skirt
G1 X70.410 Y90.770 E0.09264 ; skirt
G1 X70.890 Y89.630 E0.09238 ; skirt
G1 X71.572 Y88.729 E0.08437 ; skirt
G1 F1800.000 E-2.40000 ; retract
G1 X75.400 Y92.400 F6000.000 ; move to first perimeter point
G1 E2.40000 F1800.000 ; compensate retraction
G1 X95.599 Y92.400 E1.50854 F900.000 ; perimeter
G1 X95.762 Y93.187 E0.06006 ; perimeter
G1 X95.963 Y93.753 E0.04486 ; perimeter
G1 X96.260 Y94.316 E0.04749 ; perimeter
G1 X96.586 Y94.777 E0.04221 ; perimeter
G1 X96.996 Y95.216 E0.04486 ; perimeter
G1 X97.462 Y95.595 E0.04486 ; perimeter
G1 X97.975 Y95.908 E0.04486 ; perimeter
G1 X98.751 Y96.245 E0.06318 ; perimeter
G1 X98.751 Y96.260 E0.00118 ; perimeter
G1 X99.700 Y96.391 E0.07150 ; perimeter
G1 X100.300 Y96.391 E0.04486 ; perimeter
G1 X100.895 Y96.309 E0.04486 ; perimeter
G1 X101.474 Y96.147 E0.04486 ; perimeter
G1 X102.025 Y95.908 E0.04486 ; perimeter
G1 X102.538 Y95.595 E0.04486 ; perimeter
G1 X103.004 Y95.216 E0.04486 ; perimeter
G1 X103.414 Y94.777 E0.04486 ; perimeter
G1 X103.760 Y94.287 E0.04486 ; perimeter
G1 X104.037 Y93.753 E0.04486 ; perimeter
G1 X104.238 Y93.187 E0.04486 ; perimeter
G1 X104.401 Y92.400 E0.06006 ; perimeter
G1 X124.600 Y92.400 E1.50854 ; perimeter
G1 X124.600 Y107.600 E1.13521 ; perimeter
G1 X75.400 Y107.600 E3.67451 ; perimeter
G1 X75.400 Y92.512 E1.12683 ; perimeter
G1 X76.048 Y92.774 F6000.000 ; move inwards before travel
G1 X76.148 Y93.148 F6000.000 ; move to first perimeter point
G1 X94.954 Y93.148 E1.40450 F900.000 ; perimeter
G1 X95.275 Y94.052 E0.07163 ; perimeter
G1 X95.599 Y94.676 E0.05251 ; perimeter
G1 X96.004 Y95.251 E0.05251 ; perimeter
G1 X96.484 Y95.765 E0.05250 ; perimeter
G1 X97.029 Y96.208 E0.05251 ; perimeter
G1 X97.630 Y96.574 E0.05250 ; perimeter
G1 X98.003 Y96.735 E0.03034 ; perimeter
G1 X98.003 Y96.913 E0.01325 ; perimeter
G1 X99.648 Y97.139 E0.12407 ; perimeter
G1 X100.352 Y97.139 E0.05251 ; perimeter
G1 X101.048 Y97.043 E0.05251 ; perimeter
G1 X101.725 Y96.854 E0.05251 ; perimeter
G1 X102.370 Y96.574 E0.05251 ; perimeter
G1 X102.971 Y96.208 E0.05251 ; perimeter
G1 X103.516 Y95.765 E0.05251 ; perimeter
G1 X103.996 Y95.251 E0.05251 ; perimeter
G1 X104.401 Y94.676 E0.05251 ; perimeter
G1 X104.725 Y94.052 E0.05251 ; perimeter
G1 X105.046 Y93.148 E0.07163 ; perimeter
G1 X123.852 Y93.148 E1.40450 ; perimeter
G1 X123.852 Y106.852 E1.02341 ; perimeter
G1 X121.326 Y106.852 E0.18860 ; perimeter
G1 X121.262 Y106.654 E0.01551 ; perimeter
G1 X121.944 Y106.159 E0.06294 ; perimeter
G1 X122.350 Y105.707 E0.04535 ; perimeter
G1 X122.654 Y105.181 E0.04535 ; perimeter
G1 X122.841 Y104.604 E0.04535 ; perimeter
G1 X122.905 Y104.000 E0.04534 ; perimeter
G1 X122.841 Y103.396 E0.04535 ; perimeter
G1 X122.654 Y102.819 E0.04536 ; perimeter
G1 X122.350 Y102.293 E0.04535 ; perimeter
G1 X121.944 Y101.841 E0.04536 ; perimeter
G1 X121.723 Y101.681 E0.02034 ; perimeter
G1 X121.723 Y101.413 E0.02004 ; perimeter
G1 X120.304 Y101.111 E0.10841 ; perimeter
G1 X119.696 Y101.111 E0.04534 ; perimeter
G1 X119.102 Y101.237 E0.04536 ; perimeter
G1 X118.548 Y101.484 E0.04536 ; perimeter
G1 X118.446 Y101.558 E0.00942 ; perimeter
G1 X118.056 Y101.841 E0.03593 ; perimeter
G1 X117.650 Y102.293 E0.04535 ; perimeter
G1 X117.346 Y102.819 E0.04536 ; perimeter
G1 X117.159 Y103.396 E0.04535 ; perimeter
G1 X117.095 Y104.000 E0.04535 ; perimeter
G1 X117.108 Y104.125 E0.00942 ; perimeter
G1 X117.159 Y104.604 E0.03594 ; perimeter
G1 X117.346 Y105.181 E0.04535 ; perimeter
G1 X117.650 Y105.707 E0.04535 ; perimeter
G1 X118.056 Y106.159 E0.04536 ; perimeter
G1 X118.738 Y106.654 E0.06293 ; perimeter
G1 X118.674 Y106.852 E0.01551 ; perimeter
G1 X81.326 Y106.852 E2.78931 ; perimeter
G1 X81.262 Y106.654 E0.01551 ; perimeter
G1 X81.944 Y106.159 E0.06293 ; perimeter
G1 X82.350 Y105.707 E0.04537 ; perimeter
G1 X82.654 Y105.181 E0.04534 ; perimeter
G1 X82.841 Y104.604 E0.04535 ; perimeter
G1 X82.855 Y104.478 E0.00943 ; perimeter
G1 X82.905 Y104.000 E0.03593 ; perimeter
G1 X82.841 Y103.396 E0.04535 ; perimeter
G1 X82.654 Y102.819 E0.04536 ; perimeter
G1 X82.350 Y102.293 E0.04535 ; perimeter
G1 X81.944 Y101.841 E0.04536 ; perimeter
G1 X81.452 Y101.484 E0.04536 ; perimeter
G1 X81.337 Y101.433 E0.00943 ; perimeter
G1 X80.898 Y101.237 E0.03592 ; perimeter
G1 X80.304 Y101.111 E0.04536 ; perimeter
G1 X79.697 Y101.111 E0.04534 ; perimeter
G1 X79.102 Y101.237 E0.04536 ; perimeter
G1 X78.548 Y101.484 E0.04535 ; perimeter
G1 X78.446 Y101.558 E0.00943 ; perimeter
G1 X78.056 Y101.841 E0.03593 ; perimeter
G1 X77.650 Y102.293 E0.04535 ; perimeter
G1 X77.346 Y102.818 E0.04536 ; perimeter
G1 X77.159 Y103.396 E0.04535 ; perimeter
G1 X77.095 Y104.000 E0.04535 ; perimeter
G1 X77.159 Y104.604 E0.04537 ; perimeter
G1 X77.346 Y105.182 E0.04536 ; perimeter
G1 X77.650 Y105.707 E0.04534 ; perimeter
G1 X78.056 Y106.159 E0.04537 ; perimeter
G1 X78.738 Y106.654 E0.06292 ; perimeter
G1 X78.674 Y106.852 E0.01552 ; perimeter
G1 X76.148 Y106.852 E0.18860 ; perimeter
G1 X76.148 Y93.261 E1.01503 ; perimeter
G1 F1800.000 E-2.40000 ; retract
G1 X79.335 Y101.953 F6000.000 ; move to first perimeter point
G1 E2.40000 F1800.000 ; compensate retraction
G1 X79.775 Y101.860 E0.03361 F780.000 ; perimeter
G1 X80.225 Y101.860 E0.03360 ; perimeter
G1 X80.665 Y101.953 E0.03361 ; perimeter
G1 X81.076 Y102.136 E0.03360 ; perimeter
G1 X81.440 Y102.401 E0.03360 ; perimeter
G1 X81.741 Y102.735 E0.03360 ; perimeter
G1 X81.966 Y103.125 E0.03360 ; perimeter
G1 X82.090 Y103.507 E0.03005 ; perimeter
G1 X82.152 Y104.000 E0.03708 ; perimeter
G1 X82.105 Y104.447 E0.03361 ; perimeter
G1 X81.966 Y104.875 E0.03360 ; perimeter
G1 X81.741 Y105.265 E0.03360 ; perimeter
G1 X81.440 Y105.599 E0.03361 ; perimeter
G1 X81.076 Y105.864 E0.03360 ; perimeter
G1 X80.665 Y106.047 E0.03360 ; perimeter
G1 X80.225 Y106.140 E0.03361 ; perimeter
G1 X79.775 Y106.140 E0.03360 ; perimeter
G1 X79.335 Y106.047 E0.03360 ; perimeter
G1 X78.924 Y105.864 E0.03361 ; perimeter
G1 X78.560 Y105.599 E0.03360 ; perimeter
G1 X78.259 Y105.265 E0.03361 ; perimeter
G1 X78.034 Y104.875 E0.03360 ; perimeter
G1 X77.895 Y104.447 E0.03361 ; perimeter
G1 X77.848 Y104.000 E0.03361 ; perimeter
G1 X77.895 Y103.553 E0.03360 ; perimeter
G1 X78.034 Y103.125 E0.03360 ; perimeter
G1 X78.259 Y102.735 E0.03360 ; perimeter
G1 X78.560 Y102.401 E0.03360 ; perimeter
G1 X78.924 Y102.136 E0.03361 ; perimeter
G1 X79.232 Y101.999 E0.02522 ; perimeter
G1 X79.444 Y101.517 F6000.000 ; move inwards before travel
G1 F1800.000 E-2.40000 ; retract
G1 X117.848 Y104.000 F6000.000 ; move to first perimeter point
G1 E2.40000 F1800.000 ; compensate retraction
G1 X117.895 Y103.553 E0.03360 F780.000 ; perimeter
G1 X118.034 Y103.125 E0.03360 ; perimeter
G1 X118.259 Y102.735 E0.03361 ; perimeter
G1 X118.560 Y102.401 E0.03360 ; perimeter
G1 X118.924 Y102.136 E0.03360 ; perimeter
G1 X119.335 Y101.953 E0.03360 ; perimeter
G1 X119.775 Y101.860 E0.03360 ; perimeter
G1 X120.225 Y101.860 E0.03360 ; perimeter
G1 X120.975 Y102.019 E0.05726 ; perimeter
G1 X120.975 Y102.063 E0.00326 ; perimeter
G1 X121.440 Y102.401 E0.04294 ; perimeter
G1 X121.741 Y102.735 E0.03360 ; perimeter
G1 X121.966 Y103.125 E0.03360 ; perimeter
G1 X122.105 Y103.553 E0.03361 ; perimeter
G1 X122.152 Y104.000 E0.03360 ; perimeter
G1 X122.105 Y104.447 E0.03360 ; perimeter
G1 X121.966 Y104.875 E0.03360 ; perimeter
G1 X121.741 Y105.265 E0.03360 ; perimeter
G1 X121.440 Y105.599 E0.03360 ; perimeter
G1 X121.076 Y105.864 E0.03361 ; perimeter
G1 X120.665 Y106.047 E0.03360 ; perimeter
G1 X120.225 Y106.140 E0.03360 ; perimeter
G1 X119.775 Y106.140 E0.03361 ; perimeter
G1 X119.335 Y106.047 E0.03360 ; perimeter
G1 X118.924 Y105.864 E0.03361 ; perimeter
G1 X118.560 Y105.599 E0.03360 ; perimeter
G1 X118.259 Y105.265 E0.03360 ; perimeter
G1 X118.034 Y104.875 E0.03360 ; perimeter
G1 X117.895 Y104.447 E0.03360 ; perimeter
G1 X117.860 Y104.112 E0.02522 ; perimeter
G1 X117.466 Y103.762 F6000.000 ; move inwards before travel
G1 F1800.000 E-2.40000 ; retract
G1 X123.319 Y93.701 F6000.000 ; move to first fill point
G1 E2.40000 F1800.000 ; compensate retraction
G1 X123.299 Y93.681 E0.00214 F900.000 ; fill
G1 X122.222 Y93.681 E0.08180 ; fill
G1 X123.319 Y94.778 E0.11783 ; fill
G1 X123.319 Y95.855 E0.08180 ; fill
G1 X121.145 Y93.681 E0.23351 ; fill
G1 X120.069 Y93.681 E0.08180 ; fill
G1 X123.319 Y96.931 E0.34919 ; fill
G1 X123.319 Y98.008 E0.08180 ; fill
G1 X118.992 Y93.681 E0.46488 ; fill
G1 X117.915 Y93.681 E0.08180 ; fill
G1 X123.319 Y99.085 E0.58056 ; fill
G1 X123.319 Y100.162 E0.08180 ; fill
G1 X116.838 Y93.681 E0.69624 ; fill
G1 X115.762 Y93.681 E0.08180 ; fill
G1 X122.794 Y100.713 E0.75552 ; fill
G1 X121.565 Y100.561 E0.09406 ; fill
G1 X114.685 Y93.681 E0.73918 ; fill
G1 X113.608 Y93.681 E0.08180 ; fill
G1 X120.545 Y100.618 E0.74526 ; fill
G1 X119.466 Y100.616 E0.08197 ; fill
G1 X112.531 Y93.681 E0.74502 ; fill
G1 X111.455 Y93.681 E0.08180 ; fill
G1 X118.636 Y100.862 E0.77151 ; fill
G1 X117.954 Y101.257 E0.05985 ; fill
G1 X110.378 Y93.681 E0.81395 ; fill
G1 X109.301 Y93.681 E0.08180 ; fill
G1 X117.397 Y101.777 E0.86982 ; fill
G1 X116.962 Y102.419 E0.05889 ; fill
G1 X108.225 Y93.681 E0.93875 ; fill
G1 X107.148 Y93.681 E0.08180 ; fill
G1 X116.663 Y103.197 E1.02233 ; fill
G1 X116.580 Y104.190 E0.07570 ; fill
G1 X106.071 Y93.681 E1.12901 ; fill
G1 X105.310 Y93.997 E0.06260 ; fill
G1 X117.055 Y105.741 E1.26183 ; fill
G1 X116.555 Y106.319 E0.05799 ; fill
G1 X104.971 Y94.735 E1.24459 ; fill
G1 X104.550 Y95.390 E0.05919 ; fill
G1 X115.479 Y106.319 E1.17418 ; fill
G1 X114.402 Y106.319 E0.08180 ; fill
G1 X104.053 Y95.970 E1.11186 ; fill
G1 X103.484 Y96.478 E0.05794 ; fill
G1 X113.325 Y106.319 E1.05733 ; fill
G1 X112.248 Y106.319 E0.08180 ; fill
G1 X102.840 Y96.911 E1.01077 ; fill
G1 X102.117 Y97.264 E0.06116 ; fill
G1 X111.172 Y106.319 E0.97281 ; fill
G1 X110.095 Y106.319 E0.08180 ; fill
G1 X101.302 Y97.526 E0.94473 ; fill
G1 X100.371 Y97.672 E0.07156 ; fill
G1 X109.018 Y106.319 E0.92902 ; fill
G1 X107.941 Y106.319 E0.08180 ; fill
G1 X99.244 Y97.621 E0.93446 ; fill
G1 X97.995 Y97.450 E0.09573 ; fill
G1 X106.865 Y106.319 E0.95289 ; fill
G1 X105.788 Y106.319 E0.08180 ; fill
G1 X93.150 Y93.681 E1.35777 ; fill
G1 X92.073 Y93.681 E0.08180 ; fill
G1 X104.711 Y106.319 E1.35777 ; fill
G1 X103.634 Y106.319 E0.08180 ; fill
G1 X90.997 Y93.681 E1.35777 ; fill
G1 X89.920 Y93.681 E0.08180 ; fill
G1 X102.558 Y106.319 E1.35777 ; fill
G1 X101.481 Y106.319 E0.08180 ; fill
G1 X88.843 Y93.681 E1.35777 ; fill
G1 X87.766 Y93.681 E0.08180 ; fill
G1 X100.404 Y106.319 E1.35777 ; fill
G1 X99.327 Y106.319 E0.08180 ; fill
G1 X86.690 Y93.681 E1.35777 ; fill
G1 X85.613 Y93.681 E0.08180 ; fill
G1 X98.251 Y106.319 E1.35777 ; fill
G1 X97.174 Y106.319 E0.08180 ; fill
G1 X84.536 Y93.681 E1.35777 ; fill
G1 X83.459 Y93.681 E0.08180 ; fill
G1 X96.097 Y106.319 E1.35777 ; fill
G1 X95.020 Y106.319 E0.08180 ; fill
G1 X82.383 Y93.681 E1.35777 ; fill
G1 X81.306 Y93.681 E0.08180 ; fill
G1 X93.944 Y106.319 E1.35777 ; fill
G1 X92.867 Y106.319 E0.08180 ; fill
G1 X80.229 Y93.681 E1.35777 ; fill
G1 X79.152 Y93.681 E0.08180 ; fill
G1 X91.790 Y106.319 E1.35777 ; fill
G1 X90.713 Y106.319 E0.08180 ; fill
G1 X78.076 Y93.681 E1.35777 ; fill
G1 X76.999 Y93.681 E0.08180 ; fill
G1 X89.637 Y106.319 E1.35777 ; fill
G1 X88.560 Y106.319 E0.08180 ; fill
G1 X76.681 Y94.440 E1.27624 ; fill
G1 X76.681 Y95.517 E0.08180 ; fill
G1 X87.483 Y106.319 E1.16055 ; fill
G1 X86.407 Y106.319 E0.08180 ; fill
G1 X83.362 Y103.274 E0.32712 ; fill
G1 X83.400 Y104.389 F6000.000 ; move to first fill point
G1 X85.330 Y106.319 E0.20738 F900.000 ; fill
G1 X84.253 Y106.319 E0.08180 ; fill
G1 X83.190 Y105.256 E0.11424 ; fill
G1 X82.819 Y105.961 E0.06057 ; fill
G1 X83.176 Y106.319 E0.03843 ; fill
G1 F1800.000 E-2.40000 ; retract
G1 X80.749 Y100.661 F6000.000 ; move to first fill point
G1 E2.40000 F1800.000 ; compensate retraction
G1 X76.681 Y96.593 E0.43702 F900.000 ; fill
G1 X76.681 Y97.670 E0.08180 ; fill
G1 X79.598 Y100.587 E0.31342 ; fill
G1 X78.606 Y100.672 E0.07568 ; fill
G1 X76.681 Y98.747 E0.20678 ; fill
G1 X76.681 Y99.824 E0.08180 ; fill
G1 X77.719 Y100.861 E0.11146 ; fill
G1 X76.681 Y100.900 E0.07887 ; fill
G1 X77.208 Y101.428 E0.05665 ; fill
G1 X76.681 Y101.977 E0.05785 ; fill
G1 X76.698 Y101.994 E0.00184 ; fill
G1 F1800.000 E-2.40000 ; retract
G1 X94.227 Y93.681 F6000.000 ; move to first fill point
G1 E2.40000 F1800.000 ; compensate retraction
G1 X94.772 Y94.226 E0.05854 F900.000 ; fill
G1 F1800.000 E-2.40000 ; retract
G1 X80.695 Y106.606 F6000.000 ; move to first fill point
G1 E2.40000 F1800.000 ; compensate retraction
G1 X80.671 Y106.582 E0.00159 F300.000 ; fill
G1 X80.695 Y106.606 F6000.000 ; move to first fill point
G1 X80.502 Y107.076 E0.02378 F300.000 ; fill
G1 X80.091 Y106.665 E0.02720 F300.000 ; fill
G1 X79.839 Y107.076 E0.02256 F300.000 ; fill
G1 X79.349 Y106.586 E0.03242 F300.000 ; fill
G1 X79.158 Y107.058 E0.02382 F300.000 ; fill
G1 X79.176 Y107.076 E0.00119 F300.000 ; fill
G1 F1800.000 E-2.40000 ; retract
G1 X76.933 Y106.087 F6000.000 ; move to first fill point
G1 E2.40000 F1800.000 ; compensate retraction
G1 X76.913 Y106.067 E0.00211 F300.000 ; fill
G1 F1800.000 E-2.40000 ; retract
G1 X76.683 Y103.132 F6000.000 ; move to first fill point
G1 E2.40000 F1800.000 ; compensate retraction
G1 X76.673 Y103.122 E0.00051 F300.000 ; fill
G1 F1800.000 E-2.40000 ; retract
G1 X119.158 Y107.058 F6000.000 ; move to first fill point
G1 E2.40000 F1800.000 ; compensate retraction
G1 X119.349 Y106.586 E0.02383 F300.000 ; fill
G1 X119.839 Y107.076 E0.03242 F300.000 ; fill
G1 X120.091 Y106.665 E0.02256 F300.000 ; fill
G1 X120.502 Y107.076 E0.02720 F300.000 ; fill
G1 X120.695 Y106.606 E0.02378 F300.000 ; fill
G1 X120.671 Y106.582 E0.00159 F300.000 ; fill
G1 X119.176 Y107.076 F6000.000 ; move to first fill point
G1 X119.158 Y107.058 E0.00119 F300.000 ; fill
G1 F1800.000 E-2.40000 ; retract
G1 X123.023 Y106.070 F6000.000 ; move to first fill point
G1 E2.40000 F1800.000 ; compensate retraction
G1 X123.041 Y106.087 E0.00183 F300.000 ; fill
G1 F1800.000 E-2.40000 ; retract
G1 X123.077 Y102.004 F6000.000 ; move to first fill point
G1 E2.40000 F1800.000 ; compensate retraction
G1 X123.050 Y101.976 E0.00289 F300.000 ; fill
M104 S190 ; set temperature
G1 F1800.000 E-2.40000 ; retract
