; generated by Slic3r 1.0.1 on 2014-08-23 at 14:51:11

; layer_height = 0.24
; perimeters = 2
; top_solid_layers = 4
; bottom_solid_layers = 3
; fill_density = 0.25
; perimeter_speed = 30
; infill_speed = 30
; travel_speed = 100
; nozzle_diameter = 0.5
; filament_diameter = 1.75
; extrusion_multiplier = 1
; perimeters extrusion width = 0.50mm
; infill extrusion width = 0.50mm
; solid infill extrusion width = 0.50mm
; top infill extrusion width = 0.50mm
; first layer extrusion width = 0.80mm

G21 ; set units to millimeters
M107 ; disable fan
M190 S57 ; wait for bed temperature to be reached
M104 S200 ; set temperature

M109 S200 ; wait for temperature to be reached
G90 ; use absolute coordinates
M83 ; use relative distances for extrusion
G1 F1800.000 E-2.40000 ; retract
G1 Z0.240 F6000.000 ; move to next layer (0)
G1 X71.640 Y88.640 F6000.000 ; move to first skirt point
G1 E2.40000 F1800.000 ; compensate retraction
G1 X72.630 Y87.890 E0.09276 F900.000 ; skirt
G1 X73.770 Y87.410 E0.09238 ; skirt
G1 X75.000 Y87.250 E0.09264 ; skirt
G1 X125.000 Y87.250 E3.73426 ; skirt
G1 X126.230 Y87.410 E0.09264 ; skirt
G1 X127.370 Y87.890 E0.09238 ; skirt
G1 X128.360 Y88.640 E0.09276 ; skirt
G1 X129.110 Y89.630 E0.09276 ; skirt
G1 X129.590 Y90.770 E0.09238 ; skirt
G1 X129.750 Y92.000 E0.09264 ; skirt
G1 X129.750 Y108.000 E1.19496 ; skirt
G1 X129.590 Y109.230 E0.09264 ; skirt
G1 X129.110 Y110.370 E0.09238 ; skirt
G1 X128.360 Y111.360 E0.09276 ; skirt
G1 X127.370 Y112.110 E0.09276 ; skirt
G1 X126.230 Y112.590 E0.09238 ; skirt
G1 X125.000 Y112.750 E0.09264 ; skirt
G1 X75.000 Y112.750 E3.73426 ; skirt
G1 X73.770 Y112.590 E0.09264 ; skirt
G1 X72.630 Y112.110 E0.09238 ; skirt
G1 X71.640 Y111.360 E0.09276 ; skirt
G1 X70.890 Y110.370 E0.09276 ; skirt
G1 X70.410 Y109.230 E0.09238 ; skirt
G1 X70.250 Y108.000 E0.09264 ; skirt
G1 X70.250 Y92.000 E1.19496 ; skirt
G1 X70.410 Y90.770 E0.09264 ; skirt
G1 X70.890 Y89.630 E0.09238 ; skirt
G1 X71.572 Y88.729 E0.08437 ; skirt
G1 F1800.000 E-2.40000 ; retract
G1 X75.400 Y92.400 F6000.000 ; move to first perimeter point
G1 E2.40000 F1800.000 ; compensate retraction
G1 X124.600 Y92.400 E3.67451 F900.000 ; perimeter
G1 X124.600 Y107.600 E1.13521 ; perimeter
G1 X104.401 Y107.600 E1.50854 ; perimeter
G1 X104.238 Y106.813 E0.06006 ; perimeter
G1 X104.037 Y106.247 E0.04486 ; perimeter
G1 X103.760 Y105.713 E0.04486 ; perimeter
G1 X103.414 Y105.223 E0.04486 ; perimeter
G1 X103.004 Y104.784 E0.04486 ; perimeter
G1 X102.538 Y104.405 E0.04486 ; perimeter
G1 X102.025 Y104.092 E0.04486 ; perimeter
G1 X101.474 Y103.853 E0.04486 ; perimeter
G1 X100.895 Y103.691 E0.04486 ; perimeter
G1 X100.300 Y103.609 E0.04486 ; perimeter
G1 X99.664 Y103.614 E0.04749 ; perimeter
G1 X99.105 Y103.691 E0.04220 ; perimeter
G1 X98.526 Y103.853 E0.04486 ; perimeter
G1 X97.945 Y104.111 E0.04749 ; perimeter
G1 X97.462 Y104.405 E0.04221 ; perimeter
G1 X96.996 Y104.784 E0.04486 ; perimeter
G1 X96.566 Y105.252 E0.04749 ; perimeter
G1 X96.240 Y105.713 E0.04221 ; perimeter
G1 X95.963 Y106.247 E0.04486 ; perimeter
G1 X95.762 Y106.813 E0.04486 ; perimeter
G1 X95.599 Y107.600 E0.06006 ; perimeter
G1 X75.400 Y107.600 E1.50854 ; perimeter
G1 X75.400 Y92.512 E1.12683 ; perimeter
G1 X76.048 Y92.774 F6000.000 ; move inwards before travel
G1 X76.148 Y93.148 F6000.000 ; move to first perimeter point
G1 X123.852 Y93.148 E3.56271 F900.000 ; perimeter
G1 X123.852 Y106.852 E1.02341 ; perimeter
G1 X105.046 Y106.852 E1.40450 ; perimeter
G1 X104.725 Y105.948 E0.07164 ; perimeter
G1 X104.401 Y105.324 E0.05250 ; perimeter
G1 X103.996 Y104.749 E0.05251 ; perimeter
G1 X103.516 Y104.235 E0.05250 ; perimeter
G1 X102.971 Y103.792 E0.05251 ; perimeter
G1 X102.370 Y103.426 E0.05251 ; perimeter
G1 X101.725 Y103.146 E0.05251 ; perimeter
G1 X101.048 Y102.957 E0.05250 ; perimeter
G1 X100.352 Y102.861 E0.05252 ; perimeter
G1 X99.649 Y102.861 E0.05250 ; perimeter
G1 X98.869 Y102.980 E0.05893 ; perimeter
G1 X98.275 Y103.146 E0.04604 ; perimeter
G1 X97.630 Y103.426 E0.05250 ; perimeter
G1 X97.029 Y103.792 E0.05251 ; perimeter
G1 X96.425 Y104.299 E0.05893 ; perimeter
G1 X96.004 Y104.749 E0.04603 ; perimeter
G1 X95.599 Y105.323 E0.05251 ; perimeter
G1 X95.275 Y105.948 E0.05251 ; perimeter
G1 X94.954 Y106.852 E0.07163 ; perimeter
G1 X76.148 Y106.852 E1.40450 ; perimeter
G1 X76.148 Y93.261 E1.01503 ; perimeter
G1 F1800.000 E-2.40000 ; retract
G1 X76.701 Y106.319 F6000.000 ; move to first fill point
G1 E2.40000 F1800.000 ; compensate retraction
G1 X76.681 Y106.299 E0.00215 F900.000 ; fill
G1 X76.681 Y105.222 E0.08184 ; fill
G1 X77.778 Y106.319 E0.11789 ; fill
G1 X78.855 Y106.319 E0.08184 ; fill
G1 X76.681 Y104.145 E0.23363 ; fill
G1 X76.681 Y103.068 E0.08184 ; fill
G1 X79.932 Y106.319 E0.34937 ; fill
G1 X81.009 Y106.319 E0.08184 ; fill
G1 X76.681 Y101.991 E0.46511 ; fill
G1 X76.681 Y100.914 E0.08184 ; fill
G1 X82.086 Y106.319 E0.58085 ; fill
G1 X83.163 Y106.319 E0.08184 ; fill
G1 X76.681 Y99.837 E0.69659 ; fill
G1 X76.681 Y98.760 E0.08184 ; fill
G1 X84.240 Y106.319 E0.81233 ; fill
G1 X85.317 Y106.319 E0.08184 ; fill
G1 X76.681 Y97.683 E0.92807 ; fill
G1 X76.681 Y96.606 E0.08184 ; fill
G1 X86.394 Y106.319 E1.04381 ; fill
G1 X87.471 Y106.319 E0.08184 ; fill
G1 X76.681 Y95.529 E1.15955 ; fill
G1 X76.681 Y94.452 E0.08184 ; fill
G1 X88.548 Y106.319 E1.27529 ; fill
G1 X89.625 Y106.319 E0.08184 ; fill
G1 X76.988 Y93.681 E1.35811 ; fill
G1 X78.065 Y93.681 E0.08184 ; fill
G1 X90.702 Y106.319 E1.35811 ; fill
G1 X91.779 Y106.319 E0.08184 ; fill
G1 X79.142 Y93.681 E1.35811 ; fill
G1 X80.219 Y93.681 E0.08184 ; fill
G1 X92.856 Y106.319 E1.35811 ; fill
G1 X93.933 Y106.319 E0.08184 ; fill
G1 X81.296 Y93.681 E1.35811 ; fill
G1 X82.373 Y93.681 E0.08184 ; fill
G1 X94.691 Y106.000 E1.32384 ; fill
G1 X95.031 Y105.262 E0.06171 ; fill
G1 X83.450 Y93.681 E1.24455 ; fill
G1 X84.527 Y93.681 E0.08184 ; fill
G1 X95.453 Y104.607 E1.17415 ; fill
G1 X95.950 Y104.027 E0.05804 ; fill
G1 X85.604 Y93.681 E1.11183 ; fill
G1 X86.681 Y93.681 E0.08184 ; fill
G1 X96.522 Y103.522 E1.05757 ; fill
G1 X97.163 Y103.087 E0.05892 ; fill
G1 X87.758 Y93.681 E1.01078 ; fill
G1 X88.835 Y93.681 E0.08184 ; fill
G1 X97.887 Y102.734 E0.97285 ; fill
G1 X98.704 Y102.473 E0.06511 ; fill
G1 X89.912 Y93.681 E0.94482 ; fill
G1 X90.989 Y93.681 E0.08184 ; fill
G1 X99.636 Y102.328 E0.92925 ; fill
G1 X100.764 Y102.380 E0.08586 ; fill
G1 X92.066 Y93.681 E0.93481 ; fill
G1 X93.143 Y93.681 E0.08184 ; fill
G1 X102.259 Y102.797 E0.97968 ; fill
G1 F1800.000 E-2.40000 ; retract
G1 X105.224 Y105.763 F6000.000 ; move to first fill point
G1 E2.40000 F1800.000 ; compensate retraction
G1 X105.780 Y106.319 E0.05977 F900.000 ; fill
G1 X106.857 Y106.319 E0.08184 ; fill
G1 X94.220 Y93.681 E1.35811 ; fill
G1 X95.297 Y93.681 E0.08184 ; fill
G1 X107.934 Y106.319 E1.35811 ; fill
G1 X109.011 Y106.319 E0.08184 ; fill
G1 X96.374 Y93.681 E1.35811 ; fill
G1 X97.451 Y93.681 E0.08184 ; fill
G1 X110.088 Y106.319 E1.35811 ; fill
G1 X111.165 Y106.319 E0.08184 ; fill
G1 X98.528 Y93.681 E1.35811 ; fill
G1 X99.605 Y93.681 E0.08184 ; fill
G1 X112.242 Y106.319 E1.35811 ; fill
G1 X113.319 Y106.319 E0.08184 ; fill
G1 X100.682 Y93.681 E1.35811 ; fill
G1 X101.759 Y93.681 E0.08184 ; fill
G1 X114.396 Y106.319 E1.35811 ; fill
G1 X115.473 Y106.319 E0.08184 ; fill
G1 X102.836 Y93.681 E1.35811 ; fill
G1 X103.913 Y93.681 E0.08184 ; fill
G1 X116.550 Y106.319 E1.35811 ; fill
G1 X117.627 Y106.319 E0.08184 ; fill
G1 X104.990 Y93.681 E1.35811 ; fill
G1 X106.067 Y93.681 E0.08184 ; fill
G1 X118.704 Y106.319 E1.35811 ; fill
G1 X119.782 Y106.319 E0.08184 ; fill
G1 X107.144 Y93.681 E1.35811 ; fill
G1 X108.221 Y93.681 E0.08184 ; fill
G1 X120.859 Y106.319 E1.35811 ; fill
G1 X121.936 Y106.319 E0.08184 ; fill
G1 X109.298 Y93.681 E1.35811 ; fill
G1 X110.375 Y93.681 E0.08184 ; fill
G1 X123.013 Y106.319 E1.35811 ; fill
G1 X123.319 Y105.548 E0.06302 ; fill
G1 X111.452 Y93.681 E1.27529 ; fill
G1 X112.529 Y93.681 E0.08184 ; fill
G1 X123.319 Y104.471 E1.15955 ; fill
G1 X123.319 Y103.394 E0.08184 ; fill
G1 X113.606 Y93.681 E1.04381 ; fill
G1 X114.683 Y93.681 E0.08184 ; fill
G1 X123.319 Y102.317 E0.92807 ; fill
G1 X123.319 Y101.240 E0.08184 ; fill
G1 X115.760 Y93.681 E0.81233 ; fill
G1 X116.837 Y93.681 E0.08184 ; fill
G1 X123.319 Y100.163 E0.69659 ; fill
G1 X123.319 Y99.086 E0.08184 ; fill
G1 X117.914 Y93.681 E0.58085 ; fill
G1 X118.991 Y93.681 E0.08184 ; fill
G1 X123.319 Y98.009 E0.46511 ; fill
G1 X123.319 Y96.932 E0.08184 ; fill
G1 X120.068 Y93.681 E0.34937 ; fill
G1 X121.145 Y93.681 E0.08184 ; fill
G1 X123.319 Y95.855 E0.23362 ; fill
G1 X123.319 Y94.778 E0.08184 ; fill
G1 X122.222 Y93.681 E0.11788 ; fill
G1 X123.299 Y93.681 E0.08184 ; fill
G1 X123.319 Y93.701 E0.00214 ; fill
M104 S190 ; set temperature
G1 F1800.000 E-2.40000 ; retract
G1 Z0.480 F6000.000 ; move to next layer (1)
G1 X124.750 Y92.250 F6000.000 ; move to first perimeter point
G1 E2.40000 F1800.000 ; compensate retraction
G1 X124.750 Y107.750 E0.77330 F1800 ; perimeter
G1 X104.233 Y107.750 E1.02357 ; perimeter
G1 X104.211 Y107.421 E0.01644 ; perimeter
G1 X104.093 Y106.853 E0.02894 ; perimeter
G1 X103.899 Y106.307 E0.02894 ; perimeter
G1 X103.632 Y105.791 E0.02894 ; perimeter
G1 X103.297 Y105.318 E0.02894 ; perimeter
G1 X102.901 Y104.894 E0.02894 ; perimeter
G1 X102.451 Y104.527 E0.02894 ; perimeter
G1 X101.956 Y104.226 E0.02894 ; perimeter
G1 X101.423 Y103.995 E0.02894 ; perimeter
G1 X100.865 Y103.838 E0.02894 ; perimeter
G1 X100.290 Y103.759 E0.02894 ; perimeter
G1 X99.669 Y103.765 E0.03100 ; perimeter
G1 X99.135 Y103.838 E0.02686 ; perimeter
G1 X98.577 Y103.995 E0.02894 ; perimeter
G1 X98.009 Y104.248 E0.03100 ; perimeter
G1 X97.549 Y104.527 E0.02686 ; perimeter
G1 X97.099 Y104.894 E0.02894 ; perimeter
G1 X96.703 Y105.318 E0.02894 ; perimeter
G1 X96.368 Y105.791 E0.02894 ; perimeter
G1 X96.101 Y106.307 E0.02894 ; perimeter
G1 X95.907 Y106.853 E0.02894 ; perimeter
G1 X95.789 Y107.421 E0.02894 ; perimeter
G1 X95.767 Y107.750 E0.01644 ; perimeter
G1 X75.250 Y107.750 E1.02357 ; perimeter
G1 X75.250 Y92.250 E0.77330 ; perimeter
G1 X124.675 Y92.250 E2.46582 ; perimeter
G1 X124.500 Y92.683 F6000.000 ; move inwards before travel
G1 X124.250 Y92.750 F6000.000 ; move to first perimeter point
G1 X124.250 Y107.250 E0.72341 F1800 ; perimeter
G1 X104.686 Y107.250 E0.97605 ; perimeter
G1 X104.576 Y106.718 E0.02711 ; perimeter
G1 X104.358 Y106.107 E0.03236 ; perimeter
G1 X104.060 Y105.531 E0.03236 ; perimeter
G1 X103.686 Y105.001 E0.03236 ; perimeter
G1 X103.243 Y104.527 E0.03236 ; perimeter
G1 X102.740 Y104.118 E0.03236 ; perimeter
G1 X102.186 Y103.781 E0.03236 ; perimeter
G1 X101.591 Y103.523 E0.03236 ; perimeter
G1 X100.967 Y103.348 E0.03235 ; perimeter
G1 X100.324 Y103.259 E0.03236 ; perimeter
G1 X99.676 Y103.259 E0.03235 ; perimeter
G1 X98.960 Y103.368 E0.03611 ; perimeter
G1 X98.409 Y103.523 E0.02857 ; perimeter
G1 X97.814 Y103.781 E0.03236 ; perimeter
G1 X97.260 Y104.118 E0.03236 ; perimeter
G1 X96.705 Y104.583 E0.03611 ; perimeter
G1 X96.314 Y105.001 E0.02857 ; perimeter
G1 X95.940 Y105.531 E0.03236 ; perimeter
G1 X95.642 Y106.107 E0.03236 ; perimeter
G1 X95.424 Y106.718 E0.03236 ; perimeter
G1 X95.314 Y107.250 E0.02711 ; perimeter
G1 X75.750 Y107.250 E0.97605 ; perimeter
G1 X75.750 Y92.750 E0.72341 ; perimeter
G1 X124.175 Y92.750 E2.41593 ; perimeter
G1 F1800.000 E-2.40000 ; retract
G1 X123.898 Y106.878 F6000.000 ; move to first fill point
G1 E2.40000 F1800.000 ; compensate retraction
G1 X123.878 Y106.898 E0.00141 F1800 ; fill
G1 X123.170 Y106.898 E0.03531 ; fill
G1 X123.898 Y106.170 E0.05135 ; fill
G1 X123.898 Y105.463 E0.03531 ; fill
G1 X122.463 Y106.898 E0.10130 ; fill
G1 X121.755 Y106.898 E0.03531 ; fill
G1 X123.898 Y104.755 E0.15124 ; fill
G1 X123.898 Y104.048 E0.03531 ; fill
G1 X121.048 Y106.898 E0.20118 ; fill
G1 X120.340 Y106.898 E0.03531 ; fill
G1 X123.898 Y103.340 E0.25112 ; fill
G1 X123.898 Y102.633 E0.03531 ; fill
G1 X119.633 Y106.898 E0.30106 ; fill
G1 X118.925 Y106.898 E0.03531 ; fill
G1 X123.898 Y101.925 E0.35100 ; fill
G1 X123.898 Y101.218 E0.03531 ; fill
G1 X118.218 Y106.898 E0.40095 ; fill
G1 X117.510 Y106.898 E0.03531 ; fill
G1 X123.898 Y100.510 E0.45089 ; fill
G1 X123.898 Y99.803 E0.03531 ; fill
G1 X116.803 Y106.898 E0.50083 ; fill
G1 X116.095 Y106.898 E0.03531 ; fill
G1 X123.898 Y99.095 E0.55077 ; fill
G1 X123.898 Y98.388 E0.03531 ; fill
G1 X115.388 Y106.898 E0.60071 ; fill
G1 X114.680 Y106.898 E0.03531 ; fill
G1 X123.898 Y97.680 E0.65065 ; fill
G1 X123.898 Y96.973 E0.03531 ; fill
G1 X113.973 Y106.898 E0.70060 ; fill
G1 X113.265 Y106.898 E0.03531 ; fill
G1 X123.898 Y96.265 E0.75054 ; fill
G1 X123.898 Y95.558 E0.03531 ; fill
G1 X112.558 Y106.898 E0.80048 ; fill
G1 X111.850 Y106.898 E0.03531 ; fill
G1 X123.898 Y94.850 E0.85042 ; fill
G1 X123.898 Y94.143 E0.03531 ; fill
G1 X111.143 Y106.898 E0.90036 ; fill
G1 X110.436 Y106.898 E0.03531 ; fill
G1 X123.898 Y93.436 E0.95031 ; fill
G1 X123.523 Y93.102 E0.02501 ; fill
G1 X109.728 Y106.898 E0.97382 ; fill
G1 X109.021 Y106.898 E0.03531 ; fill
G1 X122.816 Y93.102 E0.97382 ; fill
G1 X122.108 Y93.102 E0.03531 ; fill
G1 X108.313 Y106.898 E0.97382 ; fill
G1 X107.606 Y106.898 E0.03531 ; fill
G1 X121.401 Y93.102 E0.97382 ; fill
G1 X120.693 Y93.102 E0.03531 ; fill
G1 X106.898 Y106.898 E0.97382 ; fill
G1 X106.191 Y106.898 E0.03531 ; fill
G1 X119.986 Y93.102 E0.97382 ; fill
G1 X119.278 Y93.102 E0.03531 ; fill
G1 X105.483 Y106.898 E0.97382 ; fill
G1 X104.939 Y106.734 E0.02836 ; fill
G1 X118.571 Y93.102 E0.96230 ; fill
G1 X117.863 Y93.102 E0.03531 ; fill
G1 X104.766 Y106.200 E0.92459 ; fill
G1 X104.549 Y105.709 E0.02679 ; fill
G1 X117.156 Y93.102 E0.88993 ; fill
G1 X116.448 Y93.102 E0.03531 ; fill
G1 X104.296 Y105.255 E0.85784 ; fill
G1 X104.004 Y104.840 E0.02534 ; fill
G1 X115.741 Y93.102 E0.82856 ; fill
G1 X115.033 Y93.102 E0.03531 ; fill
G1 X103.669 Y104.467 E0.80223 ; fill
G1 X103.305 Y104.123 E0.02498 ; fill
G1 X114.326 Y93.102 E0.77797 ; fill
G1 X113.619 Y93.102 E0.03531 ; fill
G1 X102.911 Y103.810 E0.75583 ; fill
G1 X102.472 Y103.542 E0.02570 ; fill
G1 X112.911 Y93.102 E0.73695 ; fill
G1 X112.204 Y93.102 E0.03531 ; fill
G1 X101.993 Y103.313 E0.72077 ; fill
G1 X101.475 Y103.124 E0.02755 ; fill
G1 X111.496 Y93.102 E0.70743 ; fill
G1 X110.789 Y93.102 E0.03531 ; fill
G1 X100.907 Y102.984 E0.69753 ; fill
G1 X100.277 Y102.907 E0.03171 ; fill
G1 X110.081 Y93.102 E0.69211 ; fill
G1 X109.374 Y93.102 E0.03531 ; fill
G1 X99.555 Y102.921 E0.69312 ; fill
G1 X98.691 Y103.077 E0.04381 ; fill
G1 X108.666 Y93.102 E0.70415 ; fill
G1 X107.959 Y93.102 E0.03531 ; fill
G1 X97.505 Y103.556 E0.73796 ; fill
G1 F1800.000 E-2.40000 ; retract
G1 X95.557 Y105.504 F6000.000 ; move to first fill point
G1 E2.40000 F1800.000 ; compensate retraction
G1 X94.164 Y106.898 E0.09835 F1800 ; fill
G1 X94.871 Y106.898 E0.03531 ; fill
G1 X95.068 Y106.701 E0.01390 ; fill
G1 X93.456 Y106.898 F6000.000 ; move to first fill point
G1 X107.251 Y93.102 E0.97382 F1800 ; fill
G1 X106.544 Y93.102 E0.03531 ; fill
G1 X92.749 Y106.898 E0.97382 ; fill
G1 X92.041 Y106.898 E0.03531 ; fill
G1 X105.836 Y93.102 E0.97382 ; fill
G1 X105.129 Y93.102 E0.03531 ; fill
G1 X91.334 Y106.898 E0.97382 ; fill
G1 X90.626 Y106.898 E0.03531 ; fill
G1 X104.421 Y93.102 E0.97382 ; fill
G1 X103.714 Y93.102 E0.03531 ; fill
G1 X89.919 Y106.898 E0.97382 ; fill
G1 X89.211 Y106.898 E0.03531 ; fill
G1 X103.006 Y93.102 E0.97382 ; fill
G1 X102.299 Y93.102 E0.03531 ; fill
G1 X88.504 Y106.898 E0.97382 ; fill
G1 X87.796 Y106.898 E0.03531 ; fill
G1 X101.591 Y93.102 E0.97382 ; fill
G1 X100.884 Y93.102 E0.03531 ; fill
G1 X87.089 Y106.898 E0.97382 ; fill
G1 X86.381 Y106.898 E0.03531 ; fill
G1 X100.177 Y93.102 E0.97382 ; fill
G1 X99.469 Y93.102 E0.03531 ; fill
G1 X85.674 Y106.898 E0.97382 ; fill
G1 X84.967 Y106.898 E0.03531 ; fill
G1 X98.762 Y93.102 E0.97382 ; fill
G1 X98.054 Y93.102 E0.03531 ; fill
G1 X84.259 Y106.898 E0.97382 ; fill
G1 X83.552 Y106.898 E0.03531 ; fill
G1 X97.347 Y93.102 E0.97382 ; fill
G1 X96.639 Y93.102 E0.03531 ; fill
G1 X82.844 Y106.898 E0.97382 ; fill
G1 X82.137 Y106.898 E0.03531 ; fill
G1 X95.932 Y93.102 E0.97382 ; fill
