; generated by Slic3r 1.1.6 on 2015-03-24 at 22:10:41

; perimeters extrusion width = 0.50mm
; infill extrusion width = 0.50mm
; solid infill extrusion width = 0.50mm
; top infill extrusion width = 0.50mm

G21 ; set units to millimeters
M107 ; disable fan
M190 S57 ; wait for bed temperature to be reached
M104 S185 ; set temperature

M109 S185 ; wait for temperature to be reached
G90 ; use absolute coordinates
M83 ; use relative distances for extrusion
G1 F1800.000 E-4.00000 ; retract
G1 Z0.240 F6000.000 ; move to next layer (0)
G1 X74.021 Y76.409 F6000.000 ; move to first skirt point
G1 E4.00000 F1800.000 ; compensate retraction
G1 X75.698 Y75.336 E0.07942 F600.000 ; skirt
G1 X77.500 Y75.000 E0.07318 ; skirt
G1 X122.500 Y75.000 E1.79605 ; skirt
G1 X124.450 Y75.396 E0.07942 ; skirt
G1 X126.091 Y76.521 E0.07942 ; skirt
G1 X127.164 Y78.198 E0.07942 ; skirt
G1 X127.500 Y80.000 E0.07318 ; skirt
G1 X127.500 Y120.000 E1.59649 ; skirt
G1 X127.104 Y121.950 E0.07942 ; skirt
G1 X125.979 Y123.591 E0.07942 ; skirt
G1 X124.302 Y124.664 E0.07942 ; skirt
G1 X122.500 Y125.000 E0.07318 ; skirt
G1 X77.500 Y125.000 E1.79605 ; skirt
G1 X75.550 Y124.604 E0.07942 ; skirt
G1 X73.909 Y123.479 E0.07942 ; skirt
G1 X72.836 Y121.802 E0.07942 ; skirt
G1 X72.500 Y120.000 E0.07318 ; skirt
G1 X72.500 Y80.000 E1.59649 ; skirt
G1 X72.896 Y78.050 E0.07942 ; skirt
G1 X73.979 Y76.470 E0.07643 ; skirt
G1 X74.513 Y76.635 F6000.000 ; move to first skirt point
G1 X76.155 Y75.706 E0.07531 F600.000 ; skirt
G1 X77.500 Y75.500 E0.05431 ; skirt
G1 X122.500 Y75.500 E1.79605 ; skirt
G1 X124.345 Y75.896 E0.07531 ; skirt
G1 X125.865 Y77.013 E0.07531 ; skirt
G1 X126.794 Y78.655 E0.07531 ; skirt
G1 X127.000 Y80.000 E0.05431 ; skirt
G1 X127.000 Y120.000 E1.59649 ; skirt
G1 X126.604 Y121.845 E0.07531 ; skirt
G1 X125.487 Y123.365 E0.07531 ; skirt
G1 X123.845 Y124.294 E0.07531 ; skirt
G1 X122.500 Y124.500 E0.05431 ; skirt
G1 X77.500 Y124.500 E1.79605 ; skirt
G1 X75.655 Y124.104 E0.07531 ; skirt
G1 X74.135 Y122.987 E0.07531 ; skirt
G1 X73.206 Y121.345 E0.07531 ; skirt
G1 X73.000 Y120.000 E0.05431 ; skirt
G1 X73.000 Y80.000 E1.59649 ; skirt
G1 X73.396 Y78.155 E0.07531 ; skirt
G1 X74.468 Y76.695 E0.07231 ; skirt
G1 F1800.000 E-4.00000 ; retract
G1 X122.250 Y119.750 F6000.000 ; move to first perimeter point
G1 E4.00000 F1800.000 ; compensate retraction
G1 X77.750 Y119.750 E1.77609 F900.000 ; perimeter
G1 X77.750 Y80.250 E1.57653 ; perimeter
G1 X122.250 Y80.250 E1.77609 ; perimeter
G1 X122.250 Y119.675 E1.57354 ; perimeter
G1 X121.817 Y119.500 F6000.000 ; move inwards before travel
G1 X121.750 Y119.250 F6000.000 ; move to first perimeter point
G1 X78.250 Y119.250 E1.73618 F900.000 ; perimeter
G1 X78.250 Y80.750 E1.53662 ; perimeter
G1 X121.750 Y80.750 E1.73618 ; perimeter
G1 X121.750 Y119.175 E1.53362 ; perimeter
G1 F1800.000 E-4.00000 ; retract
G1 X84.145 Y108.363 F6000.000 ; move to first perimeter point
G1 E4.00000 F1800.000 ; compensate retraction
G1 X83.555 Y109.029 E0.03548 F900.000 ; perimeter
G1 X82.724 Y109.344 E0.03548 ; perimeter
G1 X81.841 Y109.237 E0.03548 ; perimeter
G1 X81.110 Y108.732 E0.03548 ; perimeter
G1 X80.696 Y107.945 E0.03548 ; perimeter
G1 X80.696 Y107.055 E0.03548 ; perimeter
G1 X81.110 Y106.268 E0.03549 ; perimeter
G1 X81.841 Y105.763 E0.03548 ; perimeter
G1 X82.724 Y105.656 E0.03548 ; perimeter
G1 X83.555 Y105.971 E0.03548 ; perimeter
G1 X84.145 Y106.637 E0.03548 ; perimeter
G1 X84.357 Y107.500 E0.03548 ; perimeter
G1 X84.163 Y108.290 E0.03249 ; perimeter
G1 X84.377 Y108.806 F6000.000 ; move inwards before travel
G1 X84.458 Y108.764 F6000.000 ; move to first perimeter point
G1 X83.848 Y109.453 E0.03672 F900.000 ; perimeter
G1 X82.786 Y109.855 E0.04532 ; perimeter
G1 X81.659 Y109.718 E0.04532 ; perimeter
G1 X80.724 Y109.073 E0.04532 ; perimeter
G1 X80.196 Y108.068 E0.04532 ; perimeter
G1 X80.196 Y106.932 E0.04532 ; perimeter
G1 X80.724 Y105.927 E0.04532 ; perimeter
G1 X81.659 Y105.282 E0.04532 ; perimeter
G1 X82.786 Y105.145 E0.04532 ; perimeter
G1 X83.848 Y105.548 E0.04532 ; perimeter
G1 X84.601 Y106.397 E0.04532 ; perimeter
G1 X84.872 Y107.500 E0.04532 ; perimeter
G1 X84.601 Y108.603 E0.04532 ; perimeter
G1 X84.508 Y108.708 E0.00561 ; perimeter
G1 F1800.000 E-4.00000 ; retract
G1 X82.724 Y94.344 F6000.000 ; move to first perimeter point
G1 E4.00000 F1800.000 ; compensate retraction
G1 X81.841 Y94.237 E0.03548 F900.000 ; perimeter
G1 X81.186 Y93.784 E0.03180 ; perimeter
G1 X81.110 Y93.732 E0.00368 ; perimeter
G1 X80.696 Y92.945 E0.03548 ; perimeter
G1 X80.696 Y92.055 E0.03548 ; perimeter
G1 X81.110 Y91.268 E0.03548 ; perimeter
G1 X81.841 Y90.763 E0.03548 ; perimeter
G1 X82.724 Y90.656 E0.03548 ; perimeter
G1 X83.469 Y90.939 E0.03180 ; perimeter
G1 X83.555 Y90.971 E0.00368 ; perimeter
G1 X84.145 Y91.637 E0.03548 ; perimeter
G1 X84.357 Y92.500 E0.03548 ; perimeter
G1 X84.145 Y93.363 E0.03549 ; perimeter
G1 X83.555 Y94.029 E0.03548 ; perimeter
G1 X82.794 Y94.317 E0.03249 ; perimeter
G1 X82.492 Y94.787 F6000.000 ; move inwards before travel
G1 X82.987 Y94.779 F6000.000 ; move to first perimeter point
G1 X82.786 Y94.855 E0.00860 F900.000 ; perimeter
G1 X81.659 Y94.718 E0.04532 ; perimeter
G1 X80.724 Y94.073 E0.04532 ; perimeter
G1 X80.196 Y93.068 E0.04532 ; perimeter
G1 X80.196 Y91.932 E0.04532 ; perimeter
G1 X80.297 Y91.741 E0.00860 ; perimeter
G1 X80.724 Y90.927 E0.03672 ; perimeter
G1 X81.659 Y90.282 E0.04532 ; perimeter
G1 X82.786 Y90.145 E0.04532 ; perimeter
G1 X83.646 Y90.471 E0.03672 ; perimeter
G1 X83.848 Y90.548 E0.00860 ; perimeter
G1 X84.601 Y91.397 E0.04532 ; perimeter
G1 X84.872 Y92.500 E0.04532 ; perimeter
G1 X84.601 Y93.603 E0.04532 ; perimeter
G1 X83.848 Y94.453 E0.04532 ; perimeter
G1 X83.058 Y94.752 E0.03373 ; perimeter
G1 F1800.000 E-4.00000 ; retract
G1 X83.191 Y104.932 F6000.000 ; move to first fill point
G1 E4.00000 F1800.000 ; compensate retraction
G1 X78.592 Y100.334 E0.25954 F900.000 ; fill
G1 X78.592 Y101.047 E0.02845 ; fill
G1 X82.393 Y104.848 E0.21454 ; fill
G1 X81.758 Y104.925 E0.02556 ; fill
G1 X78.592 Y101.760 E0.17866 ; fill
G1 X78.592 Y102.472 E0.02845 ; fill
G1 X81.261 Y105.140 E0.15060 ; fill
G1 X80.839 Y105.432 E0.02045 ; fill
G1 X78.592 Y103.185 E0.12679 ; fill
G1 X78.592 Y103.898 E0.02845 ; fill
G1 X80.435 Y105.741 E0.10401 ; fill
G1 X80.190 Y106.208 E0.02107 ; fill
G1 X78.592 Y104.611 E0.09016 ; fill
G1 X78.592 Y105.324 E0.02845 ; fill
G1 X79.944 Y106.676 E0.07631 ; fill
G1 X79.854 Y107.298 E0.02510 ; fill
G1 X78.592 Y106.037 E0.07121 ; fill
G1 X78.592 Y106.749 E0.02845 ; fill
G1 X79.854 Y108.011 E0.07121 ; fill
G1 F1800.000 E-4.00000 ; retract
G1 X78.592 Y118.868 F6000.000 ; move to first fill point
G1 E4.00000 F1800.000 ; compensate retraction
G1 X78.632 Y118.908 E0.00226 F900.000 ; fill
G1 X79.345 Y118.908 E0.02845 ; fill
G1 X78.592 Y118.155 E0.04249 ; fill
G1 X78.592 Y117.442 E0.02845 ; fill
G1 X80.058 Y118.908 E0.08273 ; fill
G1 X80.771 Y118.908 E0.02845 ; fill
G1 X78.592 Y116.729 E0.12296 ; fill
G1 X78.592 Y116.016 E0.02845 ; fill
G1 X81.484 Y118.908 E0.16320 ; fill
G1 X82.197 Y118.908 E0.02845 ; fill
G1 X78.592 Y115.303 E0.20343 ; fill
G1 X78.592 Y114.591 E0.02845 ; fill
G1 X82.909 Y118.908 E0.24367 ; fill
G1 X83.622 Y118.908 E0.02845 ; fill
G1 X78.592 Y113.878 E0.28391 ; fill
G1 X78.592 Y113.165 E0.02845 ; fill
G1 X84.335 Y118.908 E0.32414 ; fill
G1 X85.048 Y118.908 E0.02845 ; fill
G1 X78.592 Y112.452 E0.36438 ; fill
G1 X78.592 Y111.739 E0.02845 ; fill
G1 X85.761 Y118.908 E0.40461 ; fill
G1 X86.474 Y118.908 E0.02845 ; fill
G1 X78.592 Y111.026 E0.44485 ; fill
G1 X78.592 Y110.314 E0.02845 ; fill
G1 X87.186 Y118.908 E0.48508 ; fill
G1 X87.899 Y118.908 E0.02845 ; fill
G1 X78.592 Y109.601 E0.52532 ; fill
G1 X78.592 Y108.888 E0.02845 ; fill
G1 X88.612 Y118.908 E0.56555 ; fill
G1 X89.325 Y118.908 E0.02845 ; fill
G1 X78.592 Y108.175 E0.60579 ; fill
G1 X78.592 Y107.462 E0.02845 ; fill
G1 X90.038 Y118.908 E0.64602 ; fill
G1 X90.751 Y118.908 E0.02845 ; fill
G1 X81.941 Y110.097 E0.49728 ; fill
G1 X82.752 Y110.196 E0.03262 ; fill
G1 X91.463 Y118.908 E0.49172 ; fill
G1 X92.176 Y118.908 E0.02845 ; fill
G1 X83.297 Y110.028 E0.50121 ; fill
G1 X83.813 Y109.832 E0.02206 ; fill
G1 X92.889 Y118.908 E0.51227 ; fill
G1 X93.602 Y118.908 E0.02845 ; fill
G1 X84.231 Y109.536 E0.52894 ; fill
G1 X84.566 Y109.158 E0.02015 ; fill
G1 X94.315 Y118.908 E0.55028 ; fill
G1 X95.028 Y118.908 E0.02845 ; fill
G1 X84.901 Y108.781 E0.57161 ; fill
G1 X85.049 Y108.216 E0.02330 ; fill
G1 X95.740 Y118.908 E0.60349 ; fill
G1 X96.453 Y118.908 E0.02845 ; fill
G1 X85.190 Y107.644 E0.63577 ; fill
G1 X85.051 Y106.792 E0.03445 ; fill
G1 X97.166 Y118.908 E0.68385 ; fill
G1 X97.879 Y118.908 E0.02845 ; fill
G1 X78.592 Y99.621 E1.08861 ; fill
G1 X78.592 Y98.908 E0.02845 ; fill
G1 X98.592 Y118.908 E1.12885 ; fill
G1 X99.305 Y118.908 E0.02845 ; fill
G1 X78.592 Y98.195 E1.16908 ; fill
G1 X78.592 Y97.483 E0.02845 ; fill
G1 X100.017 Y118.908 E1.20932 ; fill
G1 X100.730 Y118.908 E0.02845 ; fill
G1 X78.592 Y96.770 E1.24955 ; fill
G1 X78.592 Y96.057 E0.02845 ; fill
G1 X101.443 Y118.908 E1.28979 ; fill
G1 X102.156 Y118.908 E0.02845 ; fill
G1 X78.592 Y95.344 E1.33002 ; fill
G1 X78.592 Y94.631 E0.02845 ; fill
G1 X102.869 Y118.908 E1.37026 ; fill
G1 X103.582 Y118.908 E0.02845 ; fill
G1 X78.592 Y93.918 E1.41050 ; fill
G1 X78.592 Y93.206 E0.02845 ; fill
G1 X104.294 Y118.908 E1.45073 ; fill
G1 F1800.000 E-4.00000 ; retract
G1 X112.136 Y118.908 F6000.000 ; move to first fill point
G1 E4.00000 F1800.000 ; compensate retraction
G1 X85.061 Y91.833 E1.52823 F900.000 ; fill
G1 X85.184 Y92.668 E0.03372 ; fill
G1 X111.423 Y118.908 E1.48105 ; fill
G1 X110.710 Y118.908 E0.02845 ; fill
G1 X85.043 Y93.240 E1.44877 ; fill
G1 X84.886 Y93.797 E0.02307 ; fill
G1 X109.997 Y118.908 E1.41736 ; fill
G1 X109.284 Y118.908 E0.02845 ; fill
G1 X84.551 Y94.175 E1.39603 ; fill
G1 X84.217 Y94.553 E0.02015 ; fill
G1 X108.571 Y118.908 E1.37470 ; fill
G1 X107.859 Y118.908 E0.02845 ; fill
G1 X83.791 Y94.840 E1.35846 ; fill
G1 X83.274 Y95.036 E0.02206 ; fill
G1 X107.146 Y118.908 E1.34740 ; fill
G1 X106.433 Y118.908 E0.02845 ; fill
G1 X82.717 Y95.192 E1.33862 ; fill
G1 X81.906 Y95.093 E0.03262 ; fill
G1 X105.720 Y118.908 E1.34418 ; fill
G1 X105.007 Y118.908 E0.02845 ; fill
G1 X78.592 Y92.493 E1.49097 ; fill
G1 X78.592 Y91.780 E0.02845 ; fill
G1 X79.854 Y93.041 E0.07121 ; fill
G1 X79.854 Y92.329 E0.02845 ; fill
G1 X78.592 Y91.067 E0.07121 ; fill
G1 X78.592 Y90.354 E0.02845 ; fill
G1 X79.934 Y91.696 E0.07572 ; fill
G1 X80.179 Y91.228 E0.02107 ; fill
G1 X78.592 Y89.641 E0.08956 ; fill
G1 X78.592 Y88.929 E0.02845 ; fill
G1 X80.425 Y90.761 E0.10341 ; fill
G1 X80.821 Y90.444 E0.02024 ; fill
G1 X78.592 Y88.216 E0.12577 ; fill
G1 X78.592 Y87.503 E0.02845 ; fill
G1 X81.242 Y90.153 E0.14958 ; fill
G1 X81.730 Y89.928 E0.02144 ; fill
G1 X78.592 Y86.790 E0.17712 ; fill
G1 X78.592 Y86.077 E0.02845 ; fill
G1 X82.366 Y89.851 E0.21300 ; fill
G1 X83.142 Y89.913 E0.03105 ; fill
G1 X78.592 Y85.364 E0.25677 ; fill
G1 X78.592 Y84.652 E0.02845 ; fill
G1 X112.848 Y118.908 E1.93355 ; fill
G1 X113.561 Y118.908 E0.02845 ; fill
G1 X78.592 Y83.939 E1.97379 ; fill
G1 X78.592 Y83.226 E0.02845 ; fill
G1 X114.274 Y118.908 E2.01403 ; fill
G1 X114.987 Y118.908 E0.02845 ; fill
G1 X78.592 Y82.513 E2.05426 ; fill
G1 X78.592 Y81.800 E0.02845 ; fill
G1 X115.700 Y118.908 E2.09450 ; fill
G1 X116.413 Y118.908 E0.02845 ; fill
G1 X78.615 Y81.110 E2.13346 ; fill
G1 X79.310 Y81.092 E0.02776 ; fill
G1 X117.125 Y118.908 E2.13444 ; fill
G1 X117.838 Y118.908 E0.02845 ; fill
G1 X80.023 Y81.092 E2.13444 ; fill
G1 X80.736 Y81.092 E0.02845 ; fill
G1 X118.551 Y118.908 E2.13444 ; fill
G1 X119.264 Y118.908 E0.02845 ; fill
G1 X81.449 Y81.092 E2.13444 ; fill
G1 X82.162 Y81.092 E0.02845 ; fill
G1 X119.977 Y118.908 E2.13444 ; fill
G1 X120.690 Y118.908 E0.02845 ; fill
G1 X82.875 Y81.092 E2.13444 ; fill
G1 X83.587 Y81.092 E0.02845 ; fill
G1 X121.385 Y118.890 E2.13346 ; fill
G1 X121.408 Y118.200 E0.02757 ; fill
G1 X84.300 Y81.092 E2.09450 ; fill
G1 X85.013 Y81.092 E0.02845 ; fill
G1 X121.408 Y117.487 E2.05426 ; fill
G1 X121.408 Y116.774 E0.02845 ; fill
G1 X85.726 Y81.092 E2.01403 ; fill
G1 X86.439 Y81.092 E0.02845 ; fill
G1 X121.408 Y116.061 E1.97379 ; fill
G1 X121.408 Y115.348 E0.02845 ; fill
G1 X87.152 Y81.092 E1.93355 ; fill
G1 X87.864 Y81.092 E0.02845 ; fill
G1 X121.408 Y114.636 E1.89332 ; fill
G1 X121.408 Y113.923 E0.02845 ; fill
G1 X88.577 Y81.092 E1.85308 ; fill
G1 X89.290 Y81.092 E0.02845 ; fill
G1 X121.408 Y113.210 E1.81285 ; fill
G1 X121.408 Y112.497 E0.02845 ; fill
G1 X90.003 Y81.092 E1.77261 ; fill
G1 X90.716 Y81.092 E0.02845 ; fill
G1 X121.408 Y111.784 E1.73238 ; fill
G1 X121.408 Y111.071 E0.02845 ; fill
G1 X91.429 Y81.092 E1.69214 ; fill
G1 X92.141 Y81.092 E0.02845 ; fill
G1 X121.408 Y110.359 E1.65191 ; fill
G1 X121.408 Y109.646 E0.02845 ; fill
G1 X92.854 Y81.092 E1.61167 ; fill
G1 X93.567 Y81.092 E0.02845 ; fill
G1 X121.408 Y108.933 E1.57144 ; fill
G1 X121.408 Y108.220 E0.02845 ; fill
G1 X94.280 Y81.092 E1.53120 ; fill
G1 X94.993 Y81.092 E0.02845 ; fill
G1 X121.408 Y107.507 E1.49097 ; fill
G1 X121.408 Y106.794 E0.02845 ; fill
G1 X95.706 Y81.092 E1.45073 ; fill
G1 X96.418 Y81.092 E0.02845 ; fill
G1 X121.408 Y106.082 E1.41050 ; fill
G1 X121.408 Y105.369 E0.02845 ; fill
G1 X97.131 Y81.092 E1.37026 ; fill
G1 X97.844 Y81.092 E0.02845 ; fill
G1 X121.408 Y104.656 E1.33002 ; fill
G1 X121.408 Y103.943 E0.02845 ; fill
G1 X98.557 Y81.092 E1.28979 ; fill
G1 X99.270 Y81.092 E0.02845 ; fill
G1 X121.408 Y103.230 E1.24955 ; fill
G1 X121.408 Y102.517 E0.02845 ; fill
G1 X99.983 Y81.092 E1.20932 ; fill
G1 X100.695 Y81.092 E0.02845 ; fill
G1 X121.408 Y101.805 E1.16908 ; fill
G1 X121.408 Y101.092 E0.02845 ; fill
G1 X101.408 Y81.092 E1.12885 ; fill
G1 X102.121 Y81.092 E0.02845 ; fill
G1 X121.408 Y100.379 E1.08861 ; fill
G1 X121.408 Y99.666 E0.02845 ; fill
G1 X102.834 Y81.092 E1.04838 ; fill
G1 X103.547 Y81.092 E0.02845 ; fill
G1 X121.408 Y98.953 E1.00814 ; fill
G1 X121.408 Y98.240 E0.02845 ; fill
G1 X104.260 Y81.092 E0.96791 ; fill
G1 X104.972 Y81.092 E0.02845 ; fill
G1 X121.408 Y97.528 E0.92767 ; fill
G1 X121.408 Y96.815 E0.02845 ; fill
G1 X105.685 Y81.092 E0.88744 ; fill
G1 X106.398 Y81.092 E0.02845 ; fill
G1 X121.408 Y96.102 E0.84720 ; fill
G1 X121.408 Y95.389 E0.02845 ; fill
G1 X107.111 Y81.092 E0.80696 ; fill
G1 X107.824 Y81.092 E0.02845 ; fill
G1 X121.408 Y94.676 E0.76673 ; fill
G1 X121.408 Y93.963 E0.02845 ; fill
G1 X108.537 Y81.092 E0.72649 ; fill
G1 X109.249 Y81.092 E0.02845 ; fill
G1 X121.408 Y93.251 E0.68626 ; fill
G1 X121.408 Y92.538 E0.02845 ; fill
G1 X109.962 Y81.092 E0.64602 ; fill
G1 X110.675 Y81.092 E0.02845 ; fill
G1 X121.408 Y91.825 E0.60579 ; fill
G1 X121.408 Y91.112 E0.02845 ; fill
G1 X111.388 Y81.092 E0.56555 ; fill
G1 X112.101 Y81.092 E0.02845 ; fill
G1 X121.408 Y90.399 E0.52532 ; fill
G1 X121.408 Y89.686 E0.02845 ; fill
G1 X112.814 Y81.092 E0.48508 ; fill
G1 X113.526 Y81.092 E0.02845 ; fill
G1 X121.408 Y88.974 E0.44485 ; fill
G1 X121.408 Y88.261 E0.02845 ; fill
G1 X114.239 Y81.092 E0.40461 ; fill
G1 X114.952 Y81.092 E0.02845 ; fill
G1 X121.408 Y87.548 E0.36438 ; fill
G1 X121.408 Y86.835 E0.02845 ; fill
G1 X115.665 Y81.092 E0.32414 ; fill
G1 X116.378 Y81.092 E0.02845 ; fill
G1 X121.408 Y86.122 E0.28391 ; fill
G1 X121.408 Y85.409 E0.02845 ; fill
G1 X117.091 Y81.092 E0.24367 ; fill
G1 X117.803 Y81.092 E0.02845 ; fill
G1 X121.408 Y84.697 E0.20343 ; fill
G1 X121.408 Y83.984 E0.02845 ; fill
G1 X118.516 Y81.092 E0.16320 ; fill
G1 X119.229 Y81.092 E0.02845 ; fill
G1 X121.408 Y83.271 E0.12296 ; fill
G1 X121.408 Y82.558 E0.02845 ; fill
G1 X119.942 Y81.092 E0.08273 ; fill
G1 X120.655 Y81.092 E0.02845 ; fill
G1 X121.408 Y81.845 E0.04249 ; fill
G1 X121.408 Y81.132 E0.02845 ; fill
G1 X121.368 Y81.092 E0.00226 ; fill
G1 F1800.000 E-4.00000 ; retract
G1 Z0.480 F6000.000 ; move to next layer (1)
G1 X77.750 Y80.250 F6000.000 ; move to first perimeter point
G1 E4.00000 F1800.000 ; compensate retraction
G1 X122.250 Y80.250 E1.77609 F1800.000 ; perimeter
G1 X122.250 Y119.750 E1.57653 ; perimeter
G1 X77.750 Y119.750 E1.77609 ; perimeter
