; generated by Slic3r 1.1.6 on 2015-05-11 at 00:40:56

; perimeters extrusion width = 0.50mm
; infill extrusion width = 0.50mm
; solid infill extrusion width = 0.50mm
; top infill extrusion width = 0.50mm

G21 ; set units to millimeters
M107 ; disable fan
M190 S57 ; wait for bed temperature to be reached
M104 S185 ; set temperature

M109 S185 ; wait for temperature to be reached
G90 ; use absolute coordinates
M83 ; use relative distances for extrusion
G1 F1800.000 E-4.00000 ; retract
G1 Z0.240 F6000.000 ; move to next layer (0)
G1 X76.414 Y82.721 F6000.000 ; move to first skirt point
G1 E4.00000 F1800.000 ; compensate retraction
G1 X77.532 Y81.927 E0.05472 F600.000 ; skirt
G1 X77.872 Y81.746 E0.01539 ; skirt
G1 X78.783 Y81.368 E0.03937 ; skirt
G1 X80.120 Y81.063 E0.05471 ; skirt
G1 X81.000 Y81.000 E0.03522 ; skirt
G1 X119.490 Y81.024 E1.53622 ; skirt
G1 X120.842 Y81.254 E0.05471 ; skirt
G1 X121.211 Y81.366 E0.01543 ; skirt
G1 X122.122 Y81.743 E0.03934 ; skirt
G1 X123.283 Y82.472 E0.05472 ; skirt
G1 X124.279 Y83.414 E0.05471 ; skirt
G1 X125.073 Y84.532 E0.05471 ; skirt
G1 X125.255 Y84.872 E0.01541 ; skirt
G1 X125.632 Y85.783 E0.03936 ; skirt
G1 X125.937 Y87.120 E0.05472 ; skirt
G1 X126.000 Y88.000 E0.03522 ; skirt
G1 X125.976 Y90.490 E0.09939 ; skirt
G1 X125.938 Y90.875 E0.01542 ; skirt
G1 X125.746 Y91.842 E0.03935 ; skirt
G1 X125.634 Y92.210 E0.01538 ; skirt
G1 X125.257 Y93.122 E0.03938 ; skirt
G1 X125.052 Y93.505 E0.01734 ; skirt
G1 X112.528 Y116.283 E1.03747 ; skirt
G1 X112.282 Y116.582 E0.01545 ; skirt
G1 X111.586 Y117.279 E0.03932 ; skirt
G1 X110.468 Y118.073 E0.05472 ; skirt
G1 X110.127 Y118.255 E0.01542 ; skirt
G1 X109.217 Y118.632 E0.03935 ; skirt
G1 X107.880 Y118.937 E0.05471 ; skirt
G1 X107.000 Y119.000 E0.03522 ; skirt
G1 X90.510 Y118.976 E0.65816 ; skirt
G1 X89.158 Y118.746 E0.05471 ; skirt
G1 X88.790 Y118.634 E0.01539 ; skirt
G1 X87.878 Y118.257 E0.03938 ; skirt
G1 X86.717 Y117.528 E0.05472 ; skirt
G1 X86.418 Y117.282 E0.01545 ; skirt
G1 X85.721 Y116.586 E0.03931 ; skirt
G1 X84.927 Y115.468 E0.05472 ; skirt
G1 X84.600 Y114.834 E0.02846 ; skirt
G1 X74.368 Y92.217 E0.99081 ; skirt
G1 X74.063 Y90.880 E0.05472 ; skirt
G1 X74.000 Y90.000 E0.03522 ; skirt
G1 X74.024 Y87.510 E0.09939 ; skirt
G1 X74.254 Y86.158 E0.05472 ; skirt
G1 X74.366 Y85.789 E0.01540 ; skirt
G1 X74.743 Y84.878 E0.03936 ; skirt
G1 X75.472 Y83.717 E0.05471 ; skirt
G1 X75.718 Y83.418 E0.01546 ; skirt
G1 X76.361 Y82.774 E0.03632 ; skirt
G1 X76.731 Y83.107 F6000.000 ; move to first skirt point
G1 X77.768 Y82.368 E0.05081 F600.000 ; skirt
G1 X78.108 Y82.187 E0.01539 ; skirt
G1 X78.928 Y81.846 E0.03546 ; skirt
G1 X80.169 Y81.560 E0.05080 ; skirt
G1 X81.000 Y81.500 E0.03327 ; skirt
G1 X119.441 Y81.522 E1.53427 ; skirt
G1 X120.696 Y81.732 E0.05080 ; skirt
G1 X121.066 Y81.844 E0.01542 ; skirt
G1 X121.887 Y82.184 E0.03543 ; skirt
G1 X122.966 Y82.859 E0.05081 ; skirt
G1 X123.893 Y83.731 E0.05080 ; skirt
G1 X124.632 Y84.768 E0.05080 ; skirt
G1 X124.814 Y85.108 E0.01541 ; skirt
G1 X125.154 Y85.928 E0.03545 ; skirt
G1 X125.440 Y87.169 E0.05081 ; skirt
G1 X125.500 Y88.000 E0.03326 ; skirt
G1 X125.478 Y90.441 E0.09743 ; skirt
G1 X125.440 Y90.825 E0.01542 ; skirt
G1 X125.268 Y91.697 E0.03544 ; skirt
G1 X125.156 Y92.065 E0.01538 ; skirt
G1 X124.816 Y92.887 E0.03547 ; skirt
G1 X124.613 Y93.266 E0.01717 ; skirt
G1 X112.141 Y115.966 E1.03375 ; skirt
G1 X111.896 Y116.265 E0.01544 ; skirt
G1 X111.269 Y116.893 E0.03541 ; skirt
G1 X110.232 Y117.632 E0.05081 ; skirt
G1 X109.892 Y117.814 E0.01542 ; skirt
G1 X109.072 Y118.154 E0.03544 ; skirt
G1 X107.831 Y118.440 E0.05080 ; skirt
G1 X107.000 Y118.500 E0.03327 ; skirt
G1 X90.559 Y118.478 E0.65620 ; skirt
G1 X89.304 Y118.268 E0.05080 ; skirt
G1 X88.935 Y118.156 E0.01539 ; skirt
G1 X88.113 Y117.816 E0.03547 ; skirt
G1 X87.034 Y117.141 E0.05081 ; skirt
G1 X86.735 Y116.896 E0.01544 ; skirt
G1 X86.107 Y116.269 E0.03541 ; skirt
G1 X85.368 Y115.232 E0.05081 ; skirt
G1 X85.056 Y114.627 E0.02718 ; skirt
G1 X74.846 Y92.072 E0.98818 ; skirt
G1 X74.560 Y90.831 E0.05081 ; skirt
G1 X74.500 Y90.000 E0.03327 ; skirt
G1 X74.522 Y87.559 E0.09743 ; skirt
G1 X74.732 Y86.303 E0.05081 ; skirt
G1 X74.844 Y85.934 E0.01540 ; skirt
G1 X75.184 Y85.113 E0.03545 ; skirt
G1 X75.858 Y84.034 E0.05080 ; skirt
G1 X76.104 Y83.735 E0.01545 ; skirt
G1 X76.678 Y83.160 E0.03241 ; skirt
G1 F1800.000 E-4.00000 ; retract
G1 X108.237 Y113.237 F6000.000 ; move to first perimeter point
G1 E4.00000 F1800.000 ; compensate retraction
G1 X107.972 Y113.454 E0.01368 F900.000 ; perimeter
G1 X107.669 Y113.616 E0.01368 ; perimeter
G1 X107.341 Y113.715 E0.01368 ; perimeter
G1 X106.988 Y113.750 E0.01417 ; perimeter
G1 X91.012 Y113.750 E0.63762 ; perimeter
G1 X90.659 Y113.715 E0.01418 ; perimeter
G1 X90.331 Y113.616 E0.01368 ; perimeter
G1 X90.028 Y113.454 E0.01368 ; perimeter
G1 X89.763 Y113.237 E0.01368 ; perimeter
G1 X89.546 Y112.972 E0.01368 ; perimeter
G1 X89.384 Y112.669 E0.01368 ; perimeter
G1 X89.285 Y112.341 E0.01368 ; perimeter
G1 X89.250 Y111.988 E0.01417 ; perimeter
G1 X89.250 Y93.988 E0.71842 ; perimeter
G1 X89.208 Y93.561 E0.01712 ; perimeter
G1 X89.080 Y93.139 E0.01761 ; perimeter
G1 X88.872 Y92.749 E0.01762 ; perimeter
G1 X88.592 Y92.408 E0.01761 ; perimeter
G1 X88.251 Y92.128 E0.01762 ; perimeter
G1 X87.862 Y91.920 E0.01761 ; perimeter
G1 X87.439 Y91.792 E0.01762 ; perimeter
G1 X87.012 Y91.750 E0.01712 ; perimeter
G1 X81.012 Y91.750 E0.23947 ; perimeter
G1 X80.659 Y91.715 E0.01418 ; perimeter
G1 X80.331 Y91.616 E0.01368 ; perimeter
G1 X80.028 Y91.454 E0.01368 ; perimeter
G1 X79.763 Y91.237 E0.01368 ; perimeter
G1 X79.546 Y90.972 E0.01368 ; perimeter
G1 X79.384 Y90.669 E0.01368 ; perimeter
G1 X79.285 Y90.341 E0.01368 ; perimeter
G1 X79.250 Y89.988 E0.01417 ; perimeter
G1 X79.250 Y88.012 E0.07884 ; perimeter
G1 X79.285 Y87.659 E0.01418 ; perimeter
G1 X79.384 Y87.331 E0.01368 ; perimeter
G1 X79.546 Y87.028 E0.01368 ; perimeter
G1 X79.763 Y86.763 E0.01368 ; perimeter
G1 X80.028 Y86.546 E0.01368 ; perimeter
G1 X80.331 Y86.384 E0.01368 ; perimeter
G1 X80.659 Y86.285 E0.01368 ; perimeter
G1 X81.012 Y86.250 E0.01417 ; perimeter
G1 X118.988 Y86.250 E1.51568 ; perimeter
G1 X119.341 Y86.285 E0.01418 ; perimeter
G1 X119.669 Y86.384 E0.01368 ; perimeter
G1 X119.972 Y86.546 E0.01368 ; perimeter
G1 X120.237 Y86.763 E0.01368 ; perimeter
G1 X120.454 Y87.028 E0.01368 ; perimeter
G1 X120.616 Y87.331 E0.01368 ; perimeter
G1 X120.715 Y87.659 E0.01368 ; perimeter
G1 X120.750 Y88.012 E0.01418 ; perimeter
G1 X120.750 Y89.988 E0.07884 ; perimeter
G1 X120.715 Y90.341 E0.01418 ; perimeter
G1 X120.616 Y90.669 E0.01368 ; perimeter
G1 X120.454 Y90.972 E0.01368 ; perimeter
G1 X120.237 Y91.237 E0.01368 ; perimeter
G1 X119.972 Y91.454 E0.01368 ; perimeter
G1 X119.669 Y91.616 E0.01368 ; perimeter
G1 X119.341 Y91.715 E0.01368 ; perimeter
G1 X118.988 Y91.750 E0.01417 ; perimeter
G1 X110.988 Y91.750 E0.31930 ; perimeter
G1 X110.561 Y91.792 E0.01712 ; perimeter
G1 X110.139 Y91.920 E0.01761 ; perimeter
G1 X109.749 Y92.128 E0.01762 ; perimeter
G1 X109.388 Y92.432 E0.01884 ; perimeter
G1 X109.128 Y92.749 E0.01636 ; perimeter
G1 X108.920 Y93.138 E0.01761 ; perimeter
G1 X108.792 Y93.561 E0.01762 ; perimeter
G1 X108.750 Y93.988 E0.01712 ; perimeter
G1 X108.750 Y111.988 E0.71842 ; perimeter
G1 X108.715 Y112.341 E0.01418 ; perimeter
G1 X108.616 Y112.669 E0.01368 ; perimeter
G1 X108.454 Y112.972 E0.01368 ; perimeter
G1 X108.284 Y113.179 E0.01069 ; perimeter
G1 X107.908 Y113.137 F6000.000 ; move inwards before travel
G1 X107.881 Y112.881 F6000.000 ; move to first perimeter point
G1 X107.692 Y113.036 E0.00975 F900.000 ; perimeter
G1 X107.477 Y113.151 E0.00975 ; perimeter
G1 X107.243 Y113.222 E0.00975 ; perimeter
G1 X106.963 Y113.250 E0.01123 ; perimeter
G1 X91.037 Y113.250 E0.63565 ; perimeter
G1 X90.757 Y113.222 E0.01123 ; perimeter
G1 X90.523 Y113.151 E0.00975 ; perimeter
G1 X90.308 Y113.036 E0.00975 ; perimeter
G1 X90.119 Y112.881 E0.00975 ; perimeter
G1 X89.964 Y112.692 E0.00975 ; perimeter
G1 X89.849 Y112.477 E0.00975 ; perimeter
G1 X89.778 Y112.243 E0.00975 ; perimeter
G1 X89.750 Y111.963 E0.01123 ; perimeter
G1 X89.750 Y93.963 E0.71841 ; perimeter
G1 X89.701 Y93.463 E0.02008 ; perimeter
G1 X89.544 Y92.946 E0.02154 ; perimeter
G1 X89.290 Y92.470 E0.02155 ; perimeter
G1 X88.947 Y92.053 E0.02153 ; perimeter
G1 X88.530 Y91.710 E0.02155 ; perimeter
G1 X88.054 Y91.456 E0.02154 ; perimeter
G1 X87.537 Y91.299 E0.02156 ; perimeter
G1 X87.037 Y91.250 E0.02006 ; perimeter
G1 X81.037 Y91.250 E0.23947 ; perimeter
G1 X80.757 Y91.222 E0.01123 ; perimeter
G1 X80.523 Y91.151 E0.00975 ; perimeter
G1 X80.308 Y91.036 E0.00975 ; perimeter
G1 X80.119 Y90.881 E0.00975 ; perimeter
G1 X79.964 Y90.692 E0.00975 ; perimeter
G1 X79.849 Y90.477 E0.00975 ; perimeter
G1 X79.778 Y90.243 E0.00975 ; perimeter
G1 X79.750 Y89.963 E0.01123 ; perimeter
G1 X79.750 Y88.037 E0.07688 ; perimeter
G1 X79.778 Y87.757 E0.01123 ; perimeter
G1 X79.849 Y87.523 E0.00975 ; perimeter
G1 X79.964 Y87.308 E0.00975 ; perimeter
G1 X80.119 Y87.119 E0.00975 ; perimeter
G1 X80.308 Y86.964 E0.00975 ; perimeter
G1 X80.523 Y86.849 E0.00975 ; perimeter
G1 X80.757 Y86.778 E0.00975 ; perimeter
G1 X81.037 Y86.750 E0.01123 ; perimeter
G1 X118.963 Y86.750 E1.51372 ; perimeter
G1 X119.243 Y86.778 E0.01123 ; perimeter
G1 X119.477 Y86.849 E0.00975 ; perimeter
G1 X119.692 Y86.964 E0.00975 ; perimeter
G1 X119.881 Y87.119 E0.00975 ; perimeter
G1 X120.036 Y87.308 E0.00975 ; perimeter
G1 X120.151 Y87.523 E0.00975 ; perimeter
G1 X120.222 Y87.757 E0.00975 ; perimeter
G1 X120.250 Y88.037 E0.01123 ; perimeter
G1 X120.250 Y89.963 E0.07688 ; perimeter
G1 X120.222 Y90.243 E0.01123 ; perimeter
G1 X120.151 Y90.477 E0.00975 ; perimeter
G1 X120.036 Y90.692 E0.00975 ; perimeter
G1 X119.881 Y90.881 E0.00975 ; perimeter
G1 X119.692 Y91.036 E0.00975 ; perimeter
G1 X119.477 Y91.151 E0.00975 ; perimeter
G1 X119.243 Y91.222 E0.00975 ; perimeter
G1 X118.963 Y91.250 E0.01123 ; perimeter
G1 X110.963 Y91.250 E0.31929 ; perimeter
G1 X110.463 Y91.299 E0.02007 ; perimeter
G1 X109.946 Y91.456 E0.02154 ; perimeter
G1 X109.470 Y91.710 E0.02155 ; perimeter
G1 X109.053 Y92.053 E0.02154 ; perimeter
G1 X108.710 Y92.470 E0.02155 ; perimeter
G1 X108.456 Y92.946 E0.02154 ; perimeter
G1 X108.299 Y93.463 E0.02156 ; perimeter
G1 X108.250 Y93.963 E0.02006 ; perimeter
G1 X108.250 Y111.963 E0.71842 ; perimeter
G1 X108.222 Y112.243 E0.01123 ; perimeter
G1 X108.151 Y112.477 E0.00975 ; perimeter
G1 X108.036 Y112.692 E0.00975 ; perimeter
G1 X107.929 Y112.823 E0.00676 ; perimeter
G1 F1800.000 E-4.00000 ; retract
G1 X90.245 Y112.493 F6000.000 ; move to first fill point
G1 E4.00000 F1800.000 ; compensate retraction
G1 X90.507 Y112.755 E0.01478 F900.000 ; fill
G1 X91.368 Y112.908 E0.03488 ; fill
G1 X90.092 Y111.632 E0.07198 ; fill
G1 X90.092 Y110.925 E0.02825 ; fill
G1 X92.075 Y112.908 E0.11193 ; fill
G1 X92.783 Y112.908 E0.02825 ; fill
G1 X90.092 Y110.217 E0.15187 ; fill
G1 X90.092 Y109.509 E0.02825 ; fill
G1 X93.491 Y112.908 E0.19182 ; fill
G1 X94.199 Y112.908 E0.02825 ; fill
G1 X90.092 Y108.801 E0.23177 ; fill
G1 X90.092 Y108.094 E0.02825 ; fill
G1 X94.906 Y112.908 E0.27172 ; fill
G1 X95.614 Y112.908 E0.02825 ; fill
G1 X90.092 Y107.386 E0.31166 ; fill
G1 X90.092 Y106.678 E0.02825 ; fill
G1 X96.322 Y112.908 E0.35161 ; fill
G1 X97.030 Y112.908 E0.02825 ; fill
G1 X90.092 Y105.970 E0.39156 ; fill
G1 X90.092 Y105.263 E0.02825 ; fill
G1 X97.737 Y112.908 E0.43151 ; fill
G1 X98.445 Y112.908 E0.02825 ; fill
G1 X90.092 Y104.555 E0.47145 ; fill
G1 X90.092 Y103.847 E0.02825 ; fill
G1 X99.153 Y112.908 E0.51140 ; fill
G1 X99.860 Y112.908 E0.02825 ; fill
G1 X90.092 Y103.140 E0.55135 ; fill
G1 X90.092 Y102.432 E0.02825 ; fill
G1 X100.568 Y112.908 E0.59129 ; fill
G1 X101.276 Y112.908 E0.02825 ; fill
G1 X90.092 Y101.724 E0.63124 ; fill
G1 X90.092 Y101.016 E0.02825 ; fill
G1 X101.984 Y112.908 E0.67119 ; fill
G1 X102.691 Y112.908 E0.02825 ; fill
G1 X90.092 Y100.309 E0.71114 ; fill
G1 X90.092 Y99.601 E0.02825 ; fill
G1 X103.399 Y112.908 E0.75108 ; fill
G1 X104.107 Y112.908 E0.02825 ; fill
G1 X90.092 Y98.893 E0.79103 ; fill
G1 X90.092 Y98.185 E0.02825 ; fill
G1 X104.815 Y112.908 E0.83098 ; fill
G1 X105.522 Y112.908 E0.02825 ; fill
G1 X90.092 Y97.478 E0.87092 ; fill
G1 X90.092 Y96.770 E0.02825 ; fill
G1 X106.230 Y112.908 E0.91087 ; fill
G1 X106.938 Y112.908 E0.02825 ; fill
G1 X90.092 Y96.062 E0.95082 ; fill
G1 X90.092 Y95.355 E0.02825 ; fill
G1 X107.493 Y112.755 E0.98214 ; fill
G1 X107.819 Y112.373 E0.02004 ; fill
G1 X90.092 Y94.647 E1.00055 ; fill
G1 X90.092 Y93.938 E0.02828 ; fill
G1 X107.908 Y111.754 E1.00560 ; fill
G1 X107.908 Y111.046 E0.02825 ; fill
G1 X89.943 Y93.082 E1.01399 ; fill
G1 F1800.000 E-4.00000 ; retract
G1 X80.575 Y90.791 F6000.000 ; move to first fill point
G1 E4.00000 F1800.000 ; compensate retraction
G1 X80.209 Y90.425 E0.02062 F900.000 ; fill
G1 X80.092 Y89.601 E0.03324 ; fill
G1 X81.399 Y90.908 E0.07375 ; fill
G1 X82.107 Y90.908 E0.02825 ; fill
G1 X80.092 Y88.893 E0.11370 ; fill
G1 X80.092 Y88.185 E0.02825 ; fill
G1 X82.815 Y90.908 E0.15365 ; fill
G1 X83.522 Y90.908 E0.02825 ; fill
G1 X80.202 Y87.588 E0.18739 ; fill
G1 X80.547 Y87.224 E0.01998 ; fill
G1 X84.230 Y90.908 E0.20790 ; fill
G1 X84.938 Y90.908 E0.02825 ; fill
G1 X81.123 Y87.092 E0.21534 ; fill
G1 X81.830 Y87.092 E0.02825 ; fill
G1 X85.645 Y90.908 E0.21534 ; fill
G1 X86.353 Y90.908 E0.02825 ; fill
G1 X82.538 Y87.092 E0.21534 ; fill
G1 X83.246 Y87.092 E0.02825 ; fill
G1 X87.062 Y90.908 E0.21538 ; fill
G1 X87.918 Y91.057 E0.03469 ; fill
G1 X83.954 Y87.092 E0.22377 ; fill
G1 X84.661 Y87.092 E0.02825 ; fill
G1 X107.908 Y110.339 E1.31211 ; fill
G1 X107.908 Y109.631 E0.02825 ; fill
G1 X85.369 Y87.092 E1.27217 ; fill
G1 X86.077 Y87.092 E0.02825 ; fill
G1 X107.908 Y108.923 E1.23222 ; fill
G1 X107.908 Y108.215 E0.02825 ; fill
G1 X86.785 Y87.092 E1.19227 ; fill
G1 X87.492 Y87.092 E0.02825 ; fill
G1 X107.908 Y107.508 E1.15233 ; fill
G1 X107.908 Y106.800 E0.02825 ; fill
G1 X88.200 Y87.092 E1.11238 ; fill
G1 X88.908 Y87.092 E0.02825 ; fill
G1 X107.908 Y106.092 E1.07243 ; fill
G1 X107.908 Y105.385 E0.02825 ; fill
G1 X89.615 Y87.092 E1.03248 ; fill
G1 X90.323 Y87.092 E0.02825 ; fill
G1 X107.908 Y104.677 E0.99254 ; fill
G1 X107.908 Y103.969 E0.02825 ; fill
G1 X91.031 Y87.092 E0.95259 ; fill
G1 X91.739 Y87.092 E0.02825 ; fill
G1 X107.908 Y103.261 E0.91264 ; fill
G1 X107.908 Y102.554 E0.02825 ; fill
G1 X92.446 Y87.092 E0.87270 ; fill
G1 X93.154 Y87.092 E0.02825 ; fill
G1 X107.908 Y101.846 E0.83275 ; fill
G1 X107.908 Y101.138 E0.02825 ; fill
G1 X93.862 Y87.092 E0.79280 ; fill
G1 X94.570 Y87.092 E0.02825 ; fill
G1 X107.908 Y100.430 E0.75285 ; fill
G1 X107.908 Y99.723 E0.02825 ; fill
G1 X95.277 Y87.092 E0.71291 ; fill
G1 X95.985 Y87.092 E0.02825 ; fill
G1 X107.908 Y99.015 E0.67296 ; fill
G1 X107.908 Y98.307 E0.02825 ; fill
G1 X96.693 Y87.092 E0.63301 ; fill
G1 X97.400 Y87.092 E0.02825 ; fill
G1 X107.908 Y97.600 E0.59306 ; fill
G1 X107.908 Y96.892 E0.02825 ; fill
G1 X98.108 Y87.092 E0.55312 ; fill
G1 X98.816 Y87.092 E0.02825 ; fill
G1 X107.908 Y96.184 E0.51317 ; fill
G1 X107.908 Y95.476 E0.02825 ; fill
G1 X99.524 Y87.092 E0.47322 ; fill
G1 X100.231 Y87.092 E0.02825 ; fill
G1 X107.908 Y94.769 E0.43328 ; fill
G1 X107.908 Y94.061 E0.02825 ; fill
G1 X100.939 Y87.092 E0.39333 ; fill
G1 X101.647 Y87.092 E0.02825 ; fill
G1 X107.961 Y93.406 E0.35638 ; fill
G1 X108.124 Y92.862 E0.02269 ; fill
G1 X102.355 Y87.092 E0.32564 ; fill
G1 X103.062 Y87.092 E0.02825 ; fill
G1 X108.363 Y92.393 E0.29921 ; fill
G1 X108.664 Y91.987 E0.02019 ; fill
G1 X103.770 Y87.092 E0.27625 ; fill
G1 X104.478 Y87.092 E0.02825 ; fill
G1 X109.021 Y91.636 E0.25645 ; fill
G1 X109.434 Y91.341 E0.02025 ; fill
G1 X105.185 Y87.092 E0.23982 ; fill
G1 X105.893 Y87.092 E0.02825 ; fill
G1 X109.910 Y91.109 E0.22672 ; fill
G1 X110.464 Y90.955 E0.02294 ; fill
G1 X106.601 Y87.092 E0.21802 ; fill
G1 X107.309 Y87.092 E0.02825 ; fill
G1 X111.124 Y90.908 E0.21534 ; fill
G1 X111.831 Y90.908 E0.02825 ; fill
G1 X108.016 Y87.092 E0.21534 ; fill
G1 X108.724 Y87.092 E0.02825 ; fill
G1 X112.539 Y90.908 E0.21534 ; fill
