; generated by Slic3r 1.2.5 on 2015-02-06 at 23:06:14

; external perimeters extrusion width = 0.50mm
; perimeters extrusion width = 0.50mm
; infill extrusion width = 0.50mm
; solid infill extrusion width = 0.50mm
; top infill extrusion width = 0.50mm

M107 ; disable fan
M190 S57 ; set bed temperature
M104 S185 ; set temperature

M109 S185 ; wait for temperature to be reached
G21 ; set units to millimeters
G90 ; use absolute coordinates
M83 ; use relative distances for extrusion
G1 E-4.00000 F1800.00000 ; retract
G1 Z0.240 F6000.000 ; move to next layer (0)
G1 X46.730 Y50.093 F6000.000 ; move to first skirt point
G1 E4.00000 F1800.00000 ; unretract
G1 X48.374 Y49.009 E0.07050 F600.000 ; skirt
G1 X50.193 Y48.658 E0.06631 ; skirt
G1 X81.264 Y48.658 E1.11237 ; skirt
G1 X82.519 Y48.822 E0.04530 ; skirt
G1 X156.526 Y68.439 E2.74103 F600.000 ; skirt
G1 X158.289 Y69.316 E0.07050 ; skirt
G1 X159.564 Y70.816 E0.07050 ; skirt
G1 X160.168 Y73.172 E0.08708 ; skirt
G1 X160.168 Y85.832 E0.45322 ; skirt
G1 X159.807 Y87.678 E0.06737 ; skirt
G1 X144.807 Y124.519 E1.42406 ; skirt
G1 X143.713 Y126.156 E0.07050 ; skirt
G1 X142.116 Y127.209 E0.06846 ; skirt
G1 X83.663 Y150.981 E2.25912 ; skirt
G1 X81.818 Y151.342 E0.06730 ; skirt
G1 X50.747 Y151.342 E1.11237 ; skirt
G1 X48.818 Y150.946 E0.07050 ; skirt
G1 X47.284 Y149.907 E0.06631 ; skirt
G1 X41.820 Y144.443 E0.27667 ; skirt
G1 X40.736 Y142.799 E0.07050 ; skirt
G1 X40.386 Y141.033 E0.06443 ; skirt
G1 X39.832 Y90.144 E1.82198 ; skirt
G1 X39.832 Y59.020 E1.11428 ; skirt
G1 X40.227 Y57.091 E0.07050 ; skirt
G1 X41.266 Y55.557 E0.06631 ; skirt
G1 X46.677 Y50.146 E0.27398 ; skirt
G1 X46.994 Y50.463 F6000.000 ; move to first skirt point
G1 X47.047 Y50.410 E0.00269 F600.000 ; skirt
G1 X48.624 Y49.393 E0.06716 ; skirt
G1 X50.193 Y49.107 E0.05711 ; skirt
G1 X81.264 Y49.107 E1.11237 ; skirt
G1 X82.404 Y49.255 E0.04115 ; skirt
G1 X156.411 Y68.872 E2.74103 F600.000 ; skirt
G1 X158.082 Y69.725 E0.06716 ; skirt
G1 X159.254 Y71.190 E0.06716 ; skirt
G1 X159.720 Y73.172 E0.07292 ; skirt
G1 X159.720 Y85.832 E0.45322 ; skirt
G1 X159.392 Y87.509 E0.06120 ; skirt
G1 X144.392 Y124.350 E1.42406 ; skirt
G1 X143.334 Y125.899 E0.06716 ; skirt
G1 X141.947 Y126.793 E0.05906 ; skirt
G1 X83.494 Y150.565 E2.25912 ; skirt
G1 X81.818 Y150.893 E0.06113 ; skirt
G1 X50.747 Y150.893 E1.11237 ; skirt
G1 X48.913 Y150.498 E0.06716 ; skirt
G1 X47.601 Y149.590 E0.05711 ; skirt
G1 X42.137 Y144.126 E0.27667 ; skirt
G1 X41.120 Y142.549 E0.06716 ; skirt
G1 X40.834 Y141.029 E0.05540 ; skirt
G1 X40.280 Y90.139 E1.82198 ; skirt
G1 X40.280 Y59.020 E1.11410 ; skirt
G1 X40.676 Y57.186 E0.06716 ; skirt
G1 X41.583 Y55.874 E0.05711 ; skirt
G1 X46.941 Y50.516 E0.27130 ; skirt
G1 E-4.00000 F1800.00000 ; retract
G1 X113.521 Y80.422 F6000.000 ; move to first perimeter point
G1 E4.00000 F1800.00000 ; unretract
G1 X109.502 Y80.422 E0.14390 F900.000 ; perimeter
G1 X109.502 Y73.422 E0.25061 ; perimeter
G1 X155.021 Y73.422 E1.62964 ; perimeter
G1 X155.021 Y85.637 E0.43728 ; perimeter
G1 X154.393 Y85.794 E0.02319 ; perimeter
G1 X152.522 Y86.464 E0.07115 ; perimeter
G1 X150.726 Y87.313 E0.07114 ; perimeter
G1 X149.021 Y88.335 E0.07115 ; perimeter
G1 X147.425 Y89.519 E0.07115 ; perimeter
G1 X145.952 Y90.853 E0.07114 ; perimeter
G1 X144.618 Y92.326 E0.07115 ; perimeter
G1 X143.434 Y93.922 E0.07115 ; perimeter
G1 X142.412 Y95.627 E0.07115 ; perimeter
G1 X141.563 Y97.423 E0.07115 ; perimeter
G1 X140.893 Y99.294 E0.07115 ; perimeter
G1 X140.410 Y101.222 E0.07115 ; perimeter
G1 X140.119 Y103.188 E0.07115 ; perimeter
G1 X140.083 Y103.922 E0.02634 ; perimeter
G1 X140.021 Y103.922 E0.00219 ; perimeter
G1 X140.021 Y122.422 E0.66232 ; perimeter
G1 X133.046 Y122.422 E0.24971 ; perimeter
G1 X133.046 Y97.206 E0.90277 ; perimeter
G1 X133.504 Y97.480 E0.01908 ; perimeter
G1 X133.836 Y97.637 E0.01318 ; perimeter
G1 X134.183 Y97.761 E0.01317 ; perimeter
G1 X134.540 Y97.851 E0.01318 ; perimeter
G1 X134.904 Y97.905 E0.01318 ; perimeter
G1 X135.271 Y97.923 E0.01317 ; perimeter
G1 X135.639 Y97.905 E0.01318 ; perimeter
G1 X136.003 Y97.851 E0.01318 ; perimeter
G1 X136.360 Y97.761 E0.01318 ; perimeter
G1 X136.707 Y97.637 E0.01317 ; perimeter
G1 X137.052 Y97.472 E0.01372 ; perimeter
G1 X137.355 Y97.291 E0.01263 ; perimeter
G1 X137.651 Y97.071 E0.01318 ; perimeter
G1 X137.923 Y96.824 E0.01318 ; perimeter
G1 X138.171 Y96.552 E0.01318 ; perimeter
G1 X138.390 Y96.256 E0.01318 ; perimeter
G1 X138.579 Y95.940 E0.01318 ; perimeter
G1 X138.736 Y95.608 E0.01317 ; perimeter
G1 X138.864 Y95.246 E0.01372 ; perimeter
G1 X138.950 Y94.904 E0.01263 ; perimeter
G1 X139.004 Y94.540 E0.01318 ; perimeter
G1 X139.022 Y94.172 E0.01318 ; perimeter
G1 X139.004 Y93.805 E0.01318 ; perimeter
G1 X138.950 Y93.441 E0.01318 ; perimeter
G1 X138.860 Y93.084 E0.01318 ; perimeter
G1 X138.736 Y92.737 E0.01318 ; perimeter
G1 X138.579 Y92.405 E0.01317 ; perimeter
G1 X138.390 Y92.089 E0.01318 ; perimeter
G1 X138.171 Y91.793 E0.01318 ; perimeter
G1 X137.923 Y91.521 E0.01318 ; perimeter
G1 X137.651 Y91.273 E0.01318 ; perimeter
G1 X137.355 Y91.054 E0.01318 ; perimeter
G1 X137.039 Y90.865 E0.01317 ; perimeter
G1 X136.720 Y90.714 E0.01263 ; perimeter
G1 X136.360 Y90.584 E0.01372 ; perimeter
G1 X136.003 Y90.494 E0.01318 ; perimeter
G1 X135.639 Y90.440 E0.01318 ; perimeter
G1 X135.271 Y90.422 E0.01318 ; perimeter
G1 X134.904 Y90.440 E0.01317 ; perimeter
G1 X134.540 Y90.494 E0.01318 ; perimeter
G1 X134.183 Y90.584 E0.01318 ; perimeter
G1 X133.851 Y90.703 E0.01263 ; perimeter
G1 X133.504 Y90.865 E0.01372 ; perimeter
G1 X133.188 Y91.054 E0.01317 ; perimeter
G1 X132.892 Y91.273 E0.01318 ; perimeter
G1 X132.620 Y91.521 E0.01318 ; perimeter
G1 X132.372 Y91.793 E0.01318 ; perimeter
G1 X132.153 Y92.089 E0.01318 ; perimeter
G1 X131.964 Y92.405 E0.01318 ; perimeter
G1 X131.807 Y92.737 E0.01318 ; perimeter
G1 X131.683 Y93.084 E0.01317 ; perimeter
G1 X131.593 Y93.441 E0.01318 ; perimeter
G1 X131.539 Y93.805 E0.01318 ; perimeter
G1 X131.521 Y94.172 E0.01318 ; perimeter
G1 X131.546 Y94.589 E0.01494 ; perimeter
G1 X131.546 Y122.422 E0.99647 ; perimeter
G1 X117.921 Y122.422 E0.48779 ; perimeter
G1 X117.921 Y117.022 E0.19332 ; perimeter
G1 X115.521 Y117.022 E0.08592 ; perimeter
G1 X115.521 Y102.922 E0.50479 ; perimeter
G1 X115.460 Y102.922 E0.00219 ; perimeter
G1 X115.424 Y102.188 E0.02634 ; perimeter
G1 X115.133 Y100.222 E0.07115 ; perimeter
G1 X114.650 Y98.294 E0.07115 ; perimeter
G1 X113.980 Y96.423 E0.07115 ; perimeter
G1 X113.521 Y95.453 E0.03842 ; perimeter
G1 X113.521 Y80.497 E0.53542 ; perimeter
G1 X113.521 Y79.922 F6000.000 ; move inwards before travel
G1 X113.970 Y79.974 F6000.000 ; move to first perimeter point
G1 X109.950 Y79.974 E0.14390 F900.000 ; perimeter
G1 X109.950 Y73.871 E0.21849 ; perimeter
G1 X154.573 Y73.871 E1.59752 ; perimeter
G1 X154.573 Y85.287 E0.40869 ; perimeter
G1 X154.263 Y85.364 E0.01145 ; perimeter
G1 X152.350 Y86.049 E0.07272 ; perimeter
G1 X150.514 Y86.917 E0.07272 ; perimeter
G1 X148.772 Y87.962 E0.07272 ; perimeter
G1 X147.140 Y89.172 E0.07272 ; perimeter
G1 X145.635 Y90.536 E0.07272 ; perimeter
G1 X144.271 Y92.041 E0.07273 ; perimeter
G1 X143.061 Y93.673 E0.07273 ; perimeter
G1 X142.016 Y95.415 E0.07272 ; perimeter
G1 X141.148 Y97.251 E0.07272 ; perimeter
G1 X140.463 Y99.164 E0.07273 ; perimeter
G1 X139.970 Y101.134 E0.07272 ; perimeter
G1 X139.672 Y103.144 E0.07272 ; perimeter
G1 X139.656 Y103.474 E0.01184 ; perimeter
G1 X139.573 Y103.474 E0.00296 ; perimeter
G1 X139.573 Y121.974 E0.66232 ; perimeter
G1 X133.495 Y121.974 E0.21760 ; perimeter
G1 X133.495 Y112.717 E0.33140 ; perimeter
G1 X134.299 Y113.521 E0.04069 ; perimeter
G1 X136.244 Y113.521 E0.06965 ; perimeter
G1 X137.620 Y112.145 E0.06965 ; perimeter
G1 X137.620 Y110.200 E0.06966 ; perimeter
G1 X136.244 Y108.824 E0.06965 ; perimeter
G1 X134.299 Y108.824 E0.06965 ; perimeter
G1 X133.495 Y109.628 E0.04069 ; perimeter
G1 X133.495 Y97.991 E0.41659 ; perimeter
G1 X134.052 Y98.191 E0.02119 ; perimeter
G1 X134.452 Y98.291 E0.01476 ; perimeter
G1 X134.860 Y98.352 E0.01475 ; perimeter
G1 X135.271 Y98.372 E0.01475 ; perimeter
G1 X135.683 Y98.352 E0.01476 ; perimeter
G1 X136.091 Y98.291 E0.01475 ; perimeter
G1 X136.491 Y98.191 E0.01476 ; perimeter
G1 X136.878 Y98.052 E0.01475 ; perimeter
G1 X137.251 Y97.876 E0.01475 ; perimeter
G1 X137.604 Y97.664 E0.01475 ; perimeter
G1 X137.936 Y97.419 E0.01476 ; perimeter
G1 X138.241 Y97.142 E0.01475 ; perimeter
G1 X138.518 Y96.836 E0.01476 ; perimeter
G1 X138.763 Y96.505 E0.01475 ; perimeter
G1 X138.975 Y96.152 E0.01475 ; perimeter
G1 X139.151 Y95.780 E0.01475 ; perimeter
G1 X139.290 Y95.392 E0.01475 ; perimeter
G1 X139.390 Y94.992 E0.01476 ; perimeter
G1 X139.451 Y94.584 E0.01476 ; perimeter
G1 X139.471 Y94.172 E0.01475 ; perimeter
G1 X139.451 Y93.761 E0.01475 ; perimeter
G1 X139.390 Y93.353 E0.01475 ; perimeter
G1 X139.290 Y92.953 E0.01476 ; perimeter
G1 X139.151 Y92.565 E0.01475 ; perimeter
G1 X138.975 Y92.193 E0.01475 ; perimeter
G1 X138.763 Y91.839 E0.01475 ; perimeter
G1 X138.518 Y91.508 E0.01475 ; perimeter
G1 X138.241 Y91.203 E0.01476 ; perimeter
G1 X137.936 Y90.926 E0.01475 ; perimeter
G1 X137.604 Y90.681 E0.01476 ; perimeter
G1 X137.251 Y90.469 E0.01475 ; perimeter
G1 X136.912 Y90.309 E0.01342 ; perimeter
G1 X136.491 Y90.154 E0.01607 ; perimeter
G1 X136.091 Y90.054 E0.01476 ; perimeter
G1 X135.683 Y89.993 E0.01476 ; perimeter
G1 X135.271 Y89.973 E0.01476 ; perimeter
G1 X134.860 Y89.993 E0.01475 ; perimeter
G1 X134.452 Y90.054 E0.01476 ; perimeter
G1 X134.052 Y90.154 E0.01476 ; perimeter
G1 X133.699 Y90.280 E0.01342 ; perimeter
G1 X133.292 Y90.469 E0.01608 ; perimeter
G1 X132.939 Y90.681 E0.01475 ; perimeter
G1 X132.608 Y90.926 E0.01475 ; perimeter
G1 X132.302 Y91.203 E0.01476 ; perimeter
G1 X132.025 Y91.508 E0.01475 ; perimeter
G1 X131.780 Y91.840 E0.01476 ; perimeter
G1 X131.568 Y92.193 E0.01475 ; perimeter
G1 X131.392 Y92.565 E0.01475 ; perimeter
G1 X131.253 Y92.953 E0.01475 ; perimeter
G1 X131.153 Y93.353 E0.01476 ; perimeter
G1 X131.092 Y93.761 E0.01476 ; perimeter
G1 X131.072 Y94.172 E0.01475 ; perimeter
G1 X131.098 Y94.622 E0.01612 ; perimeter
G1 X131.098 Y121.974 E0.97922 ; perimeter
G1 X118.370 Y121.974 E0.45567 ; perimeter
G1 X118.370 Y116.574 E0.19332 ; perimeter
G1 X115.970 Y116.574 E0.08592 ; perimeter
G1 X115.970 Y102.474 E0.50479 ; perimeter
G1 X115.887 Y102.474 E0.00296 ; perimeter
G1 X115.871 Y102.144 E0.01184 ; perimeter
G1 X115.573 Y100.134 E0.07272 ; perimeter
G1 X115.080 Y98.164 E0.07272 ; perimeter
G1 X114.395 Y96.251 E0.07272 ; perimeter
G1 X113.970 Y95.352 E0.03560 ; perimeter
G1 X113.970 Y80.049 E0.54787 ; perimeter
G1 E-4.00000 F1800.00000 ; retract
G1 X123.330 Y106.208 F6000.000 ; move to first perimeter point
G1 E4.00000 F1800.00000 ; unretract
G1 X123.497 Y106.148 E0.00638 F780.000 ; perimeter
G1 X123.997 Y106.023 E0.01844 ; perimeter
G1 X124.533 Y105.946 E0.01940 ; perimeter
G1 X125.021 Y105.922 E0.01749 F780.000 ; perimeter
G1 X125.536 Y105.947 E0.01845 ; perimeter
G1 X126.046 Y106.023 E0.01845 ; perimeter
G1 X126.546 Y106.148 E0.01845 ; perimeter
G1 X127.031 Y106.322 E0.01845 ; perimeter
G1 X127.496 Y106.542 E0.01845 ; perimeter
G1 X127.938 Y106.807 E0.01845 ; perimeter
G1 X128.352 Y107.114 E0.01844 ; perimeter
G1 X128.734 Y107.460 E0.01845 ; perimeter
G1 X129.080 Y107.842 E0.01844 ; perimeter
G1 X129.387 Y108.255 E0.01845 ; perimeter
G1 X129.652 Y108.697 E0.01845 ; perimeter
G1 X129.872 Y109.163 E0.01845 ; perimeter
G1 X130.046 Y109.648 E0.01845 ; perimeter
G1 X130.171 Y110.148 E0.01844 ; perimeter
G1 X130.247 Y110.658 E0.01845 ; perimeter
G1 X130.272 Y111.172 E0.01845 ; perimeter
G1 X130.247 Y111.687 E0.01845 ; perimeter
G1 X130.171 Y112.197 E0.01845 ; perimeter
G1 X130.046 Y112.696 E0.01844 ; perimeter
G1 X129.872 Y113.182 E0.01845 ; perimeter
G1 X129.652 Y113.647 E0.01845 ; perimeter
G1 X129.387 Y114.089 E0.01845 ; perimeter
G1 X129.080 Y114.503 E0.01845 ; perimeter
G1 X128.734 Y114.885 E0.01844 ; perimeter
G1 X128.352 Y115.231 E0.01845 ; perimeter
G1 X127.938 Y115.538 E0.01844 ; perimeter
G1 X127.496 Y115.803 E0.01845 ; perimeter
G1 X127.031 Y116.023 E0.01845 ; perimeter
G1 X126.546 Y116.197 E0.01845 ; perimeter
G1 X126.046 Y116.322 E0.01845 ; perimeter
G1 X125.536 Y116.397 E0.01845 ; perimeter
G1 X125.048 Y116.421 E0.01749 ; perimeter
G1 X124.507 Y116.397 E0.01940 ; perimeter
G1 X123.997 Y116.322 E0.01845 ; perimeter
G1 X123.497 Y116.197 E0.01844 ; perimeter
G1 X123.012 Y116.023 E0.01845 ; perimeter
G1 X122.547 Y115.803 E0.01845 ; perimeter
G1 X122.105 Y115.538 E0.01845 ; perimeter
G1 X121.691 Y115.231 E0.01844 ; perimeter
G1 X121.309 Y114.885 E0.01845 ; perimeter
G1 X120.963 Y114.503 E0.01845 ; perimeter
G1 X120.656 Y114.089 E0.01844 ; perimeter
G1 X120.391 Y113.647 E0.01845 ; perimeter
G1 X120.171 Y113.182 E0.01845 ; perimeter
G1 X119.997 Y112.696 E0.01845 ; perimeter
G1 X119.872 Y112.197 E0.01844 ; perimeter
G1 X119.796 Y111.687 E0.01845 ; perimeter
G1 X119.771 Y111.172 E0.01845 ; perimeter
G1 X119.796 Y110.658 E0.01845 ; perimeter
G1 X119.872 Y110.148 E0.01845 ; perimeter
G1 X119.997 Y109.648 E0.01844 ; perimeter
G1 X120.171 Y109.163 E0.01845 ; perimeter
G1 X120.391 Y108.697 E0.01845 ; perimeter
G1 X120.656 Y108.255 E0.01845 ; perimeter
G1 X120.963 Y107.842 E0.01844 ; perimeter
G1 X121.309 Y107.460 E0.01845 ; perimeter
G1 X121.691 Y107.114 E0.01845 ; perimeter
G1 X122.105 Y106.807 E0.01844 ; perimeter
G1 X122.546 Y106.542 E0.01845 ; perimeter
G1 X123.012 Y106.322 E0.01845 ; perimeter
G1 X123.259 Y106.234 E0.00938 ; perimeter
G1 X123.361 Y106.033 F6000.000 ; move inwards before travel
G1 X123.108 Y105.811 F6000.000 ; move to first perimeter point
G1 X123.367 Y105.719 E0.00986 F780.000 ; perimeter
G1 X123.910 Y105.583 E0.02002 ; perimeter
G1 X124.463 Y105.501 E0.02002 ; perimeter
G1 X125.021 Y105.473 E0.02002 ; perimeter
G1 X125.580 Y105.501 E0.02002 ; perimeter
G1 X126.133 Y105.583 E0.02002 F780.000 ; perimeter
G1 X126.676 Y105.719 E0.02002 ; perimeter
G1 X127.203 Y105.907 E0.02003 ; perimeter
G1 X127.708 Y106.146 E0.02002 ; perimeter
G1 X128.188 Y106.434 E0.02002 ; perimeter
G1 X128.637 Y106.767 E0.02002 ; perimeter
G1 X129.052 Y107.142 E0.02003 ; perimeter
G1 X129.427 Y107.557 E0.02002 ; perimeter
G1 X129.785 Y108.048 E0.02176 ; perimeter
G1 X130.048 Y108.486 E0.01828 ; perimeter
G1 X130.287 Y108.991 E0.02002 ; perimeter
G1 X130.475 Y109.518 E0.02002 ; perimeter
G1 X130.611 Y110.061 E0.02002 ; perimeter
G1 X130.693 Y110.614 E0.02003 ; perimeter
G1 X130.721 Y111.172 E0.02002 ; perimeter
G1 X130.693 Y111.731 E0.02002 ; perimeter
G1 X130.611 Y112.284 E0.02003 ; perimeter
G1 X130.475 Y112.827 E0.02002 ; perimeter
G1 X130.287 Y113.353 E0.02002 ; perimeter
G1 X130.048 Y113.859 E0.02002 ; perimeter
G1 X129.785 Y114.297 E0.01828 ; perimeter
G1 X129.427 Y114.788 E0.02176 ; perimeter
G1 X129.052 Y115.202 E0.02002 ; perimeter
G1 X128.637 Y115.578 E0.02003 ; perimeter
G1 X128.188 Y115.911 E0.02002 ; perimeter
G1 X127.708 Y116.199 E0.02002 ; perimeter
G1 X127.202 Y116.438 E0.02003 ; perimeter
G1 X126.676 Y116.626 E0.02002 ; perimeter
G1 X126.133 Y116.762 E0.02002 ; perimeter
G1 X125.580 Y116.844 E0.02002 ; perimeter
G1 X125.021 Y116.872 E0.02003 ; perimeter
G1 X124.463 Y116.844 E0.02002 ; perimeter
G1 X123.910 Y116.762 E0.02003 ; perimeter
G1 X123.367 Y116.626 E0.02002 ; perimeter
G1 X122.840 Y116.438 E0.02002 ; perimeter
G1 X122.335 Y116.199 E0.02002 ; perimeter
G1 X121.855 Y115.911 E0.02002 ; perimeter
G1 X121.406 Y115.578 E0.02002 ; perimeter
G1 X120.991 Y115.202 E0.02002 ; perimeter
G1 X120.616 Y114.788 E0.02002 ; perimeter
G1 X120.283 Y114.339 E0.02002 ; perimeter
G1 X119.995 Y113.859 E0.02002 ; perimeter
G1 X119.756 Y113.353 E0.02003 ; perimeter
G1 X119.568 Y112.827 E0.02002 ; perimeter
G1 X119.432 Y112.284 E0.02002 ; perimeter
G1 X119.350 Y111.731 E0.02002 ; perimeter
G1 X119.322 Y111.172 E0.02002 ; perimeter
G1 X119.357 Y110.566 E0.02176 ; perimeter
G1 X119.432 Y110.061 E0.01828 ; perimeter
G1 X119.568 Y109.518 E0.02002 ; perimeter
G1 X119.756 Y108.991 E0.02002 ; perimeter
G1 X119.995 Y108.486 E0.02003 ; perimeter
