; generated by Slic3r 1.0.1 on 2014-08-12 at 22:09:06

; layer_height = 0.24
; perimeters = 2
; top_solid_layers = 4
; bottom_solid_layers = 3
; fill_density = 0.25
; perimeter_speed = 30
; infill_speed = 30
; travel_speed = 100
; nozzle_diameter = 0.5
; filament_diameter = 1.75
; extrusion_multiplier = 1
; perimeters extrusion width = 0.50mm
; infill extrusion width = 0.50mm
; solid infill extrusion width = 0.50mm
; top infill extrusion width = 0.50mm
; first layer extrusion width = 0.80mm

G21 ; set units to millimeters
M107 ; disable fan
M190 S57 ; wait for bed temperature to be reached
M104 S200 ; set temperature

M109 S200 ; wait for temperature to be reached
G90 ; use absolute coordinates
M83 ; use relative distances for extrusion
G1 F1800.000 E-2.40000 ; retract
G1 Z0.240 F6000.000 ; move to next layer (0)
G1 X54.022 Y66.410 F6000.000 ; move to first skirt point
G1 E2.40000 F1800.000 ; compensate retraction
G1 X54.172 Y66.290 E0.01435 F900.000 ; skirt
G1 X55.572 Y65.520 E0.11933 ; skirt
G1 X57.142 Y65.250 E0.11898 ; skirt
G1 X59.282 Y65.250 E0.15983 ; skirt
G1 X63.572 Y65.390 E0.32057 ; skirt
G1 X68.132 Y65.820 E0.34208 ; skirt
G1 X73.002 Y66.630 E0.36871 ; skirt
G1 X77.192 Y67.610 E0.32138 ; skirt
G1 X132.632 Y81.420 E4.26707 ; skirt
G1 X133.042 Y81.530 E0.03170 ; skirt
G1 X133.772 Y81.790 E0.05787 ; skirt
G1 X134.082 Y81.930 E0.02540 ; skirt
G1 X134.832 Y82.350 E0.06420 ; skirt
G1 X135.462 Y82.810 E0.05826 ; skirt
G1 X135.782 Y83.100 E0.03225 ; skirt
G1 X146.292 Y94.100 E1.13625 ; skirt
G1 X147.502 Y95.460 E0.13595 ; skirt
G1 X147.992 Y96.110 E0.06079 ; skirt
G1 X148.852 Y97.500 E0.12208 ; skirt
G1 X149.202 Y98.200 E0.05845 ; skirt
G1 X149.822 Y99.710 E0.12191 ; skirt
G1 X149.962 Y100.100 E0.03095 ; skirt
G1 X150.072 Y100.500 E0.03098 ; skirt
G1 X150.422 Y102.100 E0.12232 ; skirt
G1 X150.522 Y102.910 E0.06095 ; skirt
G1 X150.592 Y104.550 E0.12260 ; skirt
G1 X150.562 Y105.330 E0.05830 ; skirt
G1 X150.362 Y106.950 E0.12191 ; skirt
G1 X150.292 Y107.360 E0.03106 ; skirt
G1 X150.192 Y107.760 E0.03079 ; skirt
G1 X149.712 Y109.330 E0.12261 ; skirt
G1 X149.422 Y110.060 E0.05866 ; skirt
G1 X148.692 Y111.520 E0.12191 ; skirt
G1 X148.272 Y112.210 E0.06033 ; skirt
G1 X147.302 Y113.530 E0.12234 ; skirt
G1 X146.752 Y114.150 E0.06190 ; skirt
G1 X145.572 Y115.280 E0.12202 ; skirt
G1 X144.952 Y115.780 E0.05949 ; skirt
G1 X143.592 Y116.700 E0.12263 ; skirt
G1 X142.882 Y117.100 E0.06086 ; skirt
G1 X141.392 Y117.770 E0.12201 ; skirt
G1 X140.872 Y117.970 E0.04161 ; skirt
G1 X88.372 Y134.530 E4.11141 ; skirt
G1 X87.662 Y134.690 E0.05436 ; skirt
G1 X86.942 Y134.750 E0.05396 ; skirt
G1 X78.592 Y134.750 E0.62362 ; skirt
G1 X77.272 Y134.560 E0.09960 ; skirt
G1 X76.052 Y134.010 E0.09995 ; skirt
G1 X75.032 Y133.140 E0.10013 ; skirt
G1 X65.482 Y122.310 E1.07840 ; skirt
G1 X65.132 Y121.860 E0.04258 ; skirt
G1 X64.092 Y120.350 E0.13693 ; skirt
G1 X63.742 Y119.750 E0.05188 ; skirt
G1 X62.932 Y118.100 E0.13728 ; skirt
G1 X62.652 Y117.410 E0.05561 ; skirt
G1 X62.112 Y115.660 E0.13678 ; skirt
G1 X52.422 Y81.150 E2.67706 ; skirt
G1 X52.292 Y80.520 E0.04804 ; skirt
G1 X52.242 Y79.870 E0.04869 ; skirt
G1 X52.242 Y70.120 E0.72818 ; skirt
G1 X52.452 Y68.720 E0.10573 ; skirt
G1 X53.062 Y67.450 E0.10522 ; skirt
G1 X53.946 Y66.493 E0.09732 ; skirt
G1 F1800.000 E-2.40000 ; retract
G1 X57.399 Y70.400 F6000.000 ; move to first perimeter point
G1 E2.40000 F1800.000 ; compensate retraction
G1 X59.135 Y70.400 E0.12969 F900.000 ; perimeter
G1 X63.397 Y70.539 E0.31848 ; perimeter
G1 X67.635 Y70.956 E0.31799 ; perimeter
G1 X71.836 Y71.649 E0.31799 ; perimeter
G1 X75.982 Y72.616 E0.31799 ; perimeter
G1 X80.059 Y73.851 E0.31812 ; perimeter
G1 X84.042 Y75.349 E0.31786 ; perimeter
G1 X87.429 Y76.882 E0.27762 ; perimeter
G1 X86.711 Y77.287 E0.06152 ; perimeter
G1 X86.185 Y77.668 E0.04857 ; perimeter
G1 X85.732 Y78.136 E0.04857 ; perimeter
G1 X85.444 Y78.546 E0.03744 ; perimeter
G1 X85.367 Y78.674 E0.01115 ; perimeter
G1 X85.101 Y79.267 E0.04858 ; perimeter
G1 X84.941 Y79.898 E0.04858 ; perimeter
G1 X84.892 Y80.547 E0.04858 ; perimeter
G1 X84.956 Y81.194 E0.04859 ; perimeter
G1 X85.132 Y81.820 E0.04859 ; perimeter
G1 X85.413 Y82.407 E0.04859 ; perimeter
G1 X85.791 Y82.937 E0.04859 ; perimeter
G1 X86.255 Y83.393 E0.04859 ; perimeter
G1 X86.778 Y83.754 E0.04752 ; perimeter
G1 X87.382 Y84.033 E0.04966 ; perimeter
G1 X87.866 Y84.163 E0.03745 ; perimeter
G1 X88.011 Y84.198 E0.01115 ; perimeter
G1 X88.660 Y84.251 E0.04860 ; perimeter
G1 X89.308 Y84.191 E0.04860 ; perimeter
G1 X89.924 Y84.026 E0.04764 ; perimeter
G1 X90.525 Y83.744 E0.04958 ; perimeter
G1 X90.936 Y83.457 E0.03745 ; perimeter
G1 X91.057 Y83.370 E0.01115 ; perimeter
G1 X91.517 Y82.909 E0.04860 ; perimeter
G1 X91.890 Y82.377 E0.04855 ; perimeter
G1 X91.953 Y82.242 E0.01116 ; perimeter
G1 X92.165 Y81.787 E0.03745 ; perimeter
G1 X92.335 Y81.159 E0.04860 ; perimeter
G1 X92.393 Y80.511 E0.04860 ; perimeter
G1 X92.307 Y79.502 E0.07559 ; perimeter
G1 X95.294 Y81.358 E0.26262 ; perimeter
G1 X98.758 Y83.837 E0.31816 ; perimeter
G1 X102.048 Y86.536 E0.31783 ; perimeter
G1 X105.158 Y89.444 E0.31799 ; perimeter
G1 X108.065 Y92.544 E0.31740 ; perimeter
G1 X108.524 Y93.151 E0.05681 ; perimeter
G1 X108.888 Y93.810 E0.05622 ; perimeter
G1 X109.154 Y94.514 E0.05622 ; perimeter
G1 X109.315 Y95.249 E0.05622 ; perimeter
G1 X109.370 Y96.014 E0.05730 ; perimeter
G1 X109.370 Y106.400 E0.77565 ; perimeter
G1 X124.742 Y106.400 E1.14802 ; perimeter
G1 X124.742 Y109.279 E0.21503 ; perimeter
G1 X124.544 Y109.466 E0.02031 ; perimeter
G1 X124.401 Y109.693 E0.02005 ; perimeter
G1 X124.360 Y109.822 E0.01006 ; perimeter
G1 X124.345 Y110.090 E0.02005 ; perimeter
G1 X124.420 Y110.348 E0.02005 ; perimeter
G1 X124.575 Y110.567 E0.02005 ; perimeter
G1 X124.794 Y110.722 E0.02006 ; perimeter
G1 X124.920 Y110.770 E0.01006 ; perimeter
G1 X125.187 Y110.800 E0.02005 ; perimeter
G1 X125.448 Y110.740 E0.02006 ; perimeter
G1 X125.676 Y110.598 E0.02005 ; perimeter
G1 X125.863 Y110.400 E0.02031 ; perimeter
G1 X129.612 Y110.400 E0.28007 ; perimeter
G1 X129.827 Y110.614 E0.02261 ; perimeter
G1 X129.941 Y110.694 E0.01043 ; perimeter
G1 X130.202 Y110.789 E0.02079 ; perimeter
G1 X130.481 Y110.789 E0.02079 ; perimeter
G1 X130.742 Y110.694 E0.02079 ; perimeter
G1 X130.956 Y110.515 E0.02079 ; perimeter
G1 X131.036 Y110.401 E0.01043 ; perimeter
G1 X131.095 Y110.274 E0.01043 ; perimeter
G1 X131.143 Y110.000 E0.02079 ; perimeter
G1 X131.131 Y109.861 E0.01044 ; perimeter
G1 X131.036 Y109.599 E0.02079 ; perimeter
G1 X130.956 Y109.485 E0.01043 ; perimeter
G1 X130.742 Y109.271 E0.02260 ; perimeter
G1 X130.742 Y107.400 E0.13972 ; perimeter
G1 X131.441 Y107.400 E0.05221 ; perimeter
G1 X131.645 Y108.163 E0.05903 ; perimeter
G1 X131.896 Y108.701 E0.04428 ; perimeter
G1 X132.236 Y109.186 E0.04428 ; perimeter
G1 X132.655 Y109.606 E0.04428 ; perimeter
G1 X133.141 Y109.946 E0.04428 ; perimeter
G1 X133.678 Y110.196 E0.04428 ; perimeter
G1 X134.251 Y110.350 E0.04429 ; perimeter
G1 X134.824 Y110.400 E0.04297 ; perimeter
G1 X136.253 Y110.400 E0.10673 ; perimeter
G1 X137.257 Y110.314 E0.07526 ; perimeter
G1 X138.249 Y110.056 E0.07654 ; perimeter
G1 X139.183 Y109.633 E0.07654 ; perimeter
G1 X140.031 Y109.058 E0.07654 ; perimeter
G1 X140.770 Y108.348 E0.07654 ; perimeter
G1 X141.378 Y107.523 E0.07654 ; perimeter
G1 X141.837 Y106.607 E0.07654 ; perimeter
G1 X142.135 Y105.626 E0.07654 ; perimeter
G1 X142.263 Y104.609 E0.07654 ; perimeter
G1 X142.216 Y103.585 E0.07654 ; perimeter
G1 X141.997 Y102.584 E0.07654 ; perimeter
G1 X141.611 Y101.635 E0.07654 ; perimeter
G1 X141.070 Y100.764 E0.07654 ; perimeter
G1 X140.390 Y99.998 E0.07654 ; perimeter
G1 X139.590 Y99.358 E0.07654 ; perimeter
G1 X138.693 Y98.862 E0.07654 ; perimeter
G1 X136.213 Y98.021 E0.19554 ; perimeter
G1 X134.792 Y97.300 E0.11900 ; perimeter
G1 X133.492 Y96.378 E0.11900 ; perimeter
G1 X132.341 Y95.277 E0.11900 ; perimeter
G1 X131.363 Y94.019 E0.11900 ; perimeter
G1 X130.580 Y92.631 E0.11901 ; perimeter
G1 X130.008 Y91.144 E0.11900 ; perimeter
G1 X129.660 Y89.589 E0.11900 ; perimeter
G1 X129.543 Y88.003 E0.11880 ; perimeter
G1 X129.567 Y87.722 E0.02102 ; perimeter
G1 X129.640 Y87.453 E0.02081 ; perimeter
G1 X129.757 Y87.201 E0.02081 ; perimeter
G1 X129.917 Y86.973 E0.02081 ; perimeter
G1 X130.114 Y86.775 E0.02081 ; perimeter
G1 X130.342 Y86.616 E0.02081 ; perimeter
G1 X130.595 Y86.498 E0.02081 ; perimeter
G1 X130.864 Y86.426 E0.02081 ; perimeter
G1 X131.142 Y86.402 E0.02081 ; perimeter
G1 X131.419 Y86.426 E0.02081 ; perimeter
G1 X131.688 Y86.498 E0.02081 ; perimeter
G1 X131.941 Y86.616 E0.02081 ; perimeter
G1 X132.169 Y86.775 E0.02081 ; perimeter
G1 X132.366 Y86.973 E0.02081 ; perimeter
G1 X132.526 Y87.201 E0.02081 ; perimeter
G1 X132.644 Y87.453 E0.02081 ; perimeter
G1 X132.716 Y87.722 E0.02081 ; perimeter
G1 X132.845 Y89.260 E0.11526 ; perimeter
G1 X133.155 Y90.486 E0.09445 ; perimeter
G1 X133.662 Y91.645 E0.09445 ; perimeter
G1 X134.353 Y92.704 E0.09445 ; perimeter
G1 X135.209 Y93.635 E0.09445 ; perimeter
G1 X136.206 Y94.412 E0.09445 ; perimeter
G1 X137.318 Y95.015 E0.09445 ; perimeter
G1 X139.995 Y95.942 E0.21156 ; perimeter
G1 X141.367 Y96.700 E0.11712 ; perimeter
G1 X142.592 Y97.680 E0.11712 ; perimeter
G1 X143.633 Y98.852 E0.11712 ; perimeter
G1 X144.460 Y100.185 E0.11712 ; perimeter
G1 X145.050 Y101.637 E0.11712 ; perimeter
G1 X145.386 Y103.169 E0.11712 ; perimeter
G1 X145.457 Y104.736 E0.11712 ; perimeter
G1 X145.262 Y106.292 E0.11712 ; perimeter
G1 X144.807 Y107.792 E0.11711 ; perimeter
G1 X144.103 Y109.194 E0.11712 ; perimeter
G1 X143.173 Y110.456 E0.11712 ; perimeter
G1 X142.043 Y111.543 E0.11711 ; perimeter
G1 X140.744 Y112.422 E0.11712 ; perimeter
G1 X139.316 Y113.069 E0.11711 ; perimeter
G1 X137.799 Y113.465 E0.11712 ; perimeter
G1 X136.636 Y113.564 E0.08713 ; perimeter
G1 X136.636 Y111.840 E0.12879 ; perimeter
G1 X124.742 Y111.840 E0.88834 ; perimeter
G1 X124.742 Y113.895 E0.15351 ; perimeter
G1 X124.308 Y114.667 E0.06612 ; perimeter
G1 X123.706 Y115.410 E0.07139 ; perimeter
G1 X122.988 Y116.040 E0.07139 ; perimeter
G1 X122.173 Y116.540 E0.07139 ; perimeter
G1 X121.285 Y116.895 E0.07139 ; perimeter
G1 X120.351 Y117.095 E0.07139 ; perimeter
G1 X119.396 Y117.135 E0.07139 ; perimeter
G1 X118.448 Y117.012 E0.07139 ; perimeter
G1 X117.534 Y116.731 E0.07139 ; perimeter
G1 X116.681 Y116.300 E0.07139 ; perimeter
G1 X115.913 Y115.731 E0.07139 ; perimeter
G1 X115.252 Y115.041 E0.07139 ; perimeter
G1 X114.717 Y114.249 E0.07139 ; perimeter
G1 X114.323 Y113.378 E0.07139 ; perimeter
G1 X114.083 Y112.452 E0.07139 ; perimeter
G1 X113.968 Y111.100 E0.10137 ; perimeter
G1 X99.069 Y111.100 E1.11269 ; perimeter
G1 X98.918 Y113.216 E0.15846 ; perimeter
G1 X98.554 Y114.898 E0.12851 ; perimeter
G1 X97.954 Y116.512 E0.12864 ; perimeter
G1 X97.133 Y118.021 E0.12825 ; perimeter
G1 X96.104 Y119.402 E0.12864 ; perimeter
G1 X94.890 Y120.622 E0.12851 ; perimeter
G1 X93.516 Y121.657 E0.12851 ; perimeter
G1 X92.008 Y122.487 E0.12851 ; perimeter
G1 X89.593 Y123.407 E0.19304 ; perimeter
G1 X88.847 Y123.843 E0.06453 ; perimeter
G1 X88.181 Y124.393 E0.06452 ; perimeter
G1 X87.611 Y125.043 E0.06453 ; perimeter
G1 X87.172 Y125.742 E0.06163 ; perimeter
G1 X86.815 Y126.570 E0.06738 ; perimeter
G1 X86.610 Y127.409 E0.06453 ; perimeter
G1 X86.542 Y128.254 E0.06333 ; perimeter
G1 X86.542 Y129.600 E0.10049 ; perimeter
G1 X78.992 Y129.600 E0.56387 ; perimeter
G1 X78.992 Y127.998 E0.11964 ; perimeter
G1 X78.924 Y127.156 E0.06312 ; perimeter
G1 X78.720 Y126.319 E0.06432 ; perimeter
G1 X78.386 Y125.526 E0.06431 ; perimeter
G1 X77.929 Y124.795 E0.06431 ; perimeter
G1 X77.363 Y124.147 E0.06432 ; perimeter
G1 X76.700 Y123.597 E0.06431 ; perimeter
G1 X75.959 Y123.159 E0.06431 ; perimeter
G1 X73.501 Y122.205 E0.19686 ; perimeter
G1 X71.960 Y121.325 E0.13255 ; perimeter
G1 X70.568 Y120.224 E0.13255 ; perimeter
G1 X69.355 Y118.928 E0.13255 ; perimeter
G1 X68.349 Y117.466 E0.13255 ; perimeter
G1 X67.573 Y115.870 E0.13255 ; perimeter
G1 X67.044 Y114.176 E0.13255 ; perimeter
G1 X66.774 Y112.421 E0.13255 ; perimeter
G1 X66.769 Y110.647 E0.13255 ; perimeter
G1 X67.029 Y108.891 E0.13255 ; perimeter
G1 X67.548 Y107.194 E0.13255 ; perimeter
G1 X68.315 Y105.593 E0.13255 ; perimeter
G1 X69.312 Y104.125 E0.13255 ; perimeter
G1 X70.518 Y102.822 E0.13255 ; perimeter
G1 X71.904 Y101.714 E0.13255 ; perimeter
G1 X73.440 Y100.825 E0.13255 ; perimeter
G1 X75.092 Y100.175 E0.13255 ; perimeter
G1 X76.822 Y99.780 E0.13255 ; perimeter
G1 X78.992 Y99.617 E0.16251 ; perimeter
G1 X78.992 Y92.627 E0.52204 ; perimeter
G1 X78.843 Y90.723 E0.14263 ; perimeter
G1 X78.399 Y88.850 E0.14380 ; perimeter
G1 X77.669 Y87.068 E0.14380 ; perimeter
G1 X76.673 Y85.420 E0.14380 ; perimeter
G1 X75.433 Y83.947 E0.14380 ; perimeter
G1 X73.981 Y82.683 E0.14380 ; perimeter
G1 X72.350 Y81.659 E0.14380 ; perimeter
G1 X70.580 Y80.900 E0.14380 ; perimeter
G1 X68.724 Y80.427 E0.14307 ; perimeter
G1 X65.541 Y79.967 E0.24020 ; perimeter
G1 X62.347 Y79.692 E0.23947 ; perimeter
G1 X59.147 Y79.600 E0.23904 ; perimeter
G1 X57.399 Y79.600 E0.13060 ; perimeter
G1 X57.399 Y70.512 E0.67872 ; perimeter
G1 X58.047 Y70.774 F6000.000 ; move inwards before travel
G1 F1800.000 E-2.40000 ; retract
G1 X131.939 Y110.018 F6000.000 ; move to first perimeter point
G1 E2.40000 F1800.000 ; compensate retraction
G1 X133.174 Y110.883 E0.11266 F780.000 ; perimeter
G1 X133.108 Y111.092 E0.01634 ; perimeter
G1 X131.540 Y111.092 E0.11717 ; perimeter
G1 X131.801 Y110.531 E0.04617 ; perimeter
G1 X131.909 Y110.126 E0.03132 ; perimeter
G1 F1800.000 E-2.40000 ; retract
G1 X123.993 Y109.530 F6000.000 ; move to first perimeter point
G1 E2.40000 F1800.000 ; compensate retraction
G1 X123.785 Y109.596 E0.01634 F780.000 ; perimeter
G1 X123.091 Y108.606 E0.09030 ; perimeter
G1 X122.536 Y108.051 E0.05862 ; perimeter
G1 X121.546 Y107.357 E0.09030 ; perimeter
G1 X121.611 Y107.148 E0.01634 ; perimeter
G1 X123.993 Y107.148 E0.17788 ; perimeter
G1 X123.993 Y109.418 E0.16949 ; perimeter
G1 F1800.000 E-2.40000 ; retract
G1 X137.385 Y111.055 F6000.000 ; move to first perimeter point
G1 E2.40000 F1800.000 ; compensate retraction
G1 X138.500 Y110.764 E0.08606 F900.000 ; perimeter
G1 X139.549 Y110.288 E0.08608 ; perimeter
G1 X140.504 Y109.642 E0.08608 ; perimeter
G1 X141.335 Y108.843 E0.08607 ; perimeter
G1 X142.018 Y107.915 E0.08608 ; perimeter
G1 X142.535 Y106.885 E0.08608 ; perimeter
G1 X142.870 Y105.783 E0.08607 ; perimeter
G1 X143.013 Y104.639 E0.08608 ; perimeter
G1 X142.961 Y103.488 E0.08608 ; perimeter
G1 X142.714 Y102.362 E0.08607 ; perimeter
G1 X142.281 Y101.294 E0.08607 ; perimeter
G1 X141.673 Y100.315 E0.08608 ; perimeter
G1 X140.907 Y99.453 E0.08608 ; perimeter
G1 X140.007 Y98.733 E0.08607 ; perimeter
G1 X138.999 Y98.176 E0.08608 ; perimeter
G1 X136.503 Y97.328 E0.19685 ; perimeter
G1 X135.180 Y96.657 E0.11078 ; perimeter
G1 X133.970 Y95.800 E0.11078 ; perimeter
G1 X132.898 Y94.774 E0.11078 ; perimeter
G1 X131.988 Y93.603 E0.11078 ; perimeter
G1 X131.258 Y92.311 E0.11078 ; perimeter
G1 X130.726 Y90.927 E0.11078 ; perimeter
G1 X130.402 Y89.479 E0.11078 ; perimeter
G1 X130.294 Y88.008 E0.11018 ; perimeter
G1 X130.307 Y87.853 E0.01163 ; perimeter
G1 X130.346 Y87.710 E0.01103 ; perimeter
G1 X130.408 Y87.576 E0.01103 ; perimeter
G1 X130.493 Y87.455 E0.01103 ; perimeter
G1 X130.597 Y87.351 E0.01103 ; perimeter
G1 X130.718 Y87.266 E0.01103 ; perimeter
G1 X130.852 Y87.204 E0.01103 ; perimeter
G1 X130.995 Y87.166 E0.01103 ; perimeter
G1 X131.142 Y87.153 E0.01103 ; perimeter
G1 X131.289 Y87.166 E0.01103 ; perimeter
G1 X131.431 Y87.204 E0.01103 ; perimeter
G1 X131.565 Y87.266 E0.01103 ; perimeter
G1 X131.686 Y87.351 E0.01103 ; perimeter
G1 X131.791 Y87.455 E0.01103 ; perimeter
G1 X131.875 Y87.576 E0.01103 ; perimeter
G1 X131.938 Y87.710 E0.01103 ; perimeter
G1 X131.976 Y87.853 E0.01103 ; perimeter
G1 X132.104 Y89.384 E0.11474 ; perimeter
G1 X132.444 Y90.730 E0.10370 ; perimeter
G1 X133.002 Y92.002 E0.10370 ; perimeter
G1 X133.703 Y93.077 E0.09585 ; perimeter
G1 X133.760 Y93.165 E0.00785 ; perimeter
G1 X134.700 Y94.187 E0.10370 ; perimeter
