; generated by Slic3r 1.0.1 on 2014-07-13 at 12:13:30

; layer_height = 0.24
; perimeters = 2
; top_solid_layers = 3
; bottom_solid_layers = 3
; fill_density = 0.25
; perimeter_speed = 30
; infill_speed = 30
; travel_speed = 100
; nozzle_diameter = 0.5
; filament_diameter = 1.75
; extrusion_multiplier = 1
; perimeters extrusion width = 0.50mm
; infill extrusion width = 0.50mm
; solid infill extrusion width = 0.50mm
; top infill extrusion width = 0.50mm
; support material extrusion width = 0.50mm
; first layer extrusion width = 0.80mm

G21 ; set units to millimeters
M107 ; disable fan
M190 S57 ; wait for bed temperature to be reached
M104 S200 ; set temperature

M109 S200 ; wait for temperature to be reached
G90 ; use absolute coordinates
M83 ; use relative distances for extrusion
G1 F1800.000 E-2.40000 ; retract
G1 Z0.240 F6000.000 ; move to next layer (0)
G1 X71.591 Y65.637 F6000.000 ; move to first skirt point
G1 E2.40000 F1800.000 ; compensate retraction
G1 X72.141 Y65.067 E0.05916 F900.000 ; skirt
G1 X73.861 Y63.587 E0.16947 ; skirt
G1 X74.791 Y62.957 E0.08389 ; skirt
G1 X75.851 Y62.567 E0.08435 ; skirt
G1 X76.961 Y62.437 E0.08347 ; skirt
G1 X78.511 Y62.437 E0.11576 ; skirt
G1 X118.291 Y63.067 E2.97135 ; skirt
G1 X118.781 Y63.107 E0.03672 ; skirt
G1 X120.201 Y63.297 E0.10700 ; skirt
G1 X120.881 Y63.447 E0.05201 ; skirt
G1 X122.271 Y63.847 E0.10803 ; skirt
G1 X122.921 Y64.087 E0.05175 ; skirt
G1 X124.241 Y64.687 E0.10829 ; skirt
G1 X124.841 Y65.007 E0.05079 ; skirt
G1 X126.041 Y65.777 E0.10649 ; skirt
G1 X126.581 Y66.177 E0.05019 ; skirt
G1 X127.671 Y67.117 E0.10750 ; skirt
G1 X128.171 Y67.617 E0.05281 ; skirt
G1 X129.111 Y68.707 E0.10750 ; skirt
G1 X129.521 Y69.257 E0.05123 ; skirt
G1 X130.291 Y70.467 E0.10712 ; skirt
G1 X130.601 Y71.037 E0.04846 ; skirt
G1 X131.201 Y72.347 E0.10761 ; skirt
G1 X131.441 Y73.017 E0.05315 ; skirt
G1 X131.841 Y74.407 E0.10803 ; skirt
G1 X131.991 Y75.087 E0.05201 ; skirt
G1 X132.181 Y76.507 E0.10700 ; skirt
G1 X133.241 Y103.687 E2.03149 ; skirt
G1 X133.171 Y105.817 E0.15917 ; skirt
G1 X131.851 Y128.137 E1.66989 ; skirt
G1 X131.801 Y128.817 E0.05092 ; skirt
G1 X131.741 Y129.247 E0.03243 ; skirt
G1 X131.481 Y130.317 E0.08224 ; skirt
G1 X131.231 Y131.037 E0.05692 ; skirt
G1 X130.961 Y131.647 E0.04982 ; skirt
G1 X130.601 Y132.317 E0.05680 ; skirt
G1 X129.991 Y133.227 E0.08182 ; skirt
G1 X129.251 Y134.037 E0.08194 ; skirt
G1 X128.661 Y134.567 E0.05923 ; skirt
G1 X128.121 Y134.977 E0.05064 ; skirt
G1 X127.431 Y135.417 E0.06112 ; skirt
G1 X126.831 Y135.727 E0.05044 ; skirt
G1 X126.131 Y136.017 E0.05659 ; skirt
G1 X125.491 Y136.227 E0.05031 ; skirt
G1 X124.721 Y136.407 E0.05906 ; skirt
G1 X124.061 Y136.507 E0.04985 ; skirt
G1 X123.281 Y136.567 E0.05843 ; skirt
G1 X122.601 Y136.557 E0.05079 ; skirt
G1 X122.171 Y136.527 E0.03219 ; skirt
G1 X77.301 Y131.777 E3.36985 ; skirt
G1 X75.801 Y131.357 E0.11634 ; skirt
G1 X74.511 Y130.477 E0.11663 ; skirt
G1 X68.211 Y124.417 E0.65286 ; skirt
G1 X67.421 Y123.427 E0.09459 ; skirt
G1 X66.921 Y122.257 E0.09503 ; skirt
G1 X66.751 Y120.997 E0.09496 ; skirt
G1 X66.761 Y77.437 E3.25329 ; skirt
G1 X66.861 Y76.027 E0.10557 ; skirt
G1 X66.961 Y75.357 E0.05059 ; skirt
G1 X67.261 Y73.977 E0.10547 ; skirt
G1 X67.451 Y73.337 E0.04986 ; skirt
G1 X67.951 Y71.987 E0.10752 ; skirt
G1 X68.241 Y71.357 E0.05180 ; skirt
G1 X68.981 Y69.997 E0.11563 ; skirt
G1 X71.131 Y66.287 E0.32025 ; skirt
G1 X71.526 Y65.729 E0.05109 ; skirt
G1 F1800.000 E-2.40000 ; retract
G1 X74.666 Y70.950 F6000.000 ; move to first perimeter point
G1 E2.40000 F1800.000 ; compensate retraction
G1 X74.855 Y71.012 E0.01485 F780.000 ; perimeter
G1 X74.855 Y82.397 E0.85028 ; perimeter
G1 X72.166 Y82.397 E0.20080 ; perimeter
G1 X71.901 Y82.132 E0.02806 ; perimeter
G1 X71.901 Y77.803 E0.32326 ; perimeter
G1 X71.999 Y76.434 E0.10257 ; perimeter
G1 X72.290 Y75.093 E0.10247 ; perimeter
G1 X72.769 Y73.809 E0.10230 ; perimeter
G1 X73.425 Y72.608 E0.10226 ; perimeter
G1 X74.599 Y71.040 E0.14630 ; perimeter
G1 X74.782 Y71.112 F6000.000 ; move inwards before travel
G1 F1800.000 E-2.40000 ; retract
G1 X74.107 Y73.501 F6000.000 ; move to first perimeter point
G1 E2.40000 F1800.000 ; compensate retraction
G1 X74.107 Y81.649 E0.60851 F780.000 ; perimeter
G1 X72.649 Y81.649 E0.10884 ; perimeter
G1 X72.649 Y77.830 E0.28520 ; perimeter
G1 X72.742 Y76.540 E0.09657 ; perimeter
G1 X73.010 Y75.304 E0.09447 ; perimeter
G1 X73.710 Y73.430 E0.14944 ; perimeter
G1 X73.996 Y73.481 E0.02174 ; perimeter
G1 F1800.000 E-2.40000 ; retract
G1 X79.756 Y68.362 F6000.000 ; move to first perimeter point
G1 E2.40000 F1800.000 ; compensate retraction
G1 X80.127 Y68.297 E0.02809 F900.000 ; perimeter
G1 X81.515 Y68.197 E0.10397 ; perimeter
G1 X95.578 Y68.197 E1.05031 ; perimeter
G1 X95.618 Y68.807 E0.04563 ; perimeter
G1 X94.320 Y68.978 E0.09777 ; perimeter
G1 X93.777 Y69.102 E0.04162 ; perimeter
G1 X93.138 Y69.315 E0.05028 ; perimeter
G1 X92.560 Y69.578 E0.04742 ; perimeter
G1 X92.010 Y69.896 E0.04742 ; perimeter
G1 X91.494 Y70.266 E0.04742 ; perimeter
G1 X91.018 Y70.686 E0.04742 ; perimeter
G1 X90.585 Y71.150 E0.04742 ; perimeter
G1 X90.200 Y71.655 E0.04742 ; perimeter
G1 X89.867 Y72.196 E0.04742 ; perimeter
G1 X89.588 Y72.766 E0.04742 ; perimeter
G1 X89.367 Y73.362 E0.04742 ; perimeter
G1 X89.206 Y73.976 E0.04742 ; perimeter
G1 X89.107 Y74.603 E0.04742 ; perimeter
G1 X89.069 Y75.237 E0.04742 ; perimeter
G1 X89.095 Y75.871 E0.04742 ; perimeter
G1 X89.183 Y76.500 E0.04742 ; perimeter
G1 X89.332 Y77.117 E0.04742 ; perimeter
G1 X89.542 Y77.717 E0.04742 ; perimeter
G1 X89.809 Y78.292 E0.04742 ; perimeter
G1 X90.132 Y78.839 E0.04742 ; perimeter
G1 X90.508 Y79.351 E0.04742 ; perimeter
G1 X90.932 Y79.824 E0.04742 ; perimeter
G1 X91.400 Y80.252 E0.04742 ; perimeter
G1 X91.909 Y80.632 E0.04742 ; perimeter
G1 X92.452 Y80.961 E0.04742 ; perimeter
G1 X93.026 Y81.234 E0.04742 ; perimeter
G1 X93.619 Y81.447 E0.04709 ; perimeter
G1 X94.235 Y81.599 E0.04740 ; perimeter
G1 X94.948 Y81.697 E0.05379 ; perimeter
G1 X117.617 Y81.696 E1.69301 ; perimeter
G1 X118.700 Y81.585 E0.08133 ; perimeter
G1 X119.764 Y81.286 E0.08251 ; perimeter
G1 X120.759 Y80.807 E0.08251 ; perimeter
G1 X121.658 Y80.165 E0.08251 ; perimeter
G1 X122.433 Y79.378 E0.08251 ; perimeter
G1 X123.061 Y78.469 E0.08251 ; perimeter
G1 X123.524 Y77.466 E0.08251 ; perimeter
G1 X123.807 Y76.398 E0.08250 ; perimeter
G1 X123.902 Y75.297 E0.08251 ; perimeter
G1 X123.807 Y74.197 E0.08250 ; perimeter
G1 X123.524 Y73.129 E0.08251 ; perimeter
G1 X123.061 Y72.126 E0.08251 ; perimeter
G1 X122.433 Y71.217 E0.08250 ; perimeter
G1 X121.658 Y70.430 E0.08251 ; perimeter
G1 X120.759 Y69.787 E0.08250 ; perimeter
G1 X119.764 Y69.309 E0.08250 ; perimeter
G1 X117.976 Y68.805 E0.13874 ; perimeter
G1 X118.099 Y68.215 E0.04502 ; perimeter
G1 X119.497 Y68.408 E0.10536 ; perimeter
G1 X120.823 Y68.792 E0.10314 ; perimeter
G1 X122.081 Y69.362 E0.10314 ; perimeter
G1 X123.244 Y70.106 E0.10314 ; perimeter
G1 X124.288 Y71.010 E0.10314 ; perimeter
G1 X125.192 Y72.054 E0.10314 ; perimeter
G1 X125.937 Y73.217 E0.10314 ; perimeter
G1 X126.506 Y74.475 E0.10314 ; perimeter
G1 X126.890 Y75.802 E0.10314 ; perimeter
G1 X127.080 Y77.177 E0.10373 ; perimeter
G1 X127.101 Y77.804 E0.04682 ; perimeter
G1 X127.101 Y97.291 E1.45540 ; perimeter
G1 X127.645 Y99.384 E0.16148 ; perimeter
G1 X127.972 Y101.449 E0.15621 ; perimeter
G1 X128.099 Y103.537 E0.15621 ; perimeter
G1 X128.023 Y105.627 E0.15621 ; perimeter
G1 X127.745 Y107.700 E0.15621 ; perimeter
G1 X127.266 Y109.744 E0.15676 ; perimeter
G1 X126.721 Y111.374 E0.12834 ; perimeter
G1 X126.721 Y127.781 E1.22536 ; perimeter
G1 X126.669 Y128.402 E0.04656 ; perimeter
G1 X126.518 Y128.990 E0.04531 ; perimeter
G1 X126.272 Y129.544 E0.04531 ; perimeter
G1 X125.937 Y130.050 E0.04531 ; perimeter
G1 X125.522 Y130.493 E0.04531 ; perimeter
G1 X125.040 Y130.861 E0.04531 ; perimeter
G1 X124.503 Y131.143 E0.04531 ; perimeter
G1 X123.927 Y131.332 E0.04531 ; perimeter
G1 X123.327 Y131.423 E0.04531 ; perimeter
G1 X122.720 Y131.413 E0.04531 ; perimeter
G1 X122.124 Y131.301 E0.04531 ; perimeter
G1 X121.554 Y131.092 E0.04531 ; perimeter
G1 X121.027 Y130.792 E0.04531 ; perimeter
G1 X120.558 Y130.408 E0.04531 ; perimeter
G1 X120.159 Y129.951 E0.04531 ; perimeter
G1 X119.841 Y129.434 E0.04531 ; perimeter
G1 X119.614 Y128.871 E0.04531 ; perimeter
G1 X119.484 Y128.278 E0.04531 ; perimeter
G1 X119.454 Y127.672 E0.04531 ; perimeter
G1 X119.592 Y126.508 E0.08753 ; perimeter
G1 X119.564 Y125.944 E0.04222 ; perimeter
G1 X119.442 Y125.392 E0.04223 ; perimeter
G1 X119.230 Y124.868 E0.04222 ; perimeter
G1 X118.933 Y124.387 E0.04223 ; perimeter
G1 X118.560 Y123.962 E0.04222 ; perimeter
G1 X118.122 Y123.605 E0.04222 ; perimeter
G1 X117.630 Y123.326 E0.04222 ; perimeter
G1 X117.098 Y123.133 E0.04222 ; perimeter
G1 X116.542 Y123.032 E0.04223 ; perimeter
G1 X115.977 Y123.024 E0.04222 ; perimeter
G1 X115.418 Y123.112 E0.04222 ; perimeter
G1 X114.907 Y123.282 E0.04026 ; perimeter
G1 X113.016 Y123.992 E0.15084 ; perimeter
G1 X111.092 Y124.514 E0.14889 ; perimeter
G1 X109.127 Y124.854 E0.14889 ; perimeter
G1 X107.140 Y125.007 E0.14889 ; perimeter
G1 X105.147 Y124.974 E0.14889 ; perimeter
G1 X103.165 Y124.753 E0.14889 ; perimeter
G1 X101.213 Y124.348 E0.14889 ; perimeter
G1 X99.307 Y123.760 E0.14896 ; perimeter
G1 X97.498 Y123.017 E0.14607 ; perimeter
G1 X79.756 Y123.017 E1.32507 ; perimeter
G1 X79.756 Y117.497 E0.41226 ; perimeter
G1 X74.856 Y117.497 E0.36594 ; perimeter
G1 X74.856 Y115.097 E0.17924 ; perimeter
G1 X79.756 Y115.097 E0.36594 ; perimeter
G1 X79.756 Y104.497 E0.79166 ; perimeter
G1 X74.856 Y104.497 E0.36594 ; perimeter
G1 X74.856 Y102.097 E0.17924 ; perimeter
G1 X79.756 Y102.097 E0.36594 ; perimeter
G1 X79.756 Y91.497 E0.79166 ; perimeter
G1 X74.856 Y91.497 E0.36594 ; perimeter
G1 X74.856 Y89.097 E0.17924 ; perimeter
G1 X79.756 Y89.097 E0.36594 ; perimeter
G1 X79.756 Y68.474 E1.54027 ; perimeter
G1 X80.101 Y68.511 F6000.000 ; move inwards before travel
G1 X80.504 Y69.020 F6000.000 ; move to first perimeter point
G1 X81.542 Y68.946 E0.07767 F900.000 ; perimeter
G1 X91.705 Y68.946 E0.75902 ; perimeter
G1 X91.769 Y69.147 E0.01576 ; perimeter
G1 X91.027 Y69.680 E0.06824 ; perimeter
G1 X90.495 Y70.148 E0.05295 ; perimeter
G1 X90.012 Y70.667 E0.05295 ; perimeter
G1 X89.504 Y71.357 E0.06397 ; perimeter
G1 X89.210 Y71.834 E0.04188 ; perimeter
G1 X88.899 Y72.471 E0.05295 ; perimeter
G1 X88.653 Y73.136 E0.05295 ; perimeter
G1 X88.473 Y73.822 E0.05295 ; perimeter
G1 X88.362 Y74.522 E0.05295 ; perimeter
G1 X88.320 Y75.230 E0.05295 ; perimeter
G1 X88.348 Y75.938 E0.05295 ; perimeter
G1 X88.446 Y76.640 E0.05295 ; perimeter
G1 X88.613 Y77.329 E0.05294 ; perimeter
G1 X88.847 Y77.998 E0.05295 ; perimeter
G1 X89.221 Y78.769 E0.06397 ; perimeter
G1 X89.507 Y79.252 E0.04188 ; perimeter
G1 X89.926 Y79.823 E0.05295 ; perimeter
G1 X90.399 Y80.351 E0.05295 ; perimeter
G1 X90.922 Y80.829 E0.05295 ; perimeter
G1 X91.490 Y81.254 E0.05295 ; perimeter
G1 X92.097 Y81.620 E0.05295 ; perimeter
G1 X92.737 Y81.925 E0.05295 ; perimeter
G1 X93.392 Y82.161 E0.05199 ; perimeter
G1 X94.080 Y82.332 E0.05292 ; perimeter
G1 X94.912 Y82.446 E0.06273 ; perimeter
G1 X117.658 Y82.445 E1.69882 ; perimeter
G1 X118.841 Y82.323 E0.08880 ; perimeter
G1 X120.029 Y81.988 E0.09219 ; perimeter
G1 X121.142 Y81.454 E0.09220 ; perimeter
G1 X122.146 Y80.736 E0.09219 ; perimeter
G1 X123.012 Y79.857 E0.09219 ; perimeter
G1 X123.714 Y78.841 E0.09219 ; perimeter
G1 X124.231 Y77.720 E0.09220 ; perimeter
G1 X124.547 Y76.527 E0.09218 ; perimeter
G1 X124.654 Y75.297 E0.09219 ; perimeter
G1 X124.547 Y74.068 E0.09219 ; perimeter
G1 X124.175 Y72.665 E0.10836 ; perimeter
G1 X124.580 Y72.487 E0.03306 ; perimeter
G1 X125.277 Y73.575 E0.09650 ; perimeter
G1 X125.802 Y74.735 E0.09508 ; perimeter
G1 X126.156 Y75.958 E0.09507 ; perimeter
G1 X126.333 Y77.241 E0.09676 ; perimeter
G1 X126.352 Y77.816 E0.04297 ; perimeter
G1 X126.352 Y98.354 E1.53390 ; perimeter
G1 X125.888 Y98.420 E0.03499 ; perimeter
G1 X125.520 Y97.142 E0.09932 ; perimeter
G1 X124.656 Y95.054 E0.16875 ; perimeter
G1 X123.563 Y93.077 E0.16876 ; perimeter
G1 X122.255 Y91.234 E0.16876 ; perimeter
G1 X121.571 Y90.469 E0.07662 ; perimeter
G1 X122.501 Y90.550 E0.06968 ; perimeter
G1 X122.979 Y90.508 E0.03584 ; perimeter
G1 X123.442 Y90.384 E0.03583 ; perimeter
G1 X123.877 Y90.181 E0.03584 ; perimeter
G1 X124.270 Y89.906 E0.03584 ; perimeter
G1 X124.610 Y89.567 E0.03584 ; perimeter
G1 X124.885 Y89.174 E0.03584 ; perimeter
G1 X125.088 Y88.739 E0.03584 ; perimeter
G1 X125.212 Y88.275 E0.03584 ; perimeter
G1 X125.254 Y87.797 E0.03584 ; perimeter
G1 X125.212 Y87.319 E0.03584 ; perimeter
G1 X125.088 Y86.856 E0.03584 ; perimeter
G1 X124.885 Y86.421 E0.03584 ; perimeter
G1 X124.610 Y86.028 E0.03584 ; perimeter
G1 X124.270 Y85.689 E0.03584 ; perimeter
G1 X124.086 Y85.560 E0.01679 ; perimeter
G1 X123.877 Y85.413 E0.01906 ; perimeter
G1 X123.442 Y85.210 E0.03584 ; perimeter
G1 X122.979 Y85.086 E0.03584 ; perimeter
G1 X122.612 Y85.054 E0.02747 ; perimeter
G1 X122.501 Y85.044 E0.00837 ; perimeter
G1 X122.023 Y85.086 E0.03584 ; perimeter
G1 X121.559 Y85.210 E0.03584 ; perimeter
G1 X121.226 Y85.366 E0.02747 ; perimeter
G1 X121.124 Y85.413 E0.00837 ; perimeter
G1 X120.731 Y85.688 E0.03583 ; perimeter
G1 X120.392 Y86.028 E0.03584 ; perimeter
G1 X120.117 Y86.421 E0.03584 ; perimeter
G1 X119.914 Y86.856 E0.03584 ; perimeter
G1 X119.790 Y87.319 E0.03583 ; perimeter
G1 X119.748 Y87.797 E0.03584 ; perimeter
G1 X119.829 Y88.727 E0.06968 ; perimeter
G1 X119.064 Y88.043 E0.07662 ; perimeter
G1 X117.221 Y86.736 E0.16876 ; perimeter
G1 X115.244 Y85.643 E0.16876 ; perimeter
G1 X113.025 Y84.724 E0.17933 ; perimeter
G1 X113.025 Y84.740 E0.00123 ; perimeter
G1 X110.985 Y84.152 E0.15861 ; perimeter
G1 X108.757 Y83.774 E0.16876 ; perimeter
G1 X106.501 Y83.647 E0.16876 ; perimeter
G1 X104.245 Y83.774 E0.16877 ; perimeter
G1 X102.017 Y84.152 E0.16876 ; perimeter
G1 X99.846 Y84.778 E0.16876 ; perimeter
G1 X97.758 Y85.643 E0.16876 ; perimeter
G1 X95.780 Y86.736 E0.16876 ; perimeter
G1 X93.937 Y88.043 E0.16876 ; perimeter
G1 X93.172 Y88.727 E0.07662 ; perimeter
G1 X93.254 Y87.797 E0.06968 ; perimeter
G1 X93.212 Y87.319 E0.03584 ; perimeter
G1 X93.088 Y86.856 E0.03584 ; perimeter
G1 X92.885 Y86.421 E0.03583 ; perimeter
G1 X92.610 Y86.028 E0.03584 ; perimeter
G1 X92.270 Y85.688 E0.03584 ; perimeter
G1 X91.877 Y85.413 E0.03584 ; perimeter
G1 X91.442 Y85.210 E0.03584 ; perimeter
G1 X90.979 Y85.086 E0.03584 ; perimeter
G1 X90.612 Y85.054 E0.02747 ; perimeter
G1 X90.501 Y85.044 E0.00837 ; perimeter
G1 X90.023 Y85.086 E0.03583 ; perimeter
G1 X89.559 Y85.210 E0.03584 ; perimeter
G1 X89.124 Y85.413 E0.03584 ; perimeter
G1 X88.731 Y85.688 E0.03583 ; perimeter
G1 X88.392 Y86.028 E0.03584 ; perimeter
G1 X88.117 Y86.421 E0.03584 ; perimeter
G1 X87.914 Y86.856 E0.03584 ; perimeter
G1 X87.790 Y87.319 E0.03584 ; perimeter
G1 X87.748 Y87.797 E0.03584 ; perimeter
G1 X87.790 Y88.275 E0.03584 ; perimeter
G1 X87.914 Y88.739 E0.03583 ; perimeter
G1 X88.117 Y89.174 E0.03584 ; perimeter
G1 X88.392 Y89.567 E0.03584 ; perimeter
G1 X88.731 Y89.906 E0.03583 ; perimeter
G1 X89.124 Y90.181 E0.03584 ; perimeter
G1 X89.559 Y90.384 E0.03584 ; perimeter
G1 X90.023 Y90.508 E0.03584 ; perimeter
G1 X90.501 Y90.550 E0.03584 ; perimeter
G1 X91.430 Y90.469 E0.06968 ; perimeter
G1 X90.747 Y91.234 E0.07662 ; perimeter
G1 X89.439 Y93.077 E0.16876 ; perimeter
G1 X88.346 Y95.054 E0.16876 ; perimeter
G1 X87.481 Y97.142 E0.16876 ; perimeter
G1 X86.442 Y100.749 E0.28038 ; perimeter
G1 X86.612 Y100.749 E0.01268 ; perimeter
G1 X86.477 Y101.541 E0.05998 ; perimeter
G1 X86.350 Y103.797 E0.16876 ; perimeter
G1 X86.477 Y106.053 E0.16876 ; perimeter
G1 X86.856 Y108.281 E0.16876 ; perimeter
G1 X87.388 Y110.128 E0.14352 ; perimeter
G1 X87.481 Y110.453 E0.02525 ; perimeter
G1 X88.346 Y112.540 E0.16876 ; perimeter
G1 X89.439 Y114.518 E0.16876 ; perimeter
G1 X90.747 Y116.361 E0.16876 ; perimeter
G1 X91.430 Y117.126 E0.07661 ; perimeter
G1 X90.501 Y117.044 E0.06968 ; perimeter
G1 X90.023 Y117.086 E0.03584 ; perimeter
