; generated by Slic3r 1.1.6 on 2014-08-10 at 22:21:02

; perimeters extrusion width = 0.50mm
; infill extrusion width = 0.50mm
; solid infill extrusion width = 0.50mm
; top infill extrusion width = 0.50mm

G21 ; set units to millimeters
M107 ; disable fan
M190 S57 ; wait for bed temperature to be reached
M104 S200 ; set temperature

M109 S200 ; wait for temperature to be reached
G90 ; use absolute coordinates
M83 ; use relative distances for extrusion
G1 F1800.000 E-2.40000 ; retract
G1 Z0.240 F6000.000 ; move to next layer (0)
G1 X75.269 Y75.021 F6000.000 ; move to first skirt point
G1 E2.40000 F1800.000 ; compensate retraction
G1 X76.929 Y74.019 E0.14480 F600.000 ; skirt
G1 X78.500 Y73.752 E0.11904 ; skirt
G1 X121.500 Y73.752 E3.21146 ; skirt
G1 X123.398 Y74.147 E0.14480 ; skirt
G1 X124.979 Y75.269 E0.14480 ; skirt
G1 X125.981 Y76.929 E0.14480 ; skirt
G1 X126.248 Y78.500 E0.11904 ; skirt
G1 X126.248 Y121.500 E3.21146 ; skirt
G1 X125.853 Y123.398 E0.14480 ; skirt
G1 X124.731 Y124.979 E0.14480 ; skirt
G1 X123.071 Y125.981 E0.14480 ; skirt
G1 X121.500 Y126.248 E0.11904 ; skirt
G1 X78.500 Y126.248 E3.21146 ; skirt
G1 X76.602 Y125.853 E0.14480 ; skirt
G1 X75.021 Y124.731 E0.14480 ; skirt
G1 X74.019 Y123.071 E0.14480 ; skirt
G1 X73.752 Y121.500 E0.11904 ; skirt
G1 X73.752 Y78.500 E3.21146 ; skirt
G1 X74.147 Y76.602 E0.14480 ; skirt
G1 X75.225 Y75.082 E0.13920 ; skirt
G1 F1800.000 E-2.40000 ; retract
G1 X85.910 Y86.629 F6000.000 ; move to first perimeter point
G1 E2.40000 F1800.000 ; compensate retraction
G1 X86.118 Y86.915 E0.02634 F900.000 ; perimeter
G1 F1800.000 E-2.40000 ; retract
G1 X121.100 Y121.100 F6000.000 ; move to first perimeter point
G1 E2.40000 F1800.000 ; compensate retraction
G1 X78.900 Y121.100 E3.15172 F900.000 ; perimeter
G1 X78.900 Y78.900 E3.15172 ; perimeter
G1 X121.100 Y78.900 E3.15172 ; perimeter
G1 X121.100 Y121.025 E3.14611 ; perimeter
G1 X120.667 Y120.850 F6000.000 ; move inwards before travel
G1 F1800.000 E-2.40000 ; retract
G1 X112.104 Y116.065 F6000.000 ; move to first perimeter point
G1 E2.40000 F1800.000 ; compensate retraction
G1 X112.844 Y115.527 E0.06839 F900.000 ; perimeter
G1 X114.689 Y113.794 E0.18902 ; perimeter
G1 X116.302 Y111.844 E0.18900 ; perimeter
G1 X117.658 Y109.708 E0.18899 ; perimeter
G1 X118.736 Y107.418 E0.18900 ; perimeter
G1 X119.673 Y104.532 E0.22662 ; perimeter
G1 X119.610 Y104.527 E0.00476 ; perimeter
G1 X119.809 Y103.484 E0.07934 ; perimeter
G1 X120.352 Y103.535 E0.04069 ; perimeter
G1 X120.352 Y120.352 E1.25594 ; perimeter
G1 X103.710 Y120.352 E1.24287 ; perimeter
G1 X103.644 Y119.828 E0.03943 ; perimeter
G1 X106.227 Y119.165 E0.19916 ; perimeter
G1 X108.580 Y118.233 E0.18901 ; perimeter
G1 X110.797 Y117.014 E0.18896 ; perimeter
G1 X112.043 Y116.109 E0.11501 ; perimeter
G1 F1800.000 E-2.40000 ; retract
G1 X118.132 Y91.039 F6000.000 ; move to first perimeter point
G1 E2.40000 F1800.000 ; compensate retraction
G1 X116.302 Y88.156 E0.25506 F900.000 ; perimeter
G1 X114.689 Y86.206 E0.18899 ; perimeter
G1 X112.845 Y84.474 E0.18899 ; perimeter
G1 X110.797 Y82.986 E0.18900 ; perimeter
G1 X107.886 Y81.386 E0.24809 ; perimeter
G1 X107.862 Y81.483 E0.00747 ; perimeter
G1 X106.227 Y80.835 E0.13130 ; perimeter
G1 X103.644 Y80.172 E0.19919 ; perimeter
G1 X103.710 Y79.648 E0.03943 ; perimeter
G1 X120.352 Y79.648 E1.24288 ; perimeter
G1 X120.352 Y96.465 E1.25593 ; perimeter
G1 X119.809 Y96.516 E0.04069 ; perimeter
G1 X119.518 Y94.989 E0.11613 ; perimeter
G1 X118.736 Y92.582 E0.18900 ; perimeter
G1 X118.044 Y91.114 E0.12121 ; perimeter
G1 X118.075 Y91.088 E0.00299 ; perimeter
G1 F1800.000 E-2.40000 ; retract
G1 X110.165 Y97.284 F6000.000 ; move to first perimeter point
G1 E2.40000 F1800.000 ; compensate retraction
G1 X110.595 Y100.000 E0.20540 F900.000 ; perimeter
G1 X110.076 Y103.274 E0.24757 ; perimeter
G1 X108.572 Y106.228 E0.24757 ; perimeter
G1 X106.228 Y108.572 E0.24757 ; perimeter
G1 X103.274 Y110.076 E0.24757 ; perimeter
G1 X100.000 Y110.595 E0.24757 ; perimeter
G1 X96.726 Y110.076 E0.24755 ; perimeter
G1 X93.772 Y108.572 E0.24758 ; perimeter
G1 X93.709 Y108.508 E0.00673 ; perimeter
G1 X91.427 Y106.226 E0.24096 ; perimeter
G1 X89.924 Y103.274 E0.24746 ; perimeter
G1 X89.269 Y99.140 E0.31261 ; perimeter
G1 X89.553 Y99.067 E0.02189 ; perimeter
G1 X89.924 Y96.726 E0.17705 ; perimeter
G1 X91.428 Y93.772 E0.24757 ; perimeter
G1 X93.772 Y91.428 E0.24757 ; perimeter
G1 X96.726 Y89.924 E0.24757 ; perimeter
G1 X99.103 Y89.547 E0.17976 ; perimeter
G1 X100.000 Y89.405 E0.06781 ; perimeter
G1 X103.274 Y89.924 E0.24757 ; perimeter
G1 X105.556 Y91.086 E0.19126 ; perimeter
G1 X105.616 Y90.817 E0.02059 ; perimeter
G1 X108.572 Y93.772 E0.31214 ; perimeter
G1 X110.310 Y97.184 E0.28600 ; perimeter
G1 X110.227 Y97.241 E0.00753 ; perimeter
G1 F1800.000 E-2.40000 ; retract
G1 X109.043 Y103.653 F6000.000 ; move to first perimeter point
G1 E2.40000 F1800.000 ; compensate retraction
G1 X107.958 Y105.782 E0.17849 F900.000 ; perimeter
G1 X105.782 Y107.958 E0.22987 ; perimeter
G1 X103.040 Y109.356 E0.22986 ; perimeter
G1 X100.000 Y109.837 E0.22986 ; perimeter
G1 X97.961 Y109.514 E0.15416 ; perimeter
G1 X96.961 Y109.356 E0.07565 ; perimeter
G1 X94.218 Y107.958 E0.22991 ; perimeter
G1 X92.041 Y105.781 E0.22995 ; perimeter
G1 X90.644 Y103.040 E0.22978 ; perimeter
G1 X90.607 Y102.807 E0.01761 ; perimeter
G1 X90.115 Y99.696 E0.23521 ; perimeter
G1 X90.215 Y99.671 E0.00772 ; perimeter
G1 X90.644 Y96.960 E0.20498 ; perimeter
G1 X92.042 Y94.218 E0.22986 ; perimeter
G1 X94.218 Y92.042 E0.22987 ; perimeter
G1 X96.960 Y90.644 E0.22986 ; perimeter
G1 X100.000 Y90.163 E0.22986 ; perimeter
G1 X103.040 Y90.644 E0.22986 ; perimeter
G1 X105.782 Y92.041 E0.22985 ; perimeter
G1 X107.958 Y94.218 E0.22988 ; perimeter
G1 X109.356 Y96.961 E0.22991 ; perimeter
G1 X109.837 Y100.000 E0.22981 ; perimeter
G1 X109.356 Y103.040 E0.22987 ; perimeter
G1 X109.078 Y103.586 E0.04577 ; perimeter
G1 F1800.000 E-2.40000 ; retract
G1 X94.338 Y80.612 F6000.000 ; move to first perimeter point
G1 E2.40000 F1800.000 ; compensate retraction
G1 X91.420 Y81.767 E0.23439 F900.000 ; perimeter
G1 X89.203 Y82.986 E0.18899 ; perimeter
G1 X88.350 Y83.605 E0.07869 ; perimeter
G1 X88.197 Y82.636 E0.07328 ; perimeter
G1 X87.570 Y81.406 E0.10311 ; perimeter
G1 X86.594 Y80.430 E0.10311 ; perimeter
G1 X85.961 Y80.108 E0.05305 ; perimeter
G1 X86.071 Y79.648 E0.03526 ; perimeter
G1 X96.290 Y79.648 E0.76321 ; perimeter
G1 X96.356 Y80.172 E0.03943 ; perimeter
G1 X94.376 Y80.676 E0.15261 ; perimeter
G1 F1800.000 E-2.40000 ; retract
G1 X82.039 Y80.108 F6000.000 ; move to first perimeter point
G1 E2.40000 F1800.000 ; compensate retraction
G1 X81.406 Y80.430 E0.05305 F900.000 ; perimeter
G1 X80.430 Y81.406 E0.10311 ; perimeter
G1 X80.108 Y82.039 E0.05305 ; perimeter
G1 X79.648 Y81.929 E0.03526 ; perimeter
G1 X79.648 Y79.648 E0.17031 ; perimeter
G1 X81.929 Y79.648 E0.17031 ; perimeter
G1 X82.022 Y80.035 E0.02965 ; perimeter
G1 F1800.000 E-2.40000 ; retract
G1 X83.009 Y88.988 F6000.000 ; move to first perimeter point
G1 E2.40000 F1800.000 ; compensate retraction
G1 X83.134 Y89.044 E0.01020 F900.000 ; perimeter
G1 X82.342 Y90.292 E0.11038 ; perimeter
G1 X81.264 Y92.582 E0.18899 ; perimeter
G1 X80.482 Y94.989 E0.18900 ; perimeter
G1 X80.191 Y96.516 E0.11613 ; perimeter
G1 X79.648 Y96.465 E0.04069 ; perimeter
G1 X79.648 Y86.071 E0.77626 ; perimeter
G1 X80.108 Y85.961 E0.03526 ; perimeter
G1 X80.430 Y86.594 E0.05305 ; perimeter
G1 X81.406 Y87.570 E0.10311 ; perimeter
G1 X82.636 Y88.197 E0.10311 ; perimeter
G1 X83.545 Y88.341 E0.06868 ; perimeter
G1 X83.057 Y88.930 E0.05713 ; perimeter
G1 F1800.000 E-2.40000 ; retract
G1 X80.191 Y103.484 F6000.000 ; move to first perimeter point
G1 E2.40000 F1800.000 ; compensate retraction
G1 X80.482 Y105.011 E0.11613 F900.000 ; perimeter
G1 X81.264 Y107.418 E0.18900 ; perimeter
G1 X82.342 Y109.708 E0.18898 ; perimeter
G1 X83.577 Y111.654 E0.17219 ; perimeter
G1 X82.636 Y111.803 E0.07113 ; perimeter
G1 X81.406 Y112.430 E0.10311 ; perimeter
G1 X80.430 Y113.406 E0.10312 ; perimeter
G1 X80.108 Y114.039 E0.05305 ; perimeter
G1 X79.648 Y113.929 E0.03526 ; perimeter
G1 X79.648 Y103.535 E0.77626 ; perimeter
G1 X80.116 Y103.491 E0.03509 ; perimeter
G1 F1800.000 E-2.40000 ; retract
G1 X90.829 Y106.800 F6000.000 ; move to first perimeter point
G1 E2.40000 F1800.000 ; compensate retraction
G1 X91.313 Y107.127 E0.04366 F900.000 ; perimeter
G1 X89.050 Y110.830 E0.32417 ; perimeter
G1 X87.193 Y114.087 E0.28002 ; perimeter
G1 X86.367 Y113.261 E0.08725 ; perimeter
G1 X89.981 Y107.992 E0.47723 ; perimeter
G1 X90.786 Y106.861 E0.10367 ; perimeter
G1 F1800.000 E-2.40000 ; retract
G1 X88.350 Y116.395 F6000.000 ; move to first perimeter point
G1 E2.40000 F1800.000 ; compensate retraction
G1 X89.203 Y117.014 E0.07870 F900.000 ; perimeter
G1 X91.420 Y118.233 E0.18894 ; perimeter
G1 X93.773 Y119.165 E0.18905 ; perimeter
G1 X96.356 Y119.828 E0.19917 ; perimeter
G1 X96.290 Y120.352 E0.03943 ; perimeter
G1 X86.071 Y120.352 E0.76320 ; perimeter
G1 X85.961 Y119.892 E0.03526 ; perimeter
G1 X86.594 Y119.570 E0.05305 ; perimeter
G1 X87.570 Y118.594 E0.10311 ; perimeter
G1 X88.197 Y117.364 E0.10311 ; perimeter
G1 X88.339 Y116.469 E0.06767 ; perimeter
G1 F1800.000 E-2.40000 ; retract
G1 X82.039 Y119.892 F6000.000 ; move to first perimeter point
G1 E2.40000 F1800.000 ; compensate retraction
G1 X81.929 Y120.352 E0.03526 F900.000 ; perimeter
G1 X79.648 Y120.352 E0.17031 ; perimeter
G1 X79.648 Y118.071 E0.17031 ; perimeter
G1 X80.108 Y117.961 E0.03526 ; perimeter
G1 X80.430 Y118.594 E0.05305 ; perimeter
G1 X81.406 Y119.570 E0.10311 ; perimeter
G1 X81.972 Y119.858 E0.04745 ; perimeter
G1 F1800.000 E-2.40000 ; retract
G1 X87.470 Y114.830 F6000.000 ; move to first perimeter point
G1 E2.40000 F1800.000 ; compensate retraction
G1 X87.655 Y116.000 E0.08850 F900.000 ; perimeter
G1 X87.476 Y117.129 E0.08540 ; perimeter
G1 X86.957 Y118.148 E0.08541 ; perimeter
G1 X86.148 Y118.957 E0.08541 ; perimeter
G1 X85.129 Y119.476 E0.08540 ; perimeter
G1 X84.000 Y119.655 E0.08541 ; perimeter
G1 X82.871 Y119.476 E0.08541 ; perimeter
G1 X81.852 Y118.957 E0.08540 ; perimeter
G1 X81.043 Y118.148 E0.08541 ; perimeter
G1 X80.524 Y117.129 E0.08540 ; perimeter
G1 X80.345 Y116.000 E0.08540 ; perimeter
G1 X80.524 Y114.871 E0.08540 ; perimeter
G1 X81.043 Y113.852 E0.08540 ; perimeter
G1 X81.852 Y113.043 E0.08541 ; perimeter
G1 X82.871 Y112.524 E0.08540 ; perimeter
G1 X84.000 Y112.345 E0.08541 ; perimeter
G1 X85.247 Y112.543 E0.09427 ; perimeter
G1 X84.304 Y111.403 E0.11041 ; perimeter
G1 X82.999 Y109.346 E0.18197 ; perimeter
G1 X81.962 Y107.142 E0.18195 ; perimeter
G1 X81.209 Y104.825 E0.18197 ; perimeter
G1 X80.800 Y102.683 E0.16287 ; perimeter
G1 X84.650 Y101.258 E0.30660 ; perimeter
G1 X88.765 Y99.876 E0.32417 ; perimeter
G1 X88.604 Y99.314 E0.04366 ; perimeter
G1 X87.188 Y99.682 E0.10926 ; perimeter
G1 X80.693 Y101.490 E0.50352 ; perimeter
G1 X80.599 Y100.000 E0.11148 ; perimeter
G1 X80.752 Y97.568 E0.18196 ; perimeter
G1 X81.209 Y95.175 E0.18196 ; perimeter
G1 X81.962 Y92.858 E0.18196 ; perimeter
G1 X82.999 Y90.654 E0.18196 ; perimeter
G1 X83.590 Y89.722 E0.08244 ; perimeter
G1 X87.433 Y91.097 E0.30480 ; perimeter
G1 X91.473 Y92.683 E0.32415 ; perimeter
G1 X91.711 Y92.149 E0.04366 ; perimeter
G1 X90.390 Y91.521 E0.10924 ; perimeter
G1 X84.209 Y88.711 E0.50704 ; perimeter
G1 X85.247 Y87.458 E0.12153 ; perimeter
G1 X84.000 Y87.655 E0.09427 ; perimeter
G1 X82.871 Y87.476 E0.08541 ; perimeter
G1 X81.852 Y86.957 E0.08540 ; perimeter
G1 X81.043 Y86.148 E0.08541 ; perimeter
G1 X80.524 Y85.129 E0.08540 ; perimeter
G1 X80.345 Y84.000 E0.08540 ; perimeter
G1 X80.524 Y82.871 E0.08541 ; perimeter
G1 X81.043 Y81.852 E0.08540 ; perimeter
G1 X81.852 Y81.043 E0.08541 ; perimeter
G1 X82.871 Y80.524 E0.08540 ; perimeter
G1 X84.000 Y80.345 E0.08540 ; perimeter
G1 X85.129 Y80.524 E0.08540 ; perimeter
G1 X86.148 Y81.043 E0.08540 ; perimeter
G1 X86.957 Y81.852 E0.08541 ; perimeter
G1 X87.476 Y82.871 E0.08540 ; perimeter
G1 X87.655 Y84.000 E0.08541 ; perimeter
G1 X87.470 Y85.171 E0.08851 ; perimeter
G1 X89.605 Y83.619 E0.19709 ; perimeter
G1 X91.740 Y82.446 E0.18196 ; perimeter
G1 X94.016 Y81.544 E0.18288 ; perimeter
G1 X96.096 Y85.102 E0.30775 ; perimeter
G1 X98.171 Y88.913 E0.32413 ; perimeter
G1 X98.697 Y88.657 E0.04366 ; perimeter
G1 X98.088 Y87.327 E0.10923 ; perimeter
G1 X95.181 Y81.247 E0.50337 ; perimeter
G1 X96.365 Y80.943 E0.09126 ; perimeter
G1 X98.782 Y80.637 E0.18196 ; perimeter
G1 X101.218 Y80.637 E0.18196 ; perimeter
G1 X103.635 Y80.943 E0.18196 ; perimeter
G1 X105.995 Y81.549 E0.18196 ; perimeter
G1 X107.273 Y82.055 E0.10263 ; perimeter
G1 X106.586 Y86.078 E0.30482 ; perimeter
G1 X105.726 Y90.331 E0.32407 ; perimeter
G1 X106.293 Y90.473 E0.04366 ; perimeter
G1 X106.681 Y89.063 E0.10917 ; perimeter
G1 X108.371 Y82.506 E0.50572 ; perimeter
G1 X110.395 Y83.619 E0.17256 ; perimeter
G1 X112.367 Y85.051 E0.18196 ; perimeter
G1 X114.143 Y86.719 E0.18196 ; perimeter
G1 X115.696 Y88.597 E0.18196 ; perimeter
G1 X117.151 Y90.890 E0.20287 ; perimeter
G1 X113.994 Y93.568 E0.30919 ; perimeter
G1 X110.601 Y96.273 E0.32411 ; perimeter
G1 X110.944 Y96.747 E0.04366 ; perimeter
G1 X112.148 Y95.917 E0.10921 ; perimeter
G1 X117.633 Y91.997 E0.50350 ; perimeter
G1 X118.038 Y92.858 E0.07109 ; perimeter
G1 X118.791 Y95.175 E0.18196 ; perimeter
G1 X119.238 Y97.519 E0.17821 ; perimeter
G1 X119.401 Y100.000 E0.18568 ; perimeter
G1 X119.248 Y102.432 E0.18196 ; perimeter
G1 X118.940 Y104.046 E0.12275 ; perimeter
G1 X114.854 Y104.068 E0.30512 ; perimeter
G1 X110.515 Y103.959 E0.32416 ; perimeter
G1 X110.474 Y104.542 E0.04366 ; perimeter
G1 X111.931 Y104.681 E0.10926 ; perimeter
G1 X118.668 Y105.205 E0.50469 ; perimeter
G1 X118.038 Y107.142 E0.15212 ; perimeter
G1 X117.001 Y109.346 E0.18196 ; perimeter
G1 X115.696 Y111.403 E0.18196 ; perimeter
G1 X114.143 Y113.281 E0.18196 ; perimeter
G1 X112.366 Y114.949 E0.18197 ; perimeter
G1 X111.913 Y115.278 E0.04185 ; perimeter
G1 X108.764 Y112.665 E0.30562 ; perimeter
G1 X105.510 Y109.792 E0.32420 ; perimeter
G1 X105.103 Y110.212 E0.04366 ; perimeter
G1 X106.131 Y111.254 E0.10930 ; perimeter
G1 X110.948 Y115.980 E0.50394 ; perimeter
G1 X110.395 Y116.381 E0.05098 ; perimeter
G1 X108.260 Y117.554 E0.18195 ; perimeter
G1 X105.995 Y118.451 E0.18197 ; perimeter
G1 X103.635 Y119.057 E0.18196 ; perimeter
G1 X101.218 Y119.363 E0.18196 ; perimeter
G1 X99.306 Y119.363 E0.14283 ; perimeter
G1 X98.573 Y115.335 E0.30572 ; perimeter
G1 X97.927 Y111.044 E0.32410 ; perimeter
G1 X97.345 Y111.105 E0.04366 ; perimeter
G1 X97.462 Y112.562 E0.10919 ; perimeter
G1 X98.115 Y119.278 E0.50396 ; perimeter
G1 X96.365 Y119.057 E0.13176 ; perimeter
G1 X94.005 Y118.451 E0.18196 ; perimeter
G1 X91.739 Y117.554 E0.18198 ; perimeter
G1 X89.605 Y116.381 E0.18194 ; perimeter
G1 X87.530 Y114.874 E0.19149 ; perimeter
G1 X87.673 Y115.286 F6000.000 ; move inwards before travel
G1 F1800.000 E-2.40000 ; retract
G1 X106.627 Y119.784 F6000.000 ; move to first fill point
G1 E2.40000 F1800.000 ; compensate retraction
G1 X106.672 Y119.829 E0.00477 F900.000 ; fill
G1 X107.260 Y119.318 E0.05819 ; fill
G1 X107.771 Y119.829 E0.05399 ; fill
G1 X108.870 Y119.829 E0.08209 ; fill
G1 X108.047 Y119.006 E0.08692 ; fill
G1 X108.831 Y118.691 E0.06312 ; fill
G1 X109.969 Y119.829 E0.12018 ; fill
G1 X111.068 Y119.829 E0.08209 ; fill
G1 X109.541 Y118.301 E0.16137 ; fill
G1 X110.250 Y117.911 E0.06045 ; fill
G1 X112.168 Y119.829 E0.20255 ; fill
G1 X113.267 Y119.829 E0.08209 ; fill
G1 X110.959 Y117.521 E0.24373 ; fill
G1 X111.608 Y117.071 E0.05898 ; fill
G1 X114.366 Y119.829 E0.29130 ; fill
G1 X115.465 Y119.829 E0.08209 ; fill
G1 X112.245 Y116.608 E0.34015 ; fill
G1 X112.881 Y116.146 E0.05877 ; fill
G1 X116.564 Y119.829 E0.38899 ; fill
G1 X117.663 Y119.829 E0.08209 ; fill
G1 X113.481 Y115.646 E0.44178 ; fill
G1 X114.047 Y115.114 E0.05807 ; fill
G1 X118.762 Y119.829 E0.49800 ; fill
G1 X119.825 Y119.793 E0.07942 ; fill
G1 X114.614 Y114.582 E0.55038 ; fill
G1 X115.168 Y114.036 E0.05805 ; fill
G1 X119.829 Y118.697 E0.49232 ; fill
