; generated by Slic3r 1.0.1 on 2014-08-10 at 22:18:12

; layer_height = 0.24
; perimeters = 2
; top_solid_layers = 3
; bottom_solid_layers = 3
; fill_density = 0.25
; perimeter_speed = 30
; infill_speed = 30
; travel_speed = 100
; nozzle_diameter = 0.5
; filament_diameter = 1.75
; extrusion_multiplier = 1
; perimeters extrusion width = 0.50mm
; infill extrusion width = 0.50mm
; solid infill extrusion width = 0.50mm
; top infill extrusion width = 0.50mm
; first layer extrusion width = 0.80mm

G21 ; set units to millimeters
M107 ; disable fan
M190 S60 ; wait for bed temperature to be reached
M104 S200 ; set temperature

M109 S200 ; wait for temperature to be reached
G90 ; use absolute coordinates
M83 ; use relative distances for extrusion
G1 F1800.000 E-2.40000 ; retract
G1 Z0.240 F6000.000 ; move to next layer (0)
G1 X73.200 Y73.200 F6000.000 ; move to first skirt point
G1 E2.40000 F1800.000 ; compensate retraction
G1 X74.330 Y72.270 E0.10930 F900.000 ; skirt
G1 X75.630 Y71.570 E0.11027 ; skirt
G1 X77.040 Y71.150 E0.10988 ; skirt
G1 X78.500 Y71.000 E0.10961 ; skirt
G1 X121.500 Y71.000 E3.21146 ; skirt
G1 X122.960 Y71.150 E0.10961 ; skirt
G1 X124.370 Y71.570 E0.10988 ; skirt
G1 X125.670 Y72.270 E0.11027 ; skirt
G1 X126.800 Y73.200 E0.10930 ; skirt
G1 X127.730 Y74.330 E0.10930 ; skirt
G1 X128.430 Y75.630 E0.11027 ; skirt
G1 X128.850 Y77.040 E0.10988 ; skirt
G1 X129.000 Y78.500 E0.10961 ; skirt
G1 X129.000 Y121.500 E3.21146 ; skirt
G1 X128.850 Y122.960 E0.10961 ; skirt
G1 X128.430 Y124.370 E0.10988 ; skirt
G1 X127.730 Y125.670 E0.11027 ; skirt
G1 X126.800 Y126.800 E0.10930 ; skirt
G1 X125.670 Y127.730 E0.10930 ; skirt
G1 X124.370 Y128.430 E0.11027 ; skirt
G1 X122.960 Y128.850 E0.10988 ; skirt
G1 X121.500 Y129.000 E0.10961 ; skirt
G1 X78.500 Y129.000 E3.21146 ; skirt
G1 X77.040 Y128.850 E0.10961 ; skirt
G1 X75.630 Y128.430 E0.10988 ; skirt
G1 X74.330 Y127.730 E0.11027 ; skirt
G1 X73.200 Y126.800 E0.10930 ; skirt
G1 X72.270 Y125.670 E0.10930 ; skirt
G1 X71.570 Y124.370 E0.11027 ; skirt
G1 X71.150 Y122.960 E0.10988 ; skirt
G1 X71.000 Y121.500 E0.10961 ; skirt
G1 X71.000 Y78.500 E3.21146 ; skirt
G1 X71.150 Y77.040 E0.10961 ; skirt
G1 X71.570 Y75.630 E0.10988 ; skirt
G1 X72.270 Y74.330 E0.11027 ; skirt
G1 X73.129 Y73.287 E0.10092 ; skirt
G1 X73.730 Y73.730 F6000.000 ; move to first skirt point
G1 X74.750 Y72.890 E0.09869 F900.000 ; skirt
G1 X75.920 Y72.270 E0.09889 ; skirt
G1 X77.180 Y71.880 E0.09851 ; skirt
G1 X78.500 Y71.750 E0.09906 ; skirt
G1 X121.500 Y71.750 E3.21146 ; skirt
G1 X122.820 Y71.880 E0.09906 ; skirt
G1 X124.080 Y72.270 E0.09851 ; skirt
G1 X125.250 Y72.890 E0.09889 ; skirt
G1 X126.270 Y73.730 E0.09869 ; skirt
G1 X127.110 Y74.750 E0.09869 ; skirt
G1 X127.730 Y75.920 E0.09889 ; skirt
G1 X128.120 Y77.180 E0.09851 ; skirt
G1 X128.250 Y78.500 E0.09906 ; skirt
G1 X128.250 Y121.500 E3.21146 ; skirt
G1 X128.120 Y122.820 E0.09906 ; skirt
G1 X127.730 Y124.080 E0.09851 ; skirt
G1 X127.110 Y125.250 E0.09889 ; skirt
G1 X126.270 Y126.270 E0.09869 ; skirt
G1 X125.250 Y127.110 E0.09869 ; skirt
G1 X124.080 Y127.730 E0.09889 ; skirt
G1 X122.820 Y128.120 E0.09851 ; skirt
G1 X121.500 Y128.250 E0.09906 ; skirt
G1 X78.500 Y128.250 E3.21146 ; skirt
G1 X77.180 Y128.120 E0.09906 ; skirt
G1 X75.920 Y127.730 E0.09851 ; skirt
G1 X74.750 Y127.110 E0.09889 ; skirt
G1 X73.730 Y126.270 E0.09869 ; skirt
G1 X72.890 Y125.250 E0.09869 ; skirt
G1 X72.270 Y124.080 E0.09889 ; skirt
G1 X71.880 Y122.820 E0.09851 ; skirt
G1 X71.750 Y121.500 E0.09906 ; skirt
G1 X71.750 Y78.500 E3.21146 ; skirt
G1 X71.880 Y77.180 E0.09906 ; skirt
G1 X72.270 Y75.920 E0.09851 ; skirt
G1 X72.890 Y74.750 E0.09889 ; skirt
G1 X73.659 Y73.817 E0.09030 ; skirt
G1 F1800.000 E-2.40000 ; retract
G1 X78.900 Y78.900 F6000.000 ; move to first perimeter point
G1 E2.40000 F1800.000 ; compensate retraction
G1 X121.100 Y78.900 E3.15172 F900.000 ; perimeter
G1 X121.100 Y121.100 E3.15172 ; perimeter
G1 X78.900 Y121.100 E3.15172 ; perimeter
G1 X78.900 Y79.012 E3.14333 ; perimeter
G1 X79.548 Y79.274 F6000.000 ; move inwards before travel
G1 F1800.000 E-2.40000 ; retract
G1 X79.954 Y117.660 F6000.000 ; move to first perimeter point
G1 E2.40000 F1800.000 ; compensate retraction
G1 X80.430 Y118.594 E0.07824 F780.000 ; perimeter
G1 X81.406 Y119.570 E0.10311 ; perimeter
G1 X82.340 Y120.046 E0.07824 ; perimeter
G1 X82.266 Y120.352 E0.02349 ; perimeter
G1 X79.648 Y120.352 E0.19550 ; perimeter
G1 X79.648 Y117.734 E0.19550 ; perimeter
G1 X79.845 Y117.687 E0.01511 ; perimeter
G1 F1800.000 E-2.40000 ; retract
G1 X85.660 Y120.046 F6000.000 ; move to first perimeter point
G1 E2.40000 F1800.000 ; compensate retraction
G1 X86.594 Y119.570 E0.07824 F780.000 ; perimeter
G1 X87.570 Y118.594 E0.10311 ; perimeter
G1 X88.197 Y117.364 E0.10311 ; perimeter
G1 X88.350 Y116.395 E0.07327 ; perimeter
G1 X89.203 Y117.014 E0.07869 ; perimeter
G1 X91.420 Y118.233 E0.18897 ; perimeter
G1 X93.773 Y119.165 E0.18901 ; perimeter
G1 X96.485 Y119.861 E0.20913 ; perimeter
G1 X96.423 Y120.352 E0.03693 ; perimeter
G1 X85.734 Y120.352 E0.79835 ; perimeter
G1 X85.687 Y120.155 E0.01511 ; perimeter
G1 F1800.000 E-2.40000 ; retract
G1 X87.193 Y114.087 F6000.000 ; move to first perimeter point
G1 E2.40000 F1800.000 ; compensate retraction
G1 X86.367 Y113.261 E0.08725 F780.000 ; perimeter
G1 X89.947 Y108.042 E0.47273 ; perimeter
G1 X90.527 Y108.418 E0.05167 ; perimeter
G1 X89.050 Y110.830 E0.21126 ; perimeter
G1 X87.248 Y113.990 E0.27164 ; perimeter
G1 F1800.000 E-2.40000 ; retract
G1 X83.577 Y111.654 F6000.000 ; move to first perimeter point
G1 E2.40000 F1800.000 ; compensate retraction
G1 X82.636 Y111.803 E0.07113 F780.000 ; perimeter
G1 X81.406 Y112.430 E0.10311 ; perimeter
G1 X80.430 Y113.406 E0.10311 ; perimeter
G1 X79.954 Y114.340 E0.07824 ; perimeter
G1 X79.648 Y114.266 E0.02349 ; perimeter
G1 X79.648 Y103.578 E0.79826 ; perimeter
G1 X80.199 Y103.526 E0.04129 ; perimeter
G1 X80.482 Y105.011 E0.11295 ; perimeter
G1 X81.264 Y107.418 E0.18899 ; perimeter
G1 X82.342 Y109.708 E0.18899 ; perimeter
G1 X83.517 Y111.559 E0.16379 ; perimeter
G1 F1800.000 E-2.40000 ; retract
G1 X80.199 Y96.474 F6000.000 ; move to first perimeter point
G1 E2.40000 F1800.000 ; compensate retraction
G1 X79.648 Y96.422 E0.04129 F780.000 ; perimeter
G1 X79.648 Y85.734 E0.79826 ; perimeter
G1 X79.954 Y85.660 E0.02349 ; perimeter
G1 X80.430 Y86.594 E0.07824 ; perimeter
G1 X81.406 Y87.570 E0.10311 ; perimeter
G1 X82.636 Y88.197 E0.10311 ; perimeter
G1 X83.545 Y88.341 E0.06868 ; perimeter
G1 X83.009 Y88.988 E0.06273 ; perimeter
G1 X83.134 Y89.044 E0.01021 ; perimeter
G1 X82.342 Y90.292 E0.11038 ; perimeter
G1 X81.264 Y92.582 E0.18899 ; perimeter
G1 X80.482 Y94.989 E0.18900 ; perimeter
G1 X80.220 Y96.364 E0.10456 ; perimeter
G1 F1800.000 E-2.40000 ; retract
G1 X79.954 Y82.340 F6000.000 ; move to first perimeter point
G1 E2.40000 F1800.000 ; compensate retraction
G1 X79.648 Y82.266 E0.02349 F780.000 ; perimeter
G1 X79.648 Y79.648 E0.19550 ; perimeter
G1 X82.266 Y79.648 E0.19550 ; perimeter
G1 X82.340 Y79.954 E0.02349 ; perimeter
G1 X81.406 Y80.430 E0.07824 ; perimeter
G1 X80.430 Y81.406 E0.10311 ; perimeter
G1 X80.005 Y82.240 E0.06985 ; perimeter
G1 F1800.000 E-2.40000 ; retract
G1 X85.660 Y79.954 F6000.000 ; move to first perimeter point
G1 E2.40000 F1800.000 ; compensate retraction
G1 X85.734 Y79.648 E0.02349 F780.000 ; perimeter
G1 X96.423 Y79.648 E0.79836 ; perimeter
G1 X96.485 Y80.139 E0.03693 ; perimeter
G1 X94.378 Y80.680 E0.16248 ; perimeter
G1 X94.338 Y80.612 E0.00591 ; perimeter
G1 X91.420 Y81.767 E0.23439 ; perimeter
G1 X89.203 Y82.986 E0.18900 ; perimeter
G1 X88.350 Y83.605 E0.07869 ; perimeter
G1 X88.197 Y82.636 E0.07328 ; perimeter
G1 X87.570 Y81.406 E0.10311 ; perimeter
G1 X86.594 Y80.430 E0.10311 ; perimeter
G1 X85.760 Y80.005 E0.06985 ; perimeter
G1 F1800.000 E-2.40000 ; retract
G1 X93.772 Y91.428 F6000.000 ; move to first perimeter point
G1 E2.40000 F1800.000 ; compensate retraction
G1 X96.726 Y89.924 E0.24757 F900.000 ; perimeter
G1 X99.103 Y89.547 E0.17976 ; perimeter
G1 X100.000 Y89.405 E0.06781 ; perimeter
G1 X103.274 Y89.924 E0.24757 ; perimeter
G1 X105.556 Y91.086 E0.19126 ; perimeter
G1 X105.616 Y90.817 E0.02059 ; perimeter
G1 X108.572 Y93.772 E0.31214 ; perimeter
G1 X110.310 Y97.184 E0.28600 ; perimeter
G1 X110.165 Y97.284 E0.01313 ; perimeter
G1 X110.595 Y100.000 E0.20540 ; perimeter
G1 X110.531 Y100.407 E0.03075 ; perimeter
G1 X110.076 Y103.274 E0.21683 ; perimeter
G1 X108.572 Y106.228 E0.24756 ; perimeter
G1 X106.228 Y108.572 E0.24758 ; perimeter
G1 X103.274 Y110.076 E0.24756 ; perimeter
G1 X100.000 Y110.595 E0.24757 ; perimeter
G1 X97.266 Y110.162 E0.20677 ; perimeter
G1 X96.726 Y110.076 E0.04080 ; perimeter
G1 X93.772 Y108.572 E0.24757 ; perimeter
G1 X91.427 Y106.226 E0.24771 ; perimeter
G1 X89.924 Y103.274 E0.24744 ; perimeter
G1 X89.269 Y99.140 E0.31261 ; perimeter
G1 X89.553 Y99.067 E0.02189 ; perimeter
G1 X89.924 Y96.726 E0.17705 ; perimeter
G1 X91.428 Y93.772 E0.24757 ; perimeter
G1 X93.693 Y91.508 E0.23919 ; perimeter
G1 X94.218 Y92.042 F6000.000 ; move to first perimeter point
G1 X96.960 Y90.644 E0.22986 F900.000 ; perimeter
G1 X98.747 Y90.361 E0.13513 ; perimeter
G1 X100.000 Y90.163 E0.09474 ; perimeter
G1 X103.040 Y90.644 E0.22986 ; perimeter
G1 X105.782 Y92.041 E0.22984 ; perimeter
G1 X107.958 Y94.218 E0.22988 ; perimeter
G1 X109.356 Y96.961 E0.22989 ; perimeter
G1 X109.837 Y100.000 E0.22983 ; perimeter
G1 X109.791 Y100.290 E0.02189 ; perimeter
G1 X109.356 Y103.040 E0.20798 ; perimeter
G1 X107.958 Y105.782 E0.22985 ; perimeter
G1 X105.782 Y107.958 E0.22987 ; perimeter
G1 X103.040 Y109.356 E0.22986 ; perimeter
G1 X100.000 Y109.837 E0.22986 ; perimeter
G1 X96.960 Y109.356 E0.22986 ; perimeter
G1 X94.218 Y107.958 E0.22986 ; perimeter
G1 X92.042 Y105.783 E0.22982 ; perimeter
G1 X90.644 Y103.040 E0.22991 ; perimeter
G1 X90.115 Y99.696 E0.25282 ; perimeter
G1 X90.215 Y99.671 E0.00772 ; perimeter
G1 X90.644 Y96.960 E0.20497 ; perimeter
G1 X92.042 Y94.218 E0.22986 ; perimeter
G1 X94.138 Y92.121 E0.22148 ; perimeter
G1 F1800.000 E-2.40000 ; retract
G1 X103.515 Y80.139 F6000.000 ; move to first perimeter point
G1 E2.40000 F1800.000 ; compensate retraction
G1 X103.577 Y79.648 E0.03693 F900.000 ; perimeter
G1 X120.352 Y79.648 E1.25284 ; perimeter
G1 X120.352 Y96.422 E1.25274 ; perimeter
G1 X119.801 Y96.474 E0.04129 ; perimeter
G1 X119.518 Y94.989 E0.11294 ; perimeter
G1 X118.736 Y92.582 E0.18900 ; perimeter
G1 X118.044 Y91.114 E0.12121 ; perimeter
G1 X118.132 Y91.039 E0.00859 ; perimeter
G1 X116.302 Y88.156 E0.25506 ; perimeter
G1 X114.689 Y86.206 E0.18899 ; perimeter
G1 X112.845 Y84.474 E0.18899 ; perimeter
G1 X110.797 Y82.986 E0.18900 ; perimeter
G1 X107.886 Y81.386 E0.24808 ; perimeter
G1 X107.862 Y81.483 E0.00747 ; perimeter
G1 X106.227 Y80.835 E0.13130 ; perimeter
G1 X103.623 Y80.167 E0.20076 ; perimeter
G1 F1800.000 E-2.40000 ; retract
G1 X119.918 Y103.781 F6000.000 ; move to first perimeter point
G1 E2.40000 F1800.000 ; compensate retraction
G1 X120.352 Y103.849 E0.03280 F900.000 ; perimeter
G1 X120.352 Y120.352 E1.23247 ; perimeter
G1 X103.577 Y120.352 E1.25283 ; perimeter
G1 X103.515 Y119.861 E0.03693 ; perimeter
G1 X106.227 Y119.165 E0.20913 ; perimeter
G1 X108.580 Y118.233 E0.18900 ; perimeter
G1 X110.797 Y117.014 E0.18896 ; perimeter
G1 X112.844 Y115.527 E0.18900 ; perimeter
G1 X114.689 Y113.794 E0.18902 ; perimeter
G1 X116.302 Y111.844 E0.18899 ; perimeter
G1 X117.658 Y109.708 E0.18899 ; perimeter
G1 X118.736 Y107.418 E0.18900 ; perimeter
G1 X119.883 Y103.887 E0.27726 ; perimeter
G1 X118.940 Y104.046 F6000.000 ; move to first perimeter point
G1 X114.854 Y104.068 E0.30512 F900.000 ; perimeter
G1 X112.027 Y103.994 E0.21124 ; perimeter
G1 X111.991 Y104.685 E0.05167 ; perimeter
G1 X118.668 Y105.205 E0.50016 ; perimeter
G1 X118.038 Y107.142 E0.15212 ; perimeter
G1 X117.001 Y109.346 E0.18196 ; perimeter
G1 X115.696 Y111.403 E0.18196 ; perimeter
G1 X114.143 Y113.281 E0.18196 ; perimeter
G1 X112.366 Y114.949 E0.18197 ; perimeter
G1 X111.913 Y115.278 E0.04185 ; perimeter
G1 X108.764 Y112.665 E0.30562 ; perimeter
G1 X106.647 Y110.792 E0.21113 ; perimeter
G1 X106.175 Y111.298 E0.05167 ; perimeter
G1 X110.948 Y115.980 E0.49930 ; perimeter
G1 X110.395 Y116.381 E0.05098 ; perimeter
G1 X108.260 Y117.554 E0.18195 ; perimeter
G1 X105.995 Y118.451 E0.18196 ; perimeter
G1 X103.635 Y119.057 E0.18196 ; perimeter
G1 X101.218 Y119.362 E0.18196 ; perimeter
G1 X99.306 Y119.362 E0.14283 ; perimeter
G1 X98.573 Y115.335 E0.30572 ; perimeter
G1 X98.155 Y112.539 E0.21119 ; perimeter
G1 X97.468 Y112.623 E0.05167 ; perimeter
G1 X98.115 Y119.278 E0.49938 ; perimeter
G1 X96.365 Y119.057 E0.13176 ; perimeter
G1 X94.005 Y118.451 E0.18196 ; perimeter
G1 X91.739 Y117.554 E0.18197 ; perimeter
G1 X89.605 Y116.381 E0.18195 ; perimeter
G1 X87.470 Y114.830 E0.19709 ; perimeter
G1 X87.655 Y116.000 E0.08850 ; perimeter
G1 X87.476 Y117.129 E0.08540 ; perimeter
G1 X86.957 Y118.148 E0.08541 ; perimeter
G1 X86.148 Y118.957 E0.08540 ; perimeter
G1 X85.129 Y119.476 E0.08540 ; perimeter
G1 X84.000 Y119.655 E0.08541 ; perimeter
G1 X82.871 Y119.476 E0.08541 ; perimeter
G1 X81.852 Y118.957 E0.08540 ; perimeter
G1 X81.043 Y118.148 E0.08541 ; perimeter
G1 X80.524 Y117.129 E0.08541 ; perimeter
G1 X80.495 Y116.946 E0.01384 ; perimeter
G1 X80.345 Y116.000 E0.07156 ; perimeter
G1 X80.524 Y114.871 E0.08540 ; perimeter
G1 X81.043 Y113.852 E0.08541 ; perimeter
G1 X81.852 Y113.043 E0.08541 ; perimeter
G1 X82.871 Y112.524 E0.08540 ; perimeter
G1 X84.000 Y112.345 E0.08541 ; perimeter
G1 X85.247 Y112.543 E0.09427 ; perimeter
G1 X84.304 Y111.403 E0.11041 ; perimeter
G1 X82.999 Y109.346 E0.18196 ; perimeter
G1 X81.962 Y107.142 E0.18196 ; perimeter
G1 X81.209 Y104.825 E0.18196 ; perimeter
G1 X80.800 Y102.683 E0.16287 ; perimeter
G1 X84.650 Y101.258 E0.30660 ; perimeter
G1 X87.331 Y100.360 E0.21119 ; perimeter
G1 X87.129 Y99.699 E0.05167 ; perimeter
G1 X80.693 Y101.490 E0.49893 ; perimeter
G1 X80.599 Y100.000 E0.11148 ; perimeter
G1 X80.752 Y97.568 E0.18196 ; perimeter
G1 X81.209 Y95.175 E0.18196 ; perimeter
G1 X81.962 Y92.858 E0.18196 ; perimeter
G1 X82.999 Y90.654 E0.18196 ; perimeter
G1 X83.590 Y89.722 E0.08244 ; perimeter
G1 X87.433 Y91.097 E0.30480 ; perimeter
G1 X90.064 Y92.132 E0.21116 ; perimeter
G1 X90.334 Y91.496 E0.05167 ; perimeter
G1 X84.209 Y88.711 E0.50243 ; perimeter
G1 X85.247 Y87.458 E0.12153 ; perimeter
G1 X84.000 Y87.655 E0.09427 ; perimeter
G1 X82.871 Y87.476 E0.08541 ; perimeter
G1 X81.852 Y86.957 E0.08540 ; perimeter
G1 X81.043 Y86.148 E0.08540 ; perimeter
G1 X80.524 Y85.129 E0.08541 ; perimeter
G1 X80.345 Y84.000 E0.08540 ; perimeter
G1 X80.524 Y82.871 E0.08541 ; perimeter
G1 X81.043 Y81.852 E0.08540 ; perimeter
G1 X81.852 Y81.043 E0.08541 ; perimeter
G1 X82.871 Y80.524 E0.08540 ; perimeter
G1 X84.000 Y80.345 E0.08541 ; perimeter
G1 X84.946 Y80.495 E0.07156 ; perimeter
G1 X85.129 Y80.524 E0.01384 ; perimeter
G1 X86.148 Y81.043 E0.08541 ; perimeter
G1 X86.957 Y81.852 E0.08540 ; perimeter
G1 X87.476 Y82.871 E0.08540 ; perimeter
G1 X87.655 Y84.000 E0.08541 ; perimeter
G1 X87.470 Y85.170 E0.08851 ; perimeter
G1 X89.605 Y83.619 E0.19709 ; perimeter
G1 X91.740 Y82.446 E0.18196 ; perimeter
G1 X94.016 Y81.544 E0.18288 ; perimeter
G1 X96.096 Y85.102 E0.30775 ; perimeter
G1 X97.445 Y87.586 E0.21118 ; perimeter
G1 X98.062 Y87.272 E0.05167 ; perimeter
G1 X95.181 Y81.247 E0.49878 ; perimeter
G1 X96.365 Y80.943 E0.09126 ; perimeter
G1 X98.782 Y80.637 E0.18196 ; perimeter
G1 X101.218 Y80.637 E0.18196 ; perimeter
G1 X103.635 Y80.943 E0.18196 ; perimeter
G1 X105.995 Y81.549 E0.18196 ; perimeter
G1 X107.273 Y82.055 E0.10263 ; perimeter
G1 X106.586 Y86.078 E0.30481 ; perimeter
G1 X106.022 Y88.849 E0.21119 ; perimeter
G1 X106.697 Y89.004 E0.05167 ; perimeter
G1 X108.371 Y82.506 E0.50113 ; perimeter
G1 X110.395 Y83.619 E0.17256 ; perimeter
G1 X112.367 Y85.051 E0.18196 ; perimeter
G1 X114.143 Y86.719 E0.18196 ; perimeter
G1 X115.696 Y88.597 E0.18196 ; perimeter
G1 X117.151 Y90.890 E0.20287 ; perimeter
G1 X113.994 Y93.568 E0.30919 ; perimeter
