; generated by Slic3r 1.2.5 on 2015-02-10 at 21:04:57

; external perimeters extrusion width = 0.50mm
; perimeters extrusion width = 0.50mm
; infill extrusion width = 0.50mm
; solid infill extrusion width = 0.50mm
; top infill extrusion width = 0.50mm

M107 ; disable fan
M190 S57 ; set bed temperature
M104 S185 ; set temperature

M109 S185 ; wait for temperature to be reached
G21 ; set units to millimeters
G90 ; use absolute coordinates
M83 ; use relative distances for extrusion
G1 E-4.00000 F1800.00000 ; retract
G1 Z0.240 F6000.000 ; move to next layer (0)
G1 X74.598 Y80.082 F6000.000 ; move to first skirt point
G1 E4.00000 F1800.00000 ; unretract
G1 X75.838 Y79.181 E0.05485 F600.000 ; skirt
G1 X77.929 Y78.116 E0.08401 ; skirt
G1 X79.386 Y77.643 E0.05484 ; skirt
G1 X81.703 Y77.275 E0.08401 ; skirt
G1 X82.429 Y77.215 E0.02605 ; skirt
G1 X109.298 Y76.991 E0.96200 ; skirt
G1 X124.839 Y76.991 E0.55638 ; skirt
G1 X126.768 Y77.387 E0.07050 ; skirt
G1 X128.385 Y78.510 E0.07050 F600.000 ; skirt
G1 X129.429 Y80.180 E0.07050 ; skirt
G1 X129.736 Y81.843 E0.06054 ; skirt
G1 X129.927 Y102.843 E0.75185 ; skirt
G1 X129.927 Y117.888 E0.53861 ; skirt
G1 X129.532 Y119.817 E0.07050 ; skirt
G1 X128.408 Y121.434 E0.07050 ; skirt
G1 X126.738 Y122.477 E0.07050 ; skirt
G1 X125.071 Y122.785 E0.06068 ; skirt
G1 X98.010 Y123.009 E0.96884 ; skirt
G1 X82.470 Y123.009 E0.55637 ; skirt
G1 X81.703 Y122.949 E0.02751 ; skirt
G1 X79.386 Y122.582 E0.08401 ; skirt
G1 X77.929 Y122.108 E0.05485 ; skirt
G1 X75.838 Y121.043 E0.08401 ; skirt
G1 X74.598 Y120.143 E0.05485 ; skirt
G1 X72.939 Y118.483 E0.08401 ; skirt
G1 X72.039 Y117.244 E0.05485 ; skirt
G1 X70.973 Y115.153 E0.08401 ; skirt
G1 X70.500 Y113.696 E0.05485 ; skirt
G1 X70.133 Y111.378 E0.08401 ; skirt
G1 X70.073 Y110.612 E0.02751 ; skirt
G1 X70.073 Y89.612 E0.75182 ; skirt
G1 X70.133 Y88.846 E0.02750 ; skirt
G1 X70.500 Y86.528 E0.08402 ; skirt
G1 X70.973 Y85.071 E0.05485 ; skirt
G1 X72.039 Y82.981 E0.08401 ; skirt
G1 X72.939 Y81.741 E0.05484 ; skirt
G1 X74.545 Y80.135 E0.08133 ; skirt
G1 X74.863 Y80.452 F6000.000 ; move to first skirt point
G1 X76.042 Y79.581 E0.05248 F600.000 ; skirt
G1 X78.132 Y78.516 E0.08401 ; skirt
G1 X79.456 Y78.086 E0.04982 ; skirt
G1 X81.774 Y77.718 E0.08401 ; skirt
G1 X82.432 Y77.664 E0.02366 ; skirt
G1 X109.302 Y77.439 E0.96200 ; skirt
G1 X124.839 Y77.439 E0.55624 ; skirt
G1 X126.673 Y77.835 E0.06716 ; skirt
G1 X128.181 Y78.951 E0.06716 F600.000 ; skirt
G1 X129.094 Y80.589 E0.06716 ; skirt
G1 X129.288 Y81.847 E0.04556 ; skirt
G1 X129.479 Y102.847 E0.75185 ; skirt
G1 X129.479 Y117.888 E0.53846 ; skirt
G1 X129.083 Y119.721 E0.06716 ; skirt
G1 X127.967 Y121.229 E0.06716 ; skirt
G1 X126.329 Y122.143 E0.06716 ; skirt
G1 X125.067 Y122.336 E0.04569 ; skirt
G1 X98.006 Y122.561 E0.96884 ; skirt
G1 X82.470 Y122.561 E0.55623 ; skirt
G1 X81.774 Y122.506 E0.02499 ; skirt
G1 X79.456 Y122.139 E0.08401 ; skirt
G1 X78.132 Y121.709 E0.04983 ; skirt
G1 X76.042 Y120.643 E0.08401 ; skirt
G1 X74.916 Y119.825 E0.04983 ; skirt
G1 X73.256 Y118.166 E0.08401 ; skirt
G1 X72.438 Y117.040 E0.04983 ; skirt
G1 X71.373 Y114.949 E0.08401 ; skirt
G1 X70.943 Y113.626 E0.04982 ; skirt
G1 X70.576 Y111.308 E0.08401 ; skirt
G1 X70.521 Y110.612 E0.02499 ; skirt
G1 X70.521 Y89.612 E0.75182 ; skirt
G1 X70.576 Y88.917 E0.02498 ; skirt
G1 X70.943 Y86.599 E0.08402 ; skirt
G1 X71.373 Y85.275 E0.04983 ; skirt
G1 X72.438 Y83.184 E0.08401 ; skirt
G1 X73.256 Y82.058 E0.04982 ; skirt
G1 X74.810 Y80.505 E0.07865 ; skirt
G1 E-4.00000 F1800.00000 ; retract
G1 X97.720 Y82.362 F6000.000 ; move to first perimeter point
G1 E4.00000 F1800.00000 ; unretract
G1 X97.720 Y85.912 E0.12709 F900.000 ; perimeter
G1 X84.884 Y85.912 E0.45953 ; perimeter
G1 X84.696 Y85.755 E0.00875 ; perimeter
G1 X83.243 Y85.226 E0.05538 ; perimeter
G1 X81.696 Y85.226 E0.05538 ; perimeter
G1 X80.243 Y85.755 E0.05538 ; perimeter
G1 X79.058 Y86.749 E0.05538 ; perimeter
G1 X78.284 Y88.089 E0.05538 ; perimeter
G1 X78.016 Y89.612 E0.05538 ; perimeter
G1 X78.284 Y91.135 E0.05538 ; perimeter
G1 X79.058 Y92.475 E0.05538 ; perimeter
G1 X80.243 Y93.469 E0.05538 ; perimeter
G1 X81.696 Y93.998 E0.05538 ; perimeter
G1 X83.243 Y93.998 E0.05538 ; perimeter
G1 X84.696 Y93.469 E0.05538 ; perimeter
G1 X84.884 Y93.312 E0.00875 ; perimeter
G1 X97.720 Y93.312 E0.45953 ; perimeter
G1 X97.720 Y96.862 E0.12709 ; perimeter
G1 X82.489 Y96.862 E0.54526 ; perimeter
G1 X80.230 Y96.504 E0.08189 ; perimeter
G1 X78.210 Y95.475 E0.08117 ; perimeter
G1 X76.607 Y93.872 E0.08117 ; perimeter
G1 X75.577 Y91.852 E0.08117 ; perimeter
G1 X75.223 Y89.612 E0.08117 ; perimeter
G1 X75.577 Y87.373 E0.08117 ; perimeter
G1 X76.607 Y85.353 E0.08117 ; perimeter
G1 X78.210 Y83.749 E0.08117 ; perimeter
G1 X80.230 Y82.720 E0.08117 ; perimeter
G1 X82.489 Y82.362 E0.08189 ; perimeter
G1 X97.645 Y82.362 E0.54257 ; perimeter
G1 X97.470 Y82.795 F6000.000 ; move inwards before travel
G1 X97.271 Y82.811 F6000.000 ; move to first perimeter point
G1 X97.271 Y85.464 E0.09498 F900.000 ; perimeter
G1 X85.047 Y85.464 E0.43763 ; perimeter
G1 X84.924 Y85.361 E0.00574 ; perimeter
G1 X83.322 Y84.778 E0.06104 ; perimeter
G1 X81.617 Y84.778 E0.06104 ; perimeter
G1 X80.015 Y85.361 E0.06104 ; perimeter
G1 X78.709 Y86.457 E0.06104 ; perimeter
G1 X77.856 Y87.933 E0.06104 ; perimeter
G1 X77.560 Y89.612 E0.06104 ; perimeter
G1 X77.856 Y91.291 E0.06104 ; perimeter
G1 X78.709 Y92.768 E0.06104 ; perimeter
G1 X80.015 Y93.864 E0.06104 ; perimeter
G1 X81.617 Y94.447 E0.06104 ; perimeter
G1 X83.322 Y94.447 E0.06104 ; perimeter
G1 X84.924 Y93.864 E0.06104 ; perimeter
G1 X85.047 Y93.761 E0.00574 ; perimeter
G1 X97.271 Y93.761 E0.43763 ; perimeter
G1 X97.271 Y96.414 E0.09498 ; perimeter
G1 X82.524 Y96.414 E0.52794 ; perimeter
G1 X80.370 Y96.073 E0.07808 ; perimeter
G1 X78.477 Y95.108 E0.07609 ; perimeter
G1 X76.974 Y93.605 E0.07609 ; perimeter
G1 X76.009 Y91.711 E0.07609 ; perimeter
G1 X75.677 Y89.612 E0.07609 ; perimeter
G1 X76.009 Y87.513 E0.07609 ; perimeter
G1 X76.974 Y85.619 E0.07609 ; perimeter
G1 X78.477 Y84.117 E0.07609 ; perimeter
G1 X80.370 Y83.152 E0.07609 ; perimeter
G1 X82.524 Y82.811 E0.07808 ; perimeter
G1 X97.196 Y82.811 E0.52525 ; perimeter
G1 X96.966 Y83.156 F6000.000 ; move to first infill point
G1 X96.926 Y83.116 E0.00204 F900.000 ; infill
G1 X96.288 Y83.116 E0.02297 ; infill
G1 X96.966 Y83.794 E0.03452 ; infill
G1 X96.966 Y84.432 E0.02297 ; infill
G1 X95.650 Y83.116 E0.06700 ; infill
G1 X95.012 Y83.116 E0.02297 ; infill
G1 X96.966 Y85.070 E0.09948 ; infill
G1 X96.417 Y85.159 E0.02002 ; infill
G1 X94.374 Y83.116 E0.10402 ; infill
G1 X93.736 Y83.116 E0.02297 ; infill
G1 X95.779 Y85.159 E0.10402 ; infill
G1 X95.141 Y85.159 E0.02297 ; infill
G1 X93.099 Y83.116 E0.10402 ; infill
G1 X92.461 Y83.116 E0.02297 ; infill
G1 X94.503 Y85.159 E0.10402 ; infill
G1 X93.865 Y85.159 E0.02297 ; infill
G1 X91.823 Y83.116 E0.10402 ; infill
G1 X91.185 Y83.116 E0.02297 ; infill
G1 X93.228 Y85.159 E0.10402 ; infill
G1 X92.590 Y85.159 E0.02297 ; infill
G1 X90.547 Y83.116 E0.10402 ; infill
G1 X89.909 Y83.116 E0.02297 ; infill
G1 X91.952 Y85.159 E0.10402 ; infill
G1 X91.314 Y85.159 E0.02297 ; infill
G1 X89.271 Y83.116 E0.10402 ; infill
G1 X88.633 Y83.116 E0.02297 ; infill
G1 X90.676 Y85.159 E0.10402 ; infill
G1 X90.038 Y85.159 E0.02297 ; infill
G1 X87.995 Y83.116 E0.10402 ; infill
G1 X87.357 Y83.116 E0.02297 ; infill
G1 X89.400 Y85.159 E0.10402 ; infill
G1 X88.762 Y85.159 E0.02297 ; infill
G1 X86.720 Y83.116 E0.10402 ; infill
G1 X86.082 Y83.116 E0.02297 ; infill
G1 X88.124 Y85.159 E0.10402 ; infill
G1 X87.486 Y85.159 E0.02297 ; infill
G1 X85.444 Y83.116 E0.10402 ; infill
G1 X84.806 Y83.116 E0.02297 ; infill
G1 X86.849 Y85.159 E0.10402 ; infill
G1 X86.211 Y85.159 E0.02297 ; infill
G1 X84.168 Y83.116 E0.10402 ; infill
G1 X83.530 Y83.116 E0.02297 ; infill
G1 X85.573 Y85.159 E0.10402 ; infill
G1 X84.748 Y84.972 E0.03044 ; infill
G1 X82.892 Y83.116 E0.09451 ; infill
G1 X82.294 Y83.156 E0.02157 ; infill
G1 X83.745 Y84.607 E0.07387 ; infill
G1 X82.973 Y84.472 E0.02823 ; infill
G1 X81.744 Y83.243 E0.06258 ; infill
G1 X81.193 Y83.330 E0.02007 ; infill
G1 X82.335 Y84.472 E0.05814 ; infill
G1 X81.697 Y84.472 E0.02297 ; infill
G1 X80.642 Y83.418 E0.05370 ; infill
G1 X80.179 Y83.592 E0.01783 ; infill
G1 X81.194 Y84.607 E0.05168 ; infill
G1 X80.726 Y84.777 E0.01792 ; infill
G1 X79.756 Y83.807 E0.04938 ; infill
G1 X79.334 Y84.023 E0.01708 ; infill
G1 X80.258 Y84.947 E0.04709 ; infill
G1 X79.809 Y85.135 E0.01755 ; infill
G1 X78.911 Y84.238 E0.04570 ; infill
G1 X78.544 Y84.509 E0.01642 ; infill
G1 X79.462 Y85.426 E0.04672 ; infill
G1 X79.115 Y85.718 E0.01630 ; infill
G1 X78.225 Y84.828 E0.04529 ; infill
G1 X77.906 Y85.147 E0.01624 ; infill
G1 X78.768 Y86.009 E0.04387 ; infill
G1 X78.438 Y86.316 E0.01625 ; infill
G1 X77.587 Y85.466 E0.04329 ; infill
G1 X77.269 Y85.785 E0.01624 ; infill
G1 X78.204 Y86.720 E0.04764 ; infill
G1 X77.971 Y87.125 E0.01681 ; infill
G1 X77.029 Y86.183 E0.04794 ; infill
G1 X76.814 Y86.606 E0.01708 ; infill
G1 X77.737 Y87.529 E0.04701 ; infill
G1 X77.540 Y87.970 E0.01738 ; infill
G1 X76.599 Y87.029 E0.04794 ; infill
G1 X76.383 Y87.451 E0.01708 ; infill
G1 X77.444 Y88.512 E0.05403 ; infill
G1 X77.349 Y89.055 E0.01983 ; infill
G1 X76.248 Y87.954 E0.05603 ; infill
G1 X76.161 Y88.505 E0.02007 ; infill
G1 X77.253 Y89.597 E0.05561 ; infill
G1 X77.383 Y90.365 E0.02804 ; infill
G1 X76.074 Y89.055 E0.06667 ; infill
G1 X75.987 Y89.606 E0.02007 ; infill
G1 X77.520 Y91.139 E0.07806 ; infill
G1 X76.224 Y91.120 F6000.000 ; move to first infill point
G1 X80.962 Y95.857 E0.24123 F900.000 ; infill
G1 X81.720 Y95.977 E0.02763 ; infill
G1 X79.883 Y94.140 E0.09353 ; infill
G1 X80.886 Y94.506 F6000.000 ; move to first infill point
G1 X82.478 Y96.097 E0.08106 F900.000 ; infill
G1 X83.127 Y96.109 E0.02337 ; infill
G1 X81.770 Y94.752 E0.06907 ; infill
G1 X82.408 Y94.752 E0.02297 ; infill
G1 X83.765 Y96.109 E0.06907 ; infill
G1 X84.403 Y96.109 E0.02297 ; infill
G1 X83.046 Y94.752 E0.06907 ; infill
G1 X83.602 Y94.670 E0.02022 ; infill
G1 X85.041 Y96.109 E0.07326 ; infill
G1 X85.679 Y96.109 E0.02297 ; infill
G1 X84.070 Y94.500 E0.08193 ; infill
G1 X84.537 Y94.329 E0.01792 ; infill
G1 X86.316 Y96.109 E0.09060 ; infill
G1 X86.954 Y96.109 E0.02297 ; infill
G1 X85.005 Y94.159 E0.09927 ; infill
G1 X85.550 Y94.066 E0.01990 ; infill
G1 X87.592 Y96.109 E0.10402 ; infill
G1 X88.230 Y96.109 E0.02297 ; infill
G1 X86.187 Y94.066 E0.10402 ; infill
G1 X86.825 Y94.066 E0.02297 ; infill
G1 X88.868 Y96.109 E0.10402 ; infill
G1 X89.506 Y96.109 E0.02297 ; infill
G1 X87.463 Y94.066 E0.10402 ; infill
G1 X88.101 Y94.066 E0.02297 ; infill
G1 X90.144 Y96.109 E0.10402 ; infill
G1 X90.782 Y96.109 E0.02297 ; infill
G1 X88.739 Y94.066 E0.10402 ; infill
G1 X89.377 Y94.066 E0.02297 ; infill
G1 X91.420 Y96.109 E0.10402 ; infill
G1 X92.058 Y96.109 E0.02297 ; infill
G1 X90.015 Y94.066 E0.10402 ; infill
G1 X90.653 Y94.066 E0.02297 ; infill
G1 X92.695 Y96.109 E0.10402 ; infill
G1 X93.333 Y96.109 E0.02297 ; infill
G1 X91.291 Y94.066 E0.10402 ; infill
G1 X91.928 Y94.066 E0.02297 ; infill
G1 X93.971 Y96.109 E0.10402 ; infill
G1 X94.609 Y96.109 E0.02297 ; infill
G1 X92.566 Y94.066 E0.10402 ; infill
G1 X93.204 Y94.066 E0.02297 ; infill
G1 X95.247 Y96.109 E0.10402 ; infill
G1 X95.885 Y96.109 E0.02297 ; infill
G1 X93.842 Y94.066 E0.10402 ; infill
G1 X94.480 Y94.066 E0.02297 ; infill
G1 X96.523 Y96.109 E0.10402 ; infill
G1 X96.966 Y95.914 E0.01743 ; infill
G1 X95.118 Y94.066 E0.09410 ; infill
G1 X95.756 Y94.066 E0.02297 ; infill
G1 X96.966 Y95.276 E0.06161 ; infill
G1 X96.966 Y94.638 E0.02297 ; infill
G1 X96.394 Y94.066 E0.02913 ; infill
G1 E-4.00000 F1800.00000 ; retract
G1 X80.017 Y95.550 F6000.000 ; move to first infill point
G1 E4.00000 F1800.00000 ; unretract
G1 X76.532 Y92.065 E0.17743 F900.000 ; infill
G1 X77.195 Y93.366 F6000.000 ; move to first infill point
G1 X78.716 Y94.887 E0.07747 F900.000 ; infill
G1 E-4.00000 F1800.00000 ; retract
G1 X78.146 Y92.404 F6000.000 ; move to first infill point
G1 E4.00000 F1800.00000 ; unretract
G1 X76.104 Y90.362 E0.10397 F900.000 ; infill
G1 E-4.00000 F1800.00000 ; retract
G1 X97.720 Y103.362 F6000.000 ; move to first perimeter point
G1 E4.00000 F1800.00000 ; unretract
G1 X97.720 Y106.912 E0.12709 F900.000 ; perimeter
G1 X84.884 Y106.912 E0.45953 ; perimeter
G1 X84.696 Y106.755 E0.00875 ; perimeter
G1 X83.243 Y106.226 E0.05538 ; perimeter
G1 X81.696 Y106.226 E0.05538 ; perimeter
G1 X80.243 Y106.755 E0.05538 ; perimeter
G1 X79.058 Y107.749 E0.05538 ; perimeter
G1 X78.284 Y109.089 E0.05538 ; perimeter
G1 X78.016 Y110.612 E0.05538 ; perimeter
G1 X78.284 Y112.135 E0.05538 ; perimeter
G1 X79.058 Y113.475 E0.05538 ; perimeter
G1 X80.243 Y114.469 E0.05538 ; perimeter
G1 X81.696 Y114.998 E0.05538 ; perimeter
G1 X83.243 Y114.998 E0.05538 ; perimeter
G1 X84.696 Y114.469 E0.05538 ; perimeter
G1 X84.884 Y114.312 E0.00875 ; perimeter
G1 X97.720 Y114.312 E0.45953 ; perimeter
G1 X97.720 Y117.862 E0.12709 ; perimeter
G1 X82.489 Y117.862 E0.54526 ; perimeter
G1 X80.230 Y117.504 E0.08189 ; perimeter
G1 X78.210 Y116.475 E0.08117 ; perimeter
G1 X76.607 Y114.872 E0.08117 ; perimeter
G1 X75.577 Y112.852 E0.08117 ; perimeter
G1 X75.223 Y110.612 E0.08117 ; perimeter
G1 X75.577 Y108.373 E0.08117 ; perimeter
G1 X76.607 Y106.353 E0.08117 ; perimeter
G1 X78.210 Y104.749 E0.08117 ; perimeter
G1 X80.230 Y103.720 E0.08117 ; perimeter
G1 X82.489 Y103.362 E0.08189 ; perimeter
G1 X97.645 Y103.362 E0.54257 ; perimeter
G1 X97.470 Y103.795 F6000.000 ; move inwards before travel
G1 X97.271 Y103.811 F6000.000 ; move to first perimeter point
G1 X97.271 Y106.464 E0.09498 F900.000 ; perimeter
G1 X85.047 Y106.464 E0.43763 ; perimeter
G1 X84.924 Y106.361 E0.00574 ; perimeter
G1 X83.322 Y105.778 E0.06104 ; perimeter
G1 X81.617 Y105.778 E0.06104 ; perimeter
G1 X80.015 Y106.361 E0.06104 ; perimeter
G1 X78.709 Y107.457 E0.06104 ; perimeter
G1 X77.856 Y108.933 E0.06104 ; perimeter
G1 X77.560 Y110.612 E0.06104 ; perimeter
G1 X77.856 Y112.291 E0.06104 ; perimeter
G1 X78.709 Y113.768 E0.06104 ; perimeter
G1 X80.015 Y114.864 E0.06104 ; perimeter
G1 X81.617 Y115.447 E0.06104 ; perimeter
G1 X83.322 Y115.447 E0.06104 ; perimeter
G1 X84.924 Y114.864 E0.06104 ; perimeter
G1 X85.047 Y114.761 E0.00574 ; perimeter
G1 X97.271 Y114.761 E0.43763 ; perimeter
G1 X97.271 Y117.414 E0.09498 ; perimeter
G1 X82.524 Y117.414 E0.52794 ; perimeter
G1 X80.370 Y117.073 E0.07808 ; perimeter
G1 X78.477 Y116.108 E0.07609 ; perimeter
G1 X76.974 Y114.605 E0.07609 ; perimeter
G1 X76.009 Y112.711 E0.07609 ; perimeter
G1 X75.677 Y110.612 E0.07609 ; perimeter
G1 X76.009 Y108.513 E0.07609 ; perimeter
G1 X76.974 Y106.619 E0.07609 ; perimeter
G1 X78.477 Y105.117 E0.07609 ; perimeter
G1 X80.370 Y104.152 E0.07609 ; perimeter
G1 X82.524 Y103.811 E0.07808 ; perimeter
G1 X97.196 Y103.811 E0.52525 ; perimeter
G1 X96.966 Y104.156 F6000.000 ; move to first infill point
G1 X96.926 Y104.116 E0.00204 F900.000 ; infill
G1 X96.288 Y104.116 E0.02297 ; infill
G1 X96.966 Y104.794 E0.03452 ; infill
G1 X96.966 Y105.432 E0.02297 ; infill
G1 X95.650 Y104.116 E0.06700 ; infill
G1 X95.012 Y104.116 E0.02297 ; infill
G1 X96.966 Y106.070 E0.09948 ; infill
G1 X96.417 Y106.159 E0.02002 ; infill
G1 X94.374 Y104.116 E0.10402 ; infill
G1 X93.736 Y104.116 E0.02297 ; infill
G1 X95.779 Y106.159 E0.10402 ; infill
G1 X95.141 Y106.159 E0.02297 ; infill
G1 X93.099 Y104.116 E0.10402 ; infill
G1 X92.461 Y104.116 E0.02297 ; infill
G1 X94.503 Y106.159 E0.10402 ; infill
G1 X93.865 Y106.159 E0.02297 ; infill
G1 X91.823 Y104.116 E0.10402 ; infill
G1 X91.185 Y104.116 E0.02297 ; infill
G1 X93.228 Y106.159 E0.10402 ; infill
G1 X92.590 Y106.159 E0.02297 ; infill
G1 X90.547 Y104.116 E0.10402 ; infill
G1 X89.909 Y104.116 E0.02297 ; infill
G1 X91.952 Y106.159 E0.10402 ; infill
G1 X91.314 Y106.159 E0.02297 ; infill
G1 X89.271 Y104.116 E0.10402 ; infill
G1 X88.633 Y104.116 E0.02297 ; infill
G1 X90.676 Y106.159 E0.10402 ; infill
G1 X90.038 Y106.159 E0.02297 ; infill
G1 X87.995 Y104.116 E0.10402 ; infill
G1 X87.357 Y104.116 E0.02297 ; infill
G1 X89.400 Y106.159 E0.10402 ; infill
