; generated by Slic3r 1.1.6 on 2014-10-27 at 22:04:30

; perimeters extrusion width = 0.50mm
; infill extrusion width = 0.50mm
; solid infill extrusion width = 0.50mm
; top infill extrusion width = 0.50mm

G21 ; set units to millimeters
M107 ; disable fan
M190 S57 ; wait for bed temperature to be reached
M104 S200 ; set temperature

M109 S200 ; wait for temperature to be reached
G90 ; use absolute coordinates
M83 ; use relative distances for extrusion
G1 F1800.000 E-2.40000 ; retract
G1 Z0.240 F6000.000 ; move to next layer (0)
G1 X81.609 Y78.871 F6000.000 ; move to first skirt point
G1 E2.40000 F1800.000 ; compensate retraction
G1 X82.371 Y78.109 E0.08047 F600.000 ; skirt
G1 X85.401 Y75.621 E0.29282 ; skirt
G1 X86.297 Y75.023 E0.08049 ; skirt
G1 X89.755 Y73.174 E0.29282 ; skirt
G1 X90.751 Y72.762 E0.08048 ; skirt
G1 X94.503 Y71.624 E0.29282 ; skirt
G1 X95.559 Y71.414 E0.08048 ; skirt
G1 X99.461 Y71.029 E0.29282 ; skirt
G1 X100.539 Y71.029 E0.08048 ; skirt
G1 X104.441 Y71.414 E0.29282 ; skirt
G1 X105.497 Y71.624 E0.08048 ; skirt
G1 X109.249 Y72.762 E0.29282 ; skirt
G1 X110.245 Y73.174 E0.08048 ; skirt
G1 X113.703 Y75.023 E0.29282 ; skirt
G1 X114.599 Y75.621 E0.08049 ; skirt
G1 X117.629 Y78.109 E0.29282 ; skirt
G1 X118.391 Y78.871 E0.08047 ; skirt
G1 X120.879 Y81.901 E0.29282 ; skirt
G1 X121.477 Y82.797 E0.08049 ; skirt
G1 X123.326 Y86.255 E0.29282 ; skirt
G1 X123.738 Y87.251 E0.08048 ; skirt
G1 X124.876 Y91.003 E0.29282 ; skirt
G1 X125.086 Y92.059 E0.08048 ; skirt
G1 X125.471 Y95.961 E0.29282 ; skirt
G1 X125.471 Y97.039 E0.08048 ; skirt
G1 X125.086 Y100.941 E0.29282 ; skirt
G1 X124.876 Y101.997 E0.08048 ; skirt
G1 X123.738 Y105.749 E0.29282 ; skirt
G1 X123.326 Y106.745 E0.08048 ; skirt
G1 X121.477 Y110.203 E0.29282 ; skirt
G1 X120.819 Y111.171 E0.08748 ; skirt
G1 X118.092 Y114.466 E0.31940 ; skirt
G1 X106.316 Y126.577 E1.26164 ; skirt
G1 X105.710 Y127.075 E0.05857 ; skirt
G1 X104.814 Y127.674 E0.08050 ; skirt
G1 X104.122 Y128.044 E0.05858 ; skirt
G1 X103.126 Y128.456 E0.08047 ; skirt
G1 X102.376 Y128.683 E0.05857 ; skirt
G1 X101.320 Y128.894 E0.08044 ; skirt
G1 X100.539 Y128.970 E0.05858 ; skirt
G1 X99.461 Y128.971 E0.08051 ; skirt
G1 X98.681 Y128.894 E0.05858 ; skirt
G1 X97.624 Y128.683 E0.08045 ; skirt
G1 X96.874 Y128.456 E0.05856 ; skirt
G1 X95.878 Y128.044 E0.08047 ; skirt
G1 X95.187 Y127.674 E0.05856 ; skirt
G1 X94.266 Y127.055 E0.08285 ; skirt
G1 X93.222 Y126.152 E0.10310 ; skirt
G1 X81.609 Y114.129 E1.24841 ; skirt
G1 X79.121 Y111.099 E0.29282 ; skirt
G1 X78.523 Y110.203 E0.08047 ; skirt
G1 X76.674 Y106.745 E0.29283 ; skirt
G1 X76.262 Y105.749 E0.08048 ; skirt
G1 X75.124 Y101.997 E0.29282 ; skirt
G1 X74.914 Y100.941 E0.08048 ; skirt
G1 X74.529 Y97.039 E0.29282 ; skirt
G1 X74.529 Y95.961 E0.08048 ; skirt
G1 X74.914 Y92.059 E0.29282 ; skirt
G1 X75.124 Y91.003 E0.08048 ; skirt
G1 X76.262 Y87.251 E0.29282 ; skirt
G1 X76.674 Y86.255 E0.08048 ; skirt
G1 X78.523 Y82.797 E0.29282 ; skirt
G1 X79.121 Y81.901 E0.08049 ; skirt
G1 X81.561 Y78.929 E0.28722 ; skirt
G1 X82.845 Y78.687 F6000.000 ; move to first skirt point
G1 X86.650 Y75.683 E0.36207 F600.000 ; skirt
G1 X90.968 Y73.478 E0.36207 ; skirt
G1 X95.633 Y72.159 E0.36207 ; skirt
G1 X100.465 Y71.774 E0.36207 ; skirt
G1 X105.280 Y72.340 E0.36207 ; skirt
G1 X108.942 Y73.451 E0.28579 ; skirt
G1 X109.892 Y73.835 E0.07652 ; skirt
G1 X114.124 Y76.200 E0.36207 ; skirt
G1 X117.082 Y78.628 E0.28579 ; skirt
G1 X117.813 Y79.345 E0.07651 ; skirt
G1 X120.817 Y83.150 E0.36207 ; skirt
G1 X122.621 Y86.525 E0.28579 ; skirt
G1 X123.022 Y87.468 E0.07652 ; skirt
G1 X124.132 Y91.130 E0.28579 ; skirt
G1 X124.341 Y92.133 E0.07652 ; skirt
G1 X124.716 Y95.941 E0.28579 ; skirt
G1 X124.726 Y96.965 E0.07652 ; skirt
G1 X124.160 Y101.780 E0.36207 ; skirt
G1 X122.665 Y106.392 E0.36207 ; skirt
G1 X120.300 Y110.624 E0.36207 ; skirt
G1 X117.554 Y113.945 E0.32186 ; skirt
G1 X105.841 Y125.999 E1.25526 ; skirt
G1 X104.433 Y127.029 E0.13028 ; skirt
G1 X102.909 Y127.740 E0.12558 ; skirt
G1 X101.246 Y128.149 E0.12790 ; skirt
G1 X99.503 Y128.223 E0.13030 ; skirt
G1 X97.841 Y127.967 E0.12556 ; skirt
G1 X96.231 Y127.383 E0.12793 ; skirt
G1 X94.765 Y126.497 E0.12795 ; skirt
G1 X93.760 Y125.631 E0.09907 ; skirt
G1 X82.187 Y113.655 E1.24383 ; skirt
G1 X79.183 Y109.850 E0.36206 ; skirt
G1 X76.978 Y105.532 E0.36208 ; skirt
G1 X75.659 Y100.867 E0.36207 ; skirt
G1 X75.274 Y96.035 E0.36207 ; skirt
G1 X75.840 Y91.220 E0.36207 ; skirt
G1 X77.335 Y86.608 E0.36207 ; skirt
G1 X79.700 Y82.376 E0.36207 ; skirt
G1 X82.797 Y78.744 E0.35646 ; skirt
G1 F1800.000 E-2.40000 ; retract
G1 X101.862 Y116.317 F6000.000 ; move to first perimeter point
G1 E2.40000 F1800.000 ; compensate retraction
G1 X102.909 Y117.556 E0.12118 F900.000 ; perimeter
G1 X103.232 Y118.161 E0.05123 ; perimeter
G1 X103.432 Y118.817 E0.05122 ; perimeter
G1 X103.493 Y119.428 E0.04582 ; perimeter
G1 X103.432 Y120.183 E0.05656 ; perimeter
G1 X103.240 Y120.823 E0.04993 ; perimeter
G1 X102.933 Y121.401 E0.04888 ; perimeter
G1 X102.437 Y122.006 E0.05842 ; perimeter
G1 X101.944 Y122.409 E0.04758 ; perimeter
G1 X101.339 Y122.732 E0.05122 ; perimeter
G1 X100.683 Y122.932 E0.05123 ; perimeter
G1 X100.049 Y122.995 E0.04758 ; perimeter
G1 X99.270 Y122.919 E0.05842 ; perimeter
G1 X98.661 Y122.732 E0.04757 ; perimeter
G1 X98.018 Y122.379 E0.05483 ; perimeter
G1 X97.526 Y121.974 E0.04757 ; perimeter
G1 X97.091 Y121.444 E0.05122 ; perimeter
G1 X96.768 Y120.839 E0.05123 ; perimeter
G1 X96.568 Y120.183 E0.05122 ; perimeter
G1 X96.501 Y119.500 E0.05123 ; perimeter
G1 X96.568 Y118.817 E0.05123 ; perimeter
G1 X96.768 Y118.161 E0.05122 ; perimeter
G1 X97.091 Y117.556 E0.05123 ; perimeter
G1 X97.526 Y117.026 E0.05122 ; perimeter
G1 X97.818 Y116.785 E0.02825 ; perimeter
G1 X98.162 Y116.685 E0.02677 ; perimeter
G1 X98.807 Y116.556 E0.04912 ; perimeter
G1 F1800.000 E-2.40000 ; retract
G1 X100.731 Y123.176 F6000.000 ; move to first perimeter point
G1 E2.40000 F1800.000 ; compensate retraction
G1 X100.585 Y122.442 E0.05584 F900.000 ; perimeter
G1 X100.000 Y122.500 F6000.000 ; move to first perimeter point
G1 X100.000 Y123.500 E0.07469 F900.000 ; perimeter
G1 F1800.000 E-2.40000 ; retract
G1 X86.355 Y110.533 F6000.000 ; move to first perimeter point
G1 E2.40000 F1800.000 ; compensate retraction
G1 X86.317 Y110.571 E0.00403 F900.000 ; perimeter
G1 X83.705 Y107.388 E0.30752 ; perimeter
G1 X81.894 Y104.000 E0.28693 ; perimeter
G1 X80.779 Y100.323 E0.28693 ; perimeter
G1 X80.402 Y96.500 E0.28693 ; perimeter
G1 X80.779 Y92.677 E0.28693 ; perimeter
G1 X81.894 Y89.000 E0.28693 ; perimeter
G1 X83.705 Y85.612 E0.28693 ; perimeter
G1 X86.142 Y82.642 E0.28693 ; perimeter
G1 X89.112 Y80.205 E0.28693 ; perimeter
G1 X92.500 Y78.394 E0.28693 ; perimeter
G1 X96.177 Y77.279 E0.28693 ; perimeter
G1 X100.000 Y76.902 E0.28693 ; perimeter
G1 X103.823 Y77.279 E0.28693 ; perimeter
G1 X107.500 Y78.394 E0.28693 ; perimeter
G1 X110.888 Y80.205 E0.28693 ; perimeter
G1 X113.816 Y82.607 E0.28285 ; perimeter
G1 X116.295 Y85.612 E0.29094 ; perimeter
G1 X118.106 Y89.000 E0.28693 ; perimeter
G1 X119.221 Y92.677 E0.28693 ; perimeter
G1 X119.598 Y96.500 E0.28693 ; perimeter
G1 X119.221 Y100.323 E0.28693 ; perimeter
G1 X118.106 Y104.000 E0.28693 ; perimeter
G1 X116.295 Y107.388 E0.28693 ; perimeter
G1 X113.858 Y110.358 E0.28693 ; perimeter
G1 X110.888 Y112.795 E0.28693 ; perimeter
G1 X107.500 Y114.606 E0.28693 ; perimeter
G1 X103.823 Y115.721 E0.28693 ; perimeter
G1 X101.039 Y115.996 E0.20894 ; perimeter
G1 X100.910 Y116.238 E0.02052 ; perimeter
G1 X100.664 Y116.163 E0.01920 ; perimeter
G1 X100.000 Y116.098 E0.04981 ; perimeter
G1 X99.336 Y116.163 E0.04981 ; perimeter
G1 X99.090 Y116.238 E0.01920 ; perimeter
G1 X98.961 Y115.996 E0.02052 ; perimeter
G1 X96.177 Y115.721 E0.20894 ; perimeter
G1 X92.500 Y114.606 E0.28693 ; perimeter
G1 X89.112 Y112.795 E0.28693 ; perimeter
G1 X86.413 Y110.580 E0.26075 ; perimeter
G1 X86.316 Y110.496 F6000.000 ; move inwards before travel
G1 F1800.000 E-2.40000 ; retract
G1 X99.489 Y115.396 F6000.000 ; move to first perimeter point
G1 E2.40000 F1800.000 ; compensate retraction
G1 X99.432 Y115.290 E0.00899 F900.000 ; perimeter
G1 X96.323 Y114.984 E0.23331 ; perimeter
G1 X92.788 Y113.911 E0.27592 ; perimeter
G1 X89.530 Y112.170 E0.27592 ; perimeter
G1 X86.674 Y109.826 E0.27592 ; perimeter
G1 X84.330 Y106.970 E0.27592 ; perimeter
G1 X82.589 Y103.712 E0.27592 ; perimeter
G1 X81.516 Y100.177 E0.27592 ; perimeter
G1 X81.154 Y96.500 E0.27592 ; perimeter
G1 X81.516 Y92.823 E0.27592 ; perimeter
G1 X82.589 Y89.288 E0.27592 ; perimeter
G1 X84.330 Y86.030 E0.27592 ; perimeter
G1 X86.674 Y83.174 E0.27592 ; perimeter
G1 X89.530 Y80.830 E0.27592 ; perimeter
G1 X92.788 Y79.089 E0.27592 ; perimeter
G1 X96.323 Y78.016 E0.27592 ; perimeter
G1 X100.000 Y77.654 E0.27592 ; perimeter
G1 X103.677 Y78.016 E0.27592 ; perimeter
G1 X107.212 Y79.089 E0.27592 ; perimeter
G1 X110.470 Y80.830 E0.27592 ; perimeter
G1 X113.326 Y83.174 E0.27592 ; perimeter
G1 X115.670 Y86.030 E0.27592 ; perimeter
G1 X117.411 Y89.288 E0.27592 ; perimeter
G1 X118.484 Y92.823 E0.27592 ; perimeter
G1 X118.846 Y96.500 E0.27592 ; perimeter
G1 X118.484 Y100.177 E0.27592 ; perimeter
G1 X117.411 Y103.712 E0.27592 ; perimeter
G1 X115.670 Y106.970 E0.27592 ; perimeter
G1 X113.326 Y109.826 E0.27592 ; perimeter
G1 X110.470 Y112.170 E0.27592 ; perimeter
G1 X107.212 Y113.911 E0.27592 ; perimeter
G1 X103.677 Y114.984 E0.27592 ; perimeter
G1 X100.568 Y115.290 E0.23331 ; perimeter
G1 X100.511 Y115.396 E0.00899 ; perimeter
G1 X100.000 Y115.346 E0.03835 ; perimeter
G1 X99.564 Y115.389 E0.03275 ; perimeter
G1 F1800.000 E-2.40000 ; retract
G1 X93.295 Y113.519 F6000.000 ; move to first fill point
G1 E2.40000 F1800.000 ; compensate retraction
G1 X82.981 Y103.205 E1.08934 F900.000 ; fill
G1 X82.512 Y101.657 E0.12081 ; fill
G1 X94.843 Y113.989 E1.30242 ; fill
G1 X96.391 Y114.458 E0.12081 ; fill
G1 X82.042 Y100.109 E1.51551 ; fill
G1 X81.916 Y98.905 E0.09043 ; fill
G1 X97.595 Y114.584 E1.65599 ; fill
G1 X98.791 Y114.702 E0.08977 ; fill
G1 X81.798 Y97.709 E1.79479 ; fill
G1 X81.680 Y96.513 E0.08977 ; fill
G1 X99.989 Y114.822 E1.93381 ; fill
G1 X100.971 Y114.725 E0.07368 ; fill
G1 X81.775 Y95.529 E2.02753 ; fill
G1 X81.872 Y94.547 E0.07367 ; fill
G1 X101.953 Y114.628 E2.12100 ; fill
G1 X102.935 Y114.532 E0.07367 ; fill
G1 X81.968 Y93.566 E2.21447 ; fill
G1 X82.119 Y92.638 E0.07021 ; fill
G1 X103.862 Y114.381 E2.29659 ; fill
G1 X104.690 Y114.130 E0.06457 ; fill
G1 X82.370 Y91.810 E2.35747 ; fill
G1 X82.621 Y90.983 E0.06457 ; fill
G1 X105.517 Y113.879 E2.41835 ; fill
G1 X106.345 Y113.628 E0.06457 ; fill
G1 X82.872 Y90.155 E2.47924 ; fill
G1 X83.147 Y89.352 E0.06341 ; fill
G1 X107.148 Y113.353 E2.53499 ; fill
G1 X107.851 Y112.978 E0.05951 ; fill
G1 X83.522 Y88.649 E2.56955 ; fill
G1 X83.898 Y87.947 E0.05951 ; fill
G1 X108.553 Y112.602 E2.60410 ; fill
G1 X109.256 Y112.226 E0.05951 ; fill
G1 X84.274 Y87.244 E2.63865 ; fill
G1 X84.649 Y86.541 E0.05951 ; fill
G1 X109.959 Y111.851 E2.67320 ; fill
G1 X110.586 Y111.399 E0.05770 ; fill
G1 X85.101 Y85.914 E2.69171 ; fill
G1 X85.587 Y85.322 E0.05722 ; fill
G1 X111.178 Y110.913 E2.70293 ; fill
G1 X111.770 Y110.427 E0.05722 ; fill
G1 X86.073 Y84.730 E2.71414 ; fill
G1 X86.559 Y84.138 E0.05722 ; fill
G1 X112.362 Y109.941 E2.72536 ; fill
G1 X112.941 Y109.441 E0.05710 ; fill
G1 X87.060 Y83.559 E2.73357 ; fill
G1 X87.638 Y83.059 E0.05710 ; fill
G1 X113.441 Y108.862 E2.72536 ; fill
G1 X113.927 Y108.270 E0.05722 ; fill
G1 X88.230 Y82.573 E2.71414 ; fill
G1 X88.822 Y82.087 E0.05722 ; fill
G1 X114.413 Y107.678 E2.70293 ; fill
G1 X114.899 Y107.086 E0.05722 ; fill
G1 X89.414 Y81.601 E2.69171 ; fill
G1 X90.041 Y81.149 E0.05770 ; fill
G1 X115.351 Y106.459 E2.67320 ; fill
G1 X115.726 Y105.756 E0.05951 ; fill
G1 X90.744 Y80.774 E2.63865 ; fill
G1 X91.447 Y80.398 E0.05951 ; fill
G1 X116.102 Y105.053 E2.60410 ; fill
G1 X116.478 Y104.351 E0.05951 ; fill
G1 X92.149 Y80.022 E2.56954 ; fill
G1 X92.852 Y79.647 E0.05951 ; fill
G1 X116.853 Y103.648 E2.53499 ; fill
G1 X117.128 Y102.845 E0.06341 ; fill
G1 X93.655 Y79.372 E2.47923 ; fill
G1 X94.483 Y79.121 E0.06457 ; fill
G1 X117.379 Y102.017 E2.41835 ; fill
G1 X117.630 Y101.190 E0.06457 ; fill
G1 X95.310 Y78.870 E2.35747 ; fill
G1 X96.138 Y78.619 E0.06457 ; fill
G1 X117.881 Y100.362 E2.29659 ; fill
G1 X118.032 Y99.434 E0.07021 ; fill
G1 X97.066 Y78.468 E2.21447 ; fill
G1 X98.047 Y78.372 E0.07367 ; fill
G1 X118.128 Y98.453 E2.12100 ; fill
G1 X118.225 Y97.471 E0.07367 ; fill
G1 X99.029 Y78.275 E2.02752 ; fill
G1 X100.013 Y78.180 E0.07383 ; fill
G1 X118.320 Y96.487 E1.93356 ; fill
G1 X118.202 Y95.291 E0.08977 ; fill
G1 X101.209 Y78.298 E1.79478 ; fill
G1 X102.405 Y78.416 E0.08977 ; fill
G1 X118.084 Y94.095 E1.65599 ; fill
G1 X117.958 Y92.891 E0.09043 ; fill
G1 X103.609 Y78.542 E1.51551 ; fill
G1 X105.157 Y79.012 E0.12081 ; fill
G1 X117.489 Y91.343 E1.30242 ; fill
G1 X117.019 Y89.795 E0.12081 ; fill
G1 X106.705 Y79.481 E1.08934 ; fill
G1 F1800.000 E-2.40000 ; retract
G1 X108.870 Y80.567 F6000.000 ; move to first fill point
G1 E2.40000 F1800.000 ; compensate retraction
G1 X115.933 Y87.630 E0.74594 F900.000 ; fill
G1 F1800.000 E-2.40000 ; retract
G1 X113.085 Y83.704 F6000.000 ; move to first fill point
G1 E2.40000 F1800.000 ; compensate retraction
G1 X112.796 Y83.415 E0.03048 F900.000 ; fill
G1 F1800.000 E-2.40000 ; retract
G1 X84.067 Y105.370 F6000.000 ; move to first fill point
G1 E2.40000 F1800.000 ; compensate retraction
G1 X91.130 Y112.433 E0.74594 F900.000 ; fill
G1 F1800.000 E-2.40000 ; retract
G1 X87.204 Y109.585 F6000.000 ; move to first fill point
G1 E2.40000 F1800.000 ; compensate retraction
G1 X86.915 Y109.296 E0.03048 F900.000 ; fill
M104 S190 ; set temperature
G1 F1800.000 E-2.40000 ; retract
G1 Z0.480 F6000.000 ; move to next layer (1)
G1 X98.286 Y116.080 F6000.000 ; move to first perimeter point
G1 E2.40000 F1800.000 ; compensate retraction
G1 X96.147 Y115.869 E0.10725 F1800.000 ; perimeter
G1 X92.442 Y114.746 E0.19315 ; perimeter
G1 X89.028 Y112.921 E0.19315 ; perimeter
G1 X86.036 Y110.464 E0.19315 ; perimeter
G1 X83.579 Y107.472 E0.19315 ; perimeter
G1 X81.754 Y104.058 E0.19315 ; perimeter
G1 X80.631 Y100.353 E0.19315 ; perimeter
G1 X80.251 Y96.500 E0.19315 ; perimeter
G1 X80.631 Y92.647 E0.19315 ; perimeter
G1 X81.754 Y88.942 E0.19315 ; perimeter
G1 X83.579 Y85.528 E0.19315 ; perimeter
G1 X86.036 Y82.536 E0.19315 ; perimeter
G1 X89.028 Y80.079 E0.19315 ; perimeter
G1 X92.442 Y78.254 E0.19315 ; perimeter
G1 X96.147 Y77.131 E0.19315 ; perimeter
G1 X100.000 Y76.751 E0.19315 ; perimeter
G1 X103.853 Y77.131 E0.19315 ; perimeter
G1 X107.558 Y78.254 E0.19315 ; perimeter
G1 X110.972 Y80.079 E0.19315 ; perimeter
G1 X113.964 Y82.536 E0.19315 ; perimeter
G1 X116.421 Y85.528 E0.19315 ; perimeter
G1 X118.246 Y88.942 E0.19315 ; perimeter
G1 X119.369 Y92.647 E0.19315 ; perimeter
G1 X119.749 Y96.500 E0.19315 ; perimeter
G1 X119.369 Y100.353 E0.19315 ; perimeter
G1 X118.246 Y104.058 E0.19315 ; perimeter
G1 X116.489 Y107.344 E0.18592 ; perimeter
G1 X116.525 Y107.344 E0.00182 ; perimeter
G1 X113.964 Y110.464 E0.20139 ; perimeter
G1 X110.972 Y112.921 E0.19315 ; perimeter
G1 X107.558 Y114.746 E0.19315 ; perimeter
G1 X103.853 Y115.869 E0.19315 ; perimeter
G1 X101.714 Y116.080 E0.10725 ; perimeter
G1 X102.651 Y116.849 E0.06049 ; perimeter
G1 X103.117 Y117.417 E0.03666 ; perimeter
G1 X103.463 Y118.065 E0.03667 ; perimeter
G1 X103.677 Y118.769 E0.03666 ; perimeter
G1 X103.749 Y119.500 E0.03667 ; perimeter
G1 X103.677 Y120.231 E0.03667 ; perimeter
G1 X103.463 Y120.935 E0.03666 ; perimeter
G1 X103.117 Y121.583 E0.03667 ; perimeter
G1 X102.651 Y122.151 E0.03666 ; perimeter
G1 X102.083 Y122.617 E0.03667 ; perimeter
G1 X101.435 Y122.963 E0.03666 ; perimeter
G1 X100.731 Y123.177 E0.03666 ; perimeter
G1 X100.000 Y123.249 E0.03666 ; perimeter
G1 X99.269 Y123.177 E0.03666 ; perimeter
G1 X98.565 Y122.963 E0.03666 ; perimeter
G1 X97.917 Y122.617 E0.03666 ; perimeter
G1 X97.349 Y122.151 E0.03667 ; perimeter
G1 X96.883 Y121.583 E0.03666 ; perimeter
G1 X96.537 Y120.935 E0.03667 ; perimeter
