; generated by Slic3r 1.0.1 on 2014-07-13 at 22:06:45

; layer_height = 0.24
; perimeters = 2
; top_solid_layers = 3
; bottom_solid_layers = 3
; fill_density = 0.25
; perimeter_speed = 30
; infill_speed = 30
; travel_speed = 100
; nozzle_diameter = 0.5
; filament_diameter = 1.75
; extrusion_multiplier = 1
; perimeters extrusion width = 0.50mm
; infill extrusion width = 0.50mm
; solid infill extrusion width = 0.50mm
; top infill extrusion width = 0.50mm
; first layer extrusion width = 0.80mm

G21 ; set units to millimeters
M107 ; disable fan
M190 S57 ; wait for bed temperature to be reached
M104 S200 ; set temperature

M109 S200 ; wait for temperature to be reached
G90 ; use absolute coordinates
M83 ; use relative distances for extrusion
G1 F1800.000 E-2.40000 ; retract
G1 Z0.240 F6000.000 ; move to next layer (0)
G1 X73.988 Y103.070 F6000.000 ; move to first skirt point
G1 E2.40000 F1800.000 ; compensate retraction
G1 X104.598 Y72.450 E3.23358 F900.000 ; skirt
G1 X105.038 Y72.060 E0.04391 ; skirt
G1 X105.808 Y71.460 E0.07291 ; skirt
G1 X106.108 Y71.250 E0.02735 ; skirt
G1 X106.968 Y70.680 E0.07706 ; skirt
G1 X107.378 Y70.440 E0.03548 ; skirt
G1 X107.808 Y70.240 E0.03542 ; skirt
G1 X111.098 Y68.910 E0.26503 ; skirt
G1 X111.518 Y68.760 E0.03331 ; skirt
G1 X111.958 Y68.650 E0.03387 ; skirt
G1 X112.768 Y68.490 E0.06166 ; skirt
G1 X114.058 Y68.320 E0.09718 ; skirt
G1 X114.468 Y68.290 E0.03070 ; skirt
G1 X114.858 Y68.280 E0.02914 ; skirt
G1 X115.328 Y68.300 E0.03513 ; skirt
G1 X118.858 Y68.650 E0.26493 ; skirt
G1 X119.328 Y68.720 E0.03549 ; skirt
G1 X120.788 Y69.150 E0.11367 ; skirt
G1 X121.198 Y69.300 E0.03261 ; skirt
G1 X122.498 Y69.850 E0.10542 ; skirt
G1 X122.888 Y70.080 E0.03382 ; skirt
G1 X125.848 Y72.030 E0.26473 ; skirt
G1 X126.228 Y72.310 E0.03525 ; skirt
G1 X127.218 Y73.260 E0.10247 ; skirt
G1 X127.498 Y73.550 E0.03011 ; skirt
G1 X128.208 Y74.380 E0.08157 ; skirt
G1 X128.498 Y74.760 E0.03570 ; skirt
G1 X128.758 Y75.170 E0.03626 ; skirt
G1 X130.478 Y78.280 E0.26543 ; skirt
G1 X130.668 Y78.670 E0.03240 ; skirt
G1 X131.008 Y79.650 E0.07747 ; skirt
G1 X131.208 Y80.340 E0.05365 ; skirt
G1 X131.468 Y81.470 E0.08660 ; skirt
G1 X131.548 Y81.940 E0.03561 ; skirt
G1 X131.588 Y82.420 E0.03597 ; skirt
G1 X131.658 Y85.970 E0.26518 ; skirt
G1 X131.638 Y86.420 E0.03364 ; skirt
G1 X131.588 Y86.870 E0.03382 ; skirt
G1 X131.328 Y88.270 E0.10635 ; skirt
G1 X131.068 Y89.240 E0.07500 ; skirt
G1 X130.918 Y89.700 E0.03614 ; skirt
G1 X130.728 Y90.130 E0.03511 ; skirt
G1 X129.138 Y93.310 E0.26553 ; skirt
G1 X128.918 Y93.710 E0.03409 ; skirt
G1 X128.138 Y94.750 E0.09709 ; skirt
G1 X127.948 Y94.990 E0.02286 ; skirt
G1 X127.248 Y95.780 E0.07883 ; skirt
G1 X95.568 Y127.370 E3.34132 ; skirt
G1 X95.228 Y127.680 E0.03436 ; skirt
G1 X94.848 Y127.960 E0.03525 ; skirt
G1 X91.888 Y129.910 E0.26473 ; skirt
G1 X91.498 Y130.140 E0.03382 ; skirt
G1 X91.078 Y130.330 E0.03443 ; skirt
G1 X89.788 Y130.840 E0.10360 ; skirt
G1 X88.328 Y131.270 E0.11367 ; skirt
G1 X87.858 Y131.340 E0.03549 ; skirt
G1 X84.328 Y131.690 E0.26493 ; skirt
G1 X83.538 Y131.700 E0.05901 ; skirt
G1 X82.818 Y131.640 E0.05396 ; skirt
G1 X81.768 Y131.500 E0.07911 ; skirt
G1 X80.958 Y131.340 E0.06166 ; skirt
G1 X80.518 Y131.230 E0.03387 ; skirt
G1 X80.098 Y131.080 E0.03331 ; skirt
G1 X76.808 Y129.750 E0.26503 ; skirt
G1 X76.378 Y129.550 E0.03542 ; skirt
G1 X75.968 Y129.310 E0.03548 ; skirt
G1 X74.808 Y128.530 E0.10440 ; skirt
G1 X74.038 Y127.930 E0.07291 ; skirt
G1 X73.668 Y127.600 E0.03703 ; skirt
G1 X73.328 Y127.240 E0.03698 ; skirt
G1 X71.038 Y124.530 E0.26498 ; skirt
G1 X70.768 Y124.180 E0.03301 ; skirt
G1 X70.528 Y123.800 E0.03357 ; skirt
G1 X70.088 Y123.020 E0.06688 ; skirt
G1 X69.888 Y122.620 E0.03340 ; skirt
G1 X69.438 Y121.610 E0.08258 ; skirt
G1 X69.268 Y121.170 E0.03523 ; skirt
G1 X69.148 Y120.720 E0.03478 ; skirt
G1 X68.368 Y117.250 E0.26562 ; skirt
G1 X68.288 Y116.800 E0.03414 ; skirt
G1 X68.248 Y116.340 E0.03448 ; skirt
G1 X68.228 Y115.330 E0.07545 ; skirt
G1 X68.248 Y114.610 E0.05379 ; skirt
G1 X68.318 Y113.760 E0.06370 ; skirt
G1 X68.458 Y112.980 E0.05919 ; skirt
G1 X69.378 Y109.550 E0.26522 ; skirt
G1 X69.528 Y109.100 E0.03543 ; skirt
G1 X69.708 Y108.680 E0.03413 ; skirt
G1 X70.138 Y107.810 E0.07248 ; skirt
G1 X70.348 Y107.430 E0.03243 ; skirt
G1 X70.888 Y106.550 E0.07711 ; skirt
G1 X71.158 Y106.160 E0.03543 ; skirt
G1 X71.458 Y105.800 E0.03500 ; skirt
G1 X73.912 Y103.153 E0.26960 ; skirt
G1 F1800.000 E-2.40000 ; retract
G1 X77.769 Y106.615 F6000.000 ; move to first perimeter point
G1 E2.40000 F1800.000 ; compensate retraction
G1 X78.249 Y106.268 E0.04423 F900.000 ; perimeter
G1 X79.014 Y105.787 E0.06753 ; perimeter
G1 X79.362 Y105.974 E0.02952 ; perimeter
G1 X79.886 Y106.370 E0.04902 ; perimeter
G1 X80.203 Y106.691 E0.03372 ; perimeter
G1 X80.378 Y106.942 E0.02286 ; perimeter
G1 X80.710 Y107.684 E0.06071 ; perimeter
G1 X82.017 Y107.228 E0.10339 ; perimeter
G1 X82.541 Y107.025 E0.04196 ; perimeter
G1 X82.324 Y106.244 E0.06054 ; perimeter
G1 X82.304 Y105.932 E0.02331 ; perimeter
G1 X82.348 Y105.487 E0.03341 ; perimeter
G1 X82.507 Y104.850 E0.04903 ; perimeter
G1 X82.654 Y104.498 E0.02853 ; perimeter
G1 X83.453 Y104.395 E0.06017 ; perimeter
G1 X84.144 Y104.351 E0.05174 ; perimeter
G1 X84.362 Y104.674 E0.02909 ; perimeter
G1 X84.642 Y105.267 E0.04899 ; perimeter
G1 X84.773 Y105.699 E0.03372 ; perimeter
G1 X84.811 Y106.002 E0.02278 ; perimeter
G1 X84.761 Y106.814 E0.06076 ; perimeter
G1 X86.130 Y107.019 E0.10335 ; perimeter
G1 X86.688 Y107.083 E0.04199 ; perimeter
G1 X86.860 Y106.288 E0.06077 ; perimeter
G1 X86.986 Y106.004 E0.02319 ; perimeter
G1 X87.232 Y105.630 E0.03342 ; perimeter
G1 X87.668 Y105.141 E0.04898 ; perimeter
G1 X87.960 Y104.898 E0.02834 ; perimeter
G1 X88.593 Y105.126 E0.05021 ; perimeter
G1 X89.349 Y105.456 E0.06164 ; perimeter
G1 X89.393 Y105.846 E0.02933 ; perimeter
G1 X89.365 Y106.501 E0.04897 ; perimeter
G1 X89.280 Y106.946 E0.03377 ; perimeter
G1 X89.173 Y107.232 E0.02286 ; perimeter
G1 X88.751 Y107.927 E0.06068 ; perimeter
G1 X89.869 Y108.744 E0.10340 ; perimeter
G1 X90.333 Y109.060 E0.04196 ; perimeter
G1 X90.855 Y108.436 E0.06074 ; perimeter
G1 X91.098 Y108.243 E0.02316 ; perimeter
G1 X91.489 Y108.027 E0.03342 ; perimeter
G1 X92.104 Y107.796 E0.04900 ; perimeter
G1 X92.480 Y107.716 E0.02875 ; perimeter
G1 X93.067 Y108.377 E0.06606 ; perimeter
G1 X93.444 Y108.861 E0.04575 ; perimeter
G1 X93.302 Y109.222 E0.02901 ; perimeter
G1 X92.973 Y109.789 E0.04896 ; perimeter
G1 X92.692 Y110.143 E0.03373 ; perimeter
G1 X92.464 Y110.347 E0.02289 ; perimeter
G1 X91.767 Y110.766 E0.06073 ; perimeter
G1 X92.378 Y112.009 E0.10345 ; perimeter
G1 X92.643 Y112.505 E0.04196 ; perimeter
G1 X93.394 Y112.194 E0.06072 ; perimeter
G1 X93.698 Y112.137 E0.02310 ; perimeter
G1 X94.146 Y112.128 E0.03341 ; perimeter
G1 X94.797 Y112.208 E0.04902 ; perimeter
G1 X95.163 Y112.311 E0.02843 ; perimeter
G1 X95.351 Y113.040 E0.05619 ; perimeter
G1 X95.490 Y113.773 E0.05571 ; perimeter
G1 X95.195 Y114.028 E0.02916 ; perimeter
G1 X94.641 Y114.377 E0.04894 ; perimeter
G1 X94.227 Y114.560 E0.03380 ; perimeter
G1 X93.931 Y114.634 E0.02273 ; perimeter
G1 X93.119 Y114.682 E0.06080 ; perimeter
G1 X93.081 Y116.066 E0.10341 ; perimeter
G1 X93.084 Y116.628 E0.04201 ; perimeter
G1 X93.895 Y116.702 E0.06075 ; perimeter
G1 X94.192 Y116.793 E0.02322 ; perimeter
G1 X94.592 Y116.993 E0.03339 ; perimeter
G1 X95.131 Y117.367 E0.04899 ; perimeter
G1 X95.406 Y117.627 E0.02830 ; perimeter
G1 X95.270 Y118.231 E0.04623 ; perimeter
G1 X95.022 Y119.073 E0.06558 ; perimeter
G1 X94.638 Y119.163 E0.02946 ; perimeter
G1 X93.984 Y119.215 E0.04899 ; perimeter
G1 X93.534 Y119.184 E0.03374 ; perimeter
G1 X93.237 Y119.113 E0.02279 ; perimeter
G1 X92.495 Y118.776 E0.06083 ; perimeter
G1 X91.819 Y119.986 E0.10346 ; perimeter
G1 X91.562 Y120.485 E0.04196 ; perimeter
G1 X92.244 Y120.927 E0.06075 ; perimeter
G1 X92.464 Y121.146 E0.02315 ; perimeter
G1 X92.727 Y121.508 E0.03344 ; perimeter
G1 X93.030 Y122.090 E0.04895 ; perimeter
G1 X93.154 Y122.452 E0.02864 ; perimeter
G1 X92.605 Y123.078 E0.06212 ; perimeter
G1 X92.135 Y123.549 E0.04975 ; perimeter
G1 X91.759 Y123.452 E0.02901 ; perimeter
G1 X91.156 Y123.193 E0.04902 ; perimeter
G1 X90.770 Y122.956 E0.03378 ; perimeter
G1 X90.542 Y122.756 E0.02272 ; perimeter
G1 X90.040 Y122.114 E0.06082 ; perimeter
G1 X88.881 Y122.870 E0.10331 ; perimeter
G1 X88.422 Y123.192 E0.04191 ; perimeter
G1 X88.818 Y123.898 E0.06051 ; perimeter
G1 X88.912 Y124.197 E0.02339 ; perimeter
G1 X88.976 Y124.639 E0.03339 ; perimeter
G1 X88.974 Y125.295 E0.04896 ; perimeter
G1 X88.916 Y125.671 E0.02840 ; perimeter
G1 X88.266 Y125.928 E0.05221 ; perimeter
G1 X87.506 Y126.173 E0.05967 ; perimeter
G1 X87.216 Y125.910 E0.02924 ; perimeter
G1 X86.802 Y125.402 E0.04899 ; perimeter
G1 X86.570 Y125.013 E0.03376 ; perimeter
G1 X86.462 Y124.728 E0.02278 ; perimeter
G1 X86.316 Y123.928 E0.06078 ; perimeter
G1 X84.938 Y124.058 E0.10339 ; perimeter
G1 X84.381 Y124.129 E0.04197 ; perimeter
G1 X84.405 Y124.940 E0.06061 ; perimeter
G1 X84.350 Y125.247 E0.02328 ; perimeter
G1 X84.200 Y125.669 E0.03344 ; perimeter
G1 X83.894 Y126.249 E0.04897 ; perimeter
G1 X83.668 Y126.553 E0.02827 ; perimeter
G1 X82.760 Y126.448 E0.06831 ; perimeter
G1 X82.184 Y126.341 E0.04373 ; perimeter
G1 X82.051 Y125.976 E0.02898 ; perimeter
G1 X81.920 Y125.333 E0.04898 ; perimeter
G1 X81.897 Y124.882 E0.03378 ; perimeter
G1 X81.932 Y124.579 E0.02276 ; perimeter
G1 X82.176 Y123.802 E0.06083 ; perimeter
G1 X80.895 Y123.277 E0.10343 ; perimeter
G1 X80.368 Y123.082 E0.04192 ; perimeter
G1 X80.011 Y123.812 E0.06072 ; perimeter
G1 X79.821 Y124.057 E0.02316 ; perimeter
G1 X79.493 Y124.361 E0.03338 ; perimeter
G1 X78.952 Y124.732 E0.04898 ; perimeter
G1 X78.608 Y124.898 E0.02854 ; perimeter
G1 X77.963 Y124.462 E0.05817 ; perimeter
G1 X77.395 Y124.020 E0.05375 ; perimeter
G1 X77.446 Y123.634 E0.02907 ; perimeter
G1 X77.631 Y123.004 E0.04903 ; perimeter
G1 X77.819 Y122.594 E0.03375 ; perimeter
G1 X77.991 Y122.341 E0.02285 ; perimeter
G1 X78.567 Y121.768 E0.06065 ; perimeter
G1 X77.677 Y120.707 E0.10336 ; perimeter
G1 X77.302 Y120.289 E0.04198 ; perimeter
G1 X76.648 Y120.770 E0.06063 ; perimeter
G1 X76.364 Y120.899 E0.02327 ; perimeter
G1 X75.932 Y121.015 E0.03339 ; perimeter
G1 X75.280 Y121.092 E0.04903 ; perimeter
G1 X74.902 Y121.080 E0.02830 ; perimeter
G1 X74.591 Y120.514 E0.04820 ; perimeter
G1 X74.231 Y119.742 E0.06360 ; perimeter
G1 X74.458 Y119.421 E0.02943 ; perimeter
G1 X74.913 Y118.948 E0.04897 ; perimeter
G1 X75.270 Y118.673 E0.03368 ; perimeter
G1 X75.541 Y118.529 E0.02292 ; perimeter
G1 X76.317 Y118.288 E0.06067 ; perimeter
G1 X76.023 Y116.937 E0.10326 ; perimeter
G1 X75.885 Y116.393 E0.04193 ; perimeter
G1 X75.083 Y116.513 E0.06061 ; perimeter
G1 X74.770 Y116.496 E0.02338 ; perimeter
G1 X74.335 Y116.398 E0.03335 ; perimeter
G1 X73.721 Y116.163 E0.04902 ; perimeter
G1 X73.387 Y115.974 E0.02869 ; perimeter
G1 X73.385 Y115.116 E0.06407 ; perimeter
G1 X73.424 Y114.478 E0.04776 ; perimeter
G1 X73.770 Y114.301 E0.02898 ; perimeter
G1 X74.392 Y114.095 E0.04898 ; perimeter
G1 X74.838 Y114.017 E0.03381 ; perimeter
G1 X75.142 Y114.015 E0.02270 ; perimeter
G1 X75.943 Y114.164 E0.06087 ; perimeter
G1 X76.310 Y112.829 E0.10343 ; perimeter
G1 X76.441 Y112.282 E0.04198 ; perimeter
G1 X75.672 Y112.016 E0.06083 ; perimeter
G1 X75.406 Y111.857 E0.02310 ; perimeter
G1 X75.065 Y111.567 E0.03345 ; perimeter
G1 X74.631 Y111.075 E0.04899 ; perimeter
G1 X74.426 Y110.755 E0.02838 ; perimeter
G1 X74.755 Y110.108 E0.05421 ; perimeter
G1 X75.149 Y109.444 E0.05767 ; perimeter
G1 X75.540 Y109.449 E0.02918 ; perimeter
G1 X76.187 Y109.555 E0.04902 ; perimeter
G1 X76.617 Y109.692 E0.03368 ; perimeter
G1 X76.890 Y109.834 E0.02296 ; perimeter
G1 X77.529 Y110.336 E0.06069 ; perimeter
G1 X78.473 Y109.325 E0.10329 ; perimeter
G1 X78.842 Y108.903 E0.04191 ; perimeter
G1 X78.288 Y108.311 E0.06058 ; perimeter
G1 X78.125 Y108.044 E0.02337 ; perimeter
G1 X77.957 Y107.630 E0.03334 ; perimeter
G1 X77.802 Y106.993 E0.04897 ; perimeter
G1 X77.779 Y106.727 E0.01993 ; perimeter
G1 X78.359 Y106.661 F6000.000 ; move inwards before travel
G1 X78.566 Y106.956 F6000.000 ; move to first perimeter point
G1 X79.022 Y106.656 E0.04075 F900.000 ; perimeter
G1 X79.398 Y106.941 E0.03526 ; perimeter
G1 X79.637 Y107.185 E0.02549 ; perimeter
G1 X79.712 Y107.288 E0.00948 ; perimeter
G1 X80.317 Y108.614 E0.10887 ; perimeter
G1 X82.275 Y107.930 E0.15491 ; perimeter
G1 X83.442 Y107.479 E0.09343 ; perimeter
G1 X83.060 Y106.091 E0.10752 ; perimeter
G1 X83.054 Y105.955 E0.01012 ; perimeter
G1 X83.090 Y105.606 E0.02621 ; perimeter
G1 X83.199 Y105.176 E0.03316 ; perimeter
G1 X83.742 Y105.116 E0.04079 ; perimeter
G1 X83.944 Y105.547 E0.03555 ; perimeter
G1 X84.043 Y105.874 E0.02551 ; perimeter
G1 X84.060 Y105.996 E0.00923 ; perimeter
G1 X83.982 Y107.455 E0.10907 ; perimeter
G1 X86.031 Y107.761 E0.15475 ; perimeter
G1 X87.275 Y107.904 E0.09352 ; perimeter
G1 X87.583 Y106.492 E0.10796 ; perimeter
G1 X87.639 Y106.373 E0.00981 ; perimeter
G1 X87.833 Y106.081 E0.02619 ; perimeter
G1 X88.134 Y105.746 E0.03360 ; perimeter
G1 X88.638 Y105.955 E0.04076 ; perimeter
G1 X88.617 Y106.424 E0.03506 ; perimeter
G1 X88.552 Y106.761 E0.02559 ; perimeter
G1 X88.510 Y106.880 E0.00946 ; perimeter
G1 X87.763 Y108.132 E0.10885 ; perimeter
G1 X89.437 Y109.355 E0.15490 ; perimeter
G1 X90.472 Y110.059 E0.09343 ; perimeter
G1 X91.402 Y108.951 E0.10801 ; perimeter
G1 X91.505 Y108.873 E0.00969 ; perimeter
G1 X91.812 Y108.705 E0.02613 ; perimeter
G1 X92.231 Y108.550 E0.03334 ; perimeter
G1 X92.585 Y108.965 E0.04078 ; perimeter
G1 X92.347 Y109.373 E0.03527 ; perimeter
G1 X92.133 Y109.641 E0.02560 ; perimeter
G1 X92.039 Y109.728 E0.00962 ; perimeter
G1 X90.796 Y110.489 E0.10879 ; perimeter
G1 X91.712 Y112.351 E0.15499 ; perimeter
G1 X92.302 Y113.454 E0.09341 ; perimeter
G1 X93.637 Y112.905 E0.10783 ; perimeter
G1 X93.765 Y112.885 E0.00967 ; perimeter
G1 X94.117 Y112.879 E0.02628 ; perimeter
G1 X94.556 Y112.935 E0.03309 ; perimeter
G1 X94.676 Y113.470 E0.04096 ; perimeter
G1 X94.280 Y113.718 E0.03495 ; perimeter
G1 X93.964 Y113.856 E0.02568 ; perimeter
G1 X93.845 Y113.889 E0.00922 ; perimeter
G1 X92.389 Y113.985 E0.10900 ; perimeter
G1 X92.332 Y116.058 E0.15486 ; perimeter
G1 X92.340 Y117.311 E0.09355 ; perimeter
G1 X93.779 Y117.445 E0.10789 ; perimeter
G1 X93.904 Y117.487 E0.00988 ; perimeter
G1 X94.217 Y117.644 E0.02617 ; perimeter
G1 X94.584 Y117.901 E0.03346 ; perimeter
G1 X94.440 Y118.428 E0.04077 ; perimeter
G1 X93.971 Y118.463 E0.03517 ; perimeter
G1 X93.629 Y118.439 E0.02557 ; perimeter
G1 X93.507 Y118.412 E0.00933 ; perimeter
G1 X92.172 Y117.820 E0.10906 ; perimeter
G1 X91.160 Y119.631 E0.15500 ; perimeter
G1 X90.586 Y120.743 E0.09341 ; perimeter
G1 X91.796 Y121.531 E0.10783 ; perimeter
G1 X91.887 Y121.625 E0.00980 ; perimeter
G1 X92.092 Y121.911 E0.02624 ; perimeter
G1 X92.296 Y122.306 E0.03318 ; perimeter
G1 X91.928 Y122.710 E0.04079 ; perimeter
G1 X91.493 Y122.522 E0.03540 ; perimeter
G1 X91.200 Y122.340 E0.02574 ; perimeter
G1 X91.107 Y122.262 E0.00909 ; perimeter
G1 X90.198 Y121.118 E0.10915 ; perimeter
G1 X88.462 Y122.249 E0.15477 ; perimeter
G1 X87.439 Y122.967 E0.09332 ; perimeter
G1 X88.140 Y124.223 E0.10745 ; perimeter
G1 X88.178 Y124.354 E0.01022 ; perimeter
G1 X88.227 Y124.701 E0.02617 ; perimeter
G1 X88.224 Y125.151 E0.03362 ; perimeter
G1 X87.708 Y125.328 E0.04075 ; perimeter
G1 X87.412 Y124.963 E0.03508 ; perimeter
G1 X87.238 Y124.669 E0.02552 ; perimeter
G1 X87.192 Y124.555 E0.00920 ; perimeter
G1 X86.920 Y123.119 E0.10915 ; perimeter
G1 X84.855 Y123.314 E0.15485 ; perimeter
G1 X83.614 Y123.473 E0.09346 ; perimeter
G1 X83.653 Y124.914 E0.10770 ; perimeter
G1 X83.627 Y125.045 E0.00998 ; perimeter
G1 X83.508 Y125.375 E0.02621 ; perimeter
G1 X83.298 Y125.769 E0.03332 ; perimeter
G1 X82.757 Y125.692 E0.04079 ; perimeter
G1 X82.665 Y125.229 E0.03524 ; perimeter
G1 X82.648 Y124.886 E0.02566 ; perimeter
G1 X82.660 Y124.763 E0.00922 ; perimeter
G1 X83.087 Y123.366 E0.10913 ; perimeter
