; generated by Slic3r 1.0.1 on 2014-07-07 at 08:58:18

; layer_height = 0.24
; perimeters = 2
; top_solid_layers = 3
; bottom_solid_layers = 3
; fill_density = 0.25
; perimeter_speed = 30
; infill_speed = 30
; travel_speed = 100
; nozzle_diameter = 0.5
; filament_diameter = 1.75
; extrusion_multiplier = 1
; perimeters extrusion width = 0.50mm
; infill extrusion width = 0.50mm
; solid infill extrusion width = 0.50mm
; top infill extrusion width = 0.50mm
; first layer extrusion width = 0.80mm

G21 ; set units to millimeters
M107 ; disable fan
M190 S57 ; wait for bed temperature to be reached
M104 S200 ; set temperature

M109 S200 ; wait for temperature to be reached
G90 ; use absolute coordinates
M83 ; use relative distances for extrusion
G1 F1800.000 E-2.40000 ; retract
G1 Z0.240 F6000.000 ; move to next layer (0)
G1 X64.890 Y82.640 F6000.000 ; move to first skirt point
G1 E2.40000 F1800.000 ; compensate retraction
G1 X65.880 Y81.890 E0.09276 F900.000 ; skirt
G1 X67.020 Y81.410 E0.09238 ; skirt
G1 X68.250 Y81.250 E0.09264 ; skirt
G1 X131.750 Y81.250 E4.74251 ; skirt
G1 X132.980 Y81.410 E0.09264 ; skirt
G1 X134.120 Y81.890 E0.09238 ; skirt
G1 X135.110 Y82.640 E0.09276 ; skirt
G1 X135.860 Y83.630 E0.09276 ; skirt
G1 X136.340 Y84.770 E0.09238 ; skirt
G1 X136.500 Y86.000 E0.09264 ; skirt
G1 X136.500 Y114.000 E2.09119 ; skirt
G1 X136.340 Y115.230 E0.09264 ; skirt
G1 X135.860 Y116.370 E0.09238 ; skirt
G1 X135.110 Y117.360 E0.09276 ; skirt
G1 X134.120 Y118.110 E0.09276 ; skirt
G1 X132.980 Y118.590 E0.09238 ; skirt
G1 X131.750 Y118.750 E0.09264 ; skirt
G1 X68.250 Y118.750 E4.74251 ; skirt
G1 X67.020 Y118.590 E0.09264 ; skirt
G1 X65.880 Y118.110 E0.09238 ; skirt
G1 X64.890 Y117.360 E0.09276 ; skirt
G1 X64.140 Y116.370 E0.09276 ; skirt
G1 X63.660 Y115.230 E0.09238 ; skirt
G1 X63.500 Y114.000 E0.09264 ; skirt
G1 X63.500 Y86.000 E2.09119 ; skirt
G1 X63.660 Y84.770 E0.09264 ; skirt
G1 X64.140 Y83.630 E0.09238 ; skirt
G1 X64.822 Y82.729 E0.08437 ; skirt
G1 F1800.000 E-2.40000 ; retract
G1 X68.650 Y86.400 F6000.000 ; move to first perimeter point
G1 E2.40000 F1800.000 ; compensate retraction
G1 X131.350 Y86.400 E4.68276 F900.000 ; perimeter
G1 X131.350 Y113.600 E2.03144 ; perimeter
G1 X68.650 Y113.600 E4.68276 ; perimeter
G1 X68.650 Y86.512 E2.02305 ; perimeter
G1 X69.298 Y86.774 F6000.000 ; move inwards before travel
G1 X69.398 Y87.148 F6000.000 ; move to first perimeter point
G1 X130.602 Y87.148 E4.57096 F900.000 ; perimeter
G1 X130.602 Y112.852 E1.91963 ; perimeter
G1 X96.898 Y112.852 E2.51712 ; perimeter
G1 X96.898 Y103.352 E0.70951 ; perimeter
G1 X86.938 Y103.352 E0.74391 ; perimeter
G1 X87.866 Y102.264 E0.10679 ; perimeter
G1 X88.182 Y101.749 E0.04513 ; perimeter
G1 X88.414 Y101.190 E0.04515 ; perimeter
G1 X88.555 Y100.603 E0.04515 ; perimeter
G1 X88.602 Y100.000 E0.04514 ; perimeter
G1 X88.555 Y99.397 E0.04514 ; perimeter
G1 X88.414 Y98.810 E0.04515 ; perimeter
G1 X88.182 Y98.251 E0.04515 ; perimeter
G1 X87.866 Y97.736 E0.04513 ; perimeter
G1 X87.474 Y97.276 E0.04514 ; perimeter
G1 X87.014 Y96.884 E0.04514 ; perimeter
G1 X86.499 Y96.568 E0.04513 ; perimeter
G1 X85.940 Y96.336 E0.04515 ; perimeter
G1 X85.353 Y96.195 E0.04515 ; perimeter
G1 X84.750 Y96.148 E0.04514 ; perimeter
G1 X84.147 Y96.195 E0.04514 ; perimeter
G1 X83.560 Y96.336 E0.04515 ; perimeter
G1 X83.001 Y96.568 E0.04515 ; perimeter
G1 X82.486 Y96.884 E0.04513 ; perimeter
G1 X82.026 Y97.276 E0.04514 ; perimeter
G1 X81.634 Y97.736 E0.04514 ; perimeter
G1 X81.318 Y98.251 E0.04513 ; perimeter
G1 X81.086 Y98.810 E0.04515 ; perimeter
G1 X80.945 Y99.397 E0.04515 ; perimeter
G1 X80.898 Y100.000 E0.04514 ; perimeter
G1 X80.945 Y100.603 E0.04514 ; perimeter
G1 X81.086 Y101.190 E0.04515 ; perimeter
G1 X81.318 Y101.749 E0.04515 ; perimeter
G1 X81.634 Y102.264 E0.04513 ; perimeter
G1 X82.026 Y102.724 E0.04514 ; perimeter
G1 X82.486 Y103.116 E0.04514 ; perimeter
G1 X83.001 Y103.432 E0.04513 ; perimeter
G1 X83.560 Y103.664 E0.04515 ; perimeter
G1 X84.147 Y103.805 E0.04515 ; perimeter
G1 X84.602 Y103.840 E0.03402 ; perimeter
G1 X84.602 Y112.852 E0.67300 ; perimeter
G1 X69.398 Y112.852 E1.13544 ; perimeter
G1 X69.398 Y87.261 E1.91125 ; perimeter
G1 F1800.000 E-2.40000 ; retract
G1 X85.350 Y104.100 F6000.000 ; move to first perimeter point
G1 E2.40000 F1800.000 ; compensate retraction
G1 X96.150 Y104.100 E0.80660 F780.000 ; perimeter
G1 X96.150 Y112.400 E0.61989 ; perimeter
G1 X85.350 Y112.400 E0.80660 ; perimeter
G1 X85.350 Y104.212 E0.61150 ; perimeter
G1 X85.350 Y103.352 F6000.000 ; move inwards before travel
G1 X85.235 Y103.063 F6000.000 ; move to first perimeter point
G1 X84.750 Y103.101 E0.03635 F780.000 ; perimeter
G1 X84.265 Y103.063 E0.03635 ; perimeter
G1 X83.792 Y102.949 E0.03634 ; perimeter
G1 X83.342 Y102.763 E0.03635 ; perimeter
G1 X82.927 Y102.509 E0.03634 ; perimeter
G1 X82.557 Y102.193 E0.03634 ; perimeter
G1 X82.241 Y101.823 E0.03634 ; perimeter
G1 X81.987 Y101.408 E0.03634 ; perimeter
G1 X81.801 Y100.958 E0.03635 ; perimeter
G1 X81.687 Y100.485 E0.03634 ; perimeter
G1 X81.649 Y100.000 E0.03635 ; perimeter
G1 X81.687 Y99.515 E0.03635 ; perimeter
G1 X81.801 Y99.042 E0.03634 ; perimeter
G1 X81.987 Y98.592 E0.03635 ; perimeter
G1 X82.241 Y98.177 E0.03634 ; perimeter
G1 X82.557 Y97.807 E0.03634 ; perimeter
G1 X82.927 Y97.491 E0.03634 ; perimeter
G1 X83.342 Y97.237 E0.03634 ; perimeter
G1 X83.792 Y97.051 E0.03635 ; perimeter
G1 X84.265 Y96.937 E0.03634 ; perimeter
G1 X84.750 Y96.899 E0.03635 ; perimeter
G1 X85.235 Y96.937 E0.03635 ; perimeter
G1 X85.708 Y97.051 E0.03634 ; perimeter
G1 X86.158 Y97.237 E0.03635 ; perimeter
G1 X86.573 Y97.491 E0.03634 ; perimeter
G1 X86.943 Y97.807 E0.03634 ; perimeter
G1 X87.259 Y98.177 E0.03634 ; perimeter
G1 X87.513 Y98.592 E0.03634 ; perimeter
G1 X87.699 Y99.042 E0.03635 ; perimeter
G1 X87.813 Y99.515 E0.03634 ; perimeter
G1 X87.851 Y100.000 E0.03635 ; perimeter
G1 X87.813 Y100.485 E0.03635 ; perimeter
G1 X87.699 Y100.958 E0.03634 ; perimeter
G1 X87.513 Y101.408 E0.03635 ; perimeter
G1 X87.259 Y101.823 E0.03634 ; perimeter
G1 X86.943 Y102.193 E0.03634 ; perimeter
G1 X86.573 Y102.509 E0.03634 ; perimeter
G1 X86.158 Y102.763 E0.03634 ; perimeter
G1 X85.708 Y102.949 E0.03635 ; perimeter
G1 X85.344 Y103.037 E0.02796 ; perimeter
G1 X85.049 Y103.513 F6000.000 ; move inwards before travel
G1 F1800.000 E-2.40000 ; retract
G1 X104.687 Y100.485 F6000.000 ; move to first perimeter point
G1 E2.40000 F1800.000 ; compensate retraction
G1 X104.649 Y100.000 E0.03635 F780.000 ; perimeter
G1 X104.687 Y99.515 E0.03635 ; perimeter
G1 X104.801 Y99.042 E0.03634 ; perimeter
G1 X104.987 Y98.592 E0.03635 ; perimeter
G1 X105.241 Y98.177 E0.03634 ; perimeter
G1 X105.557 Y97.807 E0.03634 ; perimeter
G1 X105.927 Y97.491 E0.03634 ; perimeter
G1 X106.342 Y97.237 E0.03634 ; perimeter
G1 X106.792 Y97.051 E0.03635 ; perimeter
G1 X107.265 Y96.937 E0.03634 ; perimeter
G1 X107.750 Y96.899 E0.03635 ; perimeter
G1 X108.235 Y96.937 E0.03635 ; perimeter
G1 X108.708 Y97.051 E0.03634 ; perimeter
G1 X109.158 Y97.237 E0.03635 ; perimeter
G1 X109.573 Y97.491 E0.03634 ; perimeter
G1 X109.943 Y97.807 E0.03634 ; perimeter
G1 X110.259 Y98.177 E0.03634 ; perimeter
G1 X110.513 Y98.592 E0.03634 ; perimeter
G1 X110.699 Y99.042 E0.03635 ; perimeter
G1 X110.813 Y99.515 E0.03634 ; perimeter
G1 X110.851 Y100.000 E0.03635 ; perimeter
G1 X110.813 Y100.485 E0.03635 ; perimeter
G1 X110.699 Y100.958 E0.03634 ; perimeter
G1 X110.513 Y101.408 E0.03635 ; perimeter
G1 X110.259 Y101.823 E0.03634 ; perimeter
G1 X109.943 Y102.193 E0.03634 ; perimeter
G1 X109.573 Y102.509 E0.03634 ; perimeter
G1 X109.158 Y102.763 E0.03634 ; perimeter
G1 X108.708 Y102.949 E0.03635 ; perimeter
G1 X108.235 Y103.063 E0.03634 ; perimeter
G1 X107.750 Y103.101 E0.03635 ; perimeter
G1 X107.265 Y103.063 E0.03635 ; perimeter
G1 X106.792 Y102.949 E0.03634 ; perimeter
G1 X106.342 Y102.763 E0.03635 ; perimeter
G1 X105.927 Y102.509 E0.03634 ; perimeter
G1 X105.557 Y102.193 E0.03634 ; perimeter
G1 X105.241 Y101.823 E0.03634 ; perimeter
G1 X104.987 Y101.408 E0.03634 ; perimeter
G1 X104.801 Y100.958 E0.03635 ; perimeter
G1 X104.713 Y100.594 E0.02796 ; perimeter
G1 X104.237 Y100.299 F6000.000 ; move inwards before travel
G1 X103.945 Y100.603 F6000.000 ; move to first perimeter point
G1 X103.898 Y100.000 E0.04514 F780.000 ; perimeter
G1 X103.945 Y99.397 E0.04514 ; perimeter
G1 X104.086 Y98.810 E0.04515 ; perimeter
G1 X104.318 Y98.251 E0.04515 ; perimeter
G1 X104.634 Y97.736 E0.04513 ; perimeter
G1 X105.026 Y97.276 E0.04514 ; perimeter
G1 X105.486 Y96.884 E0.04514 ; perimeter
G1 X106.001 Y96.568 E0.04513 ; perimeter
G1 X106.560 Y96.336 E0.04515 ; perimeter
G1 X107.147 Y96.195 E0.04515 ; perimeter
G1 X107.750 Y96.148 E0.04514 ; perimeter
G1 X108.353 Y96.195 E0.04514 ; perimeter
G1 X108.940 Y96.336 E0.04515 ; perimeter
G1 X109.499 Y96.568 E0.04515 ; perimeter
G1 X110.014 Y96.884 E0.04513 ; perimeter
G1 X110.474 Y97.276 E0.04514 ; perimeter
G1 X110.866 Y97.736 E0.04514 ; perimeter
G1 X111.182 Y98.251 E0.04513 ; perimeter
G1 X111.414 Y98.810 E0.04515 ; perimeter
G1 X111.555 Y99.397 E0.04515 ; perimeter
G1 X111.602 Y100.000 E0.04514 ; perimeter
G1 X111.555 Y100.603 E0.04514 ; perimeter
G1 X111.414 Y101.190 E0.04515 ; perimeter
G1 X111.182 Y101.749 E0.04515 ; perimeter
G1 X110.866 Y102.264 E0.04513 ; perimeter
G1 X110.474 Y102.724 E0.04514 ; perimeter
G1 X110.014 Y103.116 E0.04514 ; perimeter
G1 X109.499 Y103.432 E0.04513 ; perimeter
G1 X108.940 Y103.664 E0.04515 ; perimeter
G1 X108.353 Y103.805 E0.04515 ; perimeter
G1 X107.750 Y103.852 E0.04514 ; perimeter
G1 X107.147 Y103.805 E0.04514 ; perimeter
G1 X106.560 Y103.664 E0.04515 ; perimeter
G1 X106.001 Y103.432 E0.04515 ; perimeter
G1 X105.486 Y103.116 E0.04513 ; perimeter
G1 X105.026 Y102.724 E0.04514 ; perimeter
G1 X104.634 Y102.264 E0.04514 ; perimeter
G1 X104.318 Y101.749 E0.04513 ; perimeter
G1 X104.086 Y101.190 E0.04515 ; perimeter
G1 X103.972 Y100.712 E0.03676 ; perimeter
G1 X103.652 Y101.534 F6000.000 ; move to first fill point
G1 X89.800 Y87.681 E1.46404 F900.000 ; fill
G1 X90.859 Y87.681 E0.07916 ; fill
G1 X103.380 Y100.202 E1.32328 ; fill
G1 X103.443 Y99.207 E0.07454 ; fill
G1 X91.918 Y87.681 E1.21809 ; fill
G1 X92.977 Y87.681 E0.07916 ; fill
G1 X103.684 Y98.388 E1.13162 ; fill
G1 X104.040 Y97.685 E0.05891 ; fill
G1 X94.036 Y87.681 E1.05727 ; fill
G1 X95.096 Y87.681 E0.07916 ; fill
G1 X104.494 Y97.079 E0.99327 ; fill
G1 X105.039 Y96.565 E0.05599 ; fill
G1 X96.155 Y87.681 E0.93892 ; fill
G1 X97.214 Y87.681 E0.07916 ; fill
G1 X105.675 Y96.143 E0.89428 ; fill
G1 X106.415 Y95.823 E0.06022 ; fill
G1 X98.273 Y87.681 E0.86052 ; fill
G1 X99.332 Y87.681 E0.07916 ; fill
G1 X107.300 Y95.649 E0.84210 ; fill
G1 X108.373 Y95.663 E0.08018 ; fill
G1 X100.391 Y87.681 E0.84354 ; fill
G1 X101.451 Y87.681 E0.07916 ; fill
G1 X110.051 Y96.282 E0.90896 ; fill
G1 F1800.000 E-2.40000 ; retract
G1 X111.468 Y97.699 F6000.000 ; move to first fill point
G1 E2.40000 F1800.000 ; compensate retraction
G1 X126.088 Y112.319 E1.54515 F900.000 ; fill
G1 X127.148 Y112.319 E0.07916 ; fill
G1 X102.510 Y87.681 E2.60388 ; fill
G1 X103.569 Y87.681 E0.07916 ; fill
G1 X128.207 Y112.319 E2.60388 ; fill
G1 X129.266 Y112.319 E0.07916 ; fill
G1 X104.628 Y87.681 E2.60388 ; fill
G1 X105.687 Y87.681 E0.07916 ; fill
G1 X130.069 Y112.063 E2.57679 ; fill
G1 X130.069 Y111.003 E0.07916 ; fill
G1 X106.747 Y87.681 E2.46485 ; fill
G1 X107.806 Y87.681 E0.07916 ; fill
G1 X130.069 Y109.944 E2.35291 ; fill
G1 X130.069 Y108.885 E0.07916 ; fill
G1 X108.865 Y87.681 E2.24096 ; fill
G1 X109.924 Y87.681 E0.07916 ; fill
G1 X130.069 Y107.826 E2.12902 ; fill
G1 X130.069 Y106.767 E0.07916 ; fill
G1 X110.983 Y87.681 E2.01708 ; fill
G1 X112.043 Y87.681 E0.07916 ; fill
G1 X130.069 Y105.707 E1.90514 ; fill
G1 X130.069 Y104.648 E0.07916 ; fill
G1 X113.102 Y87.681 E1.79319 ; fill
G1 X114.161 Y87.681 E0.07916 ; fill
G1 X130.069 Y103.589 E1.68125 ; fill
G1 X130.069 Y102.530 E0.07916 ; fill
G1 X115.220 Y87.681 E1.56931 ; fill
G1 X116.279 Y87.681 E0.07916 ; fill
G1 X130.069 Y101.471 E1.45736 ; fill
G1 X130.069 Y100.411 E0.07916 ; fill
G1 X117.339 Y87.681 E1.34542 ; fill
G1 X118.398 Y87.681 E0.07916 ; fill
G1 X130.069 Y99.352 E1.23348 ; fill
G1 X130.069 Y98.293 E0.07916 ; fill
G1 X119.457 Y87.681 E1.12154 ; fill
G1 X120.516 Y87.681 E0.07916 ; fill
G1 X130.069 Y97.234 E1.00959 ; fill
G1 X130.069 Y96.175 E0.07916 ; fill
G1 X121.575 Y87.681 E0.89765 ; fill
G1 X122.635 Y87.681 E0.07916 ; fill
G1 X130.069 Y95.115 E0.78571 ; fill
G1 X130.069 Y94.056 E0.07916 ; fill
G1 X123.694 Y87.681 E0.67376 ; fill
G1 X124.753 Y87.681 E0.07916 ; fill
G1 X130.069 Y92.997 E0.56182 ; fill
G1 X130.069 Y91.938 E0.07916 ; fill
G1 X125.812 Y87.681 E0.44988 ; fill
G1 X126.871 Y87.681 E0.07916 ; fill
G1 X130.069 Y90.879 E0.33794 ; fill
G1 X130.069 Y89.819 E0.07916 ; fill
G1 X127.931 Y87.681 E0.22599 ; fill
G1 X128.990 Y87.681 E0.07916 ; fill
G1 X130.069 Y88.760 E0.11405 ; fill
G1 X130.069 Y87.701 E0.07916 ; fill
G1 X130.049 Y87.681 E0.00211 ; fill
G1 F1800.000 E-2.40000 ; retract
G1 X112.087 Y99.377 F6000.000 ; move to first fill point
G1 E2.40000 F1800.000 ; compensate retraction
G1 X125.029 Y112.319 E1.36779 F900.000 ; fill
G1 X123.970 Y112.319 E0.07916 ; fill
G1 X112.101 Y100.450 E1.25440 ; fill
G1 X111.927 Y101.335 E0.06740 ; fill
G1 X122.911 Y112.319 E1.16088 ; fill
G1 X121.852 Y112.319 E0.07916 ; fill
G1 X111.607 Y102.075 E1.08269 ; fill
G1 X111.185 Y102.711 E0.05711 ; fill
G1 X120.792 Y112.319 E1.01539 ; fill
G1 X119.733 Y112.319 E0.07916 ; fill
G1 X110.671 Y103.256 E0.95780 ; fill
G1 X110.065 Y103.710 E0.05654 ; fill
G1 X118.674 Y112.319 E0.90986 ; fill
G1 X117.615 Y112.319 E0.07916 ; fill
G1 X109.362 Y104.066 E0.87226 ; fill
G1 X108.543 Y104.307 E0.06374 ; fill
G1 X116.556 Y112.319 E0.84679 ; fill
G1 X115.496 Y112.319 E0.07916 ; fill
G1 X107.548 Y104.370 E0.84004 ; fill
G1 X106.216 Y104.098 E0.10159 ; fill
G1 X114.437 Y112.319 E0.86886 ; fill
G1 X113.378 Y112.319 E0.07916 ; fill
G1 X88.740 Y87.681 E2.60388 ; fill
G1 X87.681 Y87.681 E0.07916 ; fill
G1 X112.319 Y112.319 E2.60388 ; fill
G1 X111.260 Y112.319 E0.07916 ; fill
G1 X86.622 Y87.681 E2.60388 ; fill
G1 X85.563 Y87.681 E0.07916 ; fill
G1 X110.201 Y112.319 E2.60388 ; fill
G1 X109.141 Y112.319 E0.07916 ; fill
G1 X84.504 Y87.681 E2.60388 ; fill
G1 X83.444 Y87.681 E0.07916 ; fill
G1 X108.082 Y112.319 E2.60388 ; fill
G1 X107.023 Y112.319 E0.07916 ; fill
G1 X82.385 Y87.681 E2.60388 ; fill
G1 X81.326 Y87.681 E0.07916 ; fill
G1 X96.464 Y102.819 E1.59986 ; fill
G1 X95.405 Y102.819 E0.07916 ; fill
G1 X80.267 Y87.681 E1.59986 ; fill
G1 X79.208 Y87.681 E0.07916 ; fill
G1 X94.345 Y102.819 E1.59986 ; fill
G1 F1800.000 E-2.40000 ; retract
G1 X97.431 Y103.786 F6000.000 ; move to first fill point
G1 E2.40000 F1800.000 ; compensate retraction
G1 X105.964 Y112.319 E0.90178 F900.000 ; fill
G1 X104.905 Y112.319 E0.07916 ; fill
G1 X97.431 Y104.845 E0.78984 ; fill
G1 X97.431 Y105.905 E0.07916 ; fill
G1 X103.845 Y112.319 E0.67790 ; fill
G1 X102.786 Y112.319 E0.07916 ; fill
G1 X97.431 Y106.964 E0.56595 ; fill
G1 X97.431 Y108.023 E0.07916 ; fill
G1 X101.727 Y112.319 E0.45401 ; fill
G1 X100.668 Y112.319 E0.07916 ; fill
G1 X97.431 Y109.082 E0.34207 ; fill
G1 X97.431 Y110.141 E0.07916 ; fill
G1 X99.609 Y112.319 E0.23013 ; fill
G1 X98.549 Y112.319 E0.07916 ; fill
G1 X97.431 Y111.201 E0.11818 ; fill
G1 X97.431 Y112.260 E0.07916 ; fill
G1 X97.490 Y112.319 E0.00624 ; fill
G1 F1800.000 E-2.40000 ; retract
G1 X89.049 Y102.819 F6000.000 ; move to first fill point
G1 E2.40000 F1800.000 ; compensate retraction
G1 X88.492 Y102.262 E0.05886 F900.000 ; fill
G1 X88.841 Y101.551 E0.05916 ; fill
G1 X90.109 Y102.819 E0.13400 ; fill
G1 X91.168 Y102.819 E0.07916 ; fill
G1 X89.073 Y100.724 E0.22137 ; fill
G1 X89.113 Y99.705 E0.07623 ; fill
G1 X92.227 Y102.819 E0.32909 ; fill
G1 X93.286 Y102.819 E0.07916 ; fill
G1 X88.787 Y98.320 E0.47548 ; fill
G1 F1800.000 E-2.40000 ; retract
G1 X86.430 Y95.963 F6000.000 ; move to first fill point
G1 E2.40000 F1800.000 ; compensate retraction
G1 X78.148 Y87.681 E0.87526 F900.000 ; fill
G1 X77.089 Y87.681 E0.07916 ; fill
