; generated by Slic3r 1.0.1 on 2014-09-04 at 22:46:00

; layer_height = 0.24
; perimeters = 2
; top_solid_layers = 4
; bottom_solid_layers = 3
; fill_density = 0.25
; perimeter_speed = 30
; infill_speed = 30
; travel_speed = 100
; nozzle_diameter = 0.5
; filament_diameter = 1.75
; extrusion_multiplier = 1
; perimeters extrusion width = 0.50mm
; infill extrusion width = 0.50mm
; solid infill extrusion width = 0.50mm
; top infill extrusion width = 0.50mm
; first layer extrusion width = 0.80mm

G21 ; set units to millimeters
M107 ; disable fan
M190 S57 ; wait for bed temperature to be reached
M104 S200 ; set temperature

M109 S200 ; wait for temperature to be reached
G90 ; use absolute coordinates
M83 ; use relative distances for extrusion
G1 F1800.000 E-2.40000 ; retract
G1 Z0.240 F6000.000 ; move to next layer (0)
G1 X77.952 Y95.023 F6000.000 ; move to first skirt point
G1 E2.40000 F1800.000 ; compensate retraction
G1 X78.422 Y94.673 E0.04377 F900.000 ; skirt
G1 X79.312 Y94.123 E0.07814 ; skirt
G1 X101.592 Y81.843 E1.90000 ; skirt
G1 X102.702 Y81.403 E0.08918 ; skirt
G1 X103.882 Y81.253 E0.08884 ; skirt
G1 X120.082 Y81.253 E1.20990 ; skirt
G1 X121.312 Y81.413 E0.09264 ; skirt
G1 X122.452 Y81.893 E0.09238 ; skirt
G1 X123.442 Y82.643 E0.09276 ; skirt
G1 X124.192 Y83.633 E0.09276 ; skirt
G1 X124.672 Y84.773 E0.09238 ; skirt
G1 X124.832 Y86.003 E0.09264 ; skirt
G1 X124.832 Y89.003 E0.22406 ; skirt
G1 X124.652 Y90.303 E0.09802 ; skirt
G1 X124.112 Y91.513 E0.09896 ; skirt
G1 X109.362 Y115.223 E2.08548 ; skirt
G1 X108.922 Y115.833 E0.05617 ; skirt
G1 X108.542 Y116.293 E0.04456 ; skirt
G1 X108.102 Y116.713 E0.04543 ; skirt
G1 X107.522 Y117.193 E0.05623 ; skirt
G1 X107.032 Y117.543 E0.04497 ; skirt
G1 X106.512 Y117.833 E0.04447 ; skirt
G1 X105.832 Y118.153 E0.05613 ; skirt
G1 X105.272 Y118.373 E0.04494 ; skirt
G1 X104.692 Y118.523 E0.04474 ; skirt
G1 X103.952 Y118.663 E0.05625 ; skirt
G1 X103.512 Y118.723 E0.03317 ; skirt
G1 X103.072 Y118.743 E0.03290 ; skirt
G1 X82.752 Y118.733 E1.51760 ; skirt
G1 X82.002 Y118.683 E0.05614 ; skirt
G1 X81.432 Y118.603 E0.04299 ; skirt
G1 X80.882 Y118.463 E0.04239 ; skirt
G1 X80.162 Y118.233 E0.05645 ; skirt
G1 X79.592 Y118.013 E0.04563 ; skirt
G1 X79.052 Y117.723 E0.04578 ; skirt
G1 X78.422 Y117.323 E0.05573 ; skirt
G1 X77.952 Y116.973 E0.04377 ; skirt
G1 X77.522 Y116.573 E0.04386 ; skirt
G1 X77.002 Y116.023 E0.05653 ; skirt
G1 X76.612 Y115.553 E0.04561 ; skirt
G1 X76.282 Y115.033 E0.04600 ; skirt
G1 X75.922 Y114.373 E0.05615 ; skirt
G1 X75.662 Y113.823 E0.04544 ; skirt
G1 X75.482 Y113.243 E0.04536 ; skirt
G1 X75.302 Y112.513 E0.05615 ; skirt
G1 X75.202 Y111.943 E0.04322 ; skirt
G1 X75.162 Y111.373 E0.04268 ; skirt
G1 X75.162 Y100.623 E0.80287 ; skirt
G1 X75.202 Y100.053 E0.04268 ; skirt
G1 X75.302 Y99.483 E0.04322 ; skirt
G1 X75.482 Y98.753 E0.05615 ; skirt
G1 X75.662 Y98.173 E0.04536 ; skirt
G1 X75.922 Y97.623 E0.04544 ; skirt
G1 X76.282 Y96.963 E0.05615 ; skirt
G1 X76.612 Y96.443 E0.04600 ; skirt
G1 X77.002 Y95.973 E0.04561 ; skirt
G1 X77.522 Y95.423 E0.05653 ; skirt
G1 X77.870 Y95.099 E0.03548 ; skirt
G1 F1800.000 E-2.40000 ; retract
G1 X82.304 Y98.409 F6000.000 ; move to first perimeter point
G1 E2.40000 F1800.000 ; compensate retraction
G1 X97.372 Y98.405 E1.12539 F900.000 ; perimeter
G1 X104.122 Y86.403 E1.02844 ; perimeter
G1 X119.688 Y86.403 E1.16255 ; perimeter
G1 X119.688 Y88.605 E0.16444 ; perimeter
G1 X105.488 Y88.605 E1.06052 ; perimeter
G1 X105.488 Y110.978 E1.67094 ; perimeter
G1 X105.404 Y111.649 E0.05050 ; perimeter
G1 X105.164 Y112.254 E0.04861 ; perimeter
G1 X104.781 Y112.781 E0.04864 ; perimeter
G1 X104.279 Y113.195 E0.04862 ; perimeter
G1 X103.691 Y113.473 E0.04859 ; perimeter
G1 X103.038 Y113.597 E0.04959 ; perimeter
G1 X82.304 Y113.597 E1.54855 ; perimeter
G1 X82.252 Y113.046 E0.04130 ; perimeter
G1 X83.476 Y112.813 E0.09308 ; perimeter
G1 X83.908 Y112.610 E0.03563 ; perimeter
G1 X84.276 Y112.306 E0.03563 ; perimeter
G1 X84.556 Y111.920 E0.03563 ; perimeter
G1 X84.732 Y111.476 E0.03563 ; perimeter
G1 X84.791 Y111.003 E0.03563 ; perimeter
G1 X84.732 Y110.530 E0.03563 ; perimeter
G1 X84.556 Y110.086 E0.03563 ; perimeter
G1 X84.276 Y109.700 E0.03563 ; perimeter
G1 X83.908 Y109.396 E0.03563 ; perimeter
G1 X83.476 Y109.193 E0.03563 ; perimeter
G1 X83.008 Y109.104 E0.03563 ; perimeter
G1 X82.532 Y109.134 E0.03563 ; perimeter
G1 X82.078 Y109.281 E0.03563 ; perimeter
G1 X81.675 Y109.536 E0.03563 ; perimeter
G1 X81.348 Y109.884 E0.03563 ; perimeter
G1 X81.119 Y110.302 E0.03563 ; perimeter
G1 X80.803 Y111.533 E0.09487 ; perimeter
G1 X80.312 Y111.471 E0.03693 ; perimeter
G1 X80.312 Y100.535 E0.81672 ; perimeter
G1 X80.803 Y100.473 E0.03693 ; perimeter
G1 X81.119 Y101.704 E0.09487 ; perimeter
G1 X81.348 Y102.122 E0.03563 ; perimeter
G1 X81.675 Y102.469 E0.03563 ; perimeter
G1 X82.078 Y102.725 E0.03563 ; perimeter
G1 X82.532 Y102.872 E0.03563 ; perimeter
G1 X83.008 Y102.902 E0.03563 ; perimeter
G1 X83.476 Y102.813 E0.03563 ; perimeter
G1 X83.908 Y102.610 E0.03563 ; perimeter
G1 X84.276 Y102.306 E0.03563 ; perimeter
G1 X84.556 Y101.920 E0.03563 ; perimeter
G1 X84.732 Y101.476 E0.03563 ; perimeter
G1 X84.791 Y101.003 E0.03563 ; perimeter
G1 X84.732 Y100.530 E0.03563 ; perimeter
G1 X84.556 Y100.086 E0.03563 ; perimeter
G1 X84.276 Y99.700 E0.03563 ; perimeter
G1 X83.908 Y99.396 E0.03563 ; perimeter
G1 X83.476 Y99.193 E0.03563 ; perimeter
G1 X82.252 Y98.959 E0.09310 ; perimeter
G1 X82.293 Y98.521 E0.03289 ; perimeter
G1 X82.940 Y98.803 F6000.000 ; move inwards before travel
G1 X84.806 Y99.157 F6000.000 ; move to first perimeter point
G1 X97.810 Y99.154 E0.97120 F900.000 ; perimeter
G1 X104.464 Y87.322 E1.01386 ; perimeter
G1 X104.740 Y87.394 E0.02130 ; perimeter
G1 X104.740 Y110.931 E1.75787 ; perimeter
G1 X104.673 Y111.461 E0.03991 ; perimeter
G1 X104.503 Y111.890 E0.03449 ; perimeter
G1 X104.231 Y112.264 E0.03450 ; perimeter
G1 X103.875 Y112.558 E0.03449 ; perimeter
G1 X103.457 Y112.755 E0.03449 ; perimeter
G1 X102.968 Y112.848 E0.03724 ; perimeter
G1 X84.806 Y112.848 E1.35637 ; perimeter
G1 X85.217 Y112.283 E0.05218 ; perimeter
G1 X85.462 Y111.664 E0.04975 ; perimeter
G1 X85.546 Y111.003 E0.04975 ; perimeter
G1 X85.462 Y110.342 E0.04975 ; perimeter
G1 X85.217 Y109.723 E0.04975 ; perimeter
G1 X84.826 Y109.184 E0.04975 ; perimeter
G1 X84.312 Y108.759 E0.04975 ; perimeter
G1 X83.709 Y108.475 E0.04976 ; perimeter
G1 X83.055 Y108.351 E0.04975 ; perimeter
G1 X82.390 Y108.392 E0.04975 ; perimeter
G1 X81.757 Y108.598 E0.04975 ; perimeter
G1 X81.061 Y109.040 E0.06156 ; perimeter
G1 X81.061 Y102.966 E0.45362 ; perimeter
G1 X81.757 Y103.408 E0.06156 ; perimeter
G1 X82.390 Y103.613 E0.04976 ; perimeter
G1 X83.055 Y103.655 E0.04975 ; perimeter
G1 X83.709 Y103.531 E0.04975 ; perimeter
G1 X84.312 Y103.247 E0.04975 ; perimeter
G1 X84.825 Y102.822 E0.04975 ; perimeter
G1 X85.217 Y102.283 E0.04975 ; perimeter
G1 X85.462 Y101.664 E0.04976 ; perimeter
G1 X85.546 Y101.003 E0.04975 ; perimeter
G1 X85.462 Y100.342 E0.04976 ; perimeter
G1 X85.217 Y99.723 E0.04975 ; perimeter
G1 X84.872 Y99.248 E0.04383 ; perimeter
G1 F1800.000 E-2.40000 ; retract
G1 X92.488 Y101.603 F6000.000 ; move to first perimeter point
G1 E2.40000 F1800.000 ; compensate retraction
G1 X101.788 Y101.603 E0.69457 F780.000 ; perimeter
G1 X101.788 Y110.403 E0.65723 ; perimeter
G1 X92.488 Y110.403 E0.69457 ; perimeter
G1 X92.488 Y101.715 E0.64884 ; perimeter
G1 X92.488 Y100.854 F6000.000 ; move inwards before travel
G1 X91.740 Y100.854 F6000.000 ; move to first perimeter point
G1 X102.537 Y100.854 E0.80638 F900.000 ; perimeter
G1 X102.537 Y111.151 E0.76903 ; perimeter
G1 X91.740 Y111.151 E0.80638 ; perimeter
G1 X91.740 Y100.967 E0.76065 ; perimeter
G1 F1800.000 E-2.40000 ; retract
G1 X81.352 Y111.242 F6000.000 ; move to first perimeter point
G1 E2.40000 F1800.000 ; compensate retraction
G1 X81.447 Y112.361 E0.08390 F900.000 ; perimeter
G1 X82.390 Y112.465 E0.07087 ; perimeter
G1 F1800.000 E-2.40000 ; retract
G1 X80.180 Y100.030 F6000.000 ; move to first perimeter point
G1 E2.40000 F1800.000 ; compensate retraction
G1 X81.192 Y99.400 E0.08900 F900.000 ; perimeter
G1 X81.808 Y98.364 E0.09002 ; perimeter
G1 F1800.000 E-2.40000 ; retract
G1 X81.593 Y107.005 F6000.000 ; move to first fill point
G1 E2.40000 F1800.000 ; compensate retraction
G1 X82.444 Y107.855 E0.09355 F900.000 ; fill
G1 X83.604 Y107.913 F6000.000 ; move to first fill point
G1 X81.593 Y105.903 E0.22115 F900.000 ; fill
G1 X81.593 Y104.800 E0.08575 ; fill
G1 X89.109 Y112.316 E0.82672 ; fill
G1 X90.211 Y112.316 E0.08575 ; fill
G1 X81.915 Y104.019 E0.91264 ; fill
G1 X83.173 Y104.175 E0.09863 ; fill
G1 X90.833 Y111.835 E0.84257 ; fill
G1 X91.093 Y110.993 E0.06854 ; fill
G1 X84.056 Y103.956 E0.77408 ; fill
G1 X84.766 Y103.563 E0.06308 ; fill
G1 X91.207 Y110.004 E0.70854 ; fill
G1 X91.207 Y108.902 E0.08575 ; fill
G1 X85.334 Y103.029 E0.64604 ; fill
G1 X85.762 Y102.354 E0.06213 ; fill
G1 X91.207 Y107.799 E0.59897 ; fill
G1 X91.207 Y106.697 E0.08575 ; fill
G1 X86.019 Y101.509 E0.57071 ; fill
G1 X86.006 Y100.393 E0.08678 ; fill
G1 X91.207 Y105.595 E0.57216 ; fill
G1 X91.207 Y104.492 E0.08575 ; fill
G1 X86.404 Y99.689 E0.52831 ; fill
G1 X87.506 Y99.689 E0.08573 ; fill
G1 X91.207 Y103.390 E0.40707 ; fill
G1 X91.207 Y102.287 E0.08575 ; fill
G1 X88.609 Y99.689 E0.28584 ; fill
G1 X89.711 Y99.688 E0.08573 ; fill
G1 X91.207 Y101.185 E0.16460 ; fill
G1 X90.833 Y99.708 E0.11849 ; fill
G1 X90.813 Y99.688 E0.00220 ; fill
G1 F1800.000 E-2.40000 ; retract
G1 X85.994 Y110.304 F6000.000 ; move to first fill point
G1 E2.40000 F1800.000 ; compensate retraction
G1 X88.007 Y112.316 E0.22135 F900.000 ; fill
G1 X86.904 Y112.316 E0.08575 ; fill
G1 X86.028 Y111.439 E0.09643 ; fill
G1 X85.784 Y112.298 E0.06944 ; fill
G1 X85.802 Y112.316 E0.00195 ; fill
G1 F1800.000 E-2.40000 ; retract
G1 X91.755 Y112.064 F6000.000 ; move to first fill point
G1 E2.40000 F1800.000 ; compensate retraction
G1 X92.670 Y111.916 E0.06952 F300.000 ; fill
G1 X92.839 Y112.084 E0.01788 F300.000 ; fill
G1 X93.733 Y111.916 E0.06830 F300.000 ; fill
G1 X93.902 Y112.084 E0.01788 F300.000 ; fill
G1 X94.797 Y111.916 E0.06830 F300.000 ; fill
G1 X94.965 Y112.084 E0.01788 F300.000 ; fill
G1 X95.860 Y111.916 E0.06830 F300.000 ; fill
G1 X96.029 Y112.084 E0.01788 F300.000 ; fill
G1 X96.923 Y111.916 E0.06830 F300.000 ; fill
G1 X97.092 Y112.084 E0.01788 F300.000 ; fill
G1 X97.987 Y111.916 E0.06830 F300.000 ; fill
G1 X98.155 Y112.084 E0.01788 F300.000 ; fill
G1 X99.050 Y111.916 E0.06830 F300.000 ; fill
G1 X99.218 Y112.084 E0.01788 F300.000 ; fill
G1 X100.113 Y111.916 E0.06830 F300.000 ; fill
G1 X100.282 Y112.084 E0.01788 F300.000 ; fill
G1 X101.176 Y111.916 E0.06830 F300.000 ; fill
G1 X101.345 Y112.084 E0.01788 F300.000 ; fill
G1 X102.240 Y111.916 E0.06830 F300.000 ; fill
G1 X102.408 Y112.084 E0.01788 F300.000 ; fill
G1 X103.301 Y111.914 E0.06818 F300.000 ; fill
G1 X103.349 Y111.961 E0.00507 F300.000 ; fill
G1 X103.868 Y111.418 E0.05642 F300.000 ; fill
G1 X103.301 Y110.850 E0.06017 F300.000 ; fill
G1 X103.975 Y110.462 E0.05840 F300.000 ; fill
G1 X103.301 Y109.787 E0.07156 F300.000 ; fill
G1 X103.975 Y109.398 E0.05840 F300.000 ; fill
G1 X103.301 Y108.724 E0.07156 F300.000 ; fill
G1 X103.975 Y108.335 E0.05840 F300.000 ; fill
G1 X103.301 Y107.661 E0.07154 F300.000 ; fill
G1 X103.975 Y107.271 E0.05839 F300.000 ; fill
G1 X103.301 Y106.597 E0.07152 F300.000 ; fill
G1 X103.975 Y106.208 E0.05839 F300.000 ; fill
G1 X103.301 Y105.534 E0.07149 F300.000 ; fill
G1 X103.974 Y105.144 E0.05838 F300.000 ; fill
G1 X103.301 Y104.471 E0.07146 F300.000 ; fill
G1 X103.974 Y104.081 E0.05837 F300.000 ; fill
G1 X103.301 Y103.407 E0.07144 F300.000 ; fill
G1 X103.974 Y103.017 E0.05837 F300.000 ; fill
G1 X103.301 Y102.344 E0.07141 F300.000 ; fill
G1 X103.974 Y101.954 E0.05836 F300.000 ; fill
G1 X103.301 Y101.281 E0.07138 F300.000 ; fill
G1 X103.953 Y100.870 E0.05784 F300.000 ; fill
G1 X103.973 Y100.890 E0.00212 F300.000 ; fill
G1 F1800.000 E-2.40000 ; retract
G1 X97.352 Y99.936 F6000.000 ; move to first fill point
G1 E2.40000 F1800.000 ; compensate retraction
G1 X97.335 Y99.918 E0.00198 F300.000 ; fill
G1 X96.361 Y100.090 E0.08002 F300.000 ; fill
G1 X96.189 Y99.918 E0.01964 F300.000 ; fill
G1 X95.214 Y100.090 E0.08004 F300.000 ; fill
G1 X95.043 Y99.919 E0.01961 F300.000 ; fill
G1 X94.068 Y100.090 E0.08006 F300.000 ; fill
G1 X93.897 Y99.919 E0.01958 F300.000 ; fill
G1 X92.922 Y100.090 E0.08007 F300.000 ; fill
G1 X92.751 Y99.919 E0.01955 F300.000 ; fill
G1 X91.755 Y100.070 E0.08143 F300.000 ; fill
G1 X91.775 Y100.090 E0.00229 F300.000 ; fill
G1 F1800.000 E-2.40000 ; retract
G1 X91.755 Y112.064 F6000.000 ; move to first fill point
G1 E2.40000 F1800.000 ; compensate retraction
G1 X91.775 Y112.084 E0.00212 F300.000 ; fill
G1 F1800.000 E-2.40000 ; retract
G1 X103.785 Y89.657 F6000.000 ; move to first fill point
G1 E2.40000 F1800.000 ; compensate retraction
G1 X103.764 Y89.636 E0.00128 F300.000 ; fill
G1 X103.981 Y89.250 E0.01883 F300.000 ; fill
G1 X104.215 Y89.484 E0.01409 F300.000 ; fill
G1 X104.215 Y88.882 E0.02564 F300.000 ; fill
G1 X104.205 Y88.872 E0.00060 F300.000 ; fill
G1 X105.504 Y87.821 F6000.000 ; move to first fill point
G1 X105.932 Y87.167 E0.05956 F300.000 ; fill
G1 X106.605 Y87.841 E0.07263 F300.000 ; fill
G1 X107.013 Y87.167 E0.06003 F300.000 ; fill
G1 X107.686 Y87.841 E0.07263 F300.000 ; fill
G1 X108.094 Y87.167 E0.06003 F300.000 ; fill
G1 X108.767 Y87.841 E0.07263 F300.000 ; fill
G1 X109.175 Y87.167 E0.06003 F300.000 ; fill
G1 X109.848 Y87.841 E0.07263 F300.000 ; fill
G1 X110.256 Y87.167 E0.06003 F300.000 ; fill
G1 X110.929 Y87.841 E0.07263 F300.000 ; fill
G1 X111.337 Y87.167 E0.06003 F300.000 ; fill
G1 X112.010 Y87.841 E0.07263 F300.000 ; fill
G1 X112.418 Y87.167 E0.06003 F300.000 ; fill
G1 X113.091 Y87.841 E0.07263 F300.000 ; fill
G1 X113.499 Y87.167 E0.06003 F300.000 ; fill
G1 X114.172 Y87.841 E0.07263 F300.000 ; fill
G1 X114.580 Y87.167 E0.06003 F300.000 ; fill
G1 X115.253 Y87.841 E0.07263 F300.000 ; fill
G1 X115.661 Y87.167 E0.06003 F300.000 ; fill
G1 X116.334 Y87.841 E0.07263 F300.000 ; fill
G1 X116.742 Y87.167 E0.06003 F300.000 ; fill
G1 X117.415 Y87.841 E0.07263 F300.000 ; fill
G1 X117.823 Y87.167 E0.06003 F300.000 ; fill
G1 X118.496 Y87.841 E0.07263 F300.000 ; fill
G1 X118.924 Y87.187 E0.05956 F300.000 ; fill
G1 X118.904 Y87.167 E0.00216 F300.000 ; fill
G1 F1800.000 E-2.40000 ; retract
G1 X105.524 Y87.841 F6000.000 ; move to first fill point
G1 E2.40000 F1800.000 ; compensate retraction
G1 X105.504 Y87.821 E0.00216 F300.000 ; fill
G1 F1800.000 E-2.40000 ; retract
G1 X104.183 Y90.467 F6000.000 ; move to first fill point
G1 E2.40000 F1800.000 ; compensate retraction
G1 X104.207 Y90.491 E0.00270 F900.000 ; fill
G1 X104.207 Y91.621 E0.09006 ; fill
G1 X103.215 Y90.629 E0.11185 ; fill
G1 X102.809 Y91.352 E0.06613 ; fill
G1 X104.207 Y92.751 E0.15769 ; fill
G1 X104.207 Y93.881 E0.09006 ; fill
G1 X102.402 Y92.075 E0.20353 ; fill
G1 X101.995 Y92.798 E0.06613 ; fill
G1 X104.207 Y95.011 E0.24937 ; fill
G1 X104.207 Y96.140 E0.09006 ; fill
G1 X101.589 Y93.522 E0.29521 ; fill
G1 X101.182 Y94.245 E0.06613 ; fill
G1 X104.207 Y97.270 E0.34105 ; fill
G1 X104.207 Y98.400 E0.09006 ; fill
G1 X100.775 Y94.968 E0.38690 ; fill
G1 X100.369 Y95.691 E0.06613 ; fill
G1 X104.207 Y99.530 E0.43274 ; fill
G1 X103.495 Y99.948 E0.06580 ; fill
G1 X99.962 Y96.414 E0.39834 ; fill
G1 X99.555 Y97.137 E0.06613 ; fill
G1 X102.378 Y99.960 E0.31824 ; fill
G1 X101.610 Y100.322 E0.06768 ; fill
G1 X99.149 Y97.860 E0.27749 ; fill
G1 X98.742 Y98.583 E0.06613 ; fill
G1 X100.480 Y100.322 E0.19597 ; fill
G1 X99.351 Y100.322 E0.09006 ; fill
G1 X98.610 Y99.581 E0.08347 ; fill
G1 X98.203 Y100.304 E0.06613 ; fill
G1 X98.221 Y100.322 E0.00196 ; fill
M104 S190 ; set temperature
G1 F1800.000 E-2.40000 ; retract
G1 Z0.480 F6000.000 ; move to next layer (1)
G1 X97.284 Y98.255 F6000.000 ; move to first perimeter point
G1 E2.40000 F1800.000 ; compensate retraction
G1 X104.034 Y86.253 E0.68701 F1800 ; perimeter
G1 X119.838 Y86.253 E0.78845 ; perimeter
G1 X119.838 Y88.755 E0.12482 ; perimeter
