; generated by Slic3r 1.0.1 on 2014-09-04 at 22:49:21

; layer_height = 0.24
; perimeters = 2
; top_solid_layers = 4
; bottom_solid_layers = 3
; fill_density = 0.25
; perimeter_speed = 30
; infill_speed = 30
; travel_speed = 100
; nozzle_diameter = 0.5
; filament_diameter = 1.75
; extrusion_multiplier = 1
; perimeters extrusion width = 0.50mm
; infill extrusion width = 0.50mm
; solid infill extrusion width = 0.50mm
; top infill extrusion width = 0.50mm
; first layer extrusion width = 0.80mm

G21 ; set units to millimeters
M107 ; disable fan
M190 S57 ; wait for bed temperature to be reached
M104 S200 ; set temperature

M109 S200 ; wait for temperature to be reached
G90 ; use absolute coordinates
M83 ; use relative distances for extrusion
G1 F1800.000 E-2.40000 ; retract
G1 Z0.240 F6000.000 ; move to next layer (0)
G1 X70.274 Y73.139 F6000.000 ; move to first skirt point
G1 E2.40000 F1800.000 ; compensate retraction
G1 X71.264 Y72.389 E0.09276 F900.000 ; skirt
G1 X72.404 Y71.909 E0.09238 ; skirt
G1 X73.634 Y71.749 E0.09264 ; skirt
G1 X126.364 Y71.749 E3.93815 ; skirt
G1 X127.594 Y71.909 E0.09264 ; skirt
G1 X128.734 Y72.389 E0.09238 ; skirt
G1 X129.724 Y73.139 E0.09276 ; skirt
G1 X130.474 Y74.129 E0.09276 ; skirt
G1 X130.954 Y75.269 E0.09238 ; skirt
G1 X131.114 Y76.499 E0.09264 ; skirt
G1 X131.114 Y117.489 E3.06135 ; skirt
G1 X130.954 Y118.719 E0.09264 ; skirt
G1 X130.474 Y119.859 E0.09238 ; skirt
G1 X129.724 Y120.849 E0.09276 ; skirt
G1 X128.734 Y121.599 E0.09276 ; skirt
G1 X127.594 Y122.079 E0.09238 ; skirt
G1 X126.364 Y122.239 E0.09264 ; skirt
G1 X73.634 Y122.249 E3.93815 ; skirt
G1 X72.404 Y122.089 E0.09264 ; skirt
G1 X71.264 Y121.609 E0.09238 ; skirt
G1 X70.274 Y120.859 E0.09276 ; skirt
G1 X69.524 Y119.869 E0.09276 ; skirt
G1 X69.044 Y118.729 E0.09238 ; skirt
G1 X68.884 Y117.499 E0.09264 ; skirt
G1 X68.884 Y76.499 E3.06209 ; skirt
G1 X69.044 Y75.269 E0.09264 ; skirt
G1 X69.524 Y74.129 E0.09238 ; skirt
G1 X70.206 Y73.229 E0.08437 ; skirt
G1 F1800.000 E-2.40000 ; retract
G1 X74.034 Y76.903 F6000.000 ; move to first perimeter point
G1 E2.40000 F1800.000 ; compensate retraction
G1 X125.966 Y76.907 E3.87857 F900.000 ; perimeter
G1 X125.966 Y85.519 E0.64319 ; perimeter
G1 X119.685 Y85.519 E0.46912 ; perimeter
G1 X118.332 Y85.680 E0.10177 ; perimeter
G1 X117.007 Y86.000 E0.10177 ; perimeter
G1 X115.730 Y86.475 E0.10177 ; perimeter
G1 X114.518 Y87.097 E0.10177 ; perimeter
G1 X113.387 Y87.858 E0.10177 ; perimeter
G1 X112.355 Y88.748 E0.10177 ; perimeter
G1 X111.435 Y89.753 E0.10177 ; perimeter
G1 X110.641 Y90.861 E0.10177 ; perimeter
G1 X109.983 Y92.054 E0.10177 ; perimeter
G1 X109.471 Y93.317 E0.10177 ; perimeter
G1 X109.112 Y94.631 E0.10177 ; perimeter
G1 X108.911 Y95.979 E0.10177 ; perimeter
G1 X108.870 Y97.341 E0.10177 ; perimeter
G1 X108.991 Y98.698 E0.10177 ; perimeter
G1 X109.272 Y100.032 E0.10177 ; perimeter
G1 X109.708 Y101.322 E0.10177 ; perimeter
G1 X110.294 Y102.553 E0.10177 ; perimeter
G1 X111.022 Y103.705 E0.10177 ; perimeter
G1 X111.880 Y104.763 E0.10177 ; perimeter
G1 X112.858 Y105.712 E0.10177 ; perimeter
G1 X113.941 Y106.539 E0.10177 ; perimeter
G1 X115.114 Y107.232 E0.10177 ; perimeter
G1 X116.361 Y107.781 E0.10177 ; perimeter
G1 X117.665 Y108.179 E0.10177 ; perimeter
G1 X119.006 Y108.420 E0.10177 ; perimeter
G1 X120.354 Y108.500 E0.10088 ; perimeter
G1 X125.966 Y108.500 E0.41912 ; perimeter
G1 X125.966 Y117.093 E0.64173 ; perimeter
G1 X74.034 Y117.107 E3.87857 ; perimeter
G1 X74.034 Y77.015 E2.99422 ; perimeter
G1 X74.682 Y77.277 F6000.000 ; move inwards before travel
G1 X74.782 Y77.652 F6000.000 ; move to first perimeter point
G1 X125.218 Y77.656 E3.76677 F900.000 ; perimeter
G1 X125.218 Y79.573 E0.14321 ; perimeter
G1 X119.548 Y79.573 E0.42341 ; perimeter
G1 X117.920 Y79.726 E0.12214 ; perimeter
G1 X116.313 Y80.031 E0.12215 ; perimeter
G1 X115.009 Y80.408 E0.10143 ; perimeter
G1 X114.639 Y80.625 E0.03199 ; perimeter
G1 X113.258 Y81.168 E0.11084 ; perimeter
G1 X111.807 Y81.904 E0.12150 ; perimeter
G1 X110.431 Y82.771 E0.12150 ; perimeter
G1 X109.142 Y83.764 E0.12150 ; perimeter
G1 X108.056 Y84.776 E0.11084 ; perimeter
G1 X107.702 Y85.017 E0.03199 ; perimeter
G1 X106.799 Y86.031 E0.10143 ; perimeter
G1 X105.832 Y87.350 E0.12215 ; perimeter
G1 X105.616 Y87.711 E0.03142 ; perimeter
G1 X104.992 Y88.753 E0.09072 ; perimeter
G1 X104.288 Y90.229 E0.12214 ; perimeter
G1 X103.820 Y91.504 E0.10143 ; perimeter
G1 X103.775 Y91.930 E0.03199 ; perimeter
G1 X103.397 Y93.365 E0.11084 ; perimeter
G1 X103.131 Y94.970 E0.12150 ; perimeter
G1 X103.017 Y96.593 E0.12150 ; perimeter
G1 X103.055 Y98.220 E0.12150 ; perimeter
G1 X103.245 Y99.835 E0.12150 ; perimeter
G1 X103.556 Y101.286 E0.11084 ; perimeter
G1 X103.580 Y101.714 E0.03199 ; perimeter
G1 X103.988 Y103.010 E0.10143 ; perimeter
G1 X104.623 Y104.517 E0.12214 ; perimeter
G1 X105.396 Y105.958 E0.12215 ; perimeter
G1 X106.300 Y107.321 E0.12214 ; perimeter
G1 X107.154 Y108.377 E0.10143 ; perimeter
G1 X107.497 Y108.633 E0.03199 ; perimeter
G1 X108.534 Y109.695 E0.11084 ; perimeter
G1 X109.775 Y110.747 E0.12150 ; perimeter
G1 X111.109 Y111.679 E0.12150 ; perimeter
G1 X112.524 Y112.481 E0.12150 ; perimeter
G1 X113.878 Y113.089 E0.11084 ; perimeter
G1 X114.237 Y113.322 E0.03199 ; perimeter
G1 X115.522 Y113.760 E0.10143 ; perimeter
G1 X117.408 Y114.211 E0.14482 ; perimeter
G1 X117.408 Y114.182 E0.00215 ; perimeter
G1 X118.732 Y114.369 E0.09987 ; perimeter
G1 X120.339 Y114.445 E0.12013 ; perimeter
G1 X125.218 Y114.445 E0.36435 ; perimeter
G1 X125.218 Y116.344 E0.14188 ; perimeter
G1 X74.782 Y116.358 E3.76677 ; perimeter
G1 X74.782 Y77.764 E2.88243 ; perimeter
G1 F1800.000 E-2.40000 ; retract
G1 X104.978 Y90.520 F6000.000 ; move to first perimeter point
G1 E2.40000 F1800.000 ; compensate retraction
G1 X105.653 Y89.108 E0.11690 F900.000 ; perimeter
G1 X106.456 Y87.765 E0.11690 ; perimeter
G1 X107.382 Y86.503 E0.11690 ; perimeter
G1 X108.199 Y85.584 E0.09183 ; perimeter
G1 X108.524 Y85.363 E0.02935 ; perimeter
G1 X109.627 Y84.336 E0.11254 ; perimeter
G1 X110.860 Y83.386 E0.11626 ; perimeter
G1 X112.176 Y82.555 E0.11626 ; perimeter
G1 X113.565 Y81.852 E0.11625 ; perimeter
G1 X114.967 Y81.300 E0.11254 ; perimeter
G1 X115.306 Y81.101 E0.02935 ; perimeter
G1 X116.487 Y80.760 E0.09183 ; perimeter
G1 X118.025 Y80.468 E0.11690 ; perimeter
G1 X119.584 Y80.322 E0.11690 ; perimeter
G1 X124.766 Y80.322 E0.38706 ; perimeter
G1 X124.766 Y84.318 E0.29848 ; perimeter
G1 X120.377 Y84.318 E0.32778 ; perimeter
G1 X118.946 Y84.398 E0.10705 ; perimeter
G1 X117.544 Y84.637 E0.10621 ; perimeter
G1 X116.311 Y84.992 E0.09589 ; perimeter
G1 X114.868 Y85.583 E0.11643 ; perimeter
G1 X113.624 Y86.270 E0.10613 ; perimeter
G1 X112.465 Y87.092 E0.10613 ; perimeter
G1 X111.406 Y88.039 E0.10613 ; perimeter
G1 X110.444 Y89.104 E0.10711 ; perimeter
G1 X109.629 Y90.253 E0.10527 ; perimeter
G1 X108.941 Y91.498 E0.10621 ; perimeter
G1 X108.449 Y92.684 E0.09589 ; perimeter
G1 X108.012 Y94.180 E0.11643 ; perimeter
G1 X107.774 Y95.581 E0.10613 ; perimeter
G1 X107.694 Y97.000 E0.10613 ; perimeter
G1 X107.774 Y98.419 E0.10613 ; perimeter
G1 X108.012 Y99.820 E0.10613 ; perimeter
G1 X108.449 Y101.316 E0.11643 ; perimeter
G1 X108.941 Y102.502 E0.09589 ; perimeter
G1 X109.629 Y103.747 E0.10621 ; perimeter
G1 X110.452 Y104.907 E0.10621 ; perimeter
G1 X111.396 Y105.953 E0.10527 ; perimeter
G1 X112.465 Y106.908 E0.10704 ; perimeter
G1 X113.624 Y107.730 E0.10613 ; perimeter
G1 X114.868 Y108.417 E0.10613 ; perimeter
G1 X116.181 Y108.961 E0.10613 ; perimeter
G1 X117.557 Y109.365 E0.10711 ; perimeter
G1 X118.946 Y109.602 E0.10526 ; perimeter
G1 X120.377 Y109.682 E0.10705 ; perimeter
G1 X124.766 Y109.682 E0.32778 ; perimeter
G1 X124.766 Y113.696 E0.29982 ; perimeter
G1 X120.357 Y113.696 E0.32932 ; perimeter
G1 X118.803 Y113.623 E0.11620 ; perimeter
G1 X117.253 Y113.404 E0.11690 ; perimeter
G1 X115.730 Y113.040 E0.11690 ; perimeter
G1 X114.567 Y112.644 E0.09183 ; perimeter
G1 X114.237 Y112.430 E0.02935 ; perimeter
G1 X112.862 Y111.813 E0.11254 ; perimeter
G1 X111.508 Y111.045 E0.11625 ; perimeter
G1 X110.232 Y110.154 E0.11626 ; perimeter
G1 X109.045 Y109.147 E0.11626 ; perimeter
G1 X107.992 Y108.069 E0.11254 ; perimeter
G1 X107.677 Y107.833 E0.02935 ; perimeter
G1 X106.904 Y106.877 E0.09183 ; perimeter
G1 X106.039 Y105.573 E0.11690 ; perimeter
G1 X105.299 Y104.194 E0.11690 ; perimeter
G1 X104.691 Y102.751 E0.11690 ; perimeter
G1 X104.322 Y101.579 E0.09183 ; perimeter
G1 X104.300 Y101.186 E0.02935 ; perimeter
G1 X103.985 Y99.713 E0.11254 ; perimeter
G1 X103.802 Y98.167 E0.11626 ; perimeter
G1 X103.769 Y96.732 E0.10717 ; perimeter
G1 X103.875 Y95.058 E0.12531 ; perimeter
G1 X104.130 Y93.522 E0.11626 ; perimeter
G1 X104.514 Y92.065 E0.11254 ; perimeter
G1 X104.555 Y91.674 E0.02935 ; perimeter
G1 X104.939 Y90.626 E0.08344 ; perimeter
G1 X104.535 Y89.917 F6000.000 ; move inwards before travel
G1 F1800.000 E-2.40000 ; retract
G1 X103.661 Y103.606 F6000.000 ; move to first fill point
G1 E2.40000 F1800.000 ; compensate retraction
G1 X78.239 Y78.184 E2.70656 F900.000 ; fill
G1 X79.306 Y78.184 E0.08032 ; fill
G1 X103.107 Y101.986 E2.53400 ; fill
G1 X102.885 Y100.696 E0.09850 ; fill
G1 X80.373 Y78.184 E2.39672 ; fill
G1 X81.440 Y78.184 E0.08033 ; fill
G1 X102.658 Y99.402 E2.25895 ; fill
G1 X102.522 Y98.199 E0.09116 ; fill
G1 X82.507 Y78.184 E2.13084 ; fill
G1 X83.574 Y78.184 E0.08033 ; fill
G1 X102.496 Y97.106 E2.01451 ; fill
G1 X102.520 Y96.064 E0.07853 ; fill
G1 X84.641 Y78.185 E1.90347 ; fill
G1 X85.708 Y78.185 E0.08033 ; fill
G1 X102.590 Y95.067 E1.79734 ; fill
G1 X102.729 Y94.138 E0.07066 ; fill
G1 X86.775 Y78.185 E1.69849 ; fill
G1 X87.842 Y78.185 E0.08033 ; fill
G1 X102.883 Y93.225 E1.60128 ; fill
G1 X103.106 Y92.381 E0.06573 ; fill
G1 X88.910 Y78.185 E1.51138 ; fill
G1 X89.977 Y78.185 E0.08033 ; fill
G1 X103.285 Y91.494 E1.41689 ; fill
G1 X103.550 Y90.692 E0.06358 ; fill
G1 X91.044 Y78.185 E1.33151 ; fill
G1 X92.111 Y78.185 E0.08033 ; fill
G1 X103.845 Y89.920 E1.24929 ; fill
G1 X104.190 Y89.197 E0.06025 ; fill
G1 X93.178 Y78.185 E1.17239 ; fill
G1 X94.245 Y78.185 E0.08033 ; fill
G1 X104.537 Y88.477 E1.09570 ; fill
G1 X104.936 Y87.810 E0.05856 ; fill
G1 X95.312 Y78.186 E1.02462 ; fill
G1 X96.379 Y78.186 E0.08033 ; fill
G1 X105.336 Y87.142 E0.95354 ; fill
G1 X105.780 Y86.520 E0.05758 ; fill
G1 X97.446 Y78.186 E0.88729 ; fill
G1 X98.513 Y78.186 E0.08033 ; fill
G1 X106.232 Y85.905 E0.82176 ; fill
G1 X106.717 Y85.323 E0.05703 ; fill
G1 X99.580 Y78.186 E0.75979 ; fill
G1 X100.647 Y78.186 E0.08033 ; fill
G1 X107.219 Y84.758 E0.69965 ; fill
G1 X107.808 Y84.280 E0.05710 ; fill
G1 X101.715 Y78.186 E0.64873 ; fill
G1 X102.782 Y78.186 E0.08033 ; fill
G1 X108.360 Y83.765 E0.59392 ; fill
G1 X108.923 Y83.261 E0.05688 ; fill
G1 X103.849 Y78.186 E0.54023 ; fill
G1 X104.916 Y78.186 E0.08033 ; fill
G1 X109.526 Y82.796 E0.49079 ; fill
G1 X110.129 Y82.332 E0.05728 ; fill
G1 X105.983 Y78.187 E0.44137 ; fill
G1 X107.050 Y78.187 E0.08033 ; fill
G1 X110.783 Y81.920 E0.39743 ; fill
G1 X111.437 Y81.507 E0.05824 ; fill
G1 X108.117 Y78.187 E0.35348 ; fill
G1 X109.184 Y78.187 E0.08033 ; fill
G1 X112.137 Y81.139 E0.31434 ; fill
G1 X112.845 Y80.781 E0.05977 ; fill
G1 X110.251 Y78.187 E0.27614 ; fill
G1 X111.318 Y78.187 E0.08033 ; fill
G1 X113.595 Y80.463 E0.24236 ; fill
G1 X114.360 Y80.162 E0.06194 ; fill
G1 X112.385 Y78.187 E0.21025 ; fill
G1 X113.452 Y78.187 E0.08033 ; fill
G1 X115.094 Y79.829 E0.17480 ; fill
G1 X115.922 Y79.590 E0.06485 ; fill
G1 X114.520 Y78.187 E0.14929 ; fill
G1 X115.587 Y78.187 E0.08033 ; fill
G1 X116.476 Y79.077 E0.09473 ; fill
G1 X116.654 Y78.188 E0.06829 ; fill
G1 X117.373 Y78.907 E0.07660 ; fill
G1 X117.742 Y78.209 E0.05945 ; fill
G1 X117.721 Y78.188 E0.00224 ; fill
G1 F1800.000 E-2.40000 ; retract
G1 X104.612 Y105.624 F6000.000 ; move to first fill point
G1 E2.40000 F1800.000 ; compensate retraction
G1 X77.172 Y78.184 E2.92139 F900.000 ; fill
G1 X76.105 Y78.184 E0.08032 ; fill
G1 X113.736 Y115.815 E4.00631 ; fill
G1 X112.669 Y115.815 E0.08030 ; fill
G1 X75.315 Y78.461 E3.97686 ; fill
G1 X75.315 Y79.528 E0.08032 ; fill
G1 X111.602 Y115.816 E3.86330 ; fill
G1 X110.536 Y115.816 E0.08030 ; fill
G1 X75.315 Y80.595 E3.74974 ; fill
G1 X75.315 Y81.662 E0.08032 ; fill
G1 X109.469 Y115.816 E3.63617 ; fill
G1 X108.402 Y115.816 E0.08030 ; fill
G1 X75.315 Y82.729 E3.52261 ; fill
G1 X75.315 Y83.796 E0.08032 ; fill
G1 X107.336 Y115.817 E3.40905 ; fill
G1 X106.269 Y115.817 E0.08030 ; fill
G1 X75.315 Y84.863 E3.29548 ; fill
G1 X75.315 Y85.930 E0.08032 ; fill
G1 X105.202 Y115.817 E3.18192 ; fill
G1 X104.136 Y115.818 E0.08030 ; fill
G1 X75.315 Y86.997 E3.06835 ; fill
G1 X75.315 Y88.064 E0.08032 ; fill
G1 X103.069 Y115.818 E2.95479 ; fill
G1 X102.002 Y115.818 E0.08030 ; fill
G1 X75.315 Y89.131 E2.84123 ; fill
G1 X75.315 Y90.198 E0.08032 ; fill
G1 X100.935 Y115.818 E2.72766 ; fill
G1 X99.869 Y115.819 E0.08030 ; fill
G1 X75.315 Y91.265 E2.61410 ; fill
G1 X75.315 Y92.332 E0.08032 ; fill
G1 X98.802 Y115.819 E2.50053 ; fill
G1 X97.735 Y115.819 E0.08030 ; fill
G1 X75.315 Y93.399 E2.38697 ; fill
G1 X75.315 Y94.466 E0.08032 ; fill
G1 X96.669 Y115.820 E2.27341 ; fill
G1 X95.602 Y115.820 E0.08030 ; fill
G1 X75.315 Y95.533 E2.15984 ; fill
G1 X75.315 Y96.600 E0.08032 ; fill
G1 X94.535 Y115.820 E2.04628 ; fill
G1 X93.469 Y115.821 E0.08030 ; fill
G1 X75.315 Y97.667 E1.93272 ; fill
G1 X75.315 Y98.734 E0.08032 ; fill
G1 X92.402 Y115.821 E1.81915 ; fill
G1 X91.335 Y115.821 E0.08030 ; fill
G1 X75.315 Y99.801 E1.70559 ; fill
G1 X75.315 Y100.868 E0.08032 ; fill
G1 X90.269 Y115.821 E1.59202 ; fill
G1 X89.202 Y115.822 E0.08030 ; fill
G1 X75.315 Y101.935 E1.47846 ; fill
G1 X75.315 Y103.002 E0.08032 ; fill
G1 X88.135 Y115.822 E1.36490 ; fill
G1 X87.069 Y115.822 E0.08030 ; fill
G1 X75.315 Y104.069 E1.25133 ; fill
G1 X75.315 Y105.136 E0.08032 ; fill
G1 X86.002 Y115.823 E1.13777 ; fill
G1 X84.935 Y115.823 E0.08030 ; fill
G1 X75.315 Y106.203 E1.02420 ; fill
G1 X75.315 Y107.270 E0.08032 ; fill
G1 X83.868 Y115.823 E0.91064 ; fill
G1 X82.802 Y115.824 E0.08030 ; fill
G1 X75.315 Y108.337 E0.79708 ; fill
G1 X75.315 Y109.404 E0.08032 ; fill
G1 X81.735 Y115.824 E0.68351 ; fill
G1 X80.668 Y115.824 E0.08030 ; fill
G1 X75.315 Y110.471 E0.56995 ; fill
G1 X75.315 Y111.538 E0.08032 ; fill
G1 X79.602 Y115.824 E0.45638 ; fill
G1 X78.535 Y115.825 E0.08030 ; fill
G1 X75.315 Y112.605 E0.34282 ; fill
G1 X75.315 Y113.672 E0.08032 ; fill
G1 X77.468 Y115.825 E0.22926 ; fill
G1 X76.402 Y115.825 E0.08030 ; fill
G1 X75.315 Y114.739 E0.11569 ; fill
G1 X75.315 Y115.806 E0.08032 ; fill
G1 X75.335 Y115.826 E0.00213 ; fill
G1 F1800.000 E-2.40000 ; retract
G1 X111.501 Y112.514 F6000.000 ; move to first fill point
G1 E2.40000 F1800.000 ; compensate retraction
G1 X114.802 Y115.815 E0.35145 F900.000 ; fill
G1 X115.869 Y115.814 E0.08030 ; fill
G1 X113.605 Y113.550 E0.24104 ; fill
G1 X115.400 Y114.279 F6000.000 ; move to first fill point
G1 X116.936 Y115.814 E0.16347 F900.000 ; fill
G1 X117.308 Y115.119 E0.05935 ; fill
G1 X117.672 Y115.484 E0.03882 ; fill
G1 X116.802 Y114.613 E0.09263 ; fill
G1 F1800.000 E-2.40000 ; retract
G1 X118.592 Y115.563 F6000.000 ; move to first fill point
G1 E2.40000 F1800.000 ; compensate retraction
G1 X119.435 Y115.167 E0.08145 F300.000 ; fill
G1 X119.850 Y115.582 E0.05125 F300.000 ; fill
G1 X120.716 Y115.209 E0.08246 F300.000 ; fill
G1 X121.088 Y115.581 E0.04606 F300.000 ; fill
G1 X121.955 Y115.209 E0.08247 F300.000 ; fill
G1 X122.327 Y115.581 E0.04601 F300.000 ; fill
G1 X123.194 Y115.209 E0.08249 F300.000 ; fill
G1 X123.566 Y115.581 E0.04596 F300.000 ; fill
G1 X124.433 Y115.209 E0.08251 F300.000 ; fill
G1 X124.453 Y115.229 E0.00247 F300.000 ; fill
G1 X125.442 Y113.654 F6000.000 ; move to first fill point
G1 X125.290 Y113.502 E0.00768 F300.000 ; fill
G1 X125.442 Y113.146 E0.01389 F300.000 ; fill
G1 X125.290 Y112.994 E0.00768 F300.000 ; fill
G1 X125.442 Y112.637 E0.01389 F300.000 ; fill
G1 X125.290 Y112.486 E0.00768 F300.000 ; fill
G1 X125.442 Y112.129 E0.01389 F300.000 ; fill
G1 X125.290 Y111.978 E0.00768 F300.000 ; fill
G1 X125.442 Y111.621 E0.01389 F300.000 ; fill
