; generated by Slic3r 1.0.1 on 2014-09-04 at 22:45:43

; layer_height = 0.24
; perimeters = 2
; top_solid_layers = 4
; bottom_solid_layers = 3
; fill_density = 0.25
; perimeter_speed = 30
; infill_speed = 30
; travel_speed = 100
; nozzle_diameter = 0.5
; filament_diameter = 1.75
; extrusion_multiplier = 1
; perimeters extrusion width = 0.50mm
; infill extrusion width = 0.50mm
; solid infill extrusion width = 0.50mm
; top infill extrusion width = 0.50mm
; first layer extrusion width = 0.80mm

G21 ; set units to millimeters
M107 ; disable fan
M190 S57 ; wait for bed temperature to be reached
M104 S200 ; set temperature

M109 S200 ; wait for temperature to be reached
G90 ; use absolute coordinates
M83 ; use relative distances for extrusion
G1 F1800.000 E-2.40000 ; retract
G1 Z0.240 F6000.000 ; move to next layer (0)
G1 X76.640 Y88.640 F6000.000 ; move to first skirt point
G1 E2.40000 F1800.000 ; compensate retraction
G1 X77.630 Y87.890 E0.09276 F900.000 ; skirt
G1 X78.770 Y87.410 E0.09238 ; skirt
G1 X80.000 Y87.250 E0.09264 ; skirt
G1 X120.000 Y87.250 E2.98741 ; skirt
G1 X121.230 Y87.410 E0.09264 ; skirt
G1 X122.370 Y87.890 E0.09238 ; skirt
G1 X123.360 Y88.640 E0.09276 ; skirt
G1 X124.110 Y89.630 E0.09276 ; skirt
G1 X124.590 Y90.770 E0.09238 ; skirt
G1 X124.750 Y92.000 E0.09264 ; skirt
G1 X124.750 Y108.000 E1.19496 ; skirt
G1 X124.590 Y109.230 E0.09264 ; skirt
G1 X124.110 Y110.370 E0.09238 ; skirt
G1 X123.360 Y111.360 E0.09276 ; skirt
G1 X122.370 Y112.110 E0.09276 ; skirt
G1 X121.230 Y112.590 E0.09238 ; skirt
G1 X120.000 Y112.750 E0.09264 ; skirt
G1 X80.000 Y112.750 E2.98741 ; skirt
G1 X78.770 Y112.590 E0.09264 ; skirt
G1 X77.630 Y112.110 E0.09238 ; skirt
G1 X76.640 Y111.360 E0.09276 ; skirt
G1 X75.890 Y110.370 E0.09276 ; skirt
G1 X75.410 Y109.230 E0.09238 ; skirt
G1 X75.250 Y108.000 E0.09264 ; skirt
G1 X75.250 Y92.000 E1.19496 ; skirt
G1 X75.410 Y90.770 E0.09264 ; skirt
G1 X75.890 Y89.630 E0.09238 ; skirt
G1 X76.572 Y88.729 E0.08437 ; skirt
G1 F1800.000 E-2.40000 ; retract
G1 X80.400 Y92.400 F6000.000 ; move to first perimeter point
G1 E2.40000 F1800.000 ; compensate retraction
G1 X119.600 Y92.400 E2.92766 F900.000 ; perimeter
G1 X119.600 Y107.600 E1.13521 ; perimeter
G1 X80.400 Y107.600 E2.92766 ; perimeter
G1 X80.400 Y92.512 E1.12683 ; perimeter
G1 X81.048 Y92.774 F6000.000 ; move inwards before travel
G1 X81.148 Y93.148 F6000.000 ; move to first perimeter point
G1 X118.852 Y93.148 E2.81586 F900.000 ; perimeter
G1 X118.852 Y106.852 E1.02341 ; perimeter
G1 X81.148 Y106.852 E2.81586 ; perimeter
G1 X81.148 Y93.261 E1.01503 ; perimeter
G1 F1800.000 E-2.40000 ; retract
G1 X90.637 Y99.824 F6000.000 ; move to first perimeter point
G1 E2.40000 F1800.000 ; compensate retraction
G1 X90.852 Y99.517 E0.02801 F780.000 ; perimeter
G1 X91.117 Y99.252 E0.02801 ; perimeter
G1 X91.424 Y99.037 E0.02801 ; perimeter
G1 X91.764 Y98.878 E0.02801 ; perimeter
G1 X92.126 Y98.781 E0.02801 ; perimeter
G1 X92.540 Y98.752 E0.03100 ; perimeter
G1 X92.874 Y98.781 E0.02498 ; perimeter
G1 X93.236 Y98.878 E0.02801 ; perimeter
G1 X93.576 Y99.037 E0.02801 ; perimeter
G1 X93.883 Y99.252 E0.02801 ; perimeter
G1 X94.148 Y99.517 E0.02801 ; perimeter
G1 X94.363 Y99.824 E0.02801 ; perimeter
G1 X94.522 Y100.164 E0.02801 ; perimeter
G1 X94.619 Y100.526 E0.02801 ; perimeter
G1 X94.652 Y100.900 E0.02801 ; perimeter
G1 X94.619 Y101.274 E0.02801 ; perimeter
G1 X94.522 Y101.636 E0.02801 ; perimeter
G1 X94.363 Y101.976 E0.02801 ; perimeter
G1 X94.148 Y102.283 E0.02801 ; perimeter
G1 X93.883 Y102.548 E0.02801 ; perimeter
G1 X93.576 Y102.763 E0.02801 ; perimeter
G1 X93.236 Y102.922 E0.02801 ; perimeter
G1 X92.874 Y103.019 E0.02801 ; perimeter
G1 X92.500 Y103.052 E0.02801 ; perimeter
G1 X92.126 Y103.019 E0.02801 ; perimeter
G1 X91.764 Y102.922 E0.02801 ; perimeter
G1 X91.424 Y102.763 E0.02801 ; perimeter
G1 X91.117 Y102.548 E0.02800 ; perimeter
G1 X90.852 Y102.283 E0.02801 ; perimeter
G1 X90.637 Y101.976 E0.02801 ; perimeter
G1 X90.478 Y101.636 E0.02801 ; perimeter
G1 X90.381 Y101.274 E0.02801 ; perimeter
G1 X90.348 Y100.900 E0.02801 ; perimeter
G1 X90.381 Y100.526 E0.02801 ; perimeter
G1 X90.478 Y100.164 E0.02801 ; perimeter
G1 X90.589 Y99.926 E0.01962 ; perimeter
G1 X90.459 Y99.494 F6000.000 ; move inwards before travel
G1 X89.986 Y99.449 F6000.000 ; move to first perimeter point
G1 X90.276 Y99.034 E0.03779 F780.000 ; perimeter
G1 X90.634 Y98.676 E0.03779 ; perimeter
G1 X91.049 Y98.386 E0.03779 ; perimeter
G1 X91.507 Y98.172 E0.03779 ; perimeter
G1 X91.996 Y98.041 E0.03778 ; perimeter
G1 X92.500 Y97.997 E0.03780 ; perimeter
G1 X92.606 Y98.006 E0.00792 ; perimeter
G1 X93.004 Y98.041 E0.02987 ; perimeter
G1 X93.493 Y98.172 E0.03779 ; perimeter
G1 X93.951 Y98.386 E0.03780 ; perimeter
G1 X94.366 Y98.676 E0.03779 ; perimeter
G1 X94.724 Y99.034 E0.03779 ; perimeter
G1 X95.014 Y99.448 E0.03778 ; perimeter
G1 X95.228 Y99.907 E0.03780 ; perimeter
G1 X95.359 Y100.396 E0.03780 ; perimeter
G1 X95.403 Y100.900 E0.03778 ; perimeter
G1 X95.359 Y101.404 E0.03779 ; perimeter
G1 X95.228 Y101.893 E0.03779 ; perimeter
G1 X95.014 Y102.351 E0.03779 ; perimeter
G1 X94.724 Y102.766 E0.03779 ; perimeter
G1 X94.366 Y103.124 E0.03780 ; perimeter
G1 X93.951 Y103.414 E0.03778 ; perimeter
G1 X93.493 Y103.628 E0.03779 ; perimeter
G1 X93.004 Y103.759 E0.03780 ; perimeter
G1 X92.500 Y103.803 E0.03779 ; perimeter
G1 X91.996 Y103.759 E0.03779 ; perimeter
G1 X91.507 Y103.628 E0.03780 ; perimeter
G1 X91.049 Y103.414 E0.03779 ; perimeter
G1 X90.634 Y103.124 E0.03778 ; perimeter
G1 X90.276 Y102.766 E0.03780 ; perimeter
G1 X89.986 Y102.351 E0.03779 ; perimeter
G1 X89.772 Y101.893 E0.03779 ; perimeter
G1 X89.641 Y101.404 E0.03779 ; perimeter
G1 X89.597 Y100.900 E0.03779 ; perimeter
G1 X89.641 Y100.396 E0.03779 ; perimeter
G1 X89.772 Y99.907 E0.03779 ; perimeter
G1 X89.939 Y99.550 E0.02941 ; perimeter
G1 F1800.000 E-2.40000 ; retract
G1 X105.348 Y100.900 F6000.000 ; move to first perimeter point
G1 E2.40000 F1800.000 ; compensate retraction
G1 X105.381 Y100.526 E0.02801 F780.000 ; perimeter
G1 X105.478 Y100.164 E0.02801 ; perimeter
G1 X105.637 Y99.824 E0.02801 ; perimeter
G1 X105.880 Y99.488 E0.03099 ; perimeter
G1 X106.117 Y99.252 E0.02498 ; perimeter
G1 X106.424 Y99.037 E0.02801 ; perimeter
G1 X106.764 Y98.878 E0.02801 ; perimeter
G1 X107.126 Y98.781 E0.02801 ; perimeter
G1 X107.500 Y98.748 E0.02800 ; perimeter
G1 X107.874 Y98.781 E0.02801 ; perimeter
G1 X108.236 Y98.878 E0.02801 ; perimeter
G1 X108.576 Y99.037 E0.02801 ; perimeter
G1 X108.883 Y99.252 E0.02801 ; perimeter
G1 X109.148 Y99.517 E0.02801 ; perimeter
G1 X109.363 Y99.824 E0.02801 ; perimeter
G1 X109.522 Y100.164 E0.02801 ; perimeter
G1 X109.619 Y100.526 E0.02801 ; perimeter
G1 X109.652 Y100.900 E0.02801 ; perimeter
G1 X109.619 Y101.274 E0.02801 ; perimeter
G1 X109.522 Y101.636 E0.02801 ; perimeter
G1 X109.363 Y101.976 E0.02801 ; perimeter
G1 X109.148 Y102.283 E0.02801 ; perimeter
G1 X108.883 Y102.548 E0.02801 ; perimeter
G1 X108.576 Y102.763 E0.02800 ; perimeter
G1 X108.236 Y102.922 E0.02801 ; perimeter
G1 X107.874 Y103.019 E0.02801 ; perimeter
G1 X107.500 Y103.052 E0.02801 ; perimeter
G1 X107.126 Y103.019 E0.02801 ; perimeter
G1 X106.764 Y102.922 E0.02801 ; perimeter
G1 X106.424 Y102.763 E0.02801 ; perimeter
G1 X106.117 Y102.548 E0.02800 ; perimeter
G1 X105.852 Y102.283 E0.02801 ; perimeter
G1 X105.637 Y101.976 E0.02801 ; perimeter
G1 X105.478 Y101.636 E0.02801 ; perimeter
G1 X105.381 Y101.274 E0.02801 ; perimeter
G1 X105.358 Y101.012 E0.01962 ; perimeter
G1 X105.029 Y100.703 F6000.000 ; move inwards before travel
G1 X104.606 Y100.795 F6000.000 ; move to first perimeter point
G1 X104.641 Y100.396 E0.02988 F780.000 ; perimeter
G1 X104.772 Y99.907 E0.03779 ; perimeter
G1 X104.986 Y99.449 E0.03780 ; perimeter
G1 X105.276 Y99.034 E0.03779 ; perimeter
G1 X105.634 Y98.676 E0.03779 ; perimeter
G1 X106.049 Y98.386 E0.03779 ; perimeter
G1 X106.507 Y98.172 E0.03780 ; perimeter
G1 X106.996 Y98.041 E0.03779 ; perimeter
G1 X107.500 Y97.997 E0.03778 ; perimeter
G1 X108.004 Y98.041 E0.03780 ; perimeter
G1 X108.493 Y98.172 E0.03779 ; perimeter
G1 X108.951 Y98.386 E0.03779 ; perimeter
G1 X109.366 Y98.676 E0.03779 ; perimeter
G1 X109.724 Y99.034 E0.03779 ; perimeter
G1 X110.014 Y99.449 E0.03779 ; perimeter
G1 X110.228 Y99.907 E0.03779 ; perimeter
G1 X110.359 Y100.396 E0.03779 ; perimeter
G1 X110.403 Y100.900 E0.03779 ; perimeter
G1 X110.359 Y101.404 E0.03779 ; perimeter
G1 X110.228 Y101.893 E0.03779 ; perimeter
G1 X110.014 Y102.351 E0.03779 ; perimeter
G1 X109.724 Y102.766 E0.03779 ; perimeter
G1 X109.366 Y103.124 E0.03780 ; perimeter
G1 X108.951 Y103.414 E0.03778 ; perimeter
G1 X108.493 Y103.628 E0.03779 ; perimeter
G1 X108.004 Y103.759 E0.03780 ; perimeter
G1 X107.500 Y103.803 E0.03778 ; perimeter
G1 X106.996 Y103.759 E0.03778 ; perimeter
G1 X106.507 Y103.628 E0.03781 ; perimeter
G1 X106.049 Y103.414 E0.03779 ; perimeter
G1 X105.634 Y103.124 E0.03777 ; perimeter
G1 X105.276 Y102.766 E0.03781 ; perimeter
G1 X104.986 Y102.351 E0.03779 ; perimeter
G1 X104.772 Y101.893 E0.03780 ; perimeter
G1 X104.641 Y101.404 E0.03779 ; perimeter
G1 X104.598 Y100.906 E0.03731 ; perimeter
G1 F1800.000 E-2.40000 ; retract
G1 X108.262 Y97.559 F6000.000 ; move to first fill point
G1 E2.40000 F1800.000 ; compensate retraction
G1 X104.385 Y93.681 E0.41415 F900.000 ; fill
G1 X103.314 Y93.681 E0.08083 ; fill
G1 X107.128 Y97.495 E0.40731 ; fill
G1 X106.262 Y97.699 E0.06722 ; fill
G1 X102.244 Y93.681 E0.42910 ; fill
G1 X101.174 Y93.681 E0.08083 ; fill
G1 X105.566 Y98.074 E0.46912 ; fill
G1 X104.990 Y98.568 E0.05733 ; fill
G1 X100.103 Y93.681 E0.52186 ; fill
G1 X99.033 Y93.681 E0.08083 ; fill
G1 X104.527 Y99.175 E0.58678 ; fill
G1 X104.214 Y99.933 E0.06188 ; fill
G1 X97.962 Y93.681 E0.66765 ; fill
G1 X96.892 Y93.681 E0.08083 ; fill
G1 X104.066 Y100.855 E0.76620 ; fill
G1 X104.316 Y102.176 E0.10148 ; fill
G1 X95.822 Y93.681 E0.90721 ; fill
G1 X94.751 Y93.681 E0.08083 ; fill
G1 X107.389 Y106.319 E1.34969 ; fill
G1 X106.319 Y106.319 E0.08083 ; fill
G1 X93.681 Y93.681 E1.34969 ; fill
G1 X92.611 Y93.681 E0.08083 ; fill
G1 X105.249 Y106.319 E1.34969 ; fill
G1 X104.178 Y106.319 E0.08083 ; fill
G1 X91.540 Y93.681 E1.34969 ; fill
G1 X90.470 Y93.681 E0.08083 ; fill
G1 X103.108 Y106.319 E1.34969 ; fill
G1 X102.038 Y106.319 E0.08083 ; fill
G1 X95.835 Y100.117 E0.66238 ; fill
G1 F1800.000 E-2.40000 ; retract
G1 X93.283 Y97.565 F6000.000 ; move to first fill point
G1 E2.40000 F1800.000 ; compensate retraction
G1 X89.400 Y93.681 E0.41475 F900.000 ; fill
G1 X88.329 Y93.681 E0.08083 ; fill
G1 X92.142 Y97.494 E0.40718 ; fill
G1 X91.272 Y97.694 E0.06742 ; fill
G1 X87.259 Y93.681 E0.42858 ; fill
G1 X86.189 Y93.681 E0.08083 ; fill
G1 X90.575 Y98.067 E0.46844 ; fill
G1 X89.997 Y98.560 E0.05734 ; fill
G1 X85.118 Y93.681 E0.52104 ; fill
G1 X84.048 Y93.681 E0.08083 ; fill
G1 X89.533 Y99.166 E0.58582 ; fill
G1 X89.217 Y99.921 E0.06175 ; fill
G1 X82.978 Y93.681 E0.66636 ; fill
G1 X81.907 Y93.681 E0.08083 ; fill
G1 X89.068 Y100.841 E0.76469 ; fill
G1 X89.303 Y102.147 E0.10020 ; fill
G1 X81.681 Y94.525 E0.81401 ; fill
G1 X81.681 Y95.595 E0.08083 ; fill
G1 X92.405 Y106.319 E1.14524 ; fill
G1 X91.334 Y106.319 E0.08083 ; fill
G1 X81.681 Y96.666 E1.03093 ; fill
G1 X81.681 Y97.736 E0.08083 ; fill
G1 X90.264 Y106.319 E0.91662 ; fill
G1 X89.193 Y106.319 E0.08083 ; fill
G1 X81.681 Y98.807 E0.80231 ; fill
G1 X81.681 Y99.877 E0.08083 ; fill
G1 X88.123 Y106.319 E0.68800 ; fill
G1 X87.053 Y106.319 E0.08083 ; fill
G1 X81.681 Y100.947 E0.57369 ; fill
G1 X81.681 Y102.018 E0.08083 ; fill
G1 X85.982 Y106.319 E0.45938 ; fill
G1 X84.912 Y106.319 E0.08083 ; fill
G1 X81.681 Y103.088 E0.34507 ; fill
G1 X81.681 Y104.158 E0.08083 ; fill
G1 X83.842 Y106.319 E0.23076 ; fill
G1 X82.771 Y106.319 E0.08083 ; fill
G1 X81.681 Y105.229 E0.11645 ; fill
G1 X81.681 Y106.299 E0.08083 ; fill
G1 X81.701 Y106.319 E0.00214 ; fill
G1 F1800.000 E-2.40000 ; retract
G1 X93.475 Y106.319 F6000.000 ; move to first fill point
G1 E2.40000 F1800.000 ; compensate retraction
G1 X91.253 Y104.097 E0.23728 F900.000 ; fill
G1 X92.559 Y104.332 E0.10019 ; fill
G1 X94.545 Y106.319 E0.21215 ; fill
G1 X95.616 Y106.319 E0.08083 ; fill
G1 X93.480 Y104.183 E0.22812 ; fill
G1 X94.234 Y103.867 E0.06175 ; fill
G1 X96.686 Y106.319 E0.26190 ; fill
G1 X97.756 Y106.319 E0.08083 ; fill
G1 X94.840 Y103.403 E0.31143 ; fill
G1 X95.333 Y102.825 E0.05734 ; fill
G1 X98.827 Y106.319 E0.37314 ; fill
G1 X99.897 Y106.319 E0.08083 ; fill
G1 X95.706 Y102.128 E0.44759 ; fill
G1 X95.906 Y101.258 E0.06742 ; fill
G1 X100.967 Y106.319 E0.54050 ; fill
G1 F1800.000 E-2.40000 ; retract
G1 X108.460 Y106.319 F6000.000 ; move to first fill point
G1 E2.40000 F1800.000 ; compensate retraction
G1 X106.224 Y104.084 E0.23871 F900.000 ; fill
G1 X107.545 Y104.334 E0.10147 ; fill
G1 X109.530 Y106.319 E0.21202 ; fill
G1 X110.600 Y106.319 E0.08083 ; fill
G1 X108.467 Y104.186 E0.22778 ; fill
G1 X109.225 Y103.873 E0.06188 ; fill
G1 X111.671 Y106.319 E0.26123 ; fill
G1 X112.741 Y106.319 E0.08083 ; fill
G1 X109.832 Y103.410 E0.31061 ; fill
G1 X110.326 Y102.834 E0.05733 ; fill
G1 X113.811 Y106.319 E0.37218 ; fill
G1 X114.882 Y106.319 E0.08083 ; fill
G1 X110.701 Y102.138 E0.44648 ; fill
G1 X110.905 Y101.272 E0.06722 ; fill
G1 X115.952 Y106.319 E0.53900 ; fill
G1 X117.022 Y106.319 E0.08083 ; fill
G1 X110.841 Y100.138 E0.66015 ; fill
G1 F1800.000 E-2.40000 ; retract
G1 X105.455 Y93.681 F6000.000 ; move to first fill point
G1 E2.40000 F1800.000 ; compensate retraction
G1 X118.093 Y106.319 E1.34969 F900.000 ; fill
G1 X118.319 Y105.475 E0.06599 ; fill
G1 X106.525 Y93.681 E1.25955 ; fill
G1 X107.596 Y93.681 E0.08083 ; fill
G1 X118.319 Y104.404 E1.14524 ; fill
G1 X118.319 Y103.334 E0.08083 ; fill
G1 X108.666 Y93.681 E1.03093 ; fill
G1 X109.736 Y93.681 E0.08083 ; fill
G1 X118.319 Y102.264 E0.91662 ; fill
G1 X118.319 Y101.193 E0.08083 ; fill
G1 X110.807 Y93.681 E0.80231 ; fill
G1 X111.877 Y93.681 E0.08083 ; fill
G1 X118.319 Y100.123 E0.68800 ; fill
G1 X118.319 Y99.053 E0.08083 ; fill
G1 X112.947 Y93.681 E0.57368 ; fill
G1 X114.018 Y93.681 E0.08083 ; fill
G1 X118.319 Y97.982 E0.45937 ; fill
G1 X118.319 Y96.912 E0.08083 ; fill
G1 X115.088 Y93.681 E0.34506 ; fill
G1 X116.158 Y93.681 E0.08083 ; fill
G1 X118.319 Y95.842 E0.23075 ; fill
G1 X118.319 Y94.771 E0.08083 ; fill
G1 X117.229 Y93.681 E0.11644 ; fill
G1 X118.299 Y93.681 E0.08083 ; fill
G1 X118.319 Y93.701 E0.00213 ; fill
M104 S190 ; set temperature
G1 F1800.000 E-2.40000 ; retract
G1 Z0.480 F6000.000 ; move to next layer (1)
G1 X119.750 Y92.250 F6000.000 ; move to first perimeter point
G1 E2.40000 F1800.000 ; compensate retraction
G1 X119.750 Y107.750 E0.77330 F1800 ; perimeter
G1 X80.250 Y107.750 E1.97066 ; perimeter
G1 X80.250 Y92.250 E0.77330 ; perimeter
G1 X119.675 Y92.250 E1.96692 ; perimeter
G1 X119.500 Y92.683 F6000.000 ; move inwards before travel
G1 X119.250 Y92.750 F6000.000 ; move to first perimeter point
G1 X119.250 Y107.250 E0.72341 F1800 ; perimeter
G1 X80.750 Y107.250 E1.92077 ; perimeter
G1 X80.750 Y92.750 E0.72341 ; perimeter
G1 X119.175 Y92.750 E1.91703 ; perimeter
G1 F1800.000 E-2.40000 ; retract
G1 X109.233 Y99.900 F6000.000 ; move to first perimeter point
G1 E2.40000 F1800.000 ; compensate retraction
G1 X109.380 Y100.216 E0.01740 F1560 ; perimeter
G1 X109.471 Y100.553 E0.01740 ; perimeter
G1 X109.501 Y100.900 E0.01740 ; perimeter
G1 X109.471 Y101.247 E0.01740 ; perimeter
G1 X109.380 Y101.584 E0.01740 ; perimeter
G1 X109.233 Y101.900 E0.01740 ; perimeter
G1 X109.033 Y102.186 E0.01740 ; perimeter
G1 X108.786 Y102.433 E0.01740 ; perimeter
G1 X108.500 Y102.633 E0.01740 ; perimeter
G1 X108.184 Y102.780 E0.01740 ; perimeter
G1 X107.847 Y102.871 E0.01740 ; perimeter
G1 X107.500 Y102.901 E0.01740 ; perimeter
G1 X107.153 Y102.871 E0.01740 ; perimeter
G1 X106.816 Y102.780 E0.01740 ; perimeter
G1 X106.500 Y102.633 E0.01740 ; perimeter
G1 X106.214 Y102.433 E0.01740 ; perimeter
G1 X105.967 Y102.186 E0.01740 ; perimeter
G1 X105.767 Y101.900 E0.01740 ; perimeter
G1 X105.620 Y101.584 E0.01740 ; perimeter
G1 X105.529 Y101.247 E0.01740 ; perimeter
