; generated by Slic3r 1.0.1 on 2014-09-04 at 22:50:14

; layer_height = 0.24
; perimeters = 2
; top_solid_layers = 4
; bottom_solid_layers = 3
; fill_density = 0.25
; perimeter_speed = 30
; infill_speed = 30
; travel_speed = 100
; nozzle_diameter = 0.5
; filament_diameter = 1.75
; extrusion_multiplier = 1
; perimeters extrusion width = 0.50mm
; infill extrusion width = 0.50mm
; solid infill extrusion width = 0.50mm
; top infill extrusion width = 0.50mm
; first layer extrusion width = 0.80mm

G21 ; set units to millimeters
M107 ; disable fan
M190 S57 ; wait for bed temperature to be reached
M104 S200 ; set temperature

M109 S200 ; wait for temperature to be reached
G90 ; use absolute coordinates
M83 ; use relative distances for extrusion
G1 F1800.000 E-2.40000 ; retract
G1 Z0.240 F6000.000 ; move to next layer (0)
G1 X70.274 Y73.139 F6000.000 ; move to first skirt point
G1 E2.40000 F1800.000 ; compensate retraction
G1 X71.264 Y72.389 E0.09276 F900.000 ; skirt
G1 X72.404 Y71.909 E0.09238 ; skirt
G1 X73.634 Y71.749 E0.09264 ; skirt
G1 X126.364 Y71.749 E3.93815 ; skirt
G1 X127.594 Y71.909 E0.09264 ; skirt
G1 X128.734 Y72.389 E0.09238 ; skirt
G1 X129.724 Y73.139 E0.09276 ; skirt
G1 X130.474 Y74.129 E0.09276 ; skirt
G1 X130.954 Y75.269 E0.09238 ; skirt
G1 X131.114 Y76.499 E0.09264 ; skirt
G1 X131.114 Y117.489 E3.06135 ; skirt
G1 X130.954 Y118.719 E0.09264 ; skirt
G1 X130.474 Y119.859 E0.09238 ; skirt
G1 X129.724 Y120.849 E0.09276 ; skirt
G1 X128.734 Y121.599 E0.09276 ; skirt
G1 X127.594 Y122.079 E0.09238 ; skirt
G1 X126.364 Y122.239 E0.09264 ; skirt
G1 X73.634 Y122.249 E3.93815 ; skirt
G1 X72.404 Y122.089 E0.09264 ; skirt
G1 X71.264 Y121.609 E0.09238 ; skirt
G1 X70.274 Y120.859 E0.09276 ; skirt
G1 X69.524 Y119.869 E0.09276 ; skirt
G1 X69.044 Y118.729 E0.09238 ; skirt
G1 X68.884 Y117.499 E0.09264 ; skirt
G1 X68.884 Y76.499 E3.06209 ; skirt
G1 X69.044 Y75.269 E0.09264 ; skirt
G1 X69.524 Y74.129 E0.09238 ; skirt
G1 X70.206 Y73.228 E0.08437 ; skirt
G1 F1800.000 E-2.40000 ; retract
G1 X74.034 Y76.903 F6000.000 ; move to first perimeter point
G1 E2.40000 F1800.000 ; compensate retraction
G1 X125.966 Y76.907 E3.87855 F900.000 ; perimeter
G1 X125.966 Y85.519 E0.64318 ; perimeter
G1 X119.684 Y85.519 E0.46914 ; perimeter
G1 X118.331 Y85.680 E0.10177 ; perimeter
G1 X117.008 Y86.000 E0.10171 ; perimeter
G1 X115.730 Y86.474 E0.10181 ; perimeter
G1 X114.517 Y87.097 E0.10182 ; perimeter
G1 X113.388 Y87.859 E0.10173 ; perimeter
G1 X112.355 Y88.747 E0.10174 ; perimeter
G1 X111.435 Y89.753 E0.10184 ; perimeter
G1 X110.640 Y90.860 E0.10171 ; perimeter
G1 X109.983 Y92.054 E0.10180 ; perimeter
G1 X109.471 Y93.317 E0.10178 ; perimeter
G1 X109.112 Y94.632 E0.10182 ; perimeter
G1 X108.911 Y95.978 E0.10169 ; perimeter
G1 X108.869 Y97.342 E0.10188 ; perimeter
G1 X108.992 Y98.699 E0.10179 ; perimeter
G1 X109.271 Y100.031 E0.10163 ; perimeter
G1 X109.710 Y101.322 E0.10182 ; perimeter
G1 X110.295 Y102.553 E0.10180 ; perimeter
G1 X111.021 Y103.705 E0.10168 ; perimeter
G1 X111.880 Y104.763 E0.10184 ; perimeter
G1 X112.859 Y105.713 E0.10181 ; perimeter
G1 X113.942 Y106.539 E0.10177 ; perimeter
G1 X115.115 Y107.233 E0.10178 ; perimeter
G1 X116.361 Y107.781 E0.10169 ; perimeter
G1 X117.664 Y108.178 E0.10173 ; perimeter
G1 X119.005 Y108.421 E0.10173 ; perimeter
G1 X120.354 Y108.501 E0.10096 ; perimeter
G1 X125.966 Y108.501 E0.41913 ; perimeter
G1 X125.966 Y117.093 E0.64166 ; perimeter
G1 X74.034 Y117.108 E3.87855 ; perimeter
G1 X74.034 Y77.015 E2.99433 ; perimeter
G1 X74.682 Y77.277 F6000.000 ; move inwards before travel
G1 X74.782 Y77.651 F6000.000 ; move to first perimeter point
G1 X125.218 Y77.655 E3.76675 F900.000 ; perimeter
G1 X125.218 Y79.572 E0.14315 ; perimeter
G1 X119.548 Y79.572 E0.42342 ; perimeter
G1 X117.919 Y79.725 E0.12217 ; perimeter
G1 X116.313 Y80.030 E0.12214 ; perimeter
G1 X115.008 Y80.408 E0.10145 ; perimeter
G1 X114.638 Y80.625 E0.03201 ; perimeter
G1 X113.258 Y81.167 E0.11079 ; perimeter
G1 X111.806 Y81.903 E0.12158 ; perimeter
G1 X110.430 Y82.770 E0.12143 ; perimeter
G1 X109.142 Y83.764 E0.12151 ; perimeter
G1 X108.056 Y84.775 E0.11082 ; perimeter
G1 X107.699 Y85.017 E0.03217 ; perimeter
G1 X106.798 Y86.032 E0.10135 ; perimeter
G1 X105.832 Y87.349 E0.12204 ; perimeter
G1 X104.991 Y88.753 E0.12217 ; perimeter
G1 X104.286 Y90.230 E0.12226 ; perimeter
G1 X103.819 Y91.504 E0.10135 ; perimeter
G1 X103.775 Y91.931 E0.03207 ; perimeter
G1 X103.398 Y93.365 E0.11073 ; perimeter
G1 X103.131 Y94.970 E0.12152 ; perimeter
G1 X103.016 Y96.593 E0.12154 ; perimeter
G1 X103.055 Y98.221 E0.12157 ; perimeter
G1 X103.246 Y99.834 E0.12134 ; perimeter
G1 X103.556 Y101.286 E0.11089 ; perimeter
G1 X103.580 Y101.715 E0.03209 ; perimeter
G1 X103.987 Y103.010 E0.10136 ; perimeter
G1 X104.622 Y104.517 E0.12216 ; perimeter
G1 X105.394 Y105.959 E0.12217 ; perimeter
G1 X106.300 Y107.321 E0.12216 ; perimeter
G1 X107.152 Y108.376 E0.10126 ; perimeter
G1 X107.495 Y108.633 E0.03205 ; perimeter
G1 X108.533 Y109.696 E0.11093 ; perimeter
G1 X109.775 Y110.748 E0.12160 ; perimeter
G1 X111.110 Y111.679 E0.12153 ; perimeter
G1 X112.523 Y112.481 E0.12136 ; perimeter
G1 X113.878 Y113.089 E0.11088 ; perimeter
G1 X114.238 Y113.323 E0.03205 ; perimeter
G1 X115.522 Y113.761 E0.10133 ; perimeter
G1 X117.112 Y114.141 E0.12212 ; perimeter
G1 X118.732 Y114.370 E0.12221 ; perimeter
G1 X120.339 Y114.445 E0.12013 ; perimeter
G1 X125.218 Y114.445 E0.36434 ; perimeter
G1 X125.218 Y116.345 E0.14189 ; perimeter
G1 X74.782 Y116.359 E3.76675 ; perimeter
G1 X74.782 Y77.763 E2.88253 ; perimeter
G1 F1800.000 E-2.40000 ; retract
G1 X104.977 Y90.521 F6000.000 ; move to first perimeter point
G1 E2.40000 F1800.000 ; compensate retraction
G1 X105.652 Y89.107 E0.11697 F900.000 ; perimeter
G1 X106.456 Y87.763 E0.11697 ; perimeter
G1 X107.381 Y86.503 E0.11679 ; perimeter
G1 X108.197 Y85.584 E0.09177 ; perimeter
G1 X108.524 Y85.362 E0.02947 ; perimeter
G1 X109.627 Y84.335 E0.11254 ; perimeter
G1 X110.859 Y83.385 E0.11627 ; perimeter
G1 X112.175 Y82.555 E0.11620 ; perimeter
G1 X113.564 Y81.851 E0.11629 ; perimeter
G1 X114.966 Y81.300 E0.11251 ; perimeter
G1 X115.306 Y81.101 E0.02942 ; perimeter
G1 X116.487 Y80.759 E0.09184 ; perimeter
G1 X118.024 Y80.467 E0.11684 ; perimeter
G1 X119.583 Y80.320 E0.11694 ; perimeter
G1 X124.766 Y80.320 E0.38708 ; perimeter
G1 X124.766 Y84.317 E0.29849 ; perimeter
G1 X120.377 Y84.317 E0.32777 ; perimeter
G1 X118.946 Y84.398 E0.10708 ; perimeter
G1 X117.545 Y84.636 E0.10614 ; perimeter
G1 X116.310 Y84.992 E0.09596 ; perimeter
G1 X114.868 Y85.582 E0.11637 ; perimeter
G1 X113.624 Y86.271 E0.10621 ; perimeter
G1 X112.465 Y87.091 E0.10606 ; perimeter
G1 X111.405 Y88.039 E0.10616 ; perimeter
G1 X110.444 Y89.104 E0.10717 ; perimeter
G1 X109.628 Y90.253 E0.10523 ; perimeter
G1 X108.941 Y91.497 E0.10615 ; perimeter
G1 X108.450 Y92.684 E0.09597 ; perimeter
G1 X108.011 Y94.180 E0.11640 ; perimeter
G1 X107.773 Y95.582 E0.10618 ; perimeter
G1 X107.694 Y96.999 E0.10603 ; perimeter
G1 X107.773 Y98.418 E0.10617 ; perimeter
G1 X108.011 Y99.820 E0.10618 ; perimeter
G1 X108.450 Y101.315 E0.11638 ; perimeter
G1 X108.941 Y102.503 E0.09597 ; perimeter
G1 X109.628 Y103.748 E0.10618 ; perimeter
G1 X110.451 Y104.906 E0.10614 ; perimeter
G1 X111.397 Y105.953 E0.10536 ; perimeter
G1 X112.464 Y106.907 E0.10692 ; perimeter
G1 X113.624 Y107.730 E0.10623 ; perimeter
G1 X114.868 Y108.418 E0.10614 ; perimeter
G1 X116.180 Y108.962 E0.10608 ; perimeter
G1 X117.557 Y109.365 E0.10715 ; perimeter
G1 X118.946 Y109.601 E0.10523 ; perimeter
G1 X120.377 Y109.683 E0.10704 ; perimeter
G1 X124.766 Y109.683 E0.32779 ; perimeter
G1 X124.766 Y113.696 E0.29975 ; perimeter
G1 X120.357 Y113.696 E0.32931 ; perimeter
G1 X118.802 Y113.624 E0.11620 ; perimeter
G1 X117.252 Y113.404 E0.11695 ; perimeter
G1 X115.730 Y113.041 E0.11686 ; perimeter
G1 X114.567 Y112.644 E0.09176 ; perimeter
G1 X114.237 Y112.430 E0.02942 ; perimeter
G1 X112.862 Y111.813 E0.11254 ; perimeter
G1 X111.509 Y111.045 E0.11618 ; perimeter
G1 X110.333 Y110.224 E0.10715 ; perimeter
G1 X109.043 Y109.148 E0.12543 ; perimeter
G1 X107.990 Y108.069 E0.11260 ; perimeter
G1 X107.675 Y107.833 E0.02940 ; perimeter
G1 X106.904 Y106.878 E0.09169 ; perimeter
G1 X106.037 Y105.575 E0.11687 ; perimeter
G1 X105.298 Y104.194 E0.11697 ; perimeter
G1 X104.691 Y102.751 E0.11690 ; perimeter
G1 X104.322 Y101.580 E0.09173 ; perimeter
G1 X104.300 Y101.186 E0.02943 ; perimeter
G1 X103.985 Y99.712 E0.11262 ; perimeter
G1 X103.802 Y98.168 E0.11613 ; perimeter
G1 X103.765 Y96.611 E0.11630 ; perimeter
G1 X103.875 Y95.058 E0.11626 ; perimeter
G1 X104.130 Y93.522 E0.11628 ; perimeter
G1 X104.514 Y92.066 E0.11248 ; perimeter
G1 X104.554 Y91.674 E0.02942 ; perimeter
G1 X104.938 Y90.626 E0.08335 ; perimeter
G1 X104.534 Y89.917 F6000.000 ; move inwards before travel
G1 F1800.000 E-2.40000 ; retract
G1 X103.663 Y103.612 F6000.000 ; move to first fill point
G1 E2.40000 F1800.000 ; compensate retraction
G1 X78.235 Y78.184 E2.70701 F900.000 ; fill
G1 X79.301 Y78.184 E0.08031 ; fill
G1 X103.108 Y101.990 E2.53436 ; fill
G1 X102.887 Y100.702 E0.09842 ; fill
G1 X80.368 Y78.184 E2.39719 ; fill
G1 X81.435 Y78.184 E0.08032 ; fill
G1 X102.659 Y99.407 E2.25936 ; fill
G1 X102.522 Y98.203 E0.09122 ; fill
G1 X82.502 Y78.184 E2.13116 ; fill
G1 X83.569 Y78.184 E0.08032 ; fill
G1 X102.495 Y97.110 E2.01478 ; fill
G1 X102.519 Y96.067 E0.07855 ; fill
G1 X84.636 Y78.184 E1.90372 ; fill
G1 X85.703 Y78.184 E0.08032 ; fill
G1 X102.590 Y95.070 E1.79764 ; fill
G1 X102.728 Y94.142 E0.07065 ; fill
G1 X86.770 Y78.184 E1.69882 ; fill
G1 X87.837 Y78.184 E0.08032 ; fill
G1 X102.882 Y93.229 E1.60163 ; fill
G1 X103.105 Y92.385 E0.06573 ; fill
G1 X88.904 Y78.184 E1.51173 ; fill
G1 X89.971 Y78.185 E0.08032 ; fill
G1 X103.285 Y91.498 E1.41726 ; fill
G1 X103.549 Y90.695 E0.06362 ; fill
G1 X91.038 Y78.185 E1.33179 ; fill
G1 X92.105 Y78.185 E0.08032 ; fill
G1 X103.843 Y89.922 E1.24953 ; fill
G1 X104.188 Y89.200 E0.06024 ; fill
G1 X93.172 Y78.185 E1.17263 ; fill
G1 X94.239 Y78.185 E0.08032 ; fill
G1 X104.534 Y88.479 E1.09592 ; fill
G1 X104.934 Y87.812 E0.05855 ; fill
G1 X95.306 Y78.185 E1.02487 ; fill
G1 X96.374 Y78.185 E0.08032 ; fill
G1 X105.333 Y87.145 E0.95383 ; fill
G1 X105.778 Y86.523 E0.05757 ; fill
G1 X97.441 Y78.185 E0.88755 ; fill
G1 X98.508 Y78.185 E0.08032 ; fill
G1 X106.229 Y85.907 E0.82202 ; fill
G1 X106.714 Y85.325 E0.05703 ; fill
G1 X99.575 Y78.185 E0.76001 ; fill
G1 X100.642 Y78.186 E0.08032 ; fill
G1 X107.215 Y84.760 E0.69983 ; fill
G1 X107.804 Y84.281 E0.05709 ; fill
G1 X101.709 Y78.186 E0.64893 ; fill
G1 X102.776 Y78.186 E0.08032 ; fill
G1 X108.357 Y83.767 E0.59416 ; fill
G1 X108.920 Y83.263 E0.05687 ; fill
G1 X103.843 Y78.186 E0.54047 ; fill
G1 X104.910 Y78.186 E0.08032 ; fill
G1 X109.522 Y82.798 E0.49102 ; fill
G1 X110.124 Y82.334 E0.05726 ; fill
G1 X105.977 Y78.186 E0.44156 ; fill
G1 X107.044 Y78.186 E0.08032 ; fill
G1 X110.778 Y81.921 E0.39760 ; fill
G1 X111.433 Y81.508 E0.05823 ; fill
G1 X108.111 Y78.186 E0.35366 ; fill
G1 X109.178 Y78.186 E0.08032 ; fill
G1 X112.132 Y81.141 E0.31448 ; fill
G1 X112.840 Y80.782 E0.05975 ; fill
G1 X110.245 Y78.186 E0.27627 ; fill
G1 X111.312 Y78.187 E0.08032 ; fill
G1 X113.590 Y80.465 E0.24250 ; fill
G1 X114.356 Y80.164 E0.06196 ; fill
G1 X112.379 Y78.187 E0.21047 ; fill
G1 X113.446 Y78.187 E0.08032 ; fill
G1 X115.089 Y79.830 E0.17495 ; fill
G1 X115.573 Y79.248 E0.05703 ; fill
G1 X114.513 Y78.187 E0.11291 ; fill
G1 X115.580 Y78.187 E0.08032 ; fill
G1 X116.470 Y79.077 E0.09475 ; fill
G1 X116.647 Y78.187 E0.06830 ; fill
G1 X117.366 Y78.907 E0.07659 ; fill
G1 X117.735 Y78.208 E0.05944 ; fill
G1 X117.714 Y78.187 E0.00224 ; fill
G1 F1800.000 E-2.40000 ; retract
G1 X104.613 Y105.629 F6000.000 ; move to first fill point
G1 E2.40000 F1800.000 ; compensate retraction
G1 X77.168 Y78.184 E2.92176 F900.000 ; fill
G1 X76.101 Y78.184 E0.08031 ; fill
G1 X113.733 Y115.815 E4.00612 ; fill
G1 X112.666 Y115.816 E0.08029 ; fill
G1 X75.315 Y78.465 E3.97623 ; fill
G1 X75.315 Y79.532 E0.08031 ; fill
G1 X111.599 Y115.816 E3.86268 ; fill
G1 X110.533 Y115.816 E0.08029 ; fill
G1 X75.315 Y80.599 E3.74914 ; fill
G1 X75.315 Y81.666 E0.08031 ; fill
G1 X109.466 Y115.817 E3.63559 ; fill
G1 X108.400 Y115.817 E0.08029 ; fill
G1 X75.315 Y82.732 E3.52204 ; fill
G1 X75.315 Y83.799 E0.08031 ; fill
G1 X107.333 Y115.817 E3.40850 ; fill
G1 X106.266 Y115.818 E0.08029 ; fill
G1 X75.315 Y84.866 E3.29495 ; fill
G1 X75.315 Y85.933 E0.08031 ; fill
G1 X105.200 Y115.818 E3.18141 ; fill
G1 X104.133 Y115.818 E0.08029 ; fill
G1 X75.315 Y87.000 E3.06786 ; fill
G1 X75.315 Y88.067 E0.08031 ; fill
G1 X103.067 Y115.819 E2.95432 ; fill
G1 X102.000 Y115.819 E0.08029 ; fill
G1 X75.315 Y89.134 E2.84077 ; fill
G1 X75.315 Y90.201 E0.08031 ; fill
G1 X100.933 Y115.819 E2.72722 ; fill
G1 X99.867 Y115.819 E0.08029 ; fill
G1 X75.315 Y91.268 E2.61368 ; fill
G1 X75.315 Y92.335 E0.08031 ; fill
G1 X98.800 Y115.820 E2.50013 ; fill
G1 X97.734 Y115.820 E0.08029 ; fill
G1 X75.315 Y93.401 E2.38659 ; fill
G1 X75.315 Y94.468 E0.08031 ; fill
G1 X96.667 Y115.820 E2.27304 ; fill
G1 X95.600 Y115.821 E0.08029 ; fill
G1 X75.315 Y95.535 E2.15950 ; fill
G1 X75.315 Y96.602 E0.08031 ; fill
G1 X94.534 Y115.821 E2.04595 ; fill
G1 X93.467 Y115.821 E0.08029 ; fill
G1 X75.315 Y97.669 E1.93241 ; fill
G1 X75.315 Y98.736 E0.08031 ; fill
G1 X92.401 Y115.822 E1.81886 ; fill
G1 X91.334 Y115.822 E0.08029 ; fill
G1 X75.315 Y99.803 E1.70531 ; fill
G1 X75.315 Y100.870 E0.08031 ; fill
G1 X90.267 Y115.822 E1.59177 ; fill
G1 X89.201 Y115.822 E0.08029 ; fill
G1 X75.315 Y101.937 E1.47822 ; fill
G1 X75.315 Y103.004 E0.08031 ; fill
G1 X88.134 Y115.823 E1.36468 ; fill
G1 X87.068 Y115.823 E0.08029 ; fill
G1 X75.315 Y104.071 E1.25113 ; fill
G1 X75.315 Y105.137 E0.08031 ; fill
G1 X86.001 Y115.823 E1.13759 ; fill
G1 X84.935 Y115.824 E0.08029 ; fill
G1 X75.315 Y106.204 E1.02404 ; fill
G1 X75.315 Y107.271 E0.08031 ; fill
G1 X83.868 Y115.824 E0.91049 ; fill
G1 X82.801 Y115.824 E0.08029 ; fill
G1 X75.315 Y108.338 E0.79695 ; fill
G1 X75.315 Y109.405 E0.08031 ; fill
G1 X81.735 Y115.825 E0.68340 ; fill
G1 X80.668 Y115.825 E0.08029 ; fill
G1 X75.315 Y110.472 E0.56986 ; fill
G1 X75.315 Y111.539 E0.08031 ; fill
G1 X79.602 Y115.825 E0.45631 ; fill
G1 X78.535 Y115.826 E0.08029 ; fill
G1 X75.315 Y112.606 E0.34277 ; fill
G1 X75.315 Y113.673 E0.08031 ; fill
G1 X77.468 Y115.826 E0.22922 ; fill
G1 X76.402 Y115.826 E0.08029 ; fill
G1 X75.315 Y114.740 E0.11567 ; fill
G1 X75.315 Y115.806 E0.08031 ; fill
G1 X75.335 Y115.826 E0.00213 ; fill
G1 F1800.000 E-2.40000 ; retract
G1 X111.493 Y112.509 F6000.000 ; move to first fill point
G1 E2.40000 F1800.000 ; compensate retraction
G1 X114.799 Y115.815 E0.35198 F900.000 ; fill
G1 X115.866 Y115.815 E0.08029 ; fill
G1 X113.599 Y113.548 E0.24136 ; fill
G1 F1800.000 E-2.40000 ; retract
G1 X115.902 Y114.784 F6000.000 ; move to first fill point
G1 E2.40000 F1800.000 ; compensate retraction
G1 X116.932 Y115.815 E0.10970 F900.000 ; fill
G1 X117.303 Y115.119 E0.05937 ; fill
G1 X117.671 Y115.486 E0.03912 ; fill
G1 X118.591 Y115.564 F6000.000 ; move to first fill point
G1 X119.434 Y115.168 E0.08148 F300.000 ; fill
G1 X119.849 Y115.582 E0.05127 F300.000 ; fill
G1 X120.715 Y115.209 E0.08248 F300.000 ; fill
G1 X121.088 Y115.582 E0.04609 F300.000 ; fill
G1 X121.954 Y115.209 E0.08250 F300.000 ; fill
G1 X122.327 Y115.581 E0.04604 F300.000 ; fill
G1 X123.194 Y115.209 E0.08252 F300.000 ; fill
G1 X123.566 Y115.581 E0.04599 F300.000 ; fill
G1 X124.433 Y115.209 E0.08254 F300.000 ; fill
G1 X124.453 Y115.229 E0.00247 F300.000 ; fill
G1 X125.442 Y113.654 F6000.000 ; move to first fill point
G1 X125.290 Y113.502 E0.00768 F300.000 ; fill
G1 X125.442 Y113.146 E0.01389 F300.000 ; fill
G1 X125.290 Y112.994 E0.00768 F300.000 ; fill
G1 X125.442 Y112.638 E0.01389 F300.000 ; fill
G1 X125.290 Y112.486 E0.00768 F300.000 ; fill
G1 X125.442 Y112.129 E0.01389 F300.000 ; fill
G1 X125.290 Y111.978 E0.00768 F300.000 ; fill
G1 X125.442 Y111.621 E0.01389 F300.000 ; fill
G1 X125.290 Y111.470 E0.00768 F300.000 ; fill
G1 X125.442 Y111.113 E0.01389 F300.000 ; fill
