; generated by Slic3r 1.0.1 on 2014-07-15 at 23:29:05

; layer_height = 0.24
; perimeters = 2
; top_solid_layers = 3
; bottom_solid_layers = 3
; fill_density = 0.25
; perimeter_speed = 30
; infill_speed = 30
; travel_speed = 100
; nozzle_diameter = 0.5
; filament_diameter = 1.75
; extrusion_multiplier = 1
; perimeters extrusion width = 0.50mm
; infill extrusion width = 0.50mm
; solid infill extrusion width = 0.50mm
; top infill extrusion width = 0.50mm
; first layer extrusion width = 0.80mm

G21 ; set units to millimeters
M107 ; disable fan
M190 S57 ; wait for bed temperature to be reached
M104 S200 ; set temperature

M109 S200 ; wait for temperature to be reached
G90 ; use absolute coordinates
M83 ; use relative distances for extrusion
G1 F1800.000 E-2.40000 ; retract
G1 Z0.240 F6000.000 ; move to next layer (0)
G1 X46.640 Y46.640 F6000.000 ; move to first skirt point
G1 E2.40000 F1800.000 ; compensate retraction
G1 X47.630 Y45.890 E0.09276 F900.000 ; skirt
G1 X48.770 Y45.410 E0.09238 ; skirt
G1 X50.000 Y45.250 E0.09264 ; skirt
G1 X150.000 Y45.250 E7.46852 ; skirt
G1 X151.230 Y45.410 E0.09264 ; skirt
G1 X152.370 Y45.890 E0.09238 ; skirt
G1 X153.360 Y46.640 E0.09276 ; skirt
G1 X154.110 Y47.630 E0.09276 ; skirt
G1 X154.590 Y48.770 E0.09238 ; skirt
G1 X154.750 Y50.000 E0.09264 ; skirt
G1 X154.750 Y150.000 E7.46852 ; skirt
G1 X154.590 Y151.230 E0.09264 ; skirt
G1 X154.110 Y152.370 E0.09238 ; skirt
G1 X153.360 Y153.360 E0.09276 ; skirt
G1 X152.370 Y154.110 E0.09276 ; skirt
G1 X151.230 Y154.590 E0.09238 ; skirt
G1 X150.000 Y154.750 E0.09264 ; skirt
G1 X50.000 Y154.750 E7.46852 ; skirt
G1 X48.770 Y154.590 E0.09264 ; skirt
G1 X47.630 Y154.110 E0.09238 ; skirt
G1 X46.640 Y153.360 E0.09276 ; skirt
G1 X45.890 Y152.370 E0.09276 ; skirt
G1 X45.410 Y151.230 E0.09238 ; skirt
G1 X45.250 Y150.000 E0.09264 ; skirt
G1 X45.250 Y50.000 E7.46852 ; skirt
G1 X45.410 Y48.770 E0.09264 ; skirt
G1 X45.890 Y47.630 E0.09238 ; skirt
G1 X46.572 Y46.729 E0.08437 ; skirt
G1 F1800.000 E-2.40000 ; retract
G1 X50.400 Y50.400 F6000.000 ; move to first perimeter point
G1 E2.40000 F1800.000 ; compensate retraction
G1 X149.600 Y50.400 E7.40877 F900.000 ; perimeter
G1 X149.600 Y149.600 E7.40877 ; perimeter
G1 X50.400 Y149.600 E7.40877 ; perimeter
G1 X50.400 Y50.512 E7.40039 ; perimeter
G1 X51.048 Y50.774 F6000.000 ; move inwards before travel
G1 X52.100 Y52.100 F6000.000 ; move to first perimeter point
G1 X147.900 Y52.100 E7.15484 F900.000 ; perimeter
G1 X147.900 Y147.900 E7.15484 ; perimeter
G1 X52.100 Y147.900 E7.15484 ; perimeter
G1 X52.100 Y52.212 E7.14646 ; perimeter
G1 X52.100 Y51.352 F6000.000 ; move inwards before travel
G1 X52.226 Y51.164 F6000.000 ; move to first fill point
G1 X52.397 Y51.336 E0.01816 F300.000 ; fill
G1 X53.287 Y51.164 E0.06787 F300.000 ; fill
G1 X53.459 Y51.336 E0.01816 F300.000 ; fill
G1 X54.349 Y51.164 E0.06787 F300.000 ; fill
G1 X54.520 Y51.336 E0.01816 F300.000 ; fill
G1 X55.410 Y51.164 E0.06787 F300.000 ; fill
G1 X55.582 Y51.336 E0.01816 F300.000 ; fill
G1 X56.471 Y51.164 E0.06787 F300.000 ; fill
G1 X56.643 Y51.336 E0.01816 F300.000 ; fill
G1 X57.533 Y51.164 E0.06787 F300.000 ; fill
G1 X57.704 Y51.336 E0.01816 F300.000 ; fill
G1 X58.594 Y51.164 E0.06787 F300.000 ; fill
G1 X58.766 Y51.336 E0.01816 F300.000 ; fill
G1 X59.656 Y51.164 E0.06787 F300.000 ; fill
G1 X59.827 Y51.336 E0.01816 F300.000 ; fill
G1 X60.717 Y51.164 E0.06787 F300.000 ; fill
G1 X60.889 Y51.336 E0.01816 F300.000 ; fill
G1 X61.779 Y51.164 E0.06787 F300.000 ; fill
G1 X61.950 Y51.336 E0.01816 F300.000 ; fill
G1 X62.840 Y51.164 E0.06787 F300.000 ; fill
G1 X63.012 Y51.336 E0.01816 F300.000 ; fill
G1 X63.901 Y51.164 E0.06787 F300.000 ; fill
G1 X64.073 Y51.336 E0.01816 F300.000 ; fill
G1 X64.963 Y51.164 E0.06787 F300.000 ; fill
G1 X65.134 Y51.336 E0.01816 F300.000 ; fill
G1 X66.024 Y51.164 E0.06787 F300.000 ; fill
G1 X66.196 Y51.336 E0.01816 F300.000 ; fill
G1 X67.086 Y51.164 E0.06787 F300.000 ; fill
G1 X67.257 Y51.336 E0.01816 F300.000 ; fill
G1 X68.147 Y51.164 E0.06787 F300.000 ; fill
G1 X68.319 Y51.336 E0.01816 F300.000 ; fill
G1 X69.209 Y51.164 E0.06787 F300.000 ; fill
G1 X69.380 Y51.336 E0.01816 F300.000 ; fill
G1 X70.270 Y51.164 E0.06787 F300.000 ; fill
G1 X70.442 Y51.336 E0.01816 F300.000 ; fill
G1 X71.331 Y51.164 E0.06787 F300.000 ; fill
G1 X71.503 Y51.336 E0.01816 F300.000 ; fill
G1 X72.393 Y51.164 E0.06787 F300.000 ; fill
G1 X72.564 Y51.336 E0.01816 F300.000 ; fill
G1 X73.454 Y51.164 E0.06787 F300.000 ; fill
G1 X73.626 Y51.336 E0.01816 F300.000 ; fill
G1 X74.516 Y51.164 E0.06787 F300.000 ; fill
G1 X74.687 Y51.336 E0.01816 F300.000 ; fill
G1 X75.577 Y51.164 E0.06787 F300.000 ; fill
G1 X75.749 Y51.336 E0.01816 F300.000 ; fill
G1 X76.639 Y51.164 E0.06787 F300.000 ; fill
G1 X76.810 Y51.336 E0.01816 F300.000 ; fill
G1 X77.700 Y51.164 E0.06787 F300.000 ; fill
G1 X77.872 Y51.336 E0.01816 F300.000 ; fill
G1 X78.762 Y51.164 E0.06787 F300.000 ; fill
G1 X78.933 Y51.336 E0.01816 F300.000 ; fill
G1 X79.823 Y51.164 E0.06787 F300.000 ; fill
G1 X79.994 Y51.336 E0.01816 F300.000 ; fill
G1 X80.884 Y51.164 E0.06787 F300.000 ; fill
G1 X81.056 Y51.336 E0.01816 F300.000 ; fill
G1 X81.946 Y51.164 E0.06787 F300.000 ; fill
G1 X82.117 Y51.336 E0.01816 F300.000 ; fill
G1 X83.007 Y51.164 E0.06787 F300.000 ; fill
G1 X83.179 Y51.336 E0.01816 F300.000 ; fill
G1 X84.069 Y51.164 E0.06787 F300.000 ; fill
G1 X84.240 Y51.336 E0.01816 F300.000 ; fill
G1 X85.130 Y51.164 E0.06787 F300.000 ; fill
G1 X85.302 Y51.336 E0.01816 F300.000 ; fill
G1 X86.192 Y51.164 E0.06787 F300.000 ; fill
G1 X86.363 Y51.336 E0.01816 F300.000 ; fill
G1 X87.253 Y51.164 E0.06787 F300.000 ; fill
G1 X87.424 Y51.336 E0.01816 F300.000 ; fill
G1 X88.314 Y51.164 E0.06787 F300.000 ; fill
G1 X88.486 Y51.336 E0.01816 F300.000 ; fill
G1 X89.376 Y51.164 E0.06787 F300.000 ; fill
G1 X89.547 Y51.336 E0.01816 F300.000 ; fill
G1 X90.437 Y51.164 E0.06787 F300.000 ; fill
G1 X90.609 Y51.336 E0.01816 F300.000 ; fill
G1 X91.499 Y51.164 E0.06787 F300.000 ; fill
G1 X91.670 Y51.336 E0.01816 F300.000 ; fill
G1 X92.560 Y51.164 E0.06787 F300.000 ; fill
G1 X92.732 Y51.336 E0.01816 F300.000 ; fill
G1 X93.622 Y51.164 E0.06787 F300.000 ; fill
G1 X93.793 Y51.336 E0.01816 F300.000 ; fill
G1 X94.683 Y51.164 E0.06787 F300.000 ; fill
G1 X94.854 Y51.336 E0.01816 F300.000 ; fill
G1 X95.744 Y51.164 E0.06787 F300.000 ; fill
G1 X95.916 Y51.336 E0.01816 F300.000 ; fill
G1 X96.806 Y51.164 E0.06787 F300.000 ; fill
G1 X96.977 Y51.336 E0.01816 F300.000 ; fill
G1 X97.867 Y51.164 E0.06787 F300.000 ; fill
G1 X98.039 Y51.336 E0.01816 F300.000 ; fill
G1 X98.929 Y51.164 E0.06787 F300.000 ; fill
G1 X99.100 Y51.336 E0.01816 F300.000 ; fill
G1 X99.990 Y51.164 E0.06787 F300.000 ; fill
G1 X100.162 Y51.336 E0.01816 F300.000 ; fill
G1 X101.052 Y51.164 E0.06787 F300.000 ; fill
G1 X101.223 Y51.336 E0.01816 F300.000 ; fill
G1 X102.113 Y51.164 E0.06787 F300.000 ; fill
G1 X102.284 Y51.336 E0.01816 F300.000 ; fill
G1 X103.174 Y51.164 E0.06787 F300.000 ; fill
G1 X103.346 Y51.336 E0.01816 F300.000 ; fill
G1 X104.236 Y51.164 E0.06787 F300.000 ; fill
G1 X104.407 Y51.336 E0.01816 F300.000 ; fill
G1 X105.297 Y51.164 E0.06787 F300.000 ; fill
G1 X105.469 Y51.336 E0.01816 F300.000 ; fill
G1 X106.359 Y51.164 E0.06787 F300.000 ; fill
G1 X106.530 Y51.336 E0.01816 F300.000 ; fill
G1 X107.420 Y51.164 E0.06787 F300.000 ; fill
G1 X107.592 Y51.336 E0.01816 F300.000 ; fill
G1 X108.482 Y51.164 E0.06787 F300.000 ; fill
G1 X108.653 Y51.336 E0.01816 F300.000 ; fill
G1 X109.543 Y51.164 E0.06787 F300.000 ; fill
G1 X109.714 Y51.336 E0.01816 F300.000 ; fill
G1 X110.604 Y51.164 E0.06787 F300.000 ; fill
G1 X110.776 Y51.336 E0.01816 F300.000 ; fill
G1 X111.666 Y51.164 E0.06787 F300.000 ; fill
G1 X111.837 Y51.336 E0.01816 F300.000 ; fill
G1 X112.727 Y51.164 E0.06787 F300.000 ; fill
G1 X112.899 Y51.336 E0.01816 F300.000 ; fill
G1 X113.789 Y51.164 E0.06787 F300.000 ; fill
G1 X113.960 Y51.336 E0.01816 F300.000 ; fill
G1 X114.850 Y51.164 E0.06787 F300.000 ; fill
G1 X115.022 Y51.336 E0.01816 F300.000 ; fill
G1 X115.912 Y51.164 E0.06787 F300.000 ; fill
G1 X116.083 Y51.336 E0.01816 F300.000 ; fill
G1 X116.973 Y51.164 E0.06787 F300.000 ; fill
G1 X117.144 Y51.336 E0.01816 F300.000 ; fill
G1 X118.034 Y51.164 E0.06787 F300.000 ; fill
G1 X118.206 Y51.336 E0.01816 F300.000 ; fill
G1 X119.096 Y51.164 E0.06787 F300.000 ; fill
G1 X119.267 Y51.336 E0.01816 F300.000 ; fill
G1 X120.157 Y51.164 E0.06787 F300.000 ; fill
G1 X120.329 Y51.336 E0.01816 F300.000 ; fill
G1 X121.219 Y51.164 E0.06787 F300.000 ; fill
G1 X121.390 Y51.336 E0.01816 F300.000 ; fill
G1 X122.280 Y51.164 E0.06787 F300.000 ; fill
G1 X122.452 Y51.336 E0.01816 F300.000 ; fill
G1 X123.342 Y51.164 E0.06787 F300.000 ; fill
G1 X123.513 Y51.336 E0.01816 F300.000 ; fill
G1 X124.403 Y51.164 E0.06787 F300.000 ; fill
G1 X124.575 Y51.336 E0.01816 F300.000 ; fill
G1 X125.464 Y51.164 E0.06787 F300.000 ; fill
G1 X125.636 Y51.336 E0.01816 F300.000 ; fill
G1 X126.526 Y51.164 E0.06787 F300.000 ; fill
G1 X126.697 Y51.336 E0.01816 F300.000 ; fill
G1 X127.587 Y51.164 E0.06787 F300.000 ; fill
G1 X127.759 Y51.336 E0.01816 F300.000 ; fill
G1 X128.649 Y51.164 E0.06787 F300.000 ; fill
G1 X128.820 Y51.336 E0.01816 F300.000 ; fill
G1 X129.710 Y51.164 E0.06787 F300.000 ; fill
G1 X129.882 Y51.336 E0.01816 F300.000 ; fill
G1 X130.772 Y51.164 E0.06787 F300.000 ; fill
G1 X130.943 Y51.336 E0.01816 F300.000 ; fill
G1 X131.833 Y51.164 E0.06787 F300.000 ; fill
G1 X132.005 Y51.336 E0.01816 F300.000 ; fill
G1 X132.894 Y51.164 E0.06787 F300.000 ; fill
G1 X133.066 Y51.336 E0.01816 F300.000 ; fill
G1 X133.956 Y51.164 E0.06787 F300.000 ; fill
G1 X134.127 Y51.336 E0.01816 F300.000 ; fill
G1 X135.017 Y51.164 E0.06787 F300.000 ; fill
G1 X135.189 Y51.336 E0.01816 F300.000 ; fill
G1 X136.079 Y51.164 E0.06787 F300.000 ; fill
G1 X136.250 Y51.336 E0.01816 F300.000 ; fill
G1 X137.140 Y51.164 E0.06787 F300.000 ; fill
G1 X137.312 Y51.336 E0.01816 F300.000 ; fill
G1 X138.202 Y51.164 E0.06787 F300.000 ; fill
G1 X138.373 Y51.336 E0.01816 F300.000 ; fill
G1 X139.263 Y51.164 E0.06787 F300.000 ; fill
G1 X139.435 Y51.336 E0.01816 F300.000 ; fill
G1 X140.324 Y51.164 E0.06787 F300.000 ; fill
G1 X140.496 Y51.336 E0.01816 F300.000 ; fill
G1 X141.386 Y51.164 E0.06787 F300.000 ; fill
G1 X141.557 Y51.336 E0.01816 F300.000 ; fill
G1 X142.447 Y51.164 E0.06787 F300.000 ; fill
G1 X142.619 Y51.336 E0.01816 F300.000 ; fill
G1 X143.509 Y51.164 E0.06787 F300.000 ; fill
G1 X143.680 Y51.336 E0.01816 F300.000 ; fill
G1 X144.570 Y51.164 E0.06787 F300.000 ; fill
G1 X144.742 Y51.336 E0.01816 F300.000 ; fill
G1 X145.632 Y51.164 E0.06787 F300.000 ; fill
G1 X145.803 Y51.336 E0.01816 F300.000 ; fill
G1 X146.693 Y51.164 E0.06787 F300.000 ; fill
G1 X146.865 Y51.336 E0.01816 F300.000 ; fill
G1 X147.754 Y51.164 E0.06787 F300.000 ; fill
G1 X147.926 Y51.336 E0.01816 F300.000 ; fill
G1 X148.664 Y52.074 F6000.000 ; move to first fill point
G1 X148.836 Y52.246 E0.01816 F300.000 ; fill
G1 X148.664 Y53.135 E0.06787 F300.000 ; fill
G1 X148.836 Y53.307 E0.01816 F300.000 ; fill
G1 X148.664 Y54.197 E0.06787 F300.000 ; fill
G1 X148.836 Y54.368 E0.01816 F300.000 ; fill
G1 X148.664 Y55.258 E0.06787 F300.000 ; fill
G1 X148.836 Y55.430 E0.01816 F300.000 ; fill
G1 X148.664 Y56.320 E0.06787 F300.000 ; fill
G1 X148.836 Y56.491 E0.01816 F300.000 ; fill
G1 X148.664 Y57.381 E0.06787 F300.000 ; fill
G1 X148.836 Y57.553 E0.01816 F300.000 ; fill
G1 X148.664 Y58.443 E0.06787 F300.000 ; fill
G1 X148.836 Y58.614 E0.01816 F300.000 ; fill
G1 X148.664 Y59.504 E0.06787 F300.000 ; fill
G1 X148.836 Y59.676 E0.01816 F300.000 ; fill
G1 X148.664 Y60.565 E0.06787 F300.000 ; fill
G1 X148.836 Y60.737 E0.01816 F300.000 ; fill
G1 X148.664 Y61.627 E0.06787 F300.000 ; fill
G1 X148.836 Y61.798 E0.01816 F300.000 ; fill
G1 X148.664 Y62.688 E0.06787 F300.000 ; fill
G1 X148.836 Y62.860 E0.01816 F300.000 ; fill
G1 X148.664 Y63.750 E0.06787 F300.000 ; fill
G1 X148.836 Y63.921 E0.01816 F300.000 ; fill
G1 X148.664 Y64.811 E0.06787 F300.000 ; fill
G1 X148.836 Y64.983 E0.01816 F300.000 ; fill
G1 X148.664 Y65.873 E0.06787 F300.000 ; fill
G1 X148.836 Y66.044 E0.01816 F300.000 ; fill
G1 X148.664 Y66.934 E0.06787 F300.000 ; fill
G1 X148.836 Y67.106 E0.01816 F300.000 ; fill
G1 X148.664 Y67.995 E0.06787 F300.000 ; fill
G1 X148.836 Y68.167 E0.01816 F300.000 ; fill
G1 X148.664 Y69.057 E0.06787 F300.000 ; fill
G1 X148.836 Y69.228 E0.01816 F300.000 ; fill
G1 X148.664 Y70.118 E0.06787 F300.000 ; fill
G1 X148.836 Y70.290 E0.01816 F300.000 ; fill
G1 X148.664 Y71.180 E0.06787 F300.000 ; fill
G1 X148.836 Y71.351 E0.01816 F300.000 ; fill
G1 X148.664 Y72.241 E0.06787 F300.000 ; fill
G1 X148.836 Y72.413 E0.01816 F300.000 ; fill
G1 X148.664 Y73.303 E0.06787 F300.000 ; fill
G1 X148.836 Y73.474 E0.01816 F300.000 ; fill
G1 X148.664 Y74.364 E0.06787 F300.000 ; fill
G1 X148.836 Y74.536 E0.01816 F300.000 ; fill
G1 X148.664 Y75.425 E0.06787 F300.000 ; fill
G1 X148.836 Y75.597 E0.01816 F300.000 ; fill
G1 X148.664 Y76.487 E0.06787 F300.000 ; fill
G1 X148.836 Y76.658 E0.01816 F300.000 ; fill
G1 X148.664 Y77.548 E0.06787 F300.000 ; fill
G1 X148.836 Y77.720 E0.01816 F300.000 ; fill
G1 X148.664 Y78.610 E0.06787 F300.000 ; fill
G1 X148.836 Y78.781 E0.01816 F300.000 ; fill
G1 X148.664 Y79.671 E0.06787 F300.000 ; fill
G1 X148.836 Y79.843 E0.01816 F300.000 ; fill
G1 X148.664 Y80.733 E0.06787 F300.000 ; fill
G1 X148.836 Y80.904 E0.01816 F300.000 ; fill
G1 X148.664 Y81.794 E0.06787 F300.000 ; fill
G1 X148.836 Y81.966 E0.01816 F300.000 ; fill
G1 X148.664 Y82.855 E0.06787 F300.000 ; fill
G1 X148.836 Y83.027 E0.01816 F300.000 ; fill
G1 X148.664 Y83.917 E0.06787 F300.000 ; fill
G1 X148.836 Y84.088 E0.01816 F300.000 ; fill
G1 X148.664 Y84.978 E0.06787 F300.000 ; fill
G1 X148.836 Y85.150 E0.01816 F300.000 ; fill
G1 X148.664 Y86.040 E0.06787 F300.000 ; fill
G1 X148.836 Y86.211 E0.01816 F300.000 ; fill
G1 X148.664 Y87.101 E0.06787 F300.000 ; fill
G1 X148.836 Y87.273 E0.01816 F300.000 ; fill
G1 X148.664 Y88.163 E0.06787 F300.000 ; fill
G1 X148.836 Y88.334 E0.01816 F300.000 ; fill
G1 X148.664 Y89.224 E0.06787 F300.000 ; fill
G1 X148.836 Y89.396 E0.01816 F300.000 ; fill
G1 X148.664 Y90.286 E0.06787 F300.000 ; fill
G1 X148.836 Y90.457 E0.01816 F300.000 ; fill
G1 X148.664 Y91.347 E0.06787 F300.000 ; fill
G1 X148.836 Y91.518 E0.01816 F300.000 ; fill
G1 X148.664 Y92.408 E0.06787 F300.000 ; fill
G1 X148.836 Y92.580 E0.01816 F300.000 ; fill
G1 X148.664 Y93.470 E0.06787 F300.000 ; fill
G1 X148.836 Y93.641 E0.01816 F300.000 ; fill
G1 X148.664 Y94.531 E0.06787 F300.000 ; fill
G1 X148.836 Y94.703 E0.01816 F300.000 ; fill
G1 X148.664 Y95.593 E0.06787 F300.000 ; fill
G1 X148.836 Y95.764 E0.01816 F300.000 ; fill
G1 X148.664 Y96.654 E0.06787 F300.000 ; fill
G1 X148.836 Y96.826 E0.01816 F300.000 ; fill
G1 X148.664 Y97.716 E0.06787 F300.000 ; fill
G1 X148.836 Y97.887 E0.01816 F300.000 ; fill
G1 X148.664 Y98.777 E0.06787 F300.000 ; fill
G1 X148.836 Y98.948 E0.01816 F300.000 ; fill
G1 X148.664 Y99.838 E0.06787 F300.000 ; fill
G1 X148.836 Y100.010 E0.01816 F300.000 ; fill
G1 X148.664 Y100.900 E0.06787 F300.000 ; fill
G1 X148.836 Y101.071 E0.01816 F300.000 ; fill
G1 X148.664 Y101.961 E0.06787 F300.000 ; fill
G1 X148.836 Y102.133 E0.01816 F300.000 ; fill
G1 X148.664 Y103.023 E0.06787 F300.000 ; fill
G1 X148.836 Y103.194 E0.01816 F300.000 ; fill
G1 X148.664 Y104.084 E0.06787 F300.000 ; fill
G1 X148.836 Y104.256 E0.01816 F300.000 ; fill
G1 X148.664 Y105.146 E0.06787 F300.000 ; fill
G1 X148.836 Y105.317 E0.01816 F300.000 ; fill
G1 X148.664 Y106.207 E0.06787 F300.000 ; fill
G1 X148.836 Y106.378 E0.01816 F300.000 ; fill
G1 X148.664 Y107.268 E0.06787 F300.000 ; fill
G1 X148.836 Y107.440 E0.01816 F300.000 ; fill
G1 X148.664 Y108.330 E0.06787 F300.000 ; fill
G1 X148.836 Y108.501 E0.01816 F300.000 ; fill
G1 X148.664 Y109.391 E0.06787 F300.000 ; fill
G1 X148.836 Y109.563 E0.01816 F300.000 ; fill
G1 X148.664 Y110.453 E0.06787 F300.000 ; fill
G1 X148.836 Y110.624 E0.01816 F300.000 ; fill
G1 X148.664 Y111.514 E0.06787 F300.000 ; fill
G1 X148.836 Y111.686 E0.01816 F300.000 ; fill
G1 X148.664 Y112.576 E0.06787 F300.000 ; fill
