; generated by Slic3r 1.0.1 on 2014-08-13 at 21:16:24

; layer_height = 0.24
; perimeters = 2
; top_solid_layers = 4
; bottom_solid_layers = 3
; fill_density = 0.25
; perimeter_speed = 30
; infill_speed = 30
; travel_speed = 100
; nozzle_diameter = 0.5
; filament_diameter = 1.75
; extrusion_multiplier = 1
; perimeters extrusion width = 0.50mm
; infill extrusion width = 0.50mm
; solid infill extrusion width = 0.50mm
; top infill extrusion width = 0.50mm
; first layer extrusion width = 0.80mm

G21 ; set units to millimeters
M107 ; disable fan
M190 S57 ; wait for bed temperature to be reached
M104 S200 ; set temperature

M109 S200 ; wait for temperature to be reached
G90 ; use absolute coordinates
M83 ; use relative distances for extrusion
G1 F1800.000 E-2.40000 ; retract
G1 Z0.240 F6000.000 ; move to next layer (0)
G1 X35.113 Y71.968 F6000.000 ; move to first skirt point
G1 E2.40000 F1800.000 ; compensate retraction
G1 X36.253 Y71.488 E0.09238 F900.000 ; skirt
G1 X37.483 Y71.328 E0.09264 ; skirt
G1 X152.813 Y71.328 E8.61344 ; skirt
G1 X153.483 Y71.378 E0.05018 ; skirt
G1 X157.933 Y72.008 E0.33566 ; skirt
G1 X158.603 Y72.148 E0.05112 ; skirt
G1 X159.243 Y72.398 E0.05132 ; skirt
G1 X159.613 Y72.568 E0.03041 ; skirt
G1 X160.213 Y72.888 E0.05079 ; skirt
G1 X160.753 Y73.298 E0.05064 ; skirt
G1 X164.143 Y76.248 E0.33562 ; skirt
G1 X164.593 Y76.688 E0.04700 ; skirt
G1 X164.973 Y77.198 E0.04750 ; skirt
G1 X165.193 Y77.528 E0.02962 ; skirt
G1 X165.543 Y78.148 E0.05317 ; skirt
G1 X165.803 Y78.818 E0.05367 ; skirt
G1 X167.073 Y83.138 E0.33629 ; skirt
G1 X167.213 Y83.798 E0.05039 ; skirt
G1 X167.263 Y84.478 E0.05092 ; skirt
G1 X167.263 Y84.878 E0.02987 ; skirt
G1 X167.213 Y85.558 E0.05092 ; skirt
G1 X167.063 Y86.218 E0.05055 ; skirt
G1 X165.793 Y90.528 E0.33558 ; skirt
G1 X165.563 Y91.168 E0.05079 ; skirt
G1 X165.233 Y91.768 E0.05114 ; skirt
G1 X165.013 Y92.108 E0.03025 ; skirt
G1 X164.683 Y92.558 E0.04168 ; skirt
G1 X164.303 Y92.968 E0.04175 ; skirt
G1 X133.453 Y122.408 E3.18481 ; skirt
G1 X132.903 Y122.848 E0.05260 ; skirt
G1 X132.293 Y123.218 E0.05328 ; skirt
G1 X131.803 Y123.428 E0.03981 ; skirt
G1 X124.273 Y126.218 E0.59974 ; skirt
G1 X123.923 Y126.338 E0.02763 ; skirt
G1 X122.163 Y126.838 E0.13665 ; skirt
G1 X119.393 Y127.378 E0.21077 ; skirt
G1 X118.943 Y127.448 E0.03401 ; skirt
G1 X117.123 Y127.618 E0.13652 ; skirt
G1 X116.683 Y127.638 E0.03290 ; skirt
G1 X114.273 Y127.638 E0.17999 ; skirt
G1 X113.833 Y127.618 E0.03290 ; skirt
G1 X112.013 Y127.448 E0.13652 ; skirt
G1 X111.563 Y127.388 E0.03391 ; skirt
G1 X109.193 Y126.938 E0.18017 ; skirt
G1 X108.783 Y126.838 E0.03152 ; skirt
G1 X106.763 Y126.248 E0.15717 ; skirt
G1 X38.373 Y102.248 E5.41310 ; skirt
G1 X37.703 Y101.948 E0.05483 ; skirt
G1 X36.593 Y101.338 E0.09459 ; skirt
G1 X36.213 Y101.048 E0.03570 ; skirt
G1 X35.293 Y100.258 E0.09057 ; skirt
G1 X34.503 Y99.338 E0.09057 ; skirt
G1 X34.213 Y98.958 E0.03570 ; skirt
G1 X33.973 Y98.538 E0.03613 ; skirt
G1 X33.403 Y97.438 E0.09253 ; skirt
G1 X33.243 Y96.998 E0.03497 ; skirt
G1 X33.013 Y96.248 E0.05859 ; skirt
G1 X32.893 Y95.768 E0.03695 ; skirt
G1 X32.823 Y95.278 E0.03697 ; skirt
G1 X32.753 Y94.498 E0.05849 ; skirt
G1 X32.733 Y94.078 E0.03140 ; skirt
G1 X32.733 Y76.078 E1.34433 ; skirt
G1 X32.893 Y74.848 E0.09264 ; skirt
G1 X33.373 Y73.708 E0.09238 ; skirt
G1 X34.123 Y72.718 E0.09276 ; skirt
G1 X35.024 Y72.036 E0.08437 ; skirt
G1 F1800.000 E-2.40000 ; retract
G1 X94.256 Y92.498 F6000.000 ; move to first perimeter point
G1 E2.40000 F1800.000 ; compensate retraction
G1 X94.742 Y91.245 E0.10034 F900.000 ; perimeter
G1 X95.384 Y91.218 E0.04799 ; perimeter
G1 X95.922 Y91.231 E0.04019 ; perimeter
G1 X96.680 Y91.294 E0.05680 ; perimeter
G1 X97.204 Y90.242 E0.08775 ; perimeter
G1 X96.696 Y89.676 E0.05684 ; perimeter
G1 X96.360 Y89.255 E0.04020 ; perimeter
G1 X95.996 Y88.726 E0.04795 ; perimeter
G1 X96.703 Y87.584 E0.10037 ; perimeter
G1 X97.339 Y87.674 E0.04796 ; perimeter
G1 X97.865 Y87.786 E0.04018 ; perimeter
G1 X98.600 Y87.987 E0.05686 ; perimeter
G1 X99.307 Y87.050 E0.08771 ; perimeter
G1 X98.912 Y86.400 E0.05680 ; perimeter
G1 X98.661 Y85.924 E0.04017 ; perimeter
G1 X98.399 Y85.337 E0.04796 ; perimeter
G1 X99.304 Y84.345 E0.10033 ; perimeter
G1 X99.913 Y84.551 E0.04799 ; perimeter
G1 X100.410 Y84.757 E0.04021 ; perimeter
G1 X101.094 Y85.090 E0.05678 ; perimeter
G1 X101.963 Y84.297 E0.08790 ; perimeter
G1 X101.693 Y83.587 E0.05676 ; perimeter
G1 X101.534 Y83.073 E0.04015 ; perimeter
G1 X101.385 Y82.448 E0.04799 ; perimeter
G1 X102.457 Y81.639 E0.10029 ; perimeter
G1 X103.017 Y81.953 E0.04797 ; perimeter
G1 X103.468 Y82.248 E0.04021 ; perimeter
G1 X104.079 Y82.700 E0.05684 ; perimeter
G1 X105.077 Y82.083 E0.08767 ; perimeter
G1 X104.944 Y81.333 E0.05688 ; perimeter
G1 X104.882 Y80.799 E0.04014 ; perimeter
G1 X104.850 Y80.157 E0.04801 ; perimeter
G1 X106.053 Y79.558 E0.10033 ; perimeter
G1 X106.545 Y79.970 E0.04797 ; perimeter
G1 X106.934 Y80.342 E0.04015 ; perimeter
G1 X107.451 Y80.900 E0.05687 ; perimeter
G1 X108.548 Y80.476 E0.08781 ; perimeter
G1 X108.554 Y79.714 E0.05687 ; perimeter
G1 X108.590 Y79.177 E0.04017 ; perimeter
G1 X108.677 Y78.541 E0.04794 ; perimeter
G1 X109.969 Y78.174 E0.10035 ; perimeter
G1 X110.378 Y78.669 E0.04798 ; perimeter
G1 X110.692 Y79.107 E0.04023 ; perimeter
G1 X111.098 Y79.749 E0.05676 ; perimeter
G1 X112.253 Y79.535 E0.08770 ; perimeter
G1 X112.399 Y78.788 E0.05691 ; perimeter
G1 X112.534 Y78.266 E0.04023 ; perimeter
G1 X112.736 Y77.657 E0.04795 ; perimeter
G1 X114.074 Y77.533 E0.10034 ; perimeter
G1 X114.384 Y78.095 E0.04799 ; perimeter
G1 X114.613 Y78.582 E0.04016 ; perimeter
G1 X114.894 Y79.290 E0.05694 ; perimeter
G1 X116.069 Y79.289 E0.08775 ; perimeter
G1 X116.349 Y78.582 E0.05679 ; perimeter
G1 X116.578 Y78.095 E0.04016 ; perimeter
G1 X116.888 Y77.533 E0.04799 ; perimeter
G1 X118.226 Y77.657 E0.10034 ; perimeter
G1 X118.428 Y78.266 E0.04795 ; perimeter
G1 X118.563 Y78.788 E0.04023 ; perimeter
G1 X118.709 Y79.535 E0.05691 ; perimeter
G1 X119.864 Y79.749 E0.08769 ; perimeter
G1 X120.270 Y79.107 E0.05676 ; perimeter
G1 X120.584 Y78.669 E0.04023 ; perimeter
G1 X120.993 Y78.174 E0.04798 ; perimeter
G1 X122.285 Y78.541 E0.10035 ; perimeter
G1 X122.372 Y79.177 E0.04794 ; perimeter
G1 X122.408 Y79.714 E0.04017 ; perimeter
G1 X122.414 Y80.476 E0.05687 ; perimeter
G1 X123.511 Y80.900 E0.08781 ; perimeter
G1 X124.028 Y80.342 E0.05687 ; perimeter
G1 X124.417 Y79.970 E0.04015 ; perimeter
G1 X124.909 Y79.558 E0.04797 ; perimeter
G1 X126.112 Y80.157 E0.10033 ; perimeter
G1 X126.080 Y80.799 E0.04801 ; perimeter
G1 X126.018 Y81.333 E0.04014 ; perimeter
G1 X125.885 Y82.083 E0.05691 ; perimeter
G1 X126.884 Y82.700 E0.08769 ; perimeter
G1 X127.494 Y82.248 E0.05674 ; perimeter
G1 X127.945 Y81.953 E0.04021 ; perimeter
G1 X128.505 Y81.639 E0.04797 ; perimeter
G1 X129.577 Y82.448 E0.10029 ; perimeter
G1 X129.428 Y83.073 E0.04799 ; perimeter
G1 X129.269 Y83.587 E0.04015 ; perimeter
G1 X128.999 Y84.297 E0.05676 ; perimeter
G1 X129.868 Y85.090 E0.08789 ; perimeter
G1 X130.552 Y84.757 E0.05677 ; perimeter
G1 X131.049 Y84.551 E0.04021 ; perimeter
G1 X131.658 Y84.345 E0.04799 ; perimeter
G1 X132.563 Y85.337 E0.10033 ; perimeter
G1 X132.301 Y85.924 E0.04796 ; perimeter
G1 X132.050 Y86.400 E0.04017 ; perimeter
G1 X131.655 Y87.050 E0.05687 ; perimeter
G1 X132.363 Y87.987 E0.08769 ; perimeter
G1 X133.096 Y87.786 E0.05684 ; perimeter
G1 X133.623 Y87.674 E0.04018 ; perimeter
G1 X134.259 Y87.584 E0.04797 ; perimeter
G1 X134.966 Y88.726 E0.10037 ; perimeter
G1 X134.602 Y89.255 E0.04795 ; perimeter
G1 X134.266 Y89.676 E0.04020 ; perimeter
G1 X133.758 Y90.242 E0.05683 ; perimeter
G1 X134.282 Y91.294 E0.08775 ; perimeter
G1 X135.040 Y91.231 E0.05680 ; perimeter
G1 X135.578 Y91.218 E0.04018 ; perimeter
G1 X136.220 Y91.245 E0.04799 ; perimeter
G1 X136.706 Y92.498 E0.10034 ; perimeter
G1 X136.250 Y92.951 E0.04800 ; perimeter
G1 X135.844 Y93.303 E0.04014 ; perimeter
G1 X135.240 Y93.767 E0.05685 ; perimeter
G1 X135.561 Y94.898 E0.08778 ; perimeter
G1 X136.319 Y94.974 E0.05686 ; perimeter
G1 X136.850 Y95.060 E0.04016 ; perimeter
G1 X137.476 Y95.205 E0.04800 ; perimeter
G1 X137.723 Y96.526 E0.10038 ; perimeter
G1 X137.191 Y96.887 E0.04799 ; perimeter
G1 X136.728 Y97.159 E0.04014 ; perimeter
G1 X136.048 Y97.505 E0.05694 ; perimeter
G1 X136.157 Y98.674 E0.08768 ; perimeter
G1 X136.888 Y98.888 E0.05687 ; perimeter
G1 X137.394 Y99.071 E0.04018 ; perimeter
G1 X137.982 Y99.328 E0.04798 ; perimeter
G1 X137.982 Y100.672 E0.10033 ; perimeter
G1 X137.394 Y100.929 E0.04798 ; perimeter
G1 X136.888 Y101.112 E0.04018 ; perimeter
G1 X136.159 Y101.326 E0.05676 ; perimeter
G1 X136.048 Y102.495 E0.08771 ; perimeter
G1 X136.728 Y102.841 E0.05697 ; perimeter
G1 X137.191 Y103.113 E0.04015 ; perimeter
G1 X137.723 Y103.474 E0.04798 ; perimeter
G1 X137.476 Y104.795 E0.10038 ; perimeter
G1 X136.850 Y104.940 E0.04800 ; perimeter
G1 X136.319 Y105.026 E0.04016 ; perimeter
G1 X135.561 Y105.102 E0.05686 ; perimeter
G1 X135.240 Y106.233 E0.08778 ; perimeter
G1 X135.844 Y106.697 E0.05685 ; perimeter
G1 X136.250 Y107.049 E0.04014 ; perimeter
G1 X136.706 Y107.502 E0.04800 ; perimeter
G1 X136.220 Y108.755 E0.10034 ; perimeter
G1 X135.578 Y108.782 E0.04799 ; perimeter
G1 X135.040 Y108.769 E0.04019 ; perimeter
G1 X134.282 Y108.706 E0.05680 ; perimeter
G1 X133.758 Y109.758 E0.08775 ; perimeter
G1 X134.266 Y110.324 E0.05683 ; perimeter
G1 X134.602 Y110.745 E0.04020 ; perimeter
G1 X134.966 Y111.274 E0.04795 ; perimeter
G1 X134.259 Y112.416 E0.10037 ; perimeter
G1 X133.623 Y112.326 E0.04796 ; perimeter
G1 X133.097 Y112.214 E0.04018 ; perimeter
G1 X132.362 Y112.013 E0.05686 ; perimeter
G1 X131.655 Y112.950 E0.08771 ; perimeter
G1 X132.050 Y113.600 E0.05680 ; perimeter
G1 X132.301 Y114.076 E0.04017 ; perimeter
G1 X132.563 Y114.663 E0.04796 ; perimeter
G1 X131.658 Y115.655 E0.10033 ; perimeter
G1 X131.049 Y115.449 E0.04799 ; perimeter
G1 X130.552 Y115.243 E0.04021 ; perimeter
G1 X129.868 Y114.910 E0.05677 ; perimeter
G1 X128.999 Y115.703 E0.08790 ; perimeter
G1 X129.269 Y116.413 E0.05676 ; perimeter
G1 X129.428 Y116.927 E0.04015 ; perimeter
G1 X129.577 Y117.552 E0.04799 ; perimeter
G1 X128.505 Y118.361 E0.10029 ; perimeter
G1 X127.945 Y118.047 E0.04797 ; perimeter
G1 X127.494 Y117.752 E0.04021 ; perimeter
G1 X126.883 Y117.300 E0.05684 ; perimeter
G1 X125.885 Y117.917 E0.08767 ; perimeter
G1 X126.018 Y118.667 E0.05688 ; perimeter
G1 X126.080 Y119.201 E0.04014 ; perimeter
G1 X126.112 Y119.843 E0.04801 ; perimeter
G1 X124.909 Y120.442 E0.10033 ; perimeter
G1 X124.417 Y120.030 E0.04797 ; perimeter
G1 X124.028 Y119.658 E0.04015 ; perimeter
G1 X123.511 Y119.100 E0.05687 ; perimeter
G1 X122.414 Y119.524 E0.08781 ; perimeter
G1 X122.408 Y120.286 E0.05688 ; perimeter
G1 X122.372 Y120.823 E0.04017 ; perimeter
G1 X122.285 Y121.459 E0.04794 ; perimeter
G1 X120.993 Y121.826 E0.10035 ; perimeter
G1 X120.584 Y121.331 E0.04798 ; perimeter
G1 X120.270 Y120.893 E0.04023 ; perimeter
G1 X119.864 Y120.251 E0.05676 ; perimeter
G1 X118.709 Y120.465 E0.08769 ; perimeter
G1 X118.563 Y121.213 E0.05691 ; perimeter
G1 X118.428 Y121.734 E0.04022 ; perimeter
G1 X118.226 Y122.343 E0.04795 ; perimeter
G1 X116.888 Y122.467 E0.10034 ; perimeter
G1 X116.578 Y121.905 E0.04799 ; perimeter
G1 X116.349 Y121.418 E0.04016 ; perimeter
G1 X116.068 Y120.710 E0.05694 ; perimeter
G1 X114.893 Y120.711 E0.08775 ; perimeter
G1 X114.613 Y121.418 E0.05679 ; perimeter
G1 X114.384 Y121.905 E0.04016 ; perimeter
G1 X114.074 Y122.467 E0.04799 ; perimeter
G1 X112.736 Y122.343 E0.10034 ; perimeter
G1 X112.534 Y121.734 E0.04795 ; perimeter
G1 X112.399 Y121.213 E0.04023 ; perimeter
G1 X112.253 Y120.465 E0.05691 ; perimeter
G1 X111.098 Y120.251 E0.08770 ; perimeter
G1 X110.692 Y120.893 E0.05677 ; perimeter
G1 X110.378 Y121.331 E0.04023 ; perimeter
G1 X109.969 Y121.826 E0.04798 ; perimeter
G1 X108.677 Y121.459 E0.10035 ; perimeter
G1 X108.590 Y120.823 E0.04794 ; perimeter
G1 X108.554 Y120.286 E0.04017 ; perimeter
G1 X108.548 Y119.524 E0.05687 ; perimeter
G1 X107.451 Y119.100 E0.08781 ; perimeter
G1 X106.934 Y119.658 E0.05687 ; perimeter
G1 X106.545 Y120.030 E0.04015 ; perimeter
G1 X106.053 Y120.442 E0.04797 ; perimeter
G1 X104.850 Y119.843 E0.10033 ; perimeter
G1 X104.882 Y119.201 E0.04801 ; perimeter
G1 X104.944 Y118.667 E0.04014 ; perimeter
G1 X105.077 Y117.917 E0.05691 ; perimeter
G1 X104.078 Y117.300 E0.08770 ; perimeter
G1 X103.468 Y117.752 E0.05674 ; perimeter
G1 X103.017 Y118.047 E0.04021 ; perimeter
G1 X102.457 Y118.361 E0.04797 ; perimeter
G1 X101.385 Y117.552 E0.10029 ; perimeter
G1 X101.534 Y116.927 E0.04799 ; perimeter
G1 X101.693 Y116.413 E0.04015 ; perimeter
G1 X101.963 Y115.703 E0.05676 ; perimeter
G1 X101.094 Y114.910 E0.08790 ; perimeter
G1 X100.410 Y115.243 E0.05678 ; perimeter
G1 X99.913 Y115.449 E0.04021 ; perimeter
G1 X99.304 Y115.655 E0.04799 ; perimeter
G1 X98.399 Y114.663 E0.10033 ; perimeter
G1 X98.661 Y114.076 E0.04796 ; perimeter
G1 X98.912 Y113.600 E0.04017 ; perimeter
G1 X99.307 Y112.950 E0.05687 ; perimeter
G1 X98.599 Y112.013 E0.08769 ; perimeter
G1 X97.865 Y112.214 E0.05684 ; perimeter
G1 X97.339 Y112.326 E0.04018 ; perimeter
G1 X96.703 Y112.416 E0.04796 ; perimeter
G1 X95.996 Y111.274 E0.10037 ; perimeter
G1 X96.360 Y110.745 E0.04795 ; perimeter
G1 X96.696 Y110.324 E0.04020 ; perimeter
G1 X97.204 Y109.758 E0.05683 ; perimeter
G1 X96.680 Y108.706 E0.08775 ; perimeter
G1 X95.922 Y108.769 E0.05680 ; perimeter
G1 X95.384 Y108.782 E0.04019 ; perimeter
G1 X94.742 Y108.755 E0.04799 ; perimeter
G1 X94.256 Y107.502 E0.10034 ; perimeter
G1 X94.712 Y107.049 E0.04800 ; perimeter
G1 X95.118 Y106.697 E0.04014 ; perimeter
G1 X95.722 Y106.233 E0.05685 ; perimeter
G1 X95.401 Y105.102 E0.08779 ; perimeter
G1 X94.643 Y105.026 E0.05686 ; perimeter
G1 X94.112 Y104.940 E0.04016 ; perimeter
G1 X93.486 Y104.795 E0.04799 ; perimeter
G1 X93.239 Y103.474 E0.10038 ; perimeter
G1 X93.771 Y103.113 E0.04798 ; perimeter
G1 X94.234 Y102.841 E0.04014 ; perimeter
G1 X94.914 Y102.495 E0.05694 ; perimeter
G1 X94.805 Y101.326 E0.08768 ; perimeter
G1 X94.074 Y101.112 E0.05687 ; perimeter
G1 X93.568 Y100.929 E0.04018 ; perimeter
G1 X92.980 Y100.672 E0.04798 ; perimeter
G1 X92.980 Y99.328 E0.10033 ; perimeter
G1 X93.568 Y99.071 E0.04798 ; perimeter
G1 X94.074 Y98.888 E0.04018 ; perimeter
G1 X94.803 Y98.674 E0.05676 ; perimeter
G1 X94.914 Y97.505 E0.08771 ; perimeter
G1 X94.234 Y97.159 E0.05698 ; perimeter
G1 X93.771 Y96.887 E0.04014 ; perimeter
G1 X93.239 Y96.526 E0.04798 ; perimeter
G1 X93.486 Y95.205 E0.10038 ; perimeter
G1 X94.112 Y95.060 E0.04799 ; perimeter
G1 X94.643 Y94.974 E0.04016 ; perimeter
G1 X95.401 Y94.898 E0.05686 ; perimeter
G1 X95.722 Y93.767 E0.08779 ; perimeter
G1 X95.118 Y93.303 E0.05685 ; perimeter
G1 X94.712 Y92.951 E0.04014 ; perimeter
G1 X94.336 Y92.577 E0.03962 ; perimeter
G1 X94.898 Y92.113 F6000.000 ; move inwards before travel
G1 X94.703 Y91.951 F6000.000 ; move to first perimeter point
G1 X95.882 Y91.978 E0.08808 F900.000 ; perimeter
G1 X97.123 Y92.082 E0.09303 ; perimeter
G1 X98.100 Y90.121 E0.16363 ; perimeter
G1 X97.268 Y89.192 E0.09316 ; perimeter
G1 X96.532 Y88.268 E0.08826 ; perimeter
G1 X97.689 Y88.513 E0.08833 ; perimeter
G1 X98.891 Y88.843 E0.09315 ; perimeter
G1 X100.210 Y87.095 E0.16356 ; perimeter
G1 X99.564 Y86.030 E0.09305 ; perimeter
G1 X99.013 Y84.988 E0.08806 ; perimeter
G1 X100.103 Y85.439 E0.08810 ; perimeter
G1 X101.222 Y85.986 E0.09306 ; perimeter
G1 X102.843 Y84.507 E0.16388 ; perimeter
G1 X102.401 Y83.343 E0.09303 ; perimeter
G1 X102.052 Y82.218 E0.08797 ; perimeter
G1 X103.040 Y82.862 E0.08809 ; perimeter
G1 X104.042 Y83.604 E0.09308 ; perimeter
G1 X105.903 Y82.452 E0.16351 ; perimeter
G1 X105.685 Y81.224 E0.09314 ; perimeter
G1 X105.549 Y80.053 E0.08802 ; perimeter
G1 X106.400 Y80.867 E0.08797 ; perimeter
G1 X107.248 Y81.782 E0.09314 ; perimeter
G1 X109.292 Y80.990 E0.16373 ; perimeter
G1 X109.302 Y79.743 E0.09317 ; perimeter
G1 X109.382 Y78.565 E0.08812 ; perimeter
G1 X110.071 Y79.525 E0.08828 ; perimeter
G1 X110.736 Y80.577 E0.09295 ; perimeter
