; generated by Slic3r 1.2.5 on 2015-02-07 at 22:29:00

; external perimeters extrusion width = 0.50mm
; perimeters extrusion width = 0.50mm
; infill extrusion width = 0.50mm
; solid infill extrusion width = 0.50mm
; top infill extrusion width = 0.50mm

M107 ; disable fan
M190 S57 ; set bed temperature
M104 S185 ; set temperature

M109 S185 ; wait for temperature to be reached
G21 ; set units to millimeters
G90 ; use absolute coordinates
M83 ; use relative distances for extrusion
G1 E-4.00000 F1800.00000 ; retract
G1 Z0.240 F6000.000 ; move to next layer (0)
G1 X59.074 Y74.495 F6000.000 ; move to first skirt point
G1 E4.00000 F1800.00000 ; unretract
G1 X60.351 Y73.506 E0.05781 F600.000 ; skirt
G1 X61.674 Y72.582 E0.05780 ; skirt
G1 X62.835 Y71.846 E0.04920 ; skirt
G1 X64.237 Y71.045 E0.05781 ; skirt
G1 X65.913 Y70.203 E0.06714 ; skirt
G1 X67.372 Y69.563 E0.05706 ; skirt
G1 X68.881 Y68.987 E0.05781 ; skirt
G1 X70.416 Y68.486 E0.05780 ; skirt
G1 X71.974 Y68.061 E0.05781 ; skirt
G1 X73.550 Y67.713 E0.05781 ; skirt
G1 X74.905 Y67.478 E0.04920 ; skirt
G1 X76.506 Y67.275 E0.05779 ; skirt
G1 X78.116 Y67.150 E0.05781 ; skirt
G1 X79.990 Y67.105 E0.06713 ; skirt
G1 X81.584 Y67.150 E0.05708 F600.000 ; skirt
G1 X83.194 Y67.275 E0.05781 ; skirt
G1 X84.795 Y67.478 E0.05778 ; skirt
G1 X86.150 Y67.713 E0.04921 ; skirt
G1 X87.960 Y68.120 E0.06642 ; skirt
G1 X89.284 Y68.486 E0.04920 ; skirt
G1 X90.819 Y68.987 E0.05780 ; skirt
G1 X145.975 Y89.592 E2.10792 ; skirt
G1 X146.914 Y90.017 E0.03688 ; skirt
G1 X147.337 Y90.244 E0.01720 ; skirt
G1 X147.868 Y90.561 E0.02213 ; skirt
G1 X148.267 Y90.828 E0.01720 ; skirt
G1 X148.764 Y91.197 E0.02213 ; skirt
G1 X149.135 Y91.502 E0.01721 ; skirt
G1 X149.593 Y91.917 E0.02213 ; skirt
G1 X149.933 Y92.257 E0.01720 ; skirt
G1 X150.348 Y92.715 E0.02213 ; skirt
G1 X150.653 Y93.086 E0.01721 ; skirt
G1 X151.022 Y93.583 E0.02213 ; skirt
G1 X151.289 Y93.982 E0.01720 ; skirt
G1 X151.606 Y94.513 E0.02213 ; skirt
G1 X151.833 Y94.936 E0.01720 ; skirt
G1 X152.097 Y95.495 E0.02213 ; skirt
G1 X152.281 Y95.939 E0.01721 ; skirt
G1 X152.489 Y96.522 E0.02213 ; skirt
G1 X152.629 Y96.981 E0.01720 ; skirt
G1 X152.779 Y97.581 E0.02213 ; skirt
G1 X152.873 Y98.052 E0.01721 ; skirt
G1 X152.964 Y98.664 E0.02213 ; skirt
G1 X153.011 Y99.142 E0.01720 ; skirt
G1 X153.041 Y99.760 E0.02213 ; skirt
G1 X153.041 Y100.240 E0.01721 ; skirt
G1 X153.011 Y100.858 E0.02213 ; skirt
G1 X152.964 Y101.336 E0.01720 ; skirt
G1 X152.873 Y101.948 E0.02213 ; skirt
G1 X152.779 Y102.419 E0.01721 ; skirt
G1 X152.629 Y103.019 E0.02213 ; skirt
G1 X152.489 Y103.478 E0.01720 ; skirt
G1 X152.281 Y104.061 E0.02213 ; skirt
G1 X152.097 Y104.505 E0.01721 ; skirt
G1 X151.833 Y105.064 E0.02213 ; skirt
G1 X151.606 Y105.487 E0.01720 ; skirt
G1 X151.289 Y106.018 E0.02213 ; skirt
G1 X151.022 Y106.417 E0.01720 ; skirt
G1 X150.653 Y106.914 E0.02213 ; skirt
G1 X150.348 Y107.285 E0.01721 ; skirt
G1 X149.933 Y107.743 E0.02213 ; skirt
G1 X149.593 Y108.083 E0.01720 ; skirt
G1 X149.135 Y108.498 E0.02213 ; skirt
G1 X148.764 Y108.803 E0.01721 ; skirt
G1 X148.267 Y109.172 E0.02213 ; skirt
G1 X147.868 Y109.439 E0.01720 ; skirt
G1 X147.337 Y109.756 E0.02213 ; skirt
G1 X146.914 Y109.983 E0.01720 ; skirt
G1 X146.355 Y110.247 E0.02213 ; skirt
G1 X145.975 Y110.408 E0.01476 ; skirt
G1 X90.997 Y130.950 E2.10117 ; skirt
G1 X89.514 Y131.444 E0.05595 ; skirt
G1 X87.726 Y131.939 E0.06641 ; skirt
G1 X86.385 Y132.240 E0.04920 ; skirt
G1 X84.795 Y132.522 E0.05781 ; skirt
G1 X82.955 Y132.749 E0.06640 ; skirt
G1 X81.584 Y132.850 E0.04921 ; skirt
G1 X79.970 Y132.896 E0.05781 ; skirt
G1 X78.116 Y132.850 E0.06640 ; skirt
G1 X76.745 Y132.749 E0.04920 ; skirt
G1 X75.142 Y132.557 E0.05782 ; skirt
G1 X73.550 Y132.287 E0.05779 ; skirt
G1 X71.974 Y131.939 E0.05781 ; skirt
G1 X70.186 Y131.444 E0.06641 ; skirt
G1 X68.880 Y131.013 E0.04922 ; skirt
G1 X67.372 Y130.437 E0.05780 ; skirt
G1 X65.677 Y129.686 E0.06639 ; skirt
G1 X64.449 Y129.068 E0.04920 ; skirt
G1 X63.041 Y128.277 E0.05781 ; skirt
G1 X61.674 Y127.418 E0.05781 ; skirt
G1 X60.158 Y126.350 E0.06640 ; skirt
G1 X59.074 Y125.505 E0.04921 ; skirt
G1 X57.848 Y124.455 E0.05779 ; skirt
G1 X56.674 Y123.346 E0.05780 ; skirt
G1 X55.395 Y122.002 E0.06641 ; skirt
G1 X54.498 Y120.961 E0.04921 ; skirt
G1 X53.512 Y119.709 E0.05706 ; skirt
G1 X52.565 Y118.376 E0.05855 ; skirt
G1 X51.573 Y116.809 E0.06640 ; skirt
G1 X50.895 Y115.613 E0.04920 ; skirt
G1 X50.164 Y114.173 E0.05781 ; skirt
G1 X49.413 Y112.478 E0.06640 ; skirt
G1 X48.837 Y110.969 E0.05780 ; skirt
G1 X48.406 Y109.664 E0.04920 ; skirt
G1 X47.911 Y107.876 E0.06641 ; skirt
G1 X47.563 Y106.300 E0.05781 ; skirt
G1 X47.293 Y104.708 E0.05779 ; skirt
G1 X47.125 Y103.344 E0.04920 ; skirt
G1 X47.000 Y101.734 E0.05781 ; skirt
G1 X46.954 Y99.880 E0.06639 ; skirt
G1 X46.988 Y98.506 E0.04921 ; skirt
G1 X47.101 Y96.895 E0.05781 ; skirt
G1 X47.328 Y95.055 E0.06639 ; skirt
G1 X47.610 Y93.465 E0.05781 ; skirt
G1 X47.911 Y92.124 E0.04921 ; skirt
G1 X48.336 Y90.566 E0.05781 ; skirt
G1 X48.918 Y88.805 E0.06640 ; skirt
G1 X49.504 Y87.301 E0.05780 ; skirt
G1 X50.061 Y86.044 E0.04920 ; skirt
G1 X50.895 Y84.387 E0.06641 ; skirt
G1 X51.696 Y82.985 E0.05781 ; skirt
G1 X52.432 Y81.824 E0.04920 ; skirt
G1 X53.356 Y80.501 E0.05780 ; skirt
G1 X54.345 Y79.224 E0.05781 ; skirt
G1 X55.557 Y77.820 E0.06640 ; skirt
G1 X56.674 Y76.654 E0.05780 ; skirt
G1 X57.670 Y75.707 E0.04920 ; skirt
G1 X59.016 Y74.543 E0.06372 ; skirt
G1 X59.301 Y74.889 F6000.000 ; move to first skirt point
G1 X60.434 Y74.003 E0.05149 F600.000 ; skirt
G1 X61.733 Y73.082 E0.05702 ; skirt
G1 X63.075 Y72.225 E0.05701 ; skirt
G1 X64.458 Y71.436 E0.05702 ; skirt
G1 X66.076 Y70.621 E0.06483 ; skirt
G1 X67.534 Y69.981 E0.05701 ; skirt
G1 X69.022 Y69.413 E0.05702 ; skirt
G1 X70.535 Y68.918 E0.05701 ; skirt
G1 X72.072 Y68.499 E0.05702 ; skirt
G1 X73.627 Y68.155 E0.05702 ; skirt
G1 X74.981 Y67.920 E0.04920 ; skirt
G1 X76.561 Y67.720 E0.05700 ; skirt
G1 X78.149 Y67.597 E0.05702 ; skirt
G1 X79.979 Y67.553 E0.06555 ; skirt
G1 X81.551 Y67.597 E0.05629 F600.000 ; skirt
G1 X83.139 Y67.720 E0.05702 ; skirt
G1 X84.719 Y67.920 E0.05700 ; skirt
G1 X86.073 Y68.155 E0.04920 ; skirt
G1 X87.840 Y68.552 E0.06484 ; skirt
G1 X89.165 Y68.918 E0.04920 ; skirt
G1 X90.678 Y69.413 E0.05701 ; skirt
G1 X145.818 Y90.012 E2.10731 ; skirt
G1 X146.722 Y90.423 E0.03553 ; skirt
G1 X147.107 Y90.628 E0.01563 ; skirt
G1 X147.637 Y90.946 E0.02213 ; skirt
G1 X148.000 Y91.189 E0.01563 ; skirt
G1 X148.497 Y91.557 E0.02213 ; skirt
G1 X148.834 Y91.834 E0.01563 ; skirt
G1 X149.292 Y92.249 E0.02213 ; skirt
G1 X149.601 Y92.558 E0.01562 ; skirt
G1 X150.016 Y93.016 E0.02213 ; skirt
G1 X150.293 Y93.353 E0.01563 ; skirt
G1 X150.661 Y93.850 E0.02213 ; skirt
G1 X150.904 Y94.213 E0.01563 ; skirt
G1 X151.222 Y94.743 E0.02213 ; skirt
G1 X151.427 Y95.128 E0.01563 ; skirt
G1 X151.692 Y95.687 E0.02213 ; skirt
G1 X151.859 Y96.090 E0.01563 ; skirt
G1 X152.067 Y96.673 E0.02213 ; skirt
G1 X152.194 Y97.090 E0.01563 ; skirt
G1 X152.344 Y97.690 E0.02213 ; skirt
G1 X152.429 Y98.118 E0.01563 ; skirt
G1 X152.520 Y98.730 E0.02213 ; skirt
G1 X152.563 Y99.164 E0.01563 ; skirt
G1 X152.593 Y99.782 E0.02213 ; skirt
G1 X152.593 Y100.218 E0.01563 ; skirt
G1 X152.563 Y100.836 E0.02213 ; skirt
G1 X152.520 Y101.270 E0.01563 ; skirt
G1 X152.429 Y101.882 E0.02213 ; skirt
G1 X152.344 Y102.310 E0.01563 ; skirt
G1 X152.194 Y102.910 E0.02213 ; skirt
G1 X152.067 Y103.327 E0.01563 ; skirt
G1 X151.859 Y103.910 E0.02213 ; skirt
G1 X151.692 Y104.313 E0.01563 ; skirt
G1 X151.427 Y104.872 E0.02213 ; skirt
G1 X151.222 Y105.257 E0.01563 ; skirt
G1 X150.904 Y105.787 E0.02213 ; skirt
G1 X150.661 Y106.150 E0.01563 ; skirt
G1 X150.293 Y106.647 E0.02213 ; skirt
G1 X150.016 Y106.984 E0.01563 ; skirt
G1 X149.601 Y107.442 E0.02213 ; skirt
G1 X149.292 Y107.751 E0.01562 ; skirt
G1 X148.834 Y108.166 E0.02213 ; skirt
G1 X148.497 Y108.443 E0.01563 ; skirt
G1 X148.000 Y108.811 E0.02213 ; skirt
G1 X147.637 Y109.054 E0.01563 ; skirt
G1 X147.107 Y109.372 E0.02213 ; skirt
G1 X146.722 Y109.577 E0.01563 ; skirt
G1 X145.818 Y109.988 E0.03553 ; skirt
G1 X90.840 Y130.530 E2.10117 ; skirt
G1 X89.373 Y131.018 E0.05534 ; skirt
G1 X87.628 Y131.501 E0.06483 ; skirt
G1 X86.287 Y131.802 E0.04920 ; skirt
G1 X84.719 Y132.080 E0.05702 ; skirt
G1 X82.922 Y132.302 E0.06482 ; skirt
G1 X81.551 Y132.403 E0.04921 ; skirt
G1 X79.959 Y132.447 E0.05702 ; skirt
G1 X78.149 Y132.403 E0.06482 ; skirt
G1 X76.561 Y132.280 E0.05702 ; skirt
G1 X75.197 Y132.112 E0.04920 ; skirt
G1 X73.627 Y131.845 E0.05700 ; skirt
G1 X72.072 Y131.501 E0.05702 ; skirt
G1 X70.327 Y131.018 E0.06483 ; skirt
G1 X69.021 Y130.587 E0.04922 ; skirt
G1 X67.534 Y130.019 E0.05701 ; skirt
G1 X65.878 Y129.285 E0.06481 ; skirt
G1 X64.651 Y128.667 E0.04920 ; skirt
G1 X63.262 Y127.887 E0.05702 ; skirt
G1 X61.914 Y127.039 E0.05702 ; skirt
G1 X60.434 Y125.997 E0.06482 ; skirt
G1 X59.350 Y125.151 E0.04921 ; skirt
G1 X58.141 Y124.115 E0.05701 ; skirt
G1 X56.984 Y123.021 E0.05701 ; skirt
G1 X55.735 Y121.709 E0.06483 ; skirt
G1 X54.837 Y120.669 E0.04921 ; skirt
G1 X53.866 Y119.433 E0.05627 ; skirt
G1 X52.932 Y118.117 E0.05776 ; skirt
G1 X51.963 Y116.588 E0.06482 ; skirt
G1 X51.286 Y115.392 E0.04920 ; skirt
G1 X50.565 Y113.972 E0.05702 ; skirt
G1 X49.831 Y112.316 E0.06483 ; skirt
G1 X49.263 Y110.828 E0.05702 ; skirt
G1 X48.832 Y109.523 E0.04920 ; skirt
G1 X48.349 Y107.778 E0.06483 ; skirt
G1 X48.005 Y106.223 E0.05702 ; skirt
G1 X47.770 Y104.869 E0.04920 ; skirt
G1 X47.570 Y103.289 E0.05700 ; skirt
G1 X47.447 Y101.701 E0.05702 ; skirt
G1 X47.403 Y99.891 E0.06482 ; skirt
G1 X47.437 Y98.517 E0.04921 ; skirt
G1 X47.548 Y96.928 E0.05702 ; skirt
G1 X47.770 Y95.131 E0.06482 ; skirt
G1 X48.048 Y93.563 E0.05702 ; skirt
G1 X48.349 Y92.222 E0.04921 ; skirt
G1 X48.768 Y90.685 E0.05702 ; skirt
G1 X49.336 Y88.966 E0.06483 ; skirt
G1 X49.914 Y87.482 E0.05701 ; skirt
G1 X50.471 Y86.226 E0.04920 ; skirt
G1 X51.286 Y84.608 E0.06483 ; skirt
G1 X52.075 Y83.225 E0.05702 ; skirt
G1 X52.811 Y82.064 E0.04920 ; skirt
G1 X53.723 Y80.759 E0.05701 ; skirt
G1 X54.699 Y79.500 E0.05702 ; skirt
G1 X55.882 Y78.129 E0.06483 ; skirt
G1 X56.984 Y76.979 E0.05701 ; skirt
G1 X57.979 Y76.032 E0.04920 ; skirt
G1 X59.243 Y74.937 E0.05986 ; skirt
G1 E-4.00000 F1800.00000 ; retract
G1 X62.246 Y78.549 F6000.000 ; move to first perimeter point
G1 E4.00000 F1800.00000 ; unretract
G1 X63.319 Y77.711 E0.04876 F900.000 ; perimeter
G1 X64.433 Y76.927 E0.04876 ; perimeter
G1 X65.584 Y76.198 E0.04876 ; perimeter
G1 X66.769 Y75.527 E0.04876 ; perimeter
G1 X67.985 Y74.914 E0.04876 ; perimeter
G1 X69.231 Y74.362 E0.04876 ; perimeter
G1 X70.501 Y73.872 E0.04876 ; perimeter
G1 X71.795 Y73.445 E0.04876 ; perimeter
G1 X73.107 Y73.082 E0.04876 ; perimeter
G1 X74.436 Y72.783 E0.04876 ; perimeter
G1 X75.778 Y72.550 E0.04876 ; perimeter
G1 X77.130 Y72.384 E0.04876 ; perimeter
G1 X78.488 Y72.283 E0.04876 ; perimeter
G1 X79.864 Y72.250 E0.04928 ; perimeter
G1 X81.212 Y72.283 E0.04824 F900.000 ; perimeter
G1 X82.570 Y72.384 E0.04876 ; perimeter
G1 X83.922 Y72.550 E0.04876 ; perimeter
G1 X85.264 Y72.783 E0.04876 ; perimeter
G1 X86.593 Y73.082 E0.04876 ; perimeter
G1 X87.905 Y73.445 E0.04876 ; perimeter
G1 X89.199 Y73.872 E0.04876 ; perimeter
G1 X90.469 Y74.362 E0.04876 ; perimeter
G1 X91.715 Y74.914 E0.04876 ; perimeter
G1 X92.931 Y75.527 E0.04876 ; perimeter
G1 X94.116 Y76.198 E0.04876 ; perimeter
G1 X95.267 Y76.927 E0.04876 ; perimeter
G1 X96.381 Y77.711 E0.04876 ; perimeter
G1 X97.454 Y78.549 E0.04876 ; perimeter
G1 X98.486 Y79.439 E0.04876 ; perimeter
G1 X99.472 Y80.378 E0.04876 ; perimeter
G1 X100.411 Y81.364 E0.04876 ; perimeter
G1 X101.301 Y82.396 E0.04877 ; perimeter
G1 X102.139 Y83.469 E0.04876 ; perimeter
G1 X102.923 Y84.583 E0.04876 ; perimeter
G1 X103.652 Y85.734 E0.04876 ; perimeter
G1 X104.323 Y86.919 E0.04876 ; perimeter
G1 X104.936 Y88.135 E0.04876 ; perimeter
G1 X105.488 Y89.381 E0.04876 ; perimeter
G1 X105.978 Y90.651 E0.04876 ; perimeter
G1 X106.405 Y91.945 E0.04876 ; perimeter
G1 X106.768 Y93.257 E0.04876 ; perimeter
G1 X107.067 Y94.586 E0.04876 ; perimeter
G1 X107.300 Y95.928 E0.04876 ; perimeter
G1 X107.466 Y97.280 E0.04876 ; perimeter
G1 X107.567 Y98.638 E0.04876 ; perimeter
G1 X107.600 Y100.000 E0.04876 ; perimeter
G1 X107.567 Y101.362 E0.04876 ; perimeter
G1 X107.466 Y102.720 E0.04876 ; perimeter
G1 X107.300 Y104.072 E0.04876 ; perimeter
G1 X107.067 Y105.414 E0.04876 ; perimeter
G1 X106.768 Y106.743 E0.04876 ; perimeter
G1 X106.405 Y108.055 E0.04876 ; perimeter
G1 X105.978 Y109.349 E0.04876 ; perimeter
G1 X105.488 Y110.619 E0.04876 ; perimeter
G1 X104.936 Y111.865 E0.04876 ; perimeter
G1 X104.292 Y113.142 E0.05121 ; perimeter
G1 X103.652 Y114.266 E0.04632 ; perimeter
G1 X102.923 Y115.417 E0.04876 ; perimeter
G1 X102.139 Y116.531 E0.04876 ; perimeter
G1 X101.301 Y117.604 E0.04876 ; perimeter
G1 X100.411 Y118.636 E0.04877 ; perimeter
G1 X99.472 Y119.622 E0.04876 ; perimeter
G1 X98.486 Y120.561 E0.04876 ; perimeter
G1 X97.454 Y121.451 E0.04876 ; perimeter
G1 X96.381 Y122.289 E0.04876 ; perimeter
G1 X95.267 Y123.073 E0.04876 ; perimeter
G1 X94.116 Y123.802 E0.04876 ; perimeter
G1 X92.931 Y124.473 E0.04876 ; perimeter
G1 X91.715 Y125.086 E0.04876 ; perimeter
G1 X90.469 Y125.638 E0.04876 ; perimeter
G1 X89.199 Y126.128 E0.04876 ; perimeter
G1 X87.905 Y126.555 E0.04876 ; perimeter
G1 X86.593 Y126.918 E0.04876 ; perimeter
G1 X85.264 Y127.217 E0.04876 ; perimeter
G1 X83.922 Y127.450 E0.04876 ; perimeter
G1 X82.570 Y127.616 E0.04876 ; perimeter
G1 X81.212 Y127.717 E0.04876 ; perimeter
G1 X79.850 Y127.750 E0.04876 ; perimeter
G1 X78.488 Y127.717 E0.04876 ; perimeter
G1 X77.130 Y127.616 E0.04876 ; perimeter
G1 X75.778 Y127.450 E0.04876 ; perimeter
G1 X74.451 Y127.219 E0.04824 ; perimeter
G1 X73.107 Y126.918 E0.04928 ; perimeter
G1 X71.795 Y126.555 E0.04876 ; perimeter
G1 X70.501 Y126.128 E0.04876 ; perimeter
G1 X69.231 Y125.638 E0.04876 ; perimeter
G1 X67.985 Y125.086 E0.04876 ; perimeter
G1 X66.769 Y124.473 E0.04876 ; perimeter
G1 X65.584 Y123.802 E0.04876 ; perimeter
G1 X64.433 Y123.073 E0.04876 ; perimeter
G1 X63.319 Y122.289 E0.04876 ; perimeter
G1 X62.246 Y121.451 E0.04876 ; perimeter
G1 X61.214 Y120.561 E0.04877 ; perimeter
G1 X60.238 Y119.632 E0.04824 ; perimeter
G1 X59.289 Y118.636 E0.04928 ; perimeter
G1 X58.399 Y117.604 E0.04876 ; perimeter
G1 X57.561 Y116.531 E0.04876 ; perimeter
G1 X56.777 Y115.417 E0.04876 ; perimeter
G1 X56.048 Y114.266 E0.04876 ; perimeter
G1 X55.377 Y113.081 E0.04876 ; perimeter
G1 X54.764 Y111.865 E0.04876 ; perimeter
G1 X54.212 Y110.619 E0.04876 ; perimeter
G1 X53.727 Y109.362 E0.04824 ; perimeter
G1 X53.295 Y108.055 E0.04928 ; perimeter
G1 X52.932 Y106.743 E0.04876 ; perimeter
G1 X52.633 Y105.414 E0.04876 ; perimeter
G1 X52.400 Y104.072 E0.04876 ; perimeter
G1 X52.235 Y102.734 E0.04824 ; perimeter
G1 X52.133 Y101.362 E0.04928 ; perimeter
G1 X52.100 Y100.000 E0.04876 ; perimeter
G1 X52.133 Y98.638 E0.04876 ; perimeter
G1 X52.234 Y97.280 E0.04876 ; perimeter
G1 X52.400 Y95.928 E0.04876 ; perimeter
G1 X52.633 Y94.586 E0.04876 ; perimeter
G1 X52.932 Y93.257 E0.04876 ; perimeter
G1 X53.295 Y91.945 E0.04876 ; perimeter
G1 X53.722 Y90.651 E0.04876 ; perimeter
G1 X54.212 Y89.381 E0.04876 ; perimeter
G1 X54.764 Y88.135 E0.04876 ; perimeter
G1 X55.377 Y86.919 E0.04876 ; perimeter
G1 X56.048 Y85.734 E0.04876 ; perimeter
G1 X56.777 Y84.583 E0.04876 ; perimeter
G1 X57.561 Y83.469 E0.04876 ; perimeter
G1 X58.399 Y82.396 E0.04876 ; perimeter
G1 X59.289 Y81.364 E0.04876 ; perimeter
G1 X60.228 Y80.378 E0.04876 ; perimeter
G1 X61.214 Y79.439 E0.04876 ; perimeter
G1 X62.189 Y78.598 E0.04608 ; perimeter
G1 X62.712 Y78.729 F6000.000 ; move inwards before travel
G1 X62.482 Y78.938 F6000.000 ; move to first perimeter point
G1 X63.587 Y78.071 E0.05026 F900.000 ; perimeter
G1 X64.682 Y77.300 E0.04797 ; perimeter
G1 X65.814 Y76.583 E0.04798 ; perimeter
G1 X66.980 Y75.922 E0.04797 ; perimeter
G1 X68.177 Y75.320 E0.04797 ; perimeter
G1 X69.402 Y74.777 E0.04797 ; perimeter
G1 X70.652 Y74.295 E0.04797 ; perimeter
G1 X71.925 Y73.874 E0.04797 ; perimeter
