; generated by Slic3r 1.1.7 on 2015-06-28 at 21:59:28

; perimeters extrusion width = 0.50mm
; infill extrusion width = 0.50mm
; solid infill extrusion width = 0.50mm
; top infill extrusion width = 0.50mm

G21 ; set units to millimeters
M107 ; disable fan
M190 S57 ; wait for bed temperature to be reached
M104 S185 ; set temperature

M109 S185 ; wait for temperature to be reached
G90 ; use absolute coordinates
M83 ; use relative distances for extrusion
G1 F1800.000 E-4.00000 ; retract
G1 Z0.240 F6000.000 ; move to next layer (0)
G1 X56.396 Y28.050 F6000.000 ; move to first skirt point
G1 E4.00000 F1800.000 ; compensate retraction
G1 X57.521 Y26.409 E0.07942 F600.000 ; skirt
G1 X59.198 Y25.336 E0.07942 ; skirt
G1 X61.000 Y25.000 E0.07318 ; skirt
G1 X69.000 Y25.000 E0.31930 ; skirt
G1 X70.950 Y25.396 E0.07942 ; skirt
G1 X72.355 Y26.293 E0.06652 F600.000 ; skirt
G1 X137.230 Y85.004 E3.49221 ; skirt
G1 X138.266 Y85.986 E0.05697 ; skirt
G1 X139.229 Y87.040 E0.05698 ; skirt
G1 X139.898 Y87.869 E0.04250 ; skirt
G1 X140.115 Y88.159 E0.01449 ; skirt
G1 X140.919 Y89.339 E0.05698 ; skirt
G1 X141.636 Y90.573 E0.05697 ; skirt
G1 X142.264 Y91.855 E0.05698 ; skirt
G1 X142.671 Y92.839 E0.04250 ; skirt
G1 X142.798 Y93.179 E0.01448 ; skirt
G1 X143.237 Y94.537 E0.05697 ; skirt
G1 X143.578 Y95.924 E0.05698 ; skirt
G1 X143.819 Y97.331 E0.05698 ; skirt
G1 X143.933 Y98.390 E0.04250 ; skirt
G1 X143.959 Y98.751 E0.01448 ; skirt
G1 X143.997 Y100.178 E0.05698 ; skirt
G1 X143.933 Y101.605 E0.05697 ; skirt
G1 X143.819 Y102.663 E0.04249 ; skirt
G1 X143.768 Y103.022 E0.01449 ; skirt
G1 X143.502 Y104.425 E0.05698 ; skirt
G1 X143.137 Y105.805 E0.05697 ; skirt
G1 X142.674 Y107.155 E0.05698 ; skirt
G1 X142.116 Y108.469 E0.05698 ; skirt
G1 X141.465 Y109.740 E0.05697 ; skirt
G1 X140.726 Y110.961 E0.05697 ; skirt
G1 X139.901 Y112.127 E0.05698 ; skirt
G1 X138.996 Y113.230 E0.05698 ; skirt
G1 X138.270 Y114.009 E0.04248 ; skirt
G1 X137.178 Y115.044 E0.06005 ; skirt
G1 X72.355 Y173.707 E3.48939 ; skirt
G1 X70.643 Y174.722 E0.07942 ; skirt
G1 X69.000 Y175.000 E0.06652 ; skirt
G1 X61.000 Y175.000 E0.31930 ; skirt
G1 X59.050 Y174.604 E0.07942 ; skirt
G1 X57.409 Y173.479 E0.07942 ; skirt
G1 X56.336 Y171.802 E0.07942 ; skirt
G1 X56.000 Y170.000 E0.07318 ; skirt
G1 X56.000 Y30.000 E5.58770 ; skirt
G1 X56.381 Y28.123 E0.07643 ; skirt
G1 X56.879 Y28.230 F6000.000 ; move to first skirt point
G1 X56.896 Y28.155 E0.00306 F600.000 ; skirt
G1 X58.013 Y26.635 E0.07531 ; skirt
G1 X59.655 Y25.706 E0.07531 ; skirt
G1 X61.000 Y25.500 E0.05431 ; skirt
G1 X69.000 Y25.500 E0.31930 ; skirt
G1 X70.845 Y25.896 E0.07531 ; skirt
G1 X72.020 Y26.663 E0.05601 F600.000 ; skirt
G1 X136.889 Y85.370 E3.49193 ; skirt
G1 X137.900 Y86.327 E0.05555 ; skirt
G1 X138.840 Y87.353 E0.05555 ; skirt
G1 X139.508 Y88.183 E0.04250 ; skirt
G1 X140.489 Y89.594 E0.06860 ; skirt
G1 X141.189 Y90.797 E0.05555 ; skirt
G1 X141.802 Y92.047 E0.05555 ; skirt
G1 X142.209 Y93.030 E0.04250 ; skirt
G1 X142.753 Y94.661 E0.06860 ; skirt
G1 X143.086 Y96.013 E0.05555 ; skirt
G1 X143.322 Y97.384 E0.05555 ; skirt
G1 X143.435 Y98.443 E0.04250 ; skirt
G1 X143.497 Y100.161 E0.06860 ; skirt
G1 X143.436 Y101.551 E0.05555 ; skirt
G1 X143.322 Y102.610 E0.04249 ; skirt
G1 X143.017 Y104.301 E0.06861 ; skirt
G1 X142.662 Y105.647 E0.05555 ; skirt
G1 X142.212 Y106.964 E0.05555 ; skirt
G1 X141.668 Y108.246 E0.05555 ; skirt
G1 X141.035 Y109.485 E0.05555 ; skirt
G1 X140.315 Y110.676 E0.05555 ; skirt
G1 X139.512 Y111.813 E0.05555 ; skirt
G1 X138.630 Y112.889 E0.05555 ; skirt
G1 X137.904 Y113.668 E0.04248 ; skirt
G1 X136.842 Y114.673 E0.05834 ; skirt
G1 X72.020 Y173.337 E3.48939 ; skirt
G1 X70.386 Y174.281 E0.07531 ; skirt
G1 X69.000 Y174.500 E0.05601 ; skirt
G1 X61.000 Y174.500 E0.31930 ; skirt
G1 X59.155 Y174.104 E0.07531 ; skirt
G1 X57.635 Y172.987 E0.07531 ; skirt
G1 X56.706 Y171.345 E0.07531 ; skirt
G1 X56.500 Y170.000 E0.05431 ; skirt
G1 X56.500 Y30.000 E5.58770 ; skirt
G1 X56.864 Y28.304 E0.06925 ; skirt
G1 F1800.000 E-4.00000 ; retract
G1 X61.250 Y30.250 F6000.000 ; move to first perimeter point
G1 E4.00000 F1800.000 ; compensate retraction
G1 X68.750 Y30.250 E0.29934 F900.000 ; perimeter
G1 X68.750 Y75.006 E1.78629 ; perimeter
G1 X68.789 Y75.893 E0.03546 F900.000 ; perimeter
G1 X68.905 Y76.780 E0.03569 ; perimeter
G1 X69.099 Y77.653 E0.03569 ; perimeter
G1 X69.368 Y78.506 E0.03569 ; perimeter
G1 X69.710 Y79.332 E0.03569 ; perimeter
G1 X70.123 Y80.125 E0.03569 ; perimeter
G1 X70.603 Y80.879 E0.03569 ; perimeter
G1 X71.148 Y81.589 E0.03569 ; perimeter
G1 X71.752 Y82.248 E0.03569 ; perimeter
G1 X72.411 Y82.852 E0.03569 ; perimeter
G1 X73.121 Y83.397 E0.03569 ; perimeter
G1 X73.875 Y83.877 E0.03569 ; perimeter
G1 X74.668 Y84.290 E0.03569 ; perimeter
G1 X75.494 Y84.632 E0.03569 ; perimeter
G1 X76.347 Y84.901 E0.03569 ; perimeter
G1 X77.220 Y85.095 E0.03569 ; perimeter
G1 X78.107 Y85.211 E0.03569 ; perimeter
G1 X78.995 Y85.250 E0.03547 ; perimeter
G1 X123.996 Y85.250 E1.79609 ; perimeter
G1 X125.052 Y85.288 E0.04220 ; perimeter
G1 X126.099 Y85.400 E0.04202 ; perimeter
G1 X127.135 Y85.587 E0.04202 ; perimeter
G1 X128.156 Y85.848 E0.04202 ; perimeter
G1 X129.155 Y86.180 E0.04202 ; perimeter
G1 X130.127 Y86.583 E0.04202 ; perimeter
G1 X131.069 Y87.054 E0.04202 ; perimeter
G1 X131.974 Y87.592 E0.04202 ; perimeter
G1 X132.839 Y88.192 E0.04202 ; perimeter
G1 X133.659 Y88.853 E0.04202 ; perimeter
G1 X134.430 Y89.570 E0.04203 ; perimeter
G1 X135.147 Y90.341 E0.04202 ; perimeter
G1 X135.808 Y91.161 E0.04202 ; perimeter
G1 X136.408 Y92.026 E0.04202 ; perimeter
G1 X136.946 Y92.931 E0.04202 ; perimeter
G1 X137.417 Y93.873 E0.04202 ; perimeter
G1 X137.820 Y94.845 E0.04202 ; perimeter
G1 X138.152 Y95.844 E0.04202 ; perimeter
G1 X138.413 Y96.865 E0.04202 ; perimeter
G1 X138.600 Y97.901 E0.04202 ; perimeter
G1 X138.712 Y98.948 E0.04202 ; perimeter
G1 X138.750 Y100.000 E0.04202 ; perimeter
G1 X138.712 Y101.052 E0.04202 ; perimeter
G1 X138.600 Y102.099 E0.04202 ; perimeter
G1 X138.413 Y103.135 E0.04202 ; perimeter
G1 X138.152 Y104.156 E0.04202 ; perimeter
G1 X137.820 Y105.155 E0.04202 ; perimeter
G1 X137.417 Y106.127 E0.04202 ; perimeter
G1 X136.946 Y107.069 E0.04202 ; perimeter
G1 X136.408 Y107.974 E0.04202 ; perimeter
G1 X135.808 Y108.839 E0.04202 ; perimeter
G1 X135.147 Y109.659 E0.04202 ; perimeter
G1 X134.430 Y110.430 E0.04202 ; perimeter
G1 X133.659 Y111.147 E0.04202 ; perimeter
G1 X132.839 Y111.808 E0.04203 ; perimeter
G1 X131.974 Y112.408 E0.04202 ; perimeter
G1 X131.069 Y112.946 E0.04202 ; perimeter
G1 X130.127 Y113.417 E0.04202 ; perimeter
G1 X129.155 Y113.820 E0.04202 ; perimeter
G1 X128.156 Y114.152 E0.04202 ; perimeter
G1 X127.135 Y114.413 E0.04202 ; perimeter
G1 X126.099 Y114.600 E0.04202 ; perimeter
G1 X125.052 Y114.712 E0.04202 ; perimeter
G1 X123.996 Y114.750 E0.04220 ; perimeter
G1 X78.995 Y114.750 E1.79609 ; perimeter
G1 X78.107 Y114.789 E0.03547 ; perimeter
G1 X77.220 Y114.905 E0.03569 ; perimeter
G1 X76.347 Y115.099 E0.03569 ; perimeter
G1 X75.494 Y115.368 E0.03569 ; perimeter
G1 X74.668 Y115.710 E0.03569 ; perimeter
G1 X73.875 Y116.123 E0.03569 ; perimeter
G1 X73.121 Y116.603 E0.03569 ; perimeter
G1 X72.411 Y117.148 E0.03569 ; perimeter
G1 X71.752 Y117.752 E0.03569 ; perimeter
G1 X71.148 Y118.411 E0.03569 ; perimeter
G1 X70.604 Y119.121 E0.03569 ; perimeter
G1 X70.123 Y119.875 E0.03569 ; perimeter
G1 X69.710 Y120.668 E0.03569 ; perimeter
G1 X69.368 Y121.494 E0.03569 ; perimeter
G1 X69.099 Y122.347 E0.03569 ; perimeter
G1 X68.905 Y123.220 E0.03570 ; perimeter
G1 X68.789 Y124.107 E0.03568 ; perimeter
G1 X68.750 Y124.995 E0.03547 ; perimeter
G1 X68.750 Y169.750 E1.78629 ; perimeter
G1 X61.250 Y169.750 E0.29934 ; perimeter
G1 X61.250 Y30.325 E5.56475 ; perimeter
G1 F1800.000 E-4.00000 ; retract
G1 X68.751 Y75.506 F6000.000 ; move inwards before travel
G1 X68.250 Y52.073 F6000.000 ; move to first perimeter point
G1 E4.00000 F1800.000 ; compensate retraction
G1 X68.250 Y75.017 E0.91575 F900.000 ; perimeter
G1 X68.290 Y75.937 E0.03676 ; perimeter
G1 X68.413 Y76.867 E0.03745 ; perimeter
G1 X68.616 Y77.783 E0.03743 ; perimeter
G1 X68.912 Y78.712 E0.03893 ; perimeter
G1 X69.257 Y79.543 E0.03592 ; perimeter
G1 X69.690 Y80.376 E0.03744 ; perimeter
G1 X70.193 Y81.166 E0.03742 ; perimeter
G1 X70.764 Y81.910 E0.03744 ; perimeter
G1 X71.426 Y82.627 E0.03894 ; perimeter
G1 X72.090 Y83.235 E0.03592 ; perimeter
G1 X72.834 Y83.807 E0.03744 ; perimeter
G1 X73.625 Y84.310 E0.03743 ; perimeter
G1 X74.491 Y84.758 E0.03894 ; perimeter
G1 X75.323 Y85.102 E0.03593 ; perimeter
G1 X76.218 Y85.384 E0.03743 ; perimeter
G1 X77.133 Y85.587 E0.03743 ; perimeter
G1 X78.063 Y85.710 E0.03744 ; perimeter
G1 X78.984 Y85.750 E0.03678 ; perimeter
G1 X123.987 Y85.750 E1.79617 ; perimeter
G1 X125.017 Y85.787 E0.04113 ; perimeter
G1 X126.028 Y85.896 E0.04060 ; perimeter
G1 X127.029 Y86.076 E0.04060 ; perimeter
G1 X128.015 Y86.328 E0.04060 ; perimeter
G1 X128.980 Y86.649 E0.04060 ; perimeter
G1 X129.919 Y87.038 E0.04060 ; perimeter
G1 X130.829 Y87.493 E0.04060 ; perimeter
G1 X131.704 Y88.013 E0.04060 ; perimeter
G1 X132.539 Y88.593 E0.04060 ; perimeter
G1 X133.331 Y89.231 E0.04060 ; perimeter
G1 X134.076 Y89.924 E0.04060 ; perimeter
G1 X134.769 Y90.669 E0.04060 ; perimeter
G1 X135.407 Y91.461 E0.04060 ; perimeter
G1 X135.987 Y92.296 E0.04060 ; perimeter
G1 X136.507 Y93.171 E0.04060 ; perimeter
G1 X136.962 Y94.081 E0.04060 ; perimeter
G1 X137.351 Y95.020 E0.04060 ; perimeter
G1 X137.672 Y95.985 E0.04060 ; perimeter
G1 X137.924 Y96.971 E0.04060 ; perimeter
G1 X138.104 Y97.972 E0.04060 ; perimeter
G1 X138.213 Y98.983 E0.04060 ; perimeter
G1 X138.250 Y100.000 E0.04060 ; perimeter
G1 X138.213 Y101.017 E0.04060 ; perimeter
G1 X138.104 Y102.028 E0.04060 ; perimeter
G1 X137.924 Y103.029 E0.04060 ; perimeter
G1 X137.672 Y104.015 E0.04060 ; perimeter
G1 X137.351 Y104.980 E0.04060 ; perimeter
G1 X136.962 Y105.919 E0.04060 ; perimeter
G1 X136.506 Y106.829 E0.04060 ; perimeter
G1 X135.987 Y107.704 E0.04060 ; perimeter
G1 X135.407 Y108.539 E0.04060 ; perimeter
G1 X134.769 Y109.331 E0.04060 ; perimeter
G1 X134.076 Y110.076 E0.04060 ; perimeter
G1 X133.331 Y110.769 E0.04060 ; perimeter
G1 X132.539 Y111.407 E0.04060 ; perimeter
G1 X131.704 Y111.987 E0.04060 ; perimeter
G1 X130.829 Y112.506 E0.04060 ; perimeter
G1 X129.919 Y112.962 E0.04060 ; perimeter
G1 X128.980 Y113.351 E0.04060 ; perimeter
G1 X128.015 Y113.672 E0.04060 ; perimeter
G1 X127.029 Y113.924 E0.04060 ; perimeter
G1 X126.028 Y114.104 E0.04060 ; perimeter
G1 X125.017 Y114.213 E0.04060 ; perimeter
G1 X123.987 Y114.250 E0.04113 ; perimeter
G1 X78.984 Y114.250 E1.79617 ; perimeter
G1 X78.063 Y114.290 E0.03678 ; perimeter
G1 X77.133 Y114.413 E0.03743 ; perimeter
G1 X76.218 Y114.616 E0.03743 ; perimeter
G1 X75.323 Y114.898 E0.03744 ; perimeter
G1 X74.456 Y115.257 E0.03743 ; perimeter
G1 X73.625 Y115.690 E0.03743 ; perimeter
G1 X72.834 Y116.194 E0.03743 ; perimeter
G1 X72.089 Y116.765 E0.03744 ; perimeter
G1 X71.398 Y117.398 E0.03743 ; perimeter
G1 X70.764 Y118.090 E0.03744 ; perimeter
G1 X70.194 Y118.834 E0.03742 ; perimeter
G1 X69.690 Y119.625 E0.03744 ; perimeter
G1 X69.256 Y120.457 E0.03744 ; perimeter
G1 X68.898 Y121.323 E0.03742 ; perimeter
G1 X68.616 Y122.217 E0.03743 ; perimeter
G1 X68.413 Y123.133 E0.03745 ; perimeter
G1 X68.290 Y124.063 E0.03741 ; perimeter
G1 X68.250 Y124.984 E0.03679 ; perimeter
G1 X68.250 Y169.250 E1.76677 ; perimeter
G1 X61.750 Y169.250 E0.25943 ; perimeter
G1 X61.750 Y30.750 E5.52783 ; perimeter
G1 X68.250 Y30.750 E0.25943 F900.000 ; perimeter
G1 X68.250 Y51.998 E0.84804 ; perimeter
G1 F1800.000 E-4.00000 ; retract
G1 X78.770 Y95.411 F6000.000 ; move to first perimeter point
G1 E4.00000 F1800.000 ; compensate retraction
G1 X79.380 Y95.290 E0.02480 F900.000 ; perimeter
G1 X79.992 Y95.250 E0.02448 ; perimeter
G1 X124.008 Y95.250 E1.75679 F900.000 ; perimeter
G1 X124.620 Y95.290 E0.02447 ; perimeter
G1 X125.230 Y95.411 E0.02480 ; perimeter
G1 X125.818 Y95.611 E0.02480 ; perimeter
G1 X126.375 Y95.886 E0.02480 ; perimeter
G1 X126.872 Y96.218 E0.02387 ; perimeter
G1 X127.359 Y96.641 E0.02573 ; perimeter
G1 X127.769 Y97.108 E0.02480 ; perimeter
G1 X128.114 Y97.625 E0.02480 ; perimeter
G1 X128.389 Y98.182 E0.02480 ; perimeter
G1 X128.581 Y98.748 E0.02387 ; perimeter
G1 X128.710 Y99.380 E0.02573 ; perimeter
G1 X128.751 Y100.000 E0.02480 ; perimeter
G1 X128.710 Y100.620 E0.02480 ; perimeter
G1 X128.589 Y101.230 E0.02480 ; perimeter
G1 X128.389 Y101.818 E0.02480 ; perimeter
G1 X128.114 Y102.375 E0.02480 ; perimeter
G1 X127.769 Y102.892 E0.02480 ; perimeter
G1 X127.359 Y103.359 E0.02480 ; perimeter
G1 X126.910 Y103.753 E0.02387 ; perimeter
G1 X126.375 Y104.114 E0.02573 ; perimeter
G1 X125.818 Y104.389 E0.02480 ; perimeter
G1 X125.252 Y104.581 E0.02387 ; perimeter
G1 X124.620 Y104.710 E0.02573 ; perimeter
G1 X124.008 Y104.750 E0.02447 ; perimeter
G1 X79.992 Y104.750 E1.75679 ; perimeter
G1 X79.380 Y104.710 E0.02447 ; perimeter
G1 X78.770 Y104.589 E0.02480 ; perimeter
G1 X78.182 Y104.389 E0.02480 ; perimeter
G1 X77.625 Y104.114 E0.02480 ; perimeter
G1 X77.128 Y103.782 E0.02387 ; perimeter
G1 X76.641 Y103.359 E0.02573 ; perimeter
G1 X76.231 Y102.892 E0.02480 ; perimeter
G1 X75.886 Y102.375 E0.02480 ; perimeter
G1 X75.611 Y101.818 E0.02480 ; perimeter
G1 X75.411 Y101.230 E0.02480 ; perimeter
G1 X75.290 Y100.620 E0.02480 ; perimeter
G1 X75.249 Y100.000 E0.02480 ; perimeter
G1 X75.290 Y99.380 E0.02480 ; perimeter
G1 X75.411 Y98.771 E0.02480 ; perimeter
G1 X75.611 Y98.182 E0.02481 ; perimeter
G1 X75.876 Y97.646 E0.02387 ; perimeter
G1 X76.231 Y97.108 E0.02573 ; perimeter
G1 X76.641 Y96.641 E0.02480 ; perimeter
G1 X77.108 Y96.231 E0.02480 ; perimeter
G1 X77.625 Y95.886 E0.02480 ; perimeter
G1 X78.182 Y95.611 E0.02480 ; perimeter
G1 X78.699 Y95.435 E0.02181 ; perimeter
G1 X80.213 Y94.802 F6000.000 ; move inwards before travel
G1 X80.213 Y94.750 F6000.000 ; move to first perimeter point
G1 X124.025 Y94.750 E1.74862 F900.000 ; perimeter
G1 X124.629 Y94.790 E0.02419 ; perimeter
G1 X125.359 Y94.927 E0.02965 F900.000 ; perimeter
G1 X126.010 Y95.148 E0.02742 ; perimeter
G1 X126.626 Y95.452 E0.02741 ; perimeter
G1 X127.150 Y95.802 E0.02517 ; perimeter
G1 X127.713 Y96.287 E0.02964 ; perimeter
G1 X128.166 Y96.803 E0.02742 ; perimeter
G1 X128.548 Y97.374 E0.02742 ; perimeter
G1 X128.827 Y97.940 E0.02517 ; perimeter
G1 X129.073 Y98.641 E0.02964 ; perimeter
G1 X129.207 Y99.315 E0.02742 ; perimeter
G1 X129.252 Y100.000 E0.02742 ; perimeter
G1 X129.207 Y100.685 E0.02742 ; perimeter
G1 X129.073 Y101.359 E0.02742 ; perimeter
G1 X128.852 Y102.010 E0.02742 ; perimeter
G1 X128.548 Y102.626 E0.02742 ; perimeter
G1 X128.166 Y103.197 E0.02742 ; perimeter
G1 X127.713 Y103.713 E0.02742 ; perimeter
G1 X127.197 Y104.166 E0.02742 ; perimeter
G1 X126.673 Y104.517 E0.02517 ; perimeter
G1 X126.010 Y104.852 E0.02965 ; perimeter
G1 X125.359 Y105.073 E0.02742 ; perimeter
G1 X124.685 Y105.207 E0.02742 ; perimeter
G1 X124.025 Y105.250 E0.02644 ; perimeter
G1 X79.975 Y105.250 E1.75809 ; perimeter
G1 X79.315 Y105.207 E0.02644 ; perimeter
G1 X78.641 Y105.073 E0.02742 ; perimeter
G1 X77.990 Y104.852 E0.02742 ; perimeter
G1 X77.374 Y104.548 E0.02742 ; perimeter
G1 X76.803 Y104.166 E0.02742 ; perimeter
G1 X76.287 Y103.713 E0.02742 ; perimeter
G1 X75.834 Y103.197 E0.02742 ; perimeter
G1 X75.452 Y102.626 E0.02741 ; perimeter
G1 X75.148 Y102.010 E0.02742 ; perimeter
G1 X74.927 Y101.359 E0.02742 ; perimeter
G1 X74.793 Y100.685 E0.02743 ; perimeter
G1 X74.748 Y100.000 E0.02741 ; perimeter
G1 X74.793 Y99.314 E0.02743 ; perimeter
G1 X74.927 Y98.641 E0.02741 ; perimeter
G1 X75.148 Y97.990 E0.02743 ; perimeter
G1 X75.452 Y97.374 E0.02742 ; perimeter
G1 X75.802 Y96.850 E0.02517 ; perimeter
G1 X76.287 Y96.287 E0.02964 ; perimeter
G1 X76.803 Y95.834 E0.02742 ; perimeter
G1 X77.374 Y95.452 E0.02741 ; perimeter
G1 X77.990 Y95.148 E0.02742 ; perimeter
G1 X78.641 Y94.927 E0.02741 ; perimeter
G1 X79.314 Y94.793 E0.02741 ; perimeter
G1 X80.138 Y94.750 E0.03291 ; perimeter
G1 F1800.000 E-4.00000 ; retract
G1 X74.832 Y102.143 F6000.000 ; move to first fill point
