; generated by Slic3r 1.1.7 on 2015-06-22 at 22:32:20

; perimeters extrusion width = 0.50mm
; infill extrusion width = 0.50mm
; solid infill extrusion width = 0.50mm
; top infill extrusion width = 0.50mm

G21 ; set units to millimeters
M107 ; disable fan
M190 S57 ; wait for bed temperature to be reached
M104 S185 ; set temperature

M109 S185 ; wait for temperature to be reached
G90 ; use absolute coordinates
M83 ; use relative distances for extrusion
G1 F1800.000 E-4.00000 ; retract
G1 Z0.240 F6000.000 ; move to next layer (0)
G1 X35.881 Y77.928 F6000.000 ; move to first skirt point
G1 E4.00000 F1800.000 ; compensate retraction
G1 X36.783 Y77.555 E0.03898 F600.000 ; skirt
G1 X37.162 Y77.440 E0.01580 ; skirt
G1 X38.120 Y77.250 E0.03897 ; skirt
G1 X39.000 Y77.188 E0.03522 ; skirt
G1 X161.490 Y77.212 E4.88885 ; skirt
G1 X162.842 Y77.441 E0.05471 F600.000 ; skirt
G1 X164.122 Y77.930 E0.05472 ; skirt
G1 X165.283 Y78.660 E0.05472 ; skirt
G1 X165.589 Y78.910 E0.01578 ; skirt
G1 X166.279 Y79.601 E0.03899 ; skirt
G1 X166.527 Y79.904 E0.01562 ; skirt
G1 X167.073 Y80.719 E0.03915 ; skirt
G1 X167.632 Y81.971 E0.05471 ; skirt
G1 X167.746 Y82.345 E0.01563 ; skirt
G1 X167.938 Y83.307 E0.03914 ; skirt
G1 X168.000 Y84.188 E0.03522 ; skirt
G1 X167.976 Y97.678 E0.53842 ; skirt
G1 X167.937 Y98.069 E0.01568 ; skirt
G1 X167.746 Y99.029 E0.03909 ; skirt
G1 X167.257 Y100.310 E0.05472 ; skirt
G1 X167.073 Y100.654 E0.01557 ; skirt
G1 X166.528 Y101.471 E0.03920 ; skirt
G1 X165.586 Y102.467 E0.05471 ; skirt
G1 X164.468 Y103.260 E0.05472 ; skirt
G1 X164.119 Y103.447 E0.01579 ; skirt
G1 X163.250 Y103.810 E0.03760 ; skirt
G1 X103.642 Y122.331 E2.49129 ; skirt
G1 X102.827 Y122.523 E0.03343 ; skirt
G1 X102.367 Y122.609 E0.01864 ; skirt
G1 X101.073 Y122.768 E0.05206 ; skirt
G1 X99.769 Y122.807 E0.05206 ; skirt
G1 X98.933 Y122.769 E0.03341 ; skirt
G1 X98.467 Y122.726 E0.01866 ; skirt
G1 X97.638 Y122.610 E0.03343 ; skirt
G1 X97.178 Y122.524 E0.01865 ; skirt
G1 X96.018 Y122.239 E0.04769 ; skirt
G1 X35.878 Y103.445 E2.51481 ; skirt
G1 X34.717 Y102.715 E0.05472 ; skirt
G1 X34.411 Y102.465 E0.01578 ; skirt
G1 X33.721 Y101.774 E0.03899 ; skirt
G1 X32.927 Y100.656 E0.05471 ; skirt
G1 X32.741 Y100.306 E0.01583 ; skirt
G1 X32.368 Y99.404 E0.03894 ; skirt
G1 X32.252 Y99.025 E0.01583 ; skirt
G1 X32.063 Y98.068 E0.03894 ; skirt
G1 X32.000 Y97.188 E0.03522 ; skirt
G1 X32.024 Y83.697 E0.53842 ; skirt
G1 X32.254 Y82.346 E0.05472 ; skirt
G1 X32.743 Y81.065 E0.05471 ; skirt
G1 X33.472 Y79.904 E0.05472 ; skirt
G1 X33.722 Y79.599 E0.01575 ; skirt
G1 X34.414 Y78.908 E0.03901 ; skirt
G1 X35.532 Y78.115 E0.05472 ; skirt
G1 X35.815 Y77.964 E0.01280 ; skirt
G1 X36.050 Y78.405 F6000.000 ; move to first skirt point
G1 X36.928 Y78.034 E0.03805 F600.000 ; skirt
G1 X37.307 Y77.919 E0.01578 ; skirt
G1 X38.169 Y77.748 E0.03508 ; skirt
G1 X39.000 Y77.688 E0.03327 ; skirt
G1 X161.441 Y77.709 E4.88689 ; skirt
G1 X162.696 Y77.920 E0.05080 F600.000 ; skirt
G1 X163.887 Y78.371 E0.05081 ; skirt
G1 X164.966 Y79.046 E0.05081 ; skirt
G1 X165.271 Y79.296 E0.01575 ; skirt
G1 X165.893 Y79.918 E0.03510 ; skirt
G1 X166.141 Y80.221 E0.01561 ; skirt
G1 X166.632 Y80.955 E0.03524 ; skirt
G1 X167.154 Y82.116 E0.05080 ; skirt
G1 X167.268 Y82.490 E0.01562 ; skirt
G1 X167.440 Y83.356 E0.03524 ; skirt
G1 X167.500 Y84.188 E0.03326 ; skirt
G1 X167.478 Y97.629 E0.53646 ; skirt
G1 X167.440 Y98.019 E0.01567 ; skirt
G1 X167.268 Y98.884 E0.03519 ; skirt
G1 X166.816 Y100.074 E0.05081 ; skirt
G1 X166.632 Y100.418 E0.01557 ; skirt
G1 X166.141 Y101.153 E0.03529 ; skirt
G1 X165.269 Y102.080 E0.05080 ; skirt
G1 X164.232 Y102.819 E0.05081 ; skirt
G1 X163.884 Y103.005 E0.01576 ; skirt
G1 X163.102 Y103.332 E0.03385 ; skirt
G1 X103.528 Y121.845 E2.48988 ; skirt
G1 X102.712 Y122.036 E0.03343 ; skirt
G1 X102.298 Y122.114 E0.01680 ; skirt
G1 X101.050 Y122.269 E0.05022 ; skirt
G1 X99.792 Y122.308 E0.05022 ; skirt
G1 X98.956 Y122.269 E0.03341 ; skirt
G1 X98.536 Y122.230 E0.01682 ; skirt
G1 X97.707 Y122.115 E0.03342 ; skirt
G1 X97.293 Y122.038 E0.01681 ; skirt
G1 X96.167 Y121.761 E0.04629 ; skirt
G1 X36.113 Y103.004 E2.51105 ; skirt
G1 X35.034 Y102.329 E0.05081 ; skirt
G1 X34.729 Y102.079 E0.01576 ; skirt
G1 X34.107 Y101.456 E0.03510 ; skirt
G1 X33.368 Y100.420 E0.05080 ; skirt
G1 X33.182 Y100.071 E0.01580 ; skirt
G1 X32.846 Y99.259 E0.03506 ; skirt
G1 X32.731 Y98.880 E0.01580 ; skirt
G1 X32.560 Y98.019 E0.03506 ; skirt
G1 X32.500 Y97.188 E0.03327 ; skirt
G1 X32.522 Y83.746 E0.53646 ; skirt
G1 X32.732 Y82.491 E0.05081 ; skirt
G1 X33.184 Y81.301 E0.05080 ; skirt
G1 X33.859 Y80.222 E0.05081 ; skirt
G1 X34.109 Y79.917 E0.01573 ; skirt
G1 X34.731 Y79.295 E0.03511 ; skirt
G1 X35.768 Y78.556 E0.05081 ; skirt
G1 X35.984 Y78.440 E0.00980 ; skirt
G1 F1800.000 E-4.00000 ; retract
G1 X38.223 Y82.629 F6000.000 ; move to first perimeter point
G1 E4.00000 F1800.000 ; compensate retraction
G1 X38.331 Y82.572 E0.00486 F900.000 ; perimeter
G1 X38.659 Y82.472 E0.01368 ; perimeter
G1 X39.012 Y82.438 E0.01418 ; perimeter
G1 X160.988 Y82.438 E4.86830 ; perimeter
G1 X161.341 Y82.472 E0.01418 ; perimeter
G1 X161.669 Y82.572 E0.01368 F900.000 ; perimeter
G1 X161.972 Y82.733 E0.01368 ; perimeter
G1 X162.237 Y82.951 E0.01368 ; perimeter
G1 X162.454 Y83.216 E0.01368 ; perimeter
G1 X162.616 Y83.518 E0.01368 ; perimeter
G1 X162.715 Y83.846 E0.01368 ; perimeter
G1 X162.750 Y84.200 E0.01418 ; perimeter
G1 X162.750 Y97.175 E0.51788 ; perimeter
G1 X162.715 Y97.529 E0.01418 ; perimeter
G1 X162.616 Y97.857 E0.01368 ; perimeter
G1 X162.454 Y98.159 E0.01368 ; perimeter
G1 X162.237 Y98.424 E0.01368 ; perimeter
G1 X161.972 Y98.642 E0.01368 ; perimeter
G1 X161.669 Y98.803 E0.01368 ; perimeter
G1 X161.341 Y98.903 E0.01368 ; perimeter
G1 X160.988 Y98.938 E0.01418 ; perimeter
G1 X118.620 Y98.938 E1.69100 ; perimeter
G1 X117.775 Y98.974 E0.03373 ; perimeter
G1 X116.932 Y99.085 E0.03395 ; perimeter
G1 X116.101 Y99.269 E0.03395 ; perimeter
G1 X115.290 Y99.525 E0.03395 ; perimeter
G1 X114.504 Y99.851 E0.03395 ; perimeter
G1 X113.750 Y100.244 E0.03395 ; perimeter
G1 X113.032 Y100.701 E0.03395 ; perimeter
G1 X112.358 Y101.218 E0.03395 ; perimeter
G1 X111.731 Y101.793 E0.03395 ; perimeter
G1 X111.156 Y102.420 E0.03395 ; perimeter
G1 X110.638 Y103.095 E0.03395 ; perimeter
G1 X110.181 Y103.812 E0.03395 ; perimeter
G1 X109.788 Y104.567 E0.03395 ; perimeter
G1 X109.463 Y105.353 E0.03395 ; perimeter
G1 X109.207 Y106.164 E0.03395 ; perimeter
G1 X109.023 Y106.994 E0.03395 ; perimeter
G1 X108.912 Y107.838 E0.03395 ; perimeter
G1 X108.837 Y109.506 E0.06667 ; perimeter
G1 X108.724 Y110.318 E0.03272 ; perimeter
G1 X108.536 Y111.116 E0.03272 ; perimeter
G1 X108.275 Y111.893 E0.03272 ; perimeter
G1 X107.944 Y112.643 E0.03272 ; perimeter
G1 X107.545 Y113.359 E0.03272 ; perimeter
G1 X107.082 Y114.036 E0.03272 ; perimeter
G1 X106.558 Y114.666 E0.03272 ; perimeter
G1 X105.979 Y115.246 E0.03272 ; perimeter
G1 X105.348 Y115.770 E0.03272 ; perimeter
G1 X104.672 Y116.233 E0.03272 ; perimeter
G1 X103.956 Y116.632 E0.03272 ; perimeter
G1 X103.206 Y116.963 E0.03272 ; perimeter
G1 X102.429 Y117.223 E0.03272 ; perimeter
G1 X101.631 Y117.411 E0.03272 ; perimeter
G1 X100.819 Y117.524 E0.03272 ; perimeter
G1 X100.000 Y117.562 E0.03272 ; perimeter
G1 X99.181 Y117.524 E0.03272 ; perimeter
G1 X98.369 Y117.411 E0.03272 ; perimeter
G1 X97.571 Y117.223 E0.03272 ; perimeter
G1 X96.794 Y116.963 E0.03272 ; perimeter
G1 X96.044 Y116.632 E0.03272 ; perimeter
G1 X95.328 Y116.233 E0.03272 ; perimeter
G1 X94.652 Y115.770 E0.03272 ; perimeter
G1 X94.021 Y115.246 E0.03272 ; perimeter
G1 X93.441 Y114.666 E0.03272 ; perimeter
G1 X92.918 Y114.036 E0.03272 ; perimeter
G1 X92.455 Y113.359 E0.03272 ; perimeter
G1 X92.056 Y112.643 E0.03272 ; perimeter
G1 X91.725 Y111.893 E0.03272 ; perimeter
G1 X91.464 Y111.116 E0.03272 ; perimeter
G1 X91.276 Y110.318 E0.03272 ; perimeter
G1 X91.163 Y109.506 E0.03272 ; perimeter
G1 X91.088 Y107.838 E0.06667 ; perimeter
G1 X90.977 Y106.994 E0.03395 ; perimeter
G1 X90.793 Y106.164 E0.03395 ; perimeter
G1 X90.537 Y105.353 E0.03395 ; perimeter
G1 X90.212 Y104.567 E0.03395 ; perimeter
G1 X89.819 Y103.812 E0.03395 ; perimeter
G1 X89.362 Y103.095 E0.03395 ; perimeter
G1 X88.844 Y102.420 E0.03395 ; perimeter
G1 X88.269 Y101.793 E0.03395 ; perimeter
G1 X87.642 Y101.218 E0.03395 ; perimeter
G1 X86.968 Y100.701 E0.03395 ; perimeter
G1 X86.250 Y100.244 E0.03395 ; perimeter
G1 X85.496 Y99.851 E0.03395 ; perimeter
G1 X84.710 Y99.525 E0.03395 ; perimeter
G1 X83.899 Y99.270 E0.03395 ; perimeter
G1 X83.051 Y99.083 E0.03463 ; perimeter
G1 X82.225 Y98.974 E0.03327 ; perimeter
G1 X81.380 Y98.938 E0.03373 ; perimeter
G1 X39.012 Y98.938 E1.69101 ; perimeter
G1 X38.659 Y98.903 E0.01418 ; perimeter
G1 X38.331 Y98.803 E0.01368 ; perimeter
G1 X38.028 Y98.642 E0.01368 ; perimeter
G1 X37.763 Y98.424 E0.01368 ; perimeter
G1 X37.546 Y98.159 E0.01368 ; perimeter
G1 X37.384 Y97.857 E0.01368 ; perimeter
G1 X37.285 Y97.529 E0.01368 ; perimeter
G1 X37.250 Y97.175 E0.01418 ; perimeter
G1 X37.250 Y84.200 E0.51788 ; perimeter
G1 X37.285 Y83.846 E0.01418 ; perimeter
G1 X37.384 Y83.518 E0.01368 ; perimeter
G1 X37.546 Y83.216 E0.01368 ; perimeter
G1 X37.763 Y82.951 E0.01368 ; perimeter
G1 X38.028 Y82.733 E0.01368 ; perimeter
G1 X38.157 Y82.665 E0.00583 ; perimeter
G1 F1800.000 E-4.00000 ; retract
G1 X161.452 Y82.797 F6000.000 ; move inwards before travel
G1 X98.461 Y116.919 F6000.000 ; move to first perimeter point
G1 E4.00000 F1800.000 ; compensate retraction
G1 X97.708 Y116.742 E0.03087 F900.000 ; perimeter
G1 X96.975 Y116.496 E0.03087 ; perimeter
G1 X96.267 Y116.184 E0.03087 ; perimeter
G1 X95.592 Y115.807 E0.03087 ; perimeter
G1 X94.953 Y115.370 E0.03087 ; perimeter
G1 X94.358 Y114.876 E0.03087 ; perimeter
G1 X93.811 Y114.329 E0.03087 ; perimeter
G1 X93.317 Y113.734 E0.03087 ; perimeter
G1 X92.880 Y113.096 E0.03087 ; perimeter
G1 X92.504 Y112.420 E0.03087 ; perimeter
G1 X92.191 Y111.713 E0.03087 ; perimeter
G1 X91.945 Y110.979 E0.03087 ; perimeter
G1 X91.768 Y110.226 E0.03087 ; perimeter
G1 X91.662 Y109.460 E0.03087 ; perimeter
G1 X91.587 Y107.794 E0.06657 ; perimeter
G1 X91.470 Y106.908 E0.03568 ; perimeter
G1 X91.276 Y106.035 E0.03569 ; perimeter
G1 X91.007 Y105.181 E0.03570 ; perimeter
G1 X90.665 Y104.356 E0.03568 ; perimeter
G1 X90.252 Y103.562 E0.03570 ; perimeter
G1 X89.772 Y102.808 E0.03569 ; perimeter
G1 X89.227 Y102.098 E0.03570 ; perimeter
G1 X88.623 Y101.439 E0.03569 ; perimeter
G1 X87.933 Y100.811 E0.03724 ; perimeter
G1 X87.255 Y100.291 E0.03414 ; perimeter
G1 X86.500 Y99.810 E0.03570 ; perimeter
G1 X85.707 Y99.397 E0.03569 ; perimeter
G1 X84.881 Y99.055 E0.03569 ; perimeter
G1 X84.028 Y98.786 E0.03569 ; perimeter
G1 X83.155 Y98.593 E0.03569 ; perimeter
G1 X82.268 Y98.476 E0.03570 ; perimeter
G1 X81.391 Y98.438 E0.03503 ; perimeter
G1 X39.037 Y98.438 E1.69046 ; perimeter
G1 X38.757 Y98.410 E0.01123 ; perimeter
G1 X38.523 Y98.339 E0.00975 ; perimeter
G1 X38.308 Y98.224 E0.00975 ; perimeter
G1 X38.119 Y98.069 E0.00975 ; perimeter
G1 X37.964 Y97.880 E0.00975 ; perimeter
G1 X37.849 Y97.664 E0.00975 ; perimeter
G1 X37.778 Y97.431 E0.00975 ; perimeter
G1 X37.750 Y97.151 E0.01123 ; perimeter
G1 X37.750 Y84.224 E0.51592 ; perimeter
G1 X37.778 Y83.944 E0.01123 ; perimeter
G1 X37.849 Y83.711 E0.00975 ; perimeter
G1 X37.964 Y83.495 E0.00975 ; perimeter
G1 X38.119 Y83.306 E0.00975 ; perimeter
G1 X38.308 Y83.151 E0.00975 ; perimeter
G1 X38.523 Y83.036 E0.00975 ; perimeter
G1 X38.757 Y82.965 E0.00975 ; perimeter
G1 X39.037 Y82.938 E0.01123 ; perimeter
G1 X160.963 Y82.938 E4.86634 F900.000 ; perimeter
G1 X161.243 Y82.965 E0.01123 ; perimeter
G1 X161.477 Y83.036 E0.00975 ; perimeter
G1 X161.692 Y83.151 E0.00975 ; perimeter
G1 X161.881 Y83.306 E0.00975 ; perimeter
G1 X162.036 Y83.495 E0.00975 ; perimeter
G1 X162.151 Y83.711 E0.00975 ; perimeter
G1 X162.222 Y83.944 E0.00975 ; perimeter
G1 X162.250 Y84.224 E0.01123 ; perimeter
G1 X162.250 Y97.151 E0.51592 ; perimeter
G1 X162.222 Y97.431 E0.01123 ; perimeter
G1 X162.151 Y97.664 E0.00975 ; perimeter
G1 X162.036 Y97.880 E0.00975 ; perimeter
G1 X161.881 Y98.069 E0.00975 ; perimeter
G1 X161.692 Y98.224 E0.00975 ; perimeter
G1 X161.477 Y98.339 E0.00975 ; perimeter
G1 X161.243 Y98.410 E0.00975 ; perimeter
G1 X160.963 Y98.438 E0.01123 ; perimeter
G1 X118.609 Y98.438 E1.69046 ; perimeter
G1 X117.732 Y98.476 E0.03504 ; perimeter
G1 X116.845 Y98.593 E0.03570 ; perimeter
G1 X115.972 Y98.786 E0.03568 ; perimeter
G1 X115.119 Y99.055 E0.03570 ; perimeter
G1 X114.293 Y99.397 E0.03568 ; perimeter
G1 X113.500 Y99.810 E0.03570 ; perimeter
G1 X112.745 Y100.291 E0.03570 ; perimeter
G1 X112.036 Y100.835 E0.03569 ; perimeter
G1 X111.377 Y101.439 E0.03569 ; perimeter
G1 X110.772 Y102.098 E0.03569 ; perimeter
G1 X110.228 Y102.808 E0.03569 ; perimeter
G1 X109.748 Y103.562 E0.03570 ; perimeter
G1 X109.335 Y104.355 E0.03569 ; perimeter
G1 X108.992 Y105.182 E0.03570 ; perimeter
G1 X108.724 Y106.035 E0.03569 ; perimeter
G1 X108.530 Y106.908 E0.03569 ; perimeter
G1 X108.413 Y107.794 E0.03569 ; perimeter
G1 X108.338 Y109.460 E0.06656 ; perimeter
G1 X108.232 Y110.226 E0.03087 ; perimeter
G1 X108.055 Y110.979 E0.03087 ; perimeter
G1 X107.809 Y111.713 E0.03087 ; perimeter
G1 X107.496 Y112.420 E0.03087 ; perimeter
G1 X107.120 Y113.096 E0.03087 ; perimeter
G1 X106.683 Y113.734 E0.03087 ; perimeter
G1 X106.189 Y114.329 E0.03087 ; perimeter
G1 X105.642 Y114.876 E0.03087 ; perimeter
G1 X105.047 Y115.370 E0.03087 ; perimeter
G1 X104.408 Y115.807 E0.03087 ; perimeter
G1 X103.733 Y116.184 E0.03087 ; perimeter
G1 X103.025 Y116.496 E0.03087 ; perimeter
G1 X102.292 Y116.742 E0.03087 ; perimeter
G1 X101.539 Y116.919 E0.03087 ; perimeter
G1 X100.773 Y117.026 E0.03087 ; perimeter
G1 X100.000 Y117.062 E0.03087 ; perimeter
G1 X99.227 Y117.026 E0.03087 ; perimeter
G1 X98.536 Y116.929 E0.02788 ; perimeter
G1 F1800.000 E-4.00000 ; retract
G1 X99.110 Y112.972 F6000.000 ; move to first perimeter point
G1 E4.00000 F1800.000 ; compensate retraction
G1 X98.535 Y112.810 E0.02384 F900.000 ; perimeter
G1 X97.987 Y112.573 E0.02383 ; perimeter
G1 X97.477 Y112.262 E0.02384 ; perimeter
G1 X97.013 Y111.885 E0.02384 ; perimeter
G1 X96.606 Y111.449 E0.02383 ; perimeter
G1 X96.261 Y110.961 E0.02384 ; perimeter
G1 X95.987 Y110.431 E0.02383 ; perimeter
G1 X95.787 Y109.868 E0.02384 ; perimeter
G1 X95.665 Y109.283 E0.02384 ; perimeter
G1 X95.624 Y108.687 E0.02383 ; perimeter
G1 X95.665 Y108.092 E0.02383 ; perimeter
G1 X95.787 Y107.507 E0.02384 ; perimeter
G1 X95.987 Y106.944 E0.02384 ; perimeter
G1 X96.261 Y106.414 E0.02384 ; perimeter
G1 X96.606 Y105.926 E0.02383 ; perimeter
G1 X97.013 Y105.490 E0.02384 ; perimeter
G1 X97.477 Y105.113 E0.02383 ; perimeter
G1 X97.987 Y104.802 E0.02384 ; perimeter
G1 X98.535 Y104.565 E0.02384 ; perimeter
G1 X99.110 Y104.403 E0.02383 ; perimeter
G1 X99.701 Y104.322 E0.02384 ; perimeter
G1 X100.299 Y104.322 E0.02384 F900.000 ; perimeter
G1 X100.890 Y104.403 E0.02384 ; perimeter
G1 X101.465 Y104.565 E0.02384 ; perimeter
G1 X102.013 Y104.802 E0.02383 ; perimeter
G1 X102.523 Y105.113 E0.02384 ; perimeter
G1 X102.987 Y105.490 E0.02384 ; perimeter
G1 X103.394 Y105.926 E0.02383 ; perimeter
G1 X103.739 Y106.414 E0.02384 ; perimeter
G1 X104.013 Y106.944 E0.02383 ; perimeter
G1 X104.213 Y107.507 E0.02384 ; perimeter
G1 X104.335 Y108.092 E0.02384 ; perimeter
G1 X104.376 Y108.688 E0.02384 ; perimeter
G1 X104.335 Y109.283 E0.02383 ; perimeter
G1 X104.218 Y109.845 E0.02288 ; perimeter
G1 X104.013 Y110.431 E0.02479 ; perimeter
G1 X103.739 Y110.961 E0.02384 ; perimeter
G1 X103.394 Y111.449 E0.02383 ; perimeter
G1 X102.987 Y111.885 E0.02384 ; perimeter
G1 X102.523 Y112.262 E0.02383 ; perimeter
G1 X102.034 Y112.560 E0.02288 ; perimeter
G1 X101.465 Y112.810 E0.02479 ; perimeter
G1 X100.890 Y112.972 E0.02383 ; perimeter
G1 X100.299 Y113.053 E0.02384 ; perimeter
G1 X99.701 Y113.053 E0.02384 ; perimeter
G1 X99.184 Y112.982 E0.02084 ; perimeter
G1 F1800.000 E-4.00000 ; retract
G1 X99.701 Y103.822 F6000.000 ; move inwards before travel
G1 E4.00000 F1800.000 ; compensate retraction
