; generated by Slic3r 1.1.7 on 2015-06-28 at 15:47:23

; perimeters extrusion width = 0.50mm
; infill extrusion width = 0.50mm
; solid infill extrusion width = 0.50mm
; top infill extrusion width = 0.50mm

G21 ; set units to millimeters
M107 ; disable fan
M190 S57 ; wait for bed temperature to be reached
M104 S185 ; set temperature

M109 S185 ; wait for temperature to be reached
G90 ; use absolute coordinates
M83 ; use relative distances for extrusion
G1 F1800.000 E-4.00000 ; retract
G1 Z0.240 F6000.000 ; move to next layer (0)
G1 X56.896 Y33.050 F6000.000 ; move to first skirt point
G1 E4.00000 F1800.000 ; compensate retraction
G1 X58.021 Y31.409 E0.07942 F600.000 ; skirt
G1 X59.698 Y30.336 E0.07942 ; skirt
G1 X61.500 Y30.000 E0.07318 ; skirt
G1 X68.500 Y30.000 E0.27939 ; skirt
G1 X70.450 Y30.396 E0.07942 ; skirt
G1 X71.767 Y31.215 E0.06190 F600.000 ; skirt
G1 X138.306 Y88.653 E3.50831 ; skirt
G1 X139.257 Y89.551 E0.05222 ; skirt
G1 X139.840 Y90.187 E0.03443 ; skirt
G1 X140.127 Y90.528 E0.01780 ; skirt
G1 X140.908 Y91.578 E0.05222 ; skirt
G1 X141.372 Y92.305 E0.03441 ; skirt
G1 X141.595 Y92.691 E0.01782 ; skirt
G1 X141.993 Y93.456 E0.03440 ; skirt
G1 X142.182 Y93.860 E0.01783 ; skirt
G1 X142.512 Y94.657 E0.03441 ; skirt
G1 X142.665 Y95.076 E0.01782 ; skirt
G1 X143.041 Y96.330 E0.05222 ; skirt
G1 X143.305 Y97.611 E0.05222 ; skirt
G1 X143.418 Y98.466 E0.03441 ; skirt
G1 X143.457 Y98.910 E0.01781 ; skirt
G1 X143.495 Y99.772 E0.03441 ; skirt
G1 X143.495 Y100.218 E0.01781 ; skirt
G1 X143.419 Y101.524 E0.05222 ; skirt
G1 X143.307 Y102.379 E0.03441 ; skirt
G1 X143.230 Y102.819 E0.01782 ; skirt
G1 X143.043 Y103.660 E0.03441 ; skirt
G1 X142.928 Y104.092 E0.01782 ; skirt
G1 X142.516 Y105.334 E0.05222 ; skirt
G1 X142.186 Y106.130 E0.03441 ; skirt
G1 X141.998 Y106.535 E0.01782 ; skirt
G1 X141.377 Y107.686 E0.05221 ; skirt
G1 X140.658 Y108.780 E0.05222 ; skirt
G1 X139.847 Y109.806 E0.05222 ; skirt
G1 X139.264 Y110.441 E0.03441 ; skirt
G1 X138.949 Y110.757 E0.01782 ; skirt
G1 X138.195 Y111.445 E0.04074 ; skirt
G1 X71.767 Y168.785 E3.50239 ; skirt
G1 X70.032 Y169.759 E0.07942 ; skirt
G1 X68.500 Y170.000 E0.06190 ; skirt
G1 X61.500 Y170.000 E0.27939 ; skirt
G1 X59.550 Y169.604 E0.07942 ; skirt
G1 X57.909 Y168.479 E0.07942 ; skirt
G1 X56.836 Y166.802 E0.07942 ; skirt
G1 X56.500 Y165.000 E0.07318 ; skirt
G1 X56.500 Y35.000 E5.18858 ; skirt
G1 X56.881 Y33.123 E0.07643 ; skirt
G1 X57.379 Y33.230 F6000.000 ; move to first skirt point
G1 X57.396 Y33.155 E0.00306 F600.000 ; skirt
G1 X58.513 Y31.635 E0.07531 ; skirt
G1 X60.155 Y30.706 E0.07531 ; skirt
G1 X61.500 Y30.500 E0.05431 ; skirt
G1 X68.500 Y30.500 E0.27939 ; skirt
G1 X70.345 Y30.896 E0.07531 ; skirt
G1 X71.440 Y31.594 E0.05185 F600.000 ; skirt
G1 X137.968 Y89.022 E3.50772 ; skirt
G1 X138.889 Y89.889 E0.05048 ; skirt
G1 X139.731 Y90.833 E0.05048 ; skirt
G1 X140.487 Y91.846 E0.05048 ; skirt
G1 X141.152 Y92.922 E0.05047 ; skirt
G1 X141.721 Y94.052 E0.05048 ; skirt
G1 X142.050 Y94.848 E0.03441 ; skirt
G1 X142.189 Y95.227 E0.01608 ; skirt
G1 X142.553 Y96.438 E0.05048 ; skirt
G1 X142.810 Y97.676 E0.05048 ; skirt
G1 X142.958 Y98.932 E0.05048 ; skirt
G1 X142.996 Y100.196 E0.05048 ; skirt
G1 X142.923 Y101.459 E0.05048 ; skirt
G1 X142.741 Y102.710 E0.05048 ; skirt
G1 X142.451 Y103.941 E0.05048 ; skirt
G1 X142.054 Y105.142 E0.05048 ; skirt
G1 X141.724 Y105.939 E0.03441 ; skirt
G1 X141.555 Y106.304 E0.01608 ; skirt
G1 X140.956 Y107.418 E0.05047 ; skirt
G1 X140.262 Y108.475 E0.05048 ; skirt
G1 X139.478 Y109.468 E0.05048 ; skirt
G1 X138.611 Y110.389 E0.05048 ; skirt
G1 X137.868 Y111.067 E0.04015 ; skirt
G1 X71.440 Y168.406 E3.50239 ; skirt
G1 X69.785 Y169.312 E0.07531 ; skirt
G1 X68.500 Y169.500 E0.05185 ; skirt
G1 X61.500 Y169.500 E0.27939 ; skirt
G1 X59.655 Y169.104 E0.07531 ; skirt
G1 X58.135 Y167.987 E0.07531 ; skirt
G1 X57.206 Y166.345 E0.07531 ; skirt
G1 X57.000 Y165.000 E0.05431 ; skirt
G1 X57.000 Y35.000 E5.18858 ; skirt
G1 X57.364 Y33.304 E0.06925 ; skirt
G1 F1800.000 E-4.00000 ; retract
G1 X61.750 Y35.250 F6000.000 ; move to first perimeter point
G1 E4.00000 F1800.000 ; compensate retraction
G1 X68.250 Y35.250 E0.25943 F900.000 ; perimeter
G1 X68.250 Y80.005 E1.78629 ; perimeter
G1 X68.289 Y80.893 E0.03547 F900.000 ; perimeter
G1 X68.405 Y81.780 E0.03569 ; perimeter
G1 X68.599 Y82.653 E0.03569 ; perimeter
G1 X68.868 Y83.506 E0.03569 ; perimeter
G1 X69.210 Y84.332 E0.03569 ; perimeter
G1 X69.623 Y85.125 E0.03569 ; perimeter
G1 X70.104 Y85.879 E0.03569 ; perimeter
G1 X70.648 Y86.589 E0.03569 ; perimeter
G1 X71.252 Y87.248 E0.03569 ; perimeter
G1 X71.911 Y87.852 E0.03569 ; perimeter
G1 X72.621 Y88.397 E0.03569 ; perimeter
G1 X73.375 Y88.877 E0.03569 ; perimeter
G1 X74.168 Y89.290 E0.03569 ; perimeter
G1 X74.994 Y89.632 E0.03569 ; perimeter
G1 X75.847 Y89.901 E0.03569 ; perimeter
G1 X76.741 Y90.097 E0.03654 ; perimeter
G1 X77.607 Y90.211 E0.03484 ; perimeter
G1 X78.495 Y90.250 E0.03547 ; perimeter
G1 X128.495 Y90.250 E1.99561 ; perimeter
G1 X129.350 Y90.287 E0.03417 ; perimeter
G1 X130.193 Y90.398 E0.03395 ; perimeter
G1 X131.023 Y90.582 E0.03395 ; perimeter
G1 X131.835 Y90.838 E0.03395 ; perimeter
G1 X132.620 Y91.164 E0.03395 ; perimeter
G1 X133.375 Y91.556 E0.03395 ; perimeter
G1 X134.092 Y92.013 E0.03395 ; perimeter
G1 X134.767 Y92.531 E0.03395 ; perimeter
G1 X135.394 Y93.106 E0.03395 ; perimeter
G1 X135.969 Y93.733 E0.03394 ; perimeter
G1 X136.487 Y94.408 E0.03395 ; perimeter
G1 X136.944 Y95.125 E0.03395 ; perimeter
G1 X137.336 Y95.880 E0.03395 ; perimeter
G1 X137.662 Y96.665 E0.03395 ; perimeter
G1 X137.918 Y97.477 E0.03395 ; perimeter
G1 X138.102 Y98.307 E0.03395 ; perimeter
G1 X138.213 Y99.150 E0.03395 ; perimeter
G1 X138.250 Y100.000 E0.03395 ; perimeter
G1 X138.213 Y100.850 E0.03395 ; perimeter
G1 X138.102 Y101.693 E0.03395 ; perimeter
G1 X137.918 Y102.523 E0.03395 ; perimeter
G1 X137.662 Y103.335 E0.03395 ; perimeter
G1 X137.336 Y104.120 E0.03395 ; perimeter
G1 X136.944 Y104.875 E0.03395 ; perimeter
G1 X136.487 Y105.592 E0.03395 ; perimeter
G1 X135.969 Y106.267 E0.03395 ; perimeter
G1 X135.394 Y106.894 E0.03395 ; perimeter
G1 X134.767 Y107.469 E0.03395 ; perimeter
G1 X134.092 Y107.987 E0.03395 ; perimeter
G1 X133.375 Y108.444 E0.03395 ; perimeter
G1 X132.620 Y108.836 E0.03395 ; perimeter
G1 X131.835 Y109.162 E0.03395 ; perimeter
G1 X131.023 Y109.418 E0.03395 ; perimeter
G1 X130.193 Y109.602 E0.03395 ; perimeter
G1 X129.350 Y109.713 E0.03395 ; perimeter
G1 X128.495 Y109.750 E0.03417 ; perimeter
G1 X78.495 Y109.750 E1.99561 ; perimeter
G1 X77.607 Y109.789 E0.03547 ; perimeter
G1 X76.720 Y109.905 E0.03569 ; perimeter
G1 X75.847 Y110.099 E0.03569 ; perimeter
G1 X74.974 Y110.376 E0.03654 ; perimeter
G1 X74.168 Y110.710 E0.03484 ; perimeter
G1 X73.375 Y111.123 E0.03569 ; perimeter
G1 X72.621 Y111.603 E0.03569 ; perimeter
G1 X71.911 Y112.148 E0.03569 ; perimeter
G1 X71.252 Y112.752 E0.03569 ; perimeter
G1 X70.648 Y113.411 E0.03569 ; perimeter
G1 X70.103 Y114.121 E0.03569 ; perimeter
G1 X69.623 Y114.875 E0.03569 ; perimeter
G1 X69.210 Y115.668 E0.03569 ; perimeter
G1 X68.868 Y116.494 E0.03569 ; perimeter
G1 X68.599 Y117.347 E0.03569 ; perimeter
G1 X68.405 Y118.220 E0.03569 ; perimeter
G1 X68.289 Y119.107 E0.03569 ; perimeter
G1 X68.250 Y119.995 E0.03547 ; perimeter
G1 X68.250 Y164.750 E1.78629 ; perimeter
G1 X61.750 Y164.750 E0.25943 ; perimeter
G1 X61.750 Y35.325 E5.16563 ; perimeter
G1 F1800.000 E-4.00000 ; retract
G1 X68.252 Y80.505 F6000.000 ; move inwards before travel
G1 X67.750 Y52.792 F6000.000 ; move to first perimeter point
G1 E4.00000 F1800.000 ; compensate retraction
G1 X67.750 Y80.016 E1.08657 F900.000 ; perimeter
G1 X67.790 Y80.937 E0.03678 ; perimeter
G1 X67.913 Y81.867 E0.03743 ; perimeter
G1 X68.116 Y82.782 E0.03743 ; perimeter
G1 X68.398 Y83.677 E0.03744 ; perimeter
G1 X68.757 Y84.543 E0.03743 ; perimeter
G1 X69.190 Y85.375 E0.03743 ; perimeter
G1 X69.694 Y86.166 E0.03744 ; perimeter
G1 X70.294 Y86.942 E0.03914 ; perimeter
G1 X70.898 Y87.602 E0.03571 ; perimeter
G1 X71.590 Y88.236 E0.03743 ; perimeter
G1 X72.334 Y88.807 E0.03744 ; perimeter
G1 X73.125 Y89.310 E0.03743 ; perimeter
G1 X73.957 Y89.743 E0.03743 ; perimeter
G1 X74.823 Y90.102 E0.03743 ; perimeter
G1 X75.718 Y90.384 E0.03744 ; perimeter
G1 X76.633 Y90.587 E0.03742 ; perimeter
G1 X77.563 Y90.710 E0.03744 ; perimeter
G1 X78.484 Y90.750 E0.03678 ; perimeter
G1 X128.484 Y90.750 E1.99561 ; perimeter
G1 X129.306 Y90.786 E0.03286 ; perimeter
G1 X130.106 Y90.891 E0.03220 ; perimeter
G1 X130.894 Y91.066 E0.03221 ; perimeter
G1 X131.663 Y91.309 E0.03220 ; perimeter
G1 X132.409 Y91.617 E0.03220 ; perimeter
G1 X133.125 Y91.990 E0.03221 ; perimeter
G1 X133.805 Y92.423 E0.03220 ; perimeter
G1 X134.445 Y92.915 E0.03220 ; perimeter
G1 X135.040 Y93.460 E0.03220 ; perimeter
G1 X135.585 Y94.055 E0.03220 ; perimeter
G1 X136.077 Y94.695 E0.03221 ; perimeter
G1 X136.510 Y95.375 E0.03220 ; perimeter
G1 X136.883 Y96.091 E0.03221 ; perimeter
G1 X137.191 Y96.837 E0.03220 ; perimeter
G1 X137.434 Y97.606 E0.03221 ; perimeter
G1 X137.609 Y98.394 E0.03220 ; perimeter
G1 X137.714 Y99.194 E0.03220 ; perimeter
G1 X137.749 Y100.000 E0.03221 ; perimeter
G1 X137.714 Y100.806 E0.03221 ; perimeter
G1 X137.609 Y101.606 E0.03220 ; perimeter
G1 X137.434 Y102.394 E0.03220 ; perimeter
G1 X137.191 Y103.163 E0.03221 ; perimeter
G1 X136.883 Y103.909 E0.03220 ; perimeter
G1 X136.510 Y104.625 E0.03221 ; perimeter
G1 X136.077 Y105.305 E0.03221 ; perimeter
G1 X135.585 Y105.945 E0.03221 ; perimeter
G1 X135.040 Y106.540 E0.03220 ; perimeter
G1 X134.445 Y107.085 E0.03220 ; perimeter
G1 X133.805 Y107.577 E0.03220 ; perimeter
G1 X133.125 Y108.010 E0.03220 ; perimeter
G1 X132.409 Y108.383 E0.03221 ; perimeter
G1 X131.663 Y108.691 E0.03220 ; perimeter
G1 X130.894 Y108.934 E0.03220 ; perimeter
G1 X130.106 Y109.109 E0.03221 ; perimeter
G1 X129.306 Y109.214 E0.03220 ; perimeter
G1 X128.484 Y109.250 E0.03286 ; perimeter
G1 X78.484 Y109.250 E1.99561 ; perimeter
G1 X77.563 Y109.290 E0.03678 ; perimeter
G1 X76.633 Y109.413 E0.03743 ; perimeter
G1 X75.718 Y109.616 E0.03743 ; perimeter
G1 X74.783 Y109.914 E0.03915 ; perimeter
G1 X73.957 Y110.257 E0.03571 ; perimeter
G1 X73.125 Y110.690 E0.03743 ; perimeter
G1 X72.334 Y111.194 E0.03744 ; perimeter
G1 X71.590 Y111.764 E0.03743 ; perimeter
G1 X70.898 Y112.398 E0.03743 ; perimeter
G1 X70.265 Y113.090 E0.03743 ; perimeter
G1 X69.694 Y113.834 E0.03744 ; perimeter
G1 X69.190 Y114.625 E0.03743 ; perimeter
G1 X68.757 Y115.457 E0.03743 ; perimeter
G1 X68.398 Y116.323 E0.03744 ; perimeter
G1 X68.116 Y117.218 E0.03743 ; perimeter
G1 X67.913 Y118.133 E0.03743 ; perimeter
G1 X67.790 Y119.063 E0.03743 ; perimeter
G1 X67.750 Y119.984 E0.03678 ; perimeter
G1 X67.750 Y164.250 E1.76677 ; perimeter
G1 X62.250 Y164.250 E0.21952 ; perimeter
G1 X62.250 Y35.750 E5.12871 ; perimeter
G1 X67.750 Y35.750 E0.21952 F900.000 ; perimeter
G1 X67.750 Y52.717 E0.67720 ; perimeter
G1 F1800.000 E-4.00000 ; retract
G1 X77.325 Y95.786 F6000.000 ; move to first perimeter point
G1 E4.00000 F1800.000 ; compensate retraction
G1 X77.910 Y95.665 E0.02385 F900.000 ; perimeter
G1 X78.497 Y95.625 E0.02351 ; perimeter
G1 X79.706 Y95.625 E0.04822 ; perimeter
G1 X128.508 Y95.625 E1.94782 F900.000 ; perimeter
G1 X129.096 Y95.665 E0.02349 ; perimeter
G1 X129.680 Y95.786 E0.02384 ; perimeter
G1 X130.243 Y95.986 E0.02384 ; perimeter
G1 X130.774 Y96.261 E0.02384 ; perimeter
G1 X131.262 Y96.605 E0.02384 ; perimeter
G1 X131.698 Y97.012 E0.02384 ; perimeter
G1 X132.075 Y97.475 E0.02384 ; perimeter
G1 X132.370 Y97.959 E0.02261 ; perimeter
G1 X132.624 Y98.533 E0.02505 ; perimeter
G1 X132.785 Y99.108 E0.02384 ; perimeter
G1 X132.867 Y99.700 E0.02384 ; perimeter
G1 X132.867 Y100.266 E0.02261 ; perimeter
G1 X132.786 Y100.889 E0.02505 ; perimeter
G1 X132.625 Y101.464 E0.02384 ; perimeter
G1 X132.387 Y102.012 E0.02383 ; perimeter
G1 X132.077 Y102.522 E0.02384 ; perimeter
G1 X131.700 Y102.985 E0.02384 ; perimeter
G1 X131.264 Y103.393 E0.02384 ; perimeter
G1 X130.776 Y103.738 E0.02384 ; perimeter
G1 X130.273 Y103.999 E0.02261 ; perimeter
G1 X129.684 Y104.213 E0.02505 ; perimeter
G1 X129.099 Y104.335 E0.02384 ; perimeter
G1 X128.512 Y104.375 E0.02350 ; perimeter
G1 X78.501 Y104.375 E1.99605 ; perimeter
G1 X77.913 Y104.336 E0.02350 ; perimeter
G1 X77.328 Y104.215 E0.02385 ; perimeter
G1 X76.764 Y104.015 E0.02385 ; perimeter
G1 X76.233 Y103.741 E0.02385 ; perimeter
G1 X75.745 Y103.397 E0.02385 ; perimeter
G1 X75.308 Y102.989 E0.02385 ; perimeter
G1 X74.930 Y102.526 E0.02385 ; perimeter
G1 X74.619 Y102.016 E0.02385 ; perimeter
G1 X74.381 Y101.468 E0.02385 ; perimeter
G1 X74.219 Y100.892 E0.02385 ; perimeter
G1 X74.138 Y100.300 E0.02385 ; perimeter
G1 X74.137 Y99.703 E0.02385 ; perimeter
G1 X74.219 Y99.111 E0.02385 ; perimeter
G1 X74.380 Y98.535 E0.02385 ; perimeter
G1 X74.618 Y97.987 E0.02385 ; perimeter
G1 X74.928 Y97.476 E0.02385 ; perimeter
G1 X75.306 Y97.013 E0.02385 ; perimeter
G1 X75.742 Y96.605 E0.02385 ; perimeter
G1 X76.231 Y96.261 E0.02385 ; perimeter
G1 X76.761 Y95.986 E0.02385 ; perimeter
G1 X77.254 Y95.811 E0.02086 ; perimeter
G1 F1800.000 E-4.00000 ; retract
G1 X79.938 Y95.182 F6000.000 ; move inwards before travel
G1 X79.938 Y95.125 F6000.000 ; move to first perimeter point
G1 E4.00000 F1800.000 ; compensate retraction
G1 X128.525 Y95.125 E1.93923 F900.000 ; perimeter
G1 X129.099 Y95.164 E0.02295 ; perimeter
G1 X129.816 Y95.304 E0.02913 F900.000 ; perimeter
G1 X130.443 Y95.526 E0.02657 ; perimeter
G1 X131.034 Y95.832 E0.02657 ; perimeter
G1 X131.578 Y96.216 E0.02657 ; perimeter
G1 X132.064 Y96.670 E0.02657 ; perimeter
G1 X132.485 Y97.186 E0.02657 ; perimeter
G1 X132.797 Y97.699 E0.02398 ; perimeter
G1 X133.096 Y98.365 E0.02913 ; perimeter
G1 X133.276 Y99.006 E0.02657 ; perimeter
G1 X133.367 Y99.665 E0.02657 ; perimeter
G1 X133.367 Y100.331 E0.02657 ; perimeter
G1 X133.277 Y100.990 E0.02657 ; perimeter
G1 X133.097 Y101.632 E0.02657 ; perimeter
G1 X132.832 Y102.242 E0.02656 ; perimeter
G1 X132.487 Y102.811 E0.02657 ; perimeter
G1 X132.108 Y103.277 E0.02398 ; perimeter
G1 X131.580 Y103.782 E0.02913 ; perimeter
G1 X131.037 Y104.166 E0.02657 ; perimeter
G1 X130.446 Y104.472 E0.02657 ; perimeter
G1 X129.819 Y104.695 E0.02656 ; perimeter
G1 X129.167 Y104.831 E0.02657 ; perimeter
G1 X128.529 Y104.875 E0.02555 ; perimeter
G1 X78.484 Y104.875 E1.99740 ; perimeter
G1 X77.845 Y104.832 E0.02554 ; perimeter
G1 X77.193 Y104.698 E0.02659 ; perimeter
G1 X76.565 Y104.475 E0.02658 ; perimeter
G1 X75.973 Y104.169 E0.02659 ; perimeter
G1 X75.429 Y103.786 E0.02658 ; perimeter
G1 X74.989 Y103.376 E0.02400 ; perimeter
G1 X74.521 Y102.815 E0.02915 ; perimeter
G1 X74.174 Y102.247 E0.02659 ; perimeter
G1 X73.909 Y101.636 E0.02659 ; perimeter
G1 X73.729 Y100.995 E0.02658 ; perimeter
G1 X73.638 Y100.335 E0.02658 ; perimeter
G1 X73.637 Y99.669 E0.02658 ; perimeter
G1 X73.728 Y99.009 E0.02659 ; perimeter
G1 X73.908 Y98.367 E0.02658 ; perimeter
G1 X74.173 Y97.757 E0.02658 ; perimeter
G1 X74.519 Y97.187 E0.02658 ; perimeter
G1 X74.939 Y96.671 E0.02659 ; perimeter
G1 X75.426 Y96.216 E0.02658 ; perimeter
G1 X75.971 Y95.832 E0.02659 ; perimeter
G1 X76.562 Y95.526 E0.02658 ; perimeter
G1 X77.129 Y95.325 E0.02400 ; perimeter
G1 X77.842 Y95.168 E0.02915 ; perimeter
G1 X78.481 Y95.125 E0.02555 ; perimeter
G1 X79.863 Y95.125 E0.05517 ; perimeter
G1 F1800.000 E-4.00000 ; retract
G1 X73.703 Y89.998 F6000.000 ; move to first fill point
G1 E4.00000 F1800.000 ; compensate retraction
G1 X78.488 Y94.783 E0.27008 F900.000 ; fill
G1 X79.196 Y94.783 E0.02826 ; fill
G1 X74.899 Y90.485 E0.24254 ; fill
G1 X75.897 Y90.775 E0.04146 ; fill
G1 X79.904 Y94.783 E0.22621 ; fill
G1 X80.613 Y94.783 E0.02826 ; fill
G1 X76.782 Y90.952 E0.21618 ; fill
G1 X77.592 Y91.054 E0.03256 ; fill
G1 X81.321 Y94.783 E0.21046 ; fill
G1 X82.029 Y94.783 E0.02826 ; fill
G1 X78.333 Y91.086 E0.20864 ; fill
G1 X79.047 Y91.092 E0.02852 ; fill
G1 X82.737 Y94.783 E0.20828 ; fill
G1 X83.445 Y94.783 E0.02826 ; fill
G1 X79.755 Y91.092 E0.20828 ; fill
G1 X80.463 Y91.092 E0.02826 ; fill
G1 X84.153 Y94.783 E0.20828 ; fill
