; generated by Slic3r 1.1.7 on 2015-06-21 at 20:01:33

; perimeters extrusion width = 0.50mm
; infill extrusion width = 0.50mm
; solid infill extrusion width = 0.50mm
; top infill extrusion width = 0.50mm

G21 ; set units to millimeters
M107 ; disable fan
M190 S57 ; wait for bed temperature to be reached
M104 S185 ; set temperature

M109 S185 ; wait for temperature to be reached
G90 ; use absolute coordinates
M83 ; use relative distances for extrusion
G1 F1800.000 E-4.00000 ; retract
G1 Z0.240 F6000.000 ; move to next layer (0)
G1 X33.073 Y87.086 F6000.000 ; move to first skirt point
G1 E4.00000 F1800.000 ; compensate retraction
G1 X34.875 Y86.750 E0.07318 F600.000 ; skirt
G1 X165.125 Y86.750 E5.19856 ; skirt
G1 X167.075 Y87.146 E0.07942 ; skirt
G1 X168.716 Y88.271 E0.07942 F600.000 ; skirt
G1 X169.789 Y89.948 E0.07942 ; skirt
G1 X170.125 Y91.750 E0.07318 ; skirt
G1 X170.125 Y108.250 E0.65855 ; skirt
G1 X169.729 Y110.200 E0.07942 ; skirt
G1 X168.604 Y111.841 E0.07942 ; skirt
G1 X166.927 Y112.914 E0.07942 ; skirt
G1 X165.125 Y113.250 E0.07318 ; skirt
G1 X34.875 Y113.250 E5.19856 ; skirt
G1 X32.925 Y112.854 E0.07942 ; skirt
G1 X31.284 Y111.729 E0.07942 ; skirt
G1 X30.211 Y110.052 E0.07942 ; skirt
G1 X29.875 Y108.250 E0.07318 ; skirt
G1 X29.875 Y91.750 E0.65855 ; skirt
G1 X30.271 Y89.800 E0.07942 ; skirt
G1 X31.396 Y88.159 E0.07942 ; skirt
G1 X33.009 Y87.127 E0.07643 ; skirt
G1 X33.277 Y87.599 F6000.000 ; move to first skirt point
G1 X33.530 Y87.456 E0.01162 F600.000 ; skirt
G1 X34.875 Y87.250 E0.05431 ; skirt
G1 X165.125 Y87.250 E5.19856 ; skirt
G1 X166.970 Y87.646 E0.07531 ; skirt
G1 X168.490 Y88.763 E0.07531 F600.000 ; skirt
G1 X169.419 Y90.405 E0.07531 ; skirt
G1 X169.625 Y91.750 E0.05431 ; skirt
G1 X169.625 Y108.250 E0.65855 ; skirt
G1 X169.229 Y110.095 E0.07531 ; skirt
G1 X168.112 Y111.615 E0.07531 ; skirt
G1 X166.470 Y112.544 E0.07531 ; skirt
G1 X165.125 Y112.750 E0.05431 ; skirt
G1 X34.875 Y112.750 E5.19856 ; skirt
G1 X33.030 Y112.354 E0.07531 ; skirt
G1 X31.510 Y111.237 E0.07531 ; skirt
G1 X30.581 Y109.595 E0.07531 ; skirt
G1 X30.375 Y108.250 E0.05431 ; skirt
G1 X30.375 Y91.750 E0.65855 ; skirt
G1 X30.771 Y89.905 E0.07531 ; skirt
G1 X31.888 Y88.385 E0.07531 ; skirt
G1 X33.211 Y87.636 E0.06069 ; skirt
G1 F1800.000 E-4.00000 ; retract
G1 X35.125 Y92.000 F6000.000 ; move to first perimeter point
G1 E4.00000 F1800.000 ; compensate retraction
G1 X164.875 Y92.000 E5.17860 F900.000 ; perimeter
G1 X164.875 Y108.000 E0.63859 ; perimeter
G1 X35.125 Y108.000 E5.17860 F900.000 ; perimeter
G1 X35.125 Y92.075 E0.63560 ; perimeter
G1 F1800.000 E-4.00000 ; retract
G1 X165.125 Y107.567 F6000.000 ; move inwards before travel
G1 X143.605 Y107.500 F6000.000 ; move to first perimeter point
G1 E4.00000 F1800.000 ; compensate retraction
G1 X35.625 Y107.500 E4.30973 F900.000 ; perimeter
G1 X35.625 Y92.500 E0.59868 ; perimeter
G1 X164.375 Y92.500 E5.13869 F900.000 ; perimeter
G1 X164.375 Y107.500 E0.59868 ; perimeter
G1 X143.680 Y107.500 E0.82597 ; perimeter
G1 F1800.000 E-4.00000 ; retract
G1 X163.993 Y92.842 F6000.000 ; move to first fill point
G1 E4.00000 F1800.000 ; compensate retraction
G1 X164.033 Y92.882 E0.00226 F900.000 ; fill
G1 X164.033 Y93.590 E0.02826 ; fill
G1 X163.285 Y92.842 E0.04222 ; fill
G1 X162.577 Y92.842 E0.02826 ; fill
G1 X164.033 Y94.298 E0.08218 ; fill
G1 X164.033 Y95.006 E0.02826 ; fill
G1 X161.869 Y92.842 E0.12214 ; fill
G1 X161.161 Y92.842 E0.02826 ; fill
G1 X164.033 Y95.714 E0.16210 ; fill
G1 X164.033 Y96.422 E0.02826 ; fill
G1 X160.453 Y92.842 E0.20206 ; fill
G1 X159.745 Y92.842 E0.02826 ; fill
G1 X164.033 Y97.130 E0.24202 ; fill
G1 X164.033 Y97.838 E0.02826 ; fill
G1 X159.037 Y92.842 E0.28198 ; fill
G1 X158.329 Y92.842 E0.02826 ; fill
G1 X164.033 Y98.546 E0.32194 ; fill
G1 X164.033 Y99.254 E0.02826 ; fill
G1 X157.621 Y92.842 E0.36190 ; fill
G1 X156.913 Y92.842 E0.02826 ; fill
G1 X164.033 Y99.962 E0.40186 ; fill
G1 X164.033 Y100.670 E0.02826 ; fill
G1 X156.205 Y92.842 E0.44182 ; fill
G1 X155.497 Y92.842 E0.02826 ; fill
G1 X164.033 Y101.378 E0.48178 ; fill
G1 X164.033 Y102.086 E0.02826 ; fill
G1 X154.789 Y92.842 E0.52174 ; fill
G1 X154.081 Y92.842 E0.02826 ; fill
G1 X164.033 Y102.794 E0.56170 ; fill
G1 X164.033 Y103.502 E0.02826 ; fill
G1 X153.373 Y92.842 E0.60166 ; fill
G1 X152.665 Y92.842 E0.02826 ; fill
G1 X164.033 Y104.210 E0.64162 ; fill
G1 X164.033 Y104.918 E0.02826 ; fill
G1 X151.957 Y92.842 E0.68158 ; fill
G1 X151.249 Y92.842 E0.02826 ; fill
G1 X164.033 Y105.626 E0.72154 ; fill
G1 X164.033 Y106.334 E0.02826 ; fill
G1 X150.541 Y92.842 E0.76150 ; fill
G1 X149.833 Y92.842 E0.02826 ; fill
G1 X164.033 Y107.042 E0.80146 ; fill
G1 X163.440 Y107.158 E0.02408 ; fill
G1 X149.125 Y92.842 E0.80800 ; fill
G1 X148.417 Y92.842 E0.02826 ; fill
G1 X162.732 Y107.158 E0.80800 ; fill
G1 X162.024 Y107.158 E0.02826 ; fill
G1 X147.709 Y92.842 E0.80800 ; fill
G1 X147.001 Y92.842 E0.02826 ; fill
G1 X161.317 Y107.158 E0.80800 ; fill
G1 X160.609 Y107.158 E0.02826 ; fill
G1 X146.294 Y92.842 E0.80800 ; fill
G1 X145.586 Y92.842 E0.02826 ; fill
G1 X159.901 Y107.158 E0.80800 ; fill
G1 X159.193 Y107.158 E0.02826 ; fill
G1 X144.878 Y92.842 E0.80800 ; fill
G1 X144.170 Y92.842 E0.02826 ; fill
G1 X158.485 Y107.158 E0.80800 ; fill
G1 X157.777 Y107.158 E0.02826 ; fill
G1 X143.462 Y92.842 E0.80800 ; fill
G1 X142.754 Y92.842 E0.02826 ; fill
G1 X157.069 Y107.158 E0.80800 ; fill
G1 X156.361 Y107.158 E0.02826 ; fill
G1 X142.046 Y92.842 E0.80800 ; fill
G1 X141.338 Y92.842 E0.02826 ; fill
G1 X155.653 Y107.158 E0.80800 ; fill
G1 X154.945 Y107.158 E0.02826 ; fill
G1 X140.630 Y92.842 E0.80800 ; fill
G1 X139.922 Y92.842 E0.02826 ; fill
G1 X154.237 Y107.158 E0.80800 ; fill
G1 X153.529 Y107.158 E0.02826 ; fill
G1 X139.214 Y92.842 E0.80800 ; fill
G1 X138.506 Y92.842 E0.02826 ; fill
G1 X152.821 Y107.158 E0.80800 ; fill
G1 X152.113 Y107.158 E0.02826 ; fill
G1 X137.798 Y92.842 E0.80800 ; fill
G1 X137.090 Y92.842 E0.02826 ; fill
G1 X151.405 Y107.158 E0.80800 ; fill
G1 X150.697 Y107.158 E0.02826 ; fill
G1 X136.382 Y92.842 E0.80800 ; fill
G1 X135.674 Y92.842 E0.02826 ; fill
G1 X149.989 Y107.158 E0.80800 ; fill
G1 X149.281 Y107.158 E0.02826 ; fill
G1 X134.966 Y92.842 E0.80800 ; fill
G1 X134.258 Y92.842 E0.02826 ; fill
G1 X148.573 Y107.158 E0.80800 ; fill
G1 X147.865 Y107.158 E0.02826 ; fill
G1 X133.550 Y92.842 E0.80800 ; fill
G1 X132.842 Y92.842 E0.02826 ; fill
G1 X147.157 Y107.158 E0.80800 ; fill
G1 X146.449 Y107.158 E0.02826 ; fill
G1 X132.134 Y92.842 E0.80800 ; fill
G1 X131.426 Y92.842 E0.02826 ; fill
G1 X145.741 Y107.158 E0.80800 ; fill
G1 X145.033 Y107.158 E0.02826 ; fill
G1 X130.718 Y92.842 E0.80800 ; fill
G1 X130.010 Y92.842 E0.02826 ; fill
G1 X144.325 Y107.158 E0.80800 ; fill
G1 X143.617 Y107.158 E0.02826 ; fill
G1 X129.302 Y92.842 E0.80800 ; fill
G1 X128.594 Y92.842 E0.02826 ; fill
G1 X142.910 Y107.158 E0.80800 ; fill
G1 X142.202 Y107.158 E0.02826 ; fill
G1 X127.887 Y92.842 E0.80800 ; fill
G1 X127.179 Y92.842 E0.02826 ; fill
G1 X141.494 Y107.158 E0.80800 ; fill
G1 X140.786 Y107.158 E0.02826 ; fill
G1 X126.471 Y92.842 E0.80800 ; fill
G1 X125.763 Y92.842 E0.02826 ; fill
G1 X140.078 Y107.158 E0.80800 ; fill
G1 X139.370 Y107.158 E0.02826 ; fill
G1 X125.055 Y92.842 E0.80800 ; fill
G1 X124.347 Y92.842 E0.02826 ; fill
G1 X138.662 Y107.158 E0.80800 ; fill
G1 X137.954 Y107.158 E0.02826 ; fill
G1 X123.639 Y92.842 E0.80800 ; fill
G1 X122.931 Y92.842 E0.02826 ; fill
G1 X137.246 Y107.158 E0.80800 ; fill
G1 X136.538 Y107.158 E0.02826 ; fill
G1 X122.223 Y92.842 E0.80800 ; fill
G1 X121.515 Y92.842 E0.02826 ; fill
G1 X135.830 Y107.158 E0.80800 ; fill
G1 X135.122 Y107.158 E0.02826 ; fill
G1 X120.807 Y92.842 E0.80800 ; fill
G1 X120.099 Y92.842 E0.02826 ; fill
G1 X134.414 Y107.158 E0.80800 ; fill
G1 X133.706 Y107.158 E0.02826 ; fill
G1 X119.391 Y92.842 E0.80800 ; fill
G1 X118.683 Y92.842 E0.02826 ; fill
G1 X132.998 Y107.158 E0.80800 ; fill
G1 X132.290 Y107.158 E0.02826 ; fill
G1 X117.975 Y92.842 E0.80800 ; fill
G1 X117.267 Y92.842 E0.02826 ; fill
G1 X131.582 Y107.158 E0.80800 ; fill
G1 X130.874 Y107.158 E0.02826 ; fill
G1 X116.559 Y92.842 E0.80800 ; fill
G1 X115.851 Y92.842 E0.02826 ; fill
G1 X130.166 Y107.158 E0.80800 ; fill
G1 X129.458 Y107.158 E0.02826 ; fill
G1 X115.143 Y92.842 E0.80800 ; fill
G1 X114.435 Y92.842 E0.02826 ; fill
G1 X128.750 Y107.158 E0.80800 ; fill
G1 X128.042 Y107.158 E0.02826 ; fill
G1 X113.727 Y92.842 E0.80800 ; fill
G1 X113.019 Y92.842 E0.02826 ; fill
G1 X127.334 Y107.158 E0.80800 ; fill
G1 X126.626 Y107.158 E0.02826 ; fill
G1 X112.311 Y92.842 E0.80800 ; fill
G1 X111.603 Y92.842 E0.02826 ; fill
G1 X125.918 Y107.158 E0.80800 ; fill
G1 X125.211 Y107.158 E0.02826 ; fill
G1 X110.895 Y92.842 E0.80800 ; fill
G1 X110.188 Y92.842 E0.02826 ; fill
G1 X124.503 Y107.158 E0.80800 ; fill
G1 X123.795 Y107.158 E0.02826 ; fill
G1 X109.480 Y92.842 E0.80800 ; fill
G1 X108.772 Y92.842 E0.02826 ; fill
G1 X123.087 Y107.158 E0.80800 ; fill
G1 X122.379 Y107.158 E0.02826 ; fill
G1 X108.064 Y92.842 E0.80800 ; fill
G1 X107.356 Y92.842 E0.02826 ; fill
G1 X121.671 Y107.158 E0.80800 ; fill
G1 X120.963 Y107.158 E0.02826 ; fill
G1 X106.648 Y92.842 E0.80800 ; fill
G1 X105.940 Y92.842 E0.02826 ; fill
G1 X120.255 Y107.158 E0.80800 ; fill
G1 X119.547 Y107.158 E0.02826 ; fill
G1 X105.232 Y92.842 E0.80800 ; fill
G1 X104.524 Y92.842 E0.02826 ; fill
G1 X118.839 Y107.158 E0.80800 ; fill
G1 X118.131 Y107.158 E0.02826 ; fill
G1 X103.816 Y92.842 E0.80800 ; fill
G1 X103.108 Y92.842 E0.02826 ; fill
G1 X117.423 Y107.158 E0.80800 ; fill
G1 X116.715 Y107.158 E0.02826 ; fill
G1 X102.400 Y92.842 E0.80800 ; fill
G1 X101.692 Y92.842 E0.02826 ; fill
G1 X116.007 Y107.158 E0.80800 ; fill
G1 X115.299 Y107.158 E0.02826 ; fill
G1 X100.984 Y92.842 E0.80800 ; fill
G1 X100.276 Y92.842 E0.02826 ; fill
G1 X114.591 Y107.158 E0.80800 ; fill
G1 X113.883 Y107.158 E0.02826 ; fill
G1 X99.568 Y92.842 E0.80800 ; fill
G1 X98.860 Y92.842 E0.02826 ; fill
G1 X113.175 Y107.158 E0.80800 ; fill
G1 X112.467 Y107.158 E0.02826 ; fill
G1 X98.152 Y92.842 E0.80800 ; fill
G1 X97.444 Y92.842 E0.02826 ; fill
G1 X111.759 Y107.158 E0.80800 ; fill
G1 X111.051 Y107.158 E0.02826 ; fill
G1 X96.736 Y92.842 E0.80800 ; fill
G1 X96.028 Y92.842 E0.02826 ; fill
G1 X110.343 Y107.158 E0.80800 ; fill
G1 X109.635 Y107.158 E0.02826 ; fill
G1 X95.320 Y92.842 E0.80800 ; fill
G1 X94.612 Y92.842 E0.02826 ; fill
G1 X108.927 Y107.158 E0.80800 ; fill
G1 X108.219 Y107.158 E0.02826 ; fill
G1 X93.904 Y92.842 E0.80800 ; fill
G1 X93.196 Y92.842 E0.02826 ; fill
G1 X107.512 Y107.158 E0.80800 ; fill
G1 X106.804 Y107.158 E0.02826 ; fill
G1 X92.489 Y92.842 E0.80800 ; fill
G1 X91.781 Y92.842 E0.02826 ; fill
G1 X106.096 Y107.158 E0.80800 ; fill
G1 X105.388 Y107.158 E0.02826 ; fill
G1 X91.073 Y92.842 E0.80800 ; fill
G1 X90.365 Y92.842 E0.02826 ; fill
G1 X104.680 Y107.158 E0.80800 ; fill
G1 X103.972 Y107.158 E0.02826 ; fill
G1 X89.657 Y92.842 E0.80800 ; fill
G1 X88.949 Y92.842 E0.02826 ; fill
G1 X103.264 Y107.158 E0.80800 ; fill
G1 X102.556 Y107.158 E0.02826 ; fill
G1 X88.241 Y92.842 E0.80800 ; fill
G1 X87.533 Y92.842 E0.02826 ; fill
G1 X101.848 Y107.158 E0.80800 ; fill
G1 X101.140 Y107.158 E0.02826 ; fill
G1 X86.825 Y92.842 E0.80800 ; fill
G1 X86.117 Y92.842 E0.02826 ; fill
G1 X100.432 Y107.158 E0.80800 ; fill
G1 X99.724 Y107.158 E0.02826 ; fill
G1 X85.409 Y92.842 E0.80800 ; fill
G1 X84.701 Y92.842 E0.02826 ; fill
G1 X99.016 Y107.158 E0.80800 ; fill
G1 X98.308 Y107.158 E0.02826 ; fill
G1 X83.993 Y92.842 E0.80800 ; fill
G1 X83.285 Y92.842 E0.02826 ; fill
G1 X97.600 Y107.158 E0.80800 ; fill
G1 X96.892 Y107.158 E0.02826 ; fill
G1 X82.577 Y92.842 E0.80800 ; fill
G1 X81.869 Y92.842 E0.02826 ; fill
G1 X96.184 Y107.158 E0.80800 ; fill
G1 X95.476 Y107.158 E0.02826 ; fill
G1 X81.161 Y92.842 E0.80800 ; fill
G1 X80.453 Y92.842 E0.02826 ; fill
G1 X94.768 Y107.158 E0.80800 ; fill
G1 X94.060 Y107.158 E0.02826 ; fill
G1 X79.745 Y92.842 E0.80800 ; fill
G1 X79.037 Y92.842 E0.02826 ; fill
G1 X93.352 Y107.158 E0.80800 ; fill
G1 X92.644 Y107.158 E0.02826 ; fill
G1 X78.329 Y92.842 E0.80800 ; fill
G1 X77.621 Y92.842 E0.02826 ; fill
G1 X91.936 Y107.158 E0.80800 ; fill
G1 X91.228 Y107.158 E0.02826 ; fill
G1 X76.913 Y92.842 E0.80800 ; fill
G1 X76.205 Y92.842 E0.02826 ; fill
G1 X90.520 Y107.158 E0.80800 ; fill
G1 X89.812 Y107.158 E0.02826 ; fill
G1 X75.497 Y92.842 E0.80800 ; fill
G1 X74.789 Y92.842 E0.02826 ; fill
G1 X89.105 Y107.158 E0.80800 ; fill
G1 X88.397 Y107.158 E0.02826 ; fill
G1 X74.082 Y92.842 E0.80800 ; fill
G1 X73.374 Y92.842 E0.02826 ; fill
G1 X87.689 Y107.158 E0.80800 ; fill
G1 X86.981 Y107.158 E0.02826 ; fill
G1 X72.666 Y92.842 E0.80800 ; fill
G1 X71.958 Y92.842 E0.02826 ; fill
G1 X86.273 Y107.158 E0.80800 ; fill
G1 X85.565 Y107.158 E0.02826 ; fill
G1 X71.250 Y92.842 E0.80800 ; fill
G1 X70.542 Y92.842 E0.02826 ; fill
G1 X84.857 Y107.158 E0.80800 ; fill
G1 X84.149 Y107.158 E0.02826 ; fill
G1 X69.834 Y92.842 E0.80800 ; fill
G1 X69.126 Y92.842 E0.02826 ; fill
G1 X83.441 Y107.158 E0.80800 ; fill
G1 X82.733 Y107.158 E0.02826 ; fill
G1 X68.418 Y92.842 E0.80800 ; fill
G1 X67.710 Y92.842 E0.02826 ; fill
G1 X82.025 Y107.158 E0.80800 ; fill
G1 X81.317 Y107.158 E0.02826 ; fill
G1 X67.002 Y92.842 E0.80800 ; fill
G1 X66.294 Y92.842 E0.02826 ; fill
G1 X80.609 Y107.158 E0.80800 ; fill
G1 X79.901 Y107.158 E0.02826 ; fill
G1 X65.586 Y92.842 E0.80800 ; fill
G1 X64.878 Y92.842 E0.02826 ; fill
G1 X79.193 Y107.158 E0.80800 ; fill
G1 X78.485 Y107.158 E0.02826 ; fill
G1 X64.170 Y92.842 E0.80800 ; fill
G1 X63.462 Y92.842 E0.02826 ; fill
G1 X77.777 Y107.158 E0.80800 ; fill
G1 X77.069 Y107.158 E0.02826 ; fill
G1 X62.754 Y92.842 E0.80800 ; fill
G1 X62.046 Y92.842 E0.02826 ; fill
G1 X76.361 Y107.158 E0.80800 ; fill
G1 X75.653 Y107.158 E0.02826 ; fill
G1 X61.338 Y92.842 E0.80800 ; fill
G1 X60.630 Y92.842 E0.02826 ; fill
G1 X74.945 Y107.158 E0.80800 ; fill
G1 X74.237 Y107.158 E0.02826 ; fill
G1 X59.922 Y92.842 E0.80800 ; fill
G1 X59.214 Y92.842 E0.02826 ; fill
G1 X73.529 Y107.158 E0.80800 ; fill
G1 X72.821 Y107.158 E0.02826 ; fill
G1 X58.506 Y92.842 E0.80800 ; fill
G1 X57.798 Y92.842 E0.02826 ; fill
G1 X72.113 Y107.158 E0.80800 ; fill
G1 X71.406 Y107.158 E0.02826 ; fill
G1 X57.090 Y92.842 E0.80800 ; fill
G1 X56.383 Y92.842 E0.02826 ; fill
G1 X70.698 Y107.158 E0.80800 ; fill
G1 X69.990 Y107.158 E0.02826 ; fill
G1 X55.675 Y92.842 E0.80800 ; fill
G1 X54.967 Y92.842 E0.02826 ; fill
G1 X69.282 Y107.158 E0.80800 ; fill
G1 X68.574 Y107.158 E0.02826 ; fill
G1 X54.259 Y92.842 E0.80800 ; fill
G1 X53.551 Y92.842 E0.02826 ; fill
G1 X67.866 Y107.158 E0.80800 ; fill
G1 X67.158 Y107.158 E0.02826 ; fill
G1 X52.843 Y92.842 E0.80800 ; fill
G1 X52.135 Y92.842 E0.02826 ; fill
G1 X66.450 Y107.158 E0.80800 ; fill
G1 X65.742 Y107.158 E0.02826 ; fill
G1 X51.427 Y92.842 E0.80800 ; fill
G1 X50.719 Y92.842 E0.02826 ; fill
G1 X65.034 Y107.158 E0.80800 ; fill
G1 X64.326 Y107.158 E0.02826 ; fill
G1 X50.011 Y92.842 E0.80800 ; fill
G1 X49.303 Y92.842 E0.02826 ; fill
G1 X63.618 Y107.158 E0.80800 ; fill
G1 X62.910 Y107.158 E0.02826 ; fill
G1 X48.595 Y92.842 E0.80800 ; fill
G1 X47.887 Y92.842 E0.02826 ; fill
G1 X62.202 Y107.158 E0.80800 ; fill
G1 X61.494 Y107.158 E0.02826 ; fill
G1 X47.179 Y92.842 E0.80800 ; fill
G1 X46.471 Y92.842 E0.02826 ; fill
G1 X60.786 Y107.158 E0.80800 ; fill
G1 X60.078 Y107.158 E0.02826 ; fill
G1 X45.763 Y92.842 E0.80800 ; fill
G1 X45.055 Y92.842 E0.02826 ; fill
G1 X59.370 Y107.158 E0.80800 ; fill
G1 X58.662 Y107.158 E0.02826 ; fill
G1 X44.347 Y92.842 E0.80800 ; fill
G1 X43.639 Y92.842 E0.02826 ; fill
G1 X57.954 Y107.158 E0.80800 ; fill
G1 X57.246 Y107.158 E0.02826 ; fill
G1 X42.931 Y92.842 E0.80800 ; fill
G1 X42.223 Y92.842 E0.02826 ; fill
G1 X56.538 Y107.158 E0.80800 ; fill
G1 X55.830 Y107.158 E0.02826 ; fill
G1 X41.515 Y92.842 E0.80800 ; fill
G1 X40.807 Y92.842 E0.02826 ; fill
G1 X55.122 Y107.158 E0.80800 ; fill
G1 X54.414 Y107.158 E0.02826 ; fill
G1 X40.099 Y92.842 E0.80800 ; fill
G1 X39.391 Y92.842 E0.02826 ; fill
G1 X53.706 Y107.158 E0.80800 ; fill
G1 X52.999 Y107.158 E0.02826 ; fill
G1 X38.683 Y92.842 E0.80800 ; fill
G1 X37.976 Y92.842 E0.02826 ; fill
