; generated by Slic3r 1.0.1 on 2014-07-07 at 09:01:10

; layer_height = 0.24
; perimeters = 2
; top_solid_layers = 3
; bottom_solid_layers = 3
; fill_density = 0.25
; perimeter_speed = 30
; infill_speed = 30
; travel_speed = 100
; nozzle_diameter = 0.5
; filament_diameter = 1.75
; extrusion_multiplier = 1
; perimeters extrusion width = 0.50mm
; infill extrusion width = 0.50mm
; solid infill extrusion width = 0.50mm
; top infill extrusion width = 0.50mm
; support material extrusion width = 0.50mm
; first layer extrusion width = 0.80mm

G21 ; set units to millimeters
M107 ; disable fan
M190 S57 ; wait for bed temperature to be reached
M104 S200 ; set temperature

M109 S200 ; wait for temperature to be reached
G90 ; use absolute coordinates
M83 ; use relative distances for extrusion
G1 F1800.000 E-2.40000 ; retract
G1 Z0.240 F6000.000 ; move to next layer (0)
G1 X69.424 Y75.721 F6000.000 ; move to first skirt point
G1 E2.40000 F1800.000 ; compensate retraction
G1 X70.324 Y75.051 E0.08380 F900.000 ; skirt
G1 X71.354 Y74.621 E0.08336 ; skirt
G1 X72.454 Y74.441 E0.08325 ; skirt
G1 X93.534 Y73.451 E1.57610 ; skirt
G1 X95.454 Y73.451 E0.14340 ; skirt
G1 X120.834 Y74.441 E1.89695 ; skirt
G1 X122.224 Y74.541 E0.10408 ; skirt
G1 X122.864 Y74.631 E0.04827 ; skirt
G1 X124.234 Y74.921 E0.10459 ; skirt
G1 X124.904 Y75.121 E0.05222 ; skirt
G1 X126.224 Y75.611 E0.10516 ; skirt
G1 X126.864 Y75.901 E0.05248 ; skirt
G1 X128.084 Y76.571 E0.10395 ; skirt
G1 X128.644 Y76.931 E0.04972 ; skirt
G1 X129.724 Y77.741 E0.10083 ; skirt
G1 X130.284 Y78.211 E0.05460 ; skirt
G1 X131.274 Y79.201 E0.10456 ; skirt
G1 X131.724 Y79.731 E0.05193 ; skirt
G1 X132.564 Y80.861 E0.10516 ; skirt
G1 X132.924 Y81.421 E0.04972 ; skirt
G1 X133.594 Y82.651 E0.10461 ; skirt
G1 X133.874 Y83.261 E0.05013 ; skirt
G1 X134.364 Y84.571 E0.10446 ; skirt
G1 X134.554 Y85.211 E0.04986 ; skirt
G1 X134.854 Y86.581 E0.10474 ; skirt
G1 X134.954 Y87.291 E0.05355 ; skirt
G1 X135.054 Y88.991 E0.12718 ; skirt
G1 X135.054 Y110.991 E1.64307 ; skirt
G1 X134.954 Y112.691 E0.12718 ; skirt
G1 X134.854 Y113.401 E0.05355 ; skirt
G1 X134.554 Y114.781 E0.10547 ; skirt
G1 X134.364 Y115.421 E0.04986 ; skirt
G1 X133.874 Y116.731 E0.10446 ; skirt
G1 X133.574 Y117.371 E0.05279 ; skirt
G1 X132.864 Y118.651 E0.10932 ; skirt
G1 X132.514 Y119.191 E0.04806 ; skirt
G1 X131.714 Y120.261 E0.09978 ; skirt
G1 X131.274 Y120.781 E0.05087 ; skirt
G1 X130.284 Y121.771 E0.10456 ; skirt
G1 X129.754 Y122.221 E0.05193 ; skirt
G1 X128.624 Y123.061 E0.10516 ; skirt
G1 X128.104 Y123.401 E0.04640 ; skirt
G1 X126.884 Y124.081 E0.10431 ; skirt
G1 X126.224 Y124.381 E0.05415 ; skirt
G1 X124.904 Y124.871 E0.10516 ; skirt
G1 X124.234 Y125.071 E0.05222 ; skirt
G1 X122.864 Y125.361 E0.10459 ; skirt
G1 X122.224 Y125.451 E0.04827 ; skirt
G1 X120.834 Y125.551 E0.10408 ; skirt
G1 X95.454 Y126.541 E1.89695 ; skirt
G1 X93.534 Y126.541 E0.14340 ; skirt
G1 X72.454 Y125.551 E1.57610 ; skirt
G1 X71.974 Y125.511 E0.03597 ; skirt
G1 X71.514 Y125.411 E0.03516 ; skirt
G1 X68.344 Y124.611 E0.24417 ; skirt
G1 X67.284 Y124.211 E0.08462 ; skirt
G1 X66.354 Y123.561 E0.08474 ; skirt
G1 X65.604 Y122.711 E0.08466 ; skirt
G1 X65.074 Y121.711 E0.08453 ; skirt
G1 X63.564 Y117.781 E0.31443 ; skirt
G1 X63.324 Y116.951 E0.06453 ; skirt
G1 X63.244 Y116.081 E0.06525 ; skirt
G1 X63.244 Y92.121 E1.78946 ; skirt
G1 X63.314 Y91.301 E0.06146 ; skirt
G1 X63.524 Y90.501 E0.06177 ; skirt
G1 X68.204 Y77.561 E1.02769 ; skirt
G1 X68.704 Y76.571 E0.08283 ; skirt
G1 X69.352 Y75.806 E0.07481 ; skirt
G1 F1800.000 E-2.40000 ; retract
G1 X73.077 Y79.581 F6000.000 ; move to first perimeter point
G1 E2.40000 F1800.000 ; compensate retraction
G1 X88.019 Y79.581 E1.11592 F900.000 ; perimeter
G1 X89.815 Y79.099 E0.13890 ; perimeter
G1 X91.673 Y78.768 E0.14094 ; perimeter
G1 X93.552 Y78.602 E0.14091 ; perimeter
G1 X95.439 Y78.602 E0.14091 ; perimeter
G1 X97.319 Y78.768 E0.14092 ; perimeter
G1 X99.177 Y79.099 E0.14096 ; perimeter
G1 X100.973 Y79.581 E0.13887 ; perimeter
G1 X120.481 Y79.581 E1.45701 ; perimeter
G1 X121.836 Y79.678 E0.10143 ; perimeter
G1 X123.149 Y79.964 E0.10035 ; perimeter
G1 X124.408 Y80.433 E0.10036 ; perimeter
G1 X125.587 Y81.077 E0.10035 ; perimeter
G1 X126.663 Y81.883 E0.10036 ; perimeter
G1 X127.613 Y82.833 E0.10034 ; perimeter
G1 X128.418 Y83.908 E0.10037 ; perimeter
G1 X129.180 Y85.304 E0.11877 ; perimeter
G1 X128.646 Y85.636 E0.04701 ; perimeter
G1 X128.038 Y84.769 E0.07908 ; perimeter
G1 X127.227 Y83.957 E0.08570 ; perimeter
G1 X126.287 Y83.299 E0.08570 ; perimeter
G1 X125.247 Y82.814 E0.08569 ; perimeter
G1 X124.139 Y82.517 E0.08570 ; perimeter
G1 X122.996 Y82.417 E0.08570 ; perimeter
G1 X121.852 Y82.517 E0.08570 ; perimeter
G1 X120.744 Y82.814 E0.08570 ; perimeter
G1 X119.704 Y83.299 E0.08570 ; perimeter
G1 X118.764 Y83.957 E0.08570 ; perimeter
G1 X117.953 Y84.769 E0.08570 ; perimeter
G1 X117.695 Y85.136 E0.03354 ; perimeter
G1 X117.295 Y85.709 E0.05216 ; perimeter
G1 X116.810 Y86.749 E0.08570 ; perimeter
G1 X116.513 Y87.857 E0.08570 ; perimeter
G1 X116.414 Y88.983 E0.08439 ; perimeter
G1 X116.414 Y111.018 E1.64569 ; perimeter
G1 X116.513 Y112.143 E0.08439 ; perimeter
G1 X116.810 Y113.251 E0.08570 ; perimeter
G1 X117.295 Y114.291 E0.08570 ; perimeter
G1 X117.953 Y115.231 E0.08569 ; perimeter
G1 X118.764 Y116.043 E0.08570 ; perimeter
G1 X119.132 Y116.300 E0.03353 ; perimeter
G1 X119.704 Y116.701 E0.05216 ; perimeter
G1 X120.744 Y117.186 E0.08570 ; perimeter
G1 X121.852 Y117.483 E0.08569 ; perimeter
G1 X122.996 Y117.583 E0.08570 ; perimeter
G1 X124.139 Y117.483 E0.08570 ; perimeter
G1 X125.247 Y117.186 E0.08570 ; perimeter
G1 X126.287 Y116.701 E0.08569 ; perimeter
G1 X127.227 Y116.043 E0.08570 ; perimeter
G1 X128.038 Y115.231 E0.08570 ; perimeter
G1 X128.646 Y114.364 E0.07909 ; perimeter
G1 X129.181 Y114.696 E0.04701 ; perimeter
G1 X128.418 Y116.092 E0.11879 ; perimeter
G1 X127.613 Y117.167 E0.10035 ; perimeter
G1 X126.663 Y118.117 E0.10035 ; perimeter
G1 X125.587 Y118.923 E0.10036 ; perimeter
G1 X124.408 Y119.567 E0.10035 ; perimeter
G1 X123.149 Y120.036 E0.10036 ; perimeter
G1 X121.836 Y120.322 E0.10035 ; perimeter
G1 X120.481 Y120.419 E0.10143 ; perimeter
G1 X100.973 Y120.419 E1.45700 ; perimeter
G1 X99.177 Y120.901 E0.13889 ; perimeter
G1 X97.319 Y121.232 E0.14092 ; perimeter
G1 X95.439 Y121.398 E0.14095 ; perimeter
G1 X93.552 Y121.398 E0.14091 ; perimeter
G1 X91.672 Y121.232 E0.14094 ; perimeter
G1 X89.814 Y120.901 E0.14094 ; perimeter
G1 X88.019 Y120.419 E0.13886 ; perimeter
G1 X73.077 Y120.419 E1.11594 ; perimeter
G1 X73.077 Y119.615 E0.06001 ; perimeter
G1 X69.904 Y119.615 E0.23694 ; perimeter
G1 X69.904 Y111.415 E0.61242 ; perimeter
G1 X73.077 Y111.415 E0.23694 ; perimeter
G1 X73.077 Y96.615 E1.10534 ; perimeter
G1 X69.904 Y96.615 E0.23694 ; perimeter
G1 X69.904 Y88.415 E0.61242 ; perimeter
G1 X73.077 Y88.415 E0.23694 ; perimeter
G1 X73.077 Y79.694 E0.65139 ; perimeter
G1 X73.725 Y79.955 F6000.000 ; move inwards before travel
G1 F1800.000 E-2.40000 ; retract
G1 X74.359 Y102.900 F6000.000 ; move to first perimeter point
G1 E2.40000 F1800.000 ; compensate retraction
G1 X74.835 Y105.178 E0.17376 F900.000 ; perimeter
G1 X75.471 Y107.172 E0.15634 ; perimeter
G1 X76.310 Y109.090 E0.15634 ; perimeter
G1 X77.341 Y110.912 E0.15633 ; perimeter
G1 X78.850 Y113.035 E0.19457 ; perimeter
G1 X77.986 Y113.110 E0.06477 ; perimeter
G1 X77.492 Y113.243 E0.03819 ; perimeter
G1 X77.028 Y113.459 E0.03822 ; perimeter
G1 X76.610 Y113.752 E0.03819 ; perimeter
G1 X76.248 Y114.114 E0.03820 ; perimeter
G1 X75.955 Y114.533 E0.03819 ; perimeter
G1 X75.738 Y114.996 E0.03820 ; perimeter
G1 X75.606 Y115.490 E0.03820 ; perimeter
G1 X75.562 Y116.000 E0.03821 ; perimeter
G1 X75.606 Y116.509 E0.03819 ; perimeter
G1 X75.738 Y117.004 E0.03820 ; perimeter
G1 X75.955 Y117.467 E0.03821 ; perimeter
G1 X76.248 Y117.886 E0.03819 ; perimeter
G1 X76.610 Y118.248 E0.03820 ; perimeter
G1 X77.029 Y118.541 E0.03821 ; perimeter
G1 X77.492 Y118.757 E0.03818 ; perimeter
G1 X77.696 Y118.812 E0.01576 ; perimeter
G1 X77.986 Y118.890 E0.02245 ; perimeter
G1 X78.496 Y118.934 E0.03819 ; perimeter
G1 X79.005 Y118.890 E0.03821 ; perimeter
G1 X79.499 Y118.757 E0.03819 ; perimeter
G1 X79.962 Y118.541 E0.03818 ; perimeter
G1 X80.382 Y118.248 E0.03821 ; perimeter
G1 X80.743 Y117.886 E0.03820 ; perimeter
G1 X81.037 Y117.467 E0.03820 ; perimeter
G1 X81.253 Y117.003 E0.03820 ; perimeter
G1 X81.385 Y116.510 E0.03819 ; perimeter
G1 X81.464 Y115.606 E0.06770 ; perimeter
G1 X83.146 Y116.868 E0.15702 ; perimeter
G1 X84.940 Y117.946 E0.15634 ; perimeter
G1 X86.836 Y118.833 E0.15634 ; perimeter
G1 X88.047 Y119.254 E0.09571 ; perimeter
G1 X87.976 Y119.670 E0.03151 ; perimeter
G1 X73.825 Y119.670 E1.05687 ; perimeter
G1 X73.825 Y118.867 E0.06001 ; perimeter
G1 X70.653 Y118.867 E0.23694 ; perimeter
G1 X70.653 Y112.164 E0.50062 ; perimeter
G1 X73.825 Y112.164 E0.23694 ; perimeter
G1 X73.825 Y102.955 E0.68773 ; perimeter
G1 X74.247 Y102.912 E0.03167 ; perimeter
G1 F1800.000 E-2.40000 ; retract
G1 X74.359 Y97.100 F6000.000 ; move to first perimeter point
G1 E2.40000 F1800.000 ; compensate retraction
G1 X73.825 Y97.045 E0.04005 F900.000 ; perimeter
G1 X73.825 Y95.867 E0.08796 ; perimeter
G1 X70.653 Y95.867 E0.23694 ; perimeter
G1 X70.653 Y89.164 E0.50062 ; perimeter
G1 X73.825 Y89.164 E0.23694 ; perimeter
G1 X73.825 Y80.330 E0.65978 ; perimeter
G1 X87.976 Y80.330 E1.05686 ; perimeter
G1 X88.047 Y80.746 E0.03151 ; perimeter
G1 X86.836 Y81.167 E0.09570 ; perimeter
G1 X84.940 Y82.054 E0.15633 ; perimeter
G1 X83.146 Y83.132 E0.15634 ; perimeter
G1 X81.464 Y84.394 E0.15702 ; perimeter
G1 X81.385 Y83.490 E0.06770 ; perimeter
G1 X81.253 Y82.996 E0.03820 ; perimeter
G1 X81.037 Y82.533 E0.03820 ; perimeter
G1 X80.743 Y82.114 E0.03820 ; perimeter
G1 X80.382 Y81.752 E0.03820 ; perimeter
G1 X79.963 Y81.459 E0.03820 ; perimeter
G1 X79.499 Y81.243 E0.03820 ; perimeter
G1 X79.005 Y81.110 E0.03820 ; perimeter
G1 X78.496 Y81.066 E0.03819 ; perimeter
G1 X77.986 Y81.110 E0.03820 ; perimeter
G1 X77.492 Y81.243 E0.03820 ; perimeter
G1 X77.029 Y81.459 E0.03820 ; perimeter
G1 X76.610 Y81.752 E0.03820 ; perimeter
G1 X76.248 Y82.114 E0.03820 ; perimeter
G1 X75.955 Y82.533 E0.03820 ; perimeter
G1 X75.738 Y82.996 E0.03820 ; perimeter
G1 X75.606 Y83.490 E0.03820 ; perimeter
G1 X75.588 Y83.701 E0.01575 ; perimeter
G1 X75.562 Y84.000 E0.02245 ; perimeter
G1 X75.606 Y84.510 E0.03820 ; perimeter
G1 X75.738 Y85.004 E0.03820 ; perimeter
G1 X75.955 Y85.467 E0.03820 ; perimeter
G1 X76.248 Y85.886 E0.03820 ; perimeter
G1 X76.610 Y86.248 E0.03820 ; perimeter
G1 X77.029 Y86.541 E0.03820 ; perimeter
G1 X77.492 Y86.757 E0.03820 ; perimeter
G1 X77.986 Y86.890 E0.03820 ; perimeter
G1 X78.850 Y86.965 E0.06476 ; perimeter
G1 X77.341 Y89.088 E0.19456 ; perimeter
G1 X76.310 Y90.910 E0.15634 ; perimeter
G1 X75.471 Y92.828 E0.15634 ; perimeter
G1 X74.835 Y94.822 E0.15633 ; perimeter
G1 X74.382 Y96.990 E0.16539 ; perimeter
G1 F1800.000 E-2.40000 ; retract
G1 X100.942 Y80.702 F6000.000 ; move to first perimeter point
G1 E2.40000 F1800.000 ; compensate retraction
G1 X101.015 Y80.330 E0.02836 F900.000 ; perimeter
G1 X120.455 Y80.330 E1.45187 ; perimeter
G1 X121.729 Y80.421 E0.09543 ; perimeter
G1 X122.937 Y80.684 E0.09236 ; perimeter
G1 X124.694 Y81.339 E0.14005 ; perimeter
G1 X124.589 Y81.805 E0.03570 ; perimeter
G1 X122.996 Y81.666 E0.11947 ; perimeter
G1 X121.722 Y81.777 E0.09548 ; perimeter
G1 X120.487 Y82.108 E0.09548 ; perimeter
G1 X119.329 Y82.648 E0.09548 ; perimeter
G1 X118.281 Y83.382 E0.09548 ; perimeter
G1 X117.377 Y84.286 E0.09548 ; perimeter
G1 X116.644 Y85.333 E0.09548 ; perimeter
G1 X116.104 Y86.492 E0.09548 ; perimeter
G1 X115.773 Y87.726 E0.09548 ; perimeter
G1 X115.666 Y88.950 E0.09172 ; perimeter
G1 X115.666 Y111.050 E1.65058 ; perimeter
G1 X115.773 Y112.274 E0.09171 ; perimeter
G1 X116.104 Y113.508 E0.09548 ; perimeter
G1 X116.644 Y114.667 E0.09548 ; perimeter
G1 X117.377 Y115.714 E0.09547 ; perimeter
G1 X118.281 Y116.618 E0.09548 ; perimeter
G1 X119.329 Y117.352 E0.09548 ; perimeter
G1 X120.487 Y117.892 E0.09548 ; perimeter
G1 X121.722 Y118.223 E0.09547 ; perimeter
G1 X122.996 Y118.334 E0.09549 ; perimeter
G1 X124.589 Y118.195 E0.11947 ; perimeter
G1 X124.694 Y118.661 E0.03570 ; perimeter
G1 X122.938 Y119.316 E0.14005 ; perimeter
G1 X121.729 Y119.579 E0.09235 ; perimeter
G1 X120.455 Y119.670 E0.09544 ; perimeter
G1 X101.015 Y119.670 E1.45187 ; perimeter
G1 X100.942 Y119.298 E0.02836 ; perimeter
G1 X103.114 Y118.414 E0.17517 ; perimeter
G1 X104.962 Y117.430 E0.15633 ; perimeter
G1 X106.699 Y116.262 E0.15633 ; perimeter
G1 X107.524 Y115.573 E0.08027 ; perimeter
G1 X107.606 Y116.510 E0.07020 ; perimeter
G1 X107.738 Y117.004 E0.03819 ; perimeter
G1 X107.955 Y117.467 E0.03821 ; perimeter
G1 X108.248 Y117.886 E0.03818 ; perimeter
G1 X108.610 Y118.248 E0.03821 ; perimeter
G1 X109.029 Y118.541 E0.03821 ; perimeter
G1 X109.492 Y118.757 E0.03818 ; perimeter
G1 X109.986 Y118.890 E0.03820 ; perimeter
G1 X110.496 Y118.934 E0.03819 ; perimeter
G1 X111.005 Y118.890 E0.03821 ; perimeter
G1 X111.499 Y118.757 E0.03820 ; perimeter
G1 X111.963 Y118.541 E0.03817 ; perimeter
G1 X112.382 Y118.248 E0.03821 ; perimeter
G1 X112.743 Y117.886 E0.03819 ; perimeter
G1 X113.037 Y117.467 E0.03822 ; perimeter
G1 X113.253 Y117.003 E0.03820 ; perimeter
G1 X113.385 Y116.510 E0.03818 ; perimeter
G1 X113.430 Y116.000 E0.03821 ; perimeter
G1 X113.385 Y115.491 E0.03819 ; perimeter
G1 X113.253 Y114.996 E0.03821 ; perimeter
G1 X113.037 Y114.533 E0.03818 ; perimeter
G1 X112.743 Y114.114 E0.03821 ; perimeter
G1 X112.382 Y113.752 E0.03819 ; perimeter
G1 X111.963 Y113.459 E0.03820 ; perimeter
G1 X111.499 Y113.243 E0.03818 ; perimeter
G1 X111.005 Y113.110 E0.03821 ; perimeter
G1 X110.078 Y113.029 E0.06954 ; perimeter
G1 X111.066 Y111.780 E0.11897 ; perimeter
G1 X112.190 Y110.014 E0.15634 ; perimeter
G1 X113.126 Y108.141 E0.15636 ; perimeter
G1 X113.864 Y106.183 E0.15631 ; perimeter
G1 X114.397 Y104.159 E0.15634 ; perimeter
G1 X114.719 Y102.090 E0.15633 ; perimeter
G1 X114.827 Y100.000 E0.15633 ; perimeter
G1 X114.719 Y97.910 E0.15634 ; perimeter
G1 X114.591 Y97.086 E0.06226 ; perimeter
G1 X114.397 Y95.841 E0.09408 ; perimeter
G1 X113.864 Y93.817 E0.15633 ; perimeter
G1 X113.126 Y91.858 E0.15633 ; perimeter
G1 X112.190 Y89.986 E0.15634 ; perimeter
G1 X111.066 Y88.219 E0.15635 ; perimeter
G1 X110.078 Y86.971 E0.11895 ; perimeter
G1 X111.005 Y86.890 E0.06954 ; perimeter
G1 X111.499 Y86.757 E0.03820 ; perimeter
G1 X111.963 Y86.541 E0.03819 ; perimeter
G1 X112.382 Y86.248 E0.03820 ; perimeter
G1 X112.743 Y85.886 E0.03819 ; perimeter
G1 X113.037 Y85.467 E0.03821 ; perimeter
G1 X113.253 Y85.003 E0.03819 ; perimeter
G1 X113.385 Y84.510 E0.03818 ; perimeter
G1 X113.430 Y84.000 E0.03821 ; perimeter
G1 X113.385 Y83.491 E0.03818 ; perimeter
G1 X113.253 Y82.996 E0.03821 ; perimeter
G1 X113.037 Y82.533 E0.03819 ; perimeter
G1 X112.743 Y82.114 E0.03820 ; perimeter
G1 X112.382 Y81.752 E0.03820 ; perimeter
G1 X111.963 Y81.459 E0.03819 ; perimeter
G1 X111.499 Y81.243 E0.03819 ; perimeter
G1 X111.296 Y81.188 E0.01575 ; perimeter
G1 X111.005 Y81.110 E0.02245 ; perimeter
G1 X110.496 Y81.066 E0.03820 ; perimeter
G1 X109.986 Y81.110 E0.03820 ; perimeter
G1 X109.492 Y81.243 E0.03820 ; perimeter
G1 X109.029 Y81.459 E0.03820 ; perimeter
G1 X108.610 Y81.752 E0.03819 ; perimeter
G1 X108.248 Y82.114 E0.03819 ; perimeter
G1 X107.955 Y82.533 E0.03820 ; perimeter
G1 X107.738 Y82.996 E0.03819 ; perimeter
G1 X107.606 Y83.491 E0.03821 ; perimeter
G1 X107.524 Y84.427 E0.07019 ; perimeter
G1 X106.699 Y83.738 E0.08027 ; perimeter
G1 X104.962 Y82.570 E0.15634 ; perimeter
G1 X103.114 Y81.586 E0.15633 ; perimeter
G1 X101.046 Y80.745 E0.16677 ; perimeter
G1 X100.929 Y81.505 F6000.000 ; move to first perimeter point
G1 X102.797 Y82.265 E0.15057 F900.000 ; perimeter
G1 X104.576 Y83.212 E0.15057 ; perimeter
G1 X106.249 Y84.338 E0.15057 ; perimeter
G1 X107.797 Y85.629 E0.15057 ; perimeter
G1 X109.204 Y87.073 E0.15057 ; perimeter
G1 X110.455 Y88.654 E0.15057 ; perimeter
G1 X111.537 Y90.355 E0.15058 ; perimeter
