; generated by Slic3r 1.0.1 on 2014-10-05 at 11:05:44

; layer_height = 0.24
; perimeters = 2
; top_solid_layers = 4
; bottom_solid_layers = 4
; fill_density = 0.25
; perimeter_speed = 30
; infill_speed = 30
; travel_speed = 100
; nozzle_diameter = 0.5
; filament_diameter = 1.75
; extrusion_multiplier = 1
; perimeters extrusion width = 0.50mm
; infill extrusion width = 0.50mm
; solid infill extrusion width = 0.50mm
; top infill extrusion width = 0.50mm
; first layer extrusion width = 0.80mm

G21 ; set units to millimeters
M107 ; disable fan
M190 S57 ; wait for bed temperature to be reached
M104 S200 ; set temperature

M109 S200 ; wait for temperature to be reached
G90 ; use absolute coordinates
M83 ; use relative distances for extrusion
G1 F1800.000 E-2.40000 ; retract
G1 Z0.240 F6000.000 ; move to next layer (0)
G1 X69.110 Y68.110 F6000.000 ; move to first skirt point
G1 E2.40000 F1800.000 ; compensate retraction
G1 X70.250 Y67.240 E0.10710 F900.000 ; skirt
G1 X71.580 Y66.690 E0.10749 ; skirt
G1 X73.000 Y66.500 E0.10700 ; skirt
G1 X126.990 Y66.500 E4.03225 ; skirt
G1 X128.410 Y66.690 E0.10700 ; skirt
G1 X129.740 Y67.240 E0.10749 ; skirt
G1 X130.870 Y68.110 E0.10651 ; skirt
G1 X136.870 Y74.100 E0.63320 ; skirt
G1 X137.750 Y75.240 E0.10756 ; skirt
G1 X138.300 Y76.570 E0.10749 ; skirt
G1 X138.490 Y77.990 E0.10700 ; skirt
G1 X138.490 Y122.000 E3.28690 ; skirt
G1 X138.300 Y123.420 E0.10700 ; skirt
G1 X137.750 Y124.750 E0.10749 ; skirt
G1 X136.880 Y125.890 E0.10710 ; skirt
G1 X130.880 Y131.890 E0.63372 ; skirt
G1 X129.740 Y132.760 E0.10710 ; skirt
G1 X128.410 Y133.310 E0.10749 ; skirt
G1 X126.990 Y133.500 E0.10700 ; skirt
G1 X73.000 Y133.500 E4.03225 ; skirt
G1 X71.580 Y133.310 E0.10700 ; skirt
G1 X70.250 Y132.760 E0.10749 ; skirt
G1 X69.110 Y131.890 E0.10710 ; skirt
G1 X63.110 Y125.890 E0.63372 ; skirt
G1 X62.240 Y124.750 E0.10710 ; skirt
G1 X61.690 Y123.420 E0.10749 ; skirt
G1 X61.500 Y122.000 E0.10700 ; skirt
G1 X61.500 Y78.000 E3.28615 ; skirt
G1 X61.690 Y76.580 E0.10700 ; skirt
G1 X62.240 Y75.250 E0.10749 ; skirt
G1 X63.110 Y74.110 E0.10710 ; skirt
G1 X69.031 Y68.189 E0.62534 ; skirt
G1 X69.640 Y68.640 F6000.000 ; move to first skirt point
G1 X70.630 Y67.890 E0.09276 F900.000 ; skirt
G1 X71.770 Y67.410 E0.09238 ; skirt
G1 X73.000 Y67.250 E0.09264 ; skirt
G1 X126.990 Y67.250 E4.03225 ; skirt
G1 X128.220 Y67.410 E0.09264 ; skirt
G1 X129.360 Y67.890 E0.09238 ; skirt
G1 X130.340 Y68.640 E0.09217 ; skirt
G1 X136.340 Y74.630 E0.63320 ; skirt
G1 X137.100 Y75.610 E0.09262 ; skirt
G1 X137.580 Y76.760 E0.09307 ; skirt
G1 X137.740 Y77.990 E0.09264 ; skirt
G1 X137.740 Y122.000 E3.28690 ; skirt
G1 X137.580 Y123.230 E0.09264 ; skirt
G1 X137.100 Y124.370 E0.09238 ; skirt
G1 X136.350 Y125.360 E0.09276 ; skirt
G1 X130.350 Y131.360 E0.63372 ; skirt
G1 X129.360 Y132.110 E0.09276 ; skirt
G1 X128.220 Y132.590 E0.09238 ; skirt
G1 X126.990 Y132.750 E0.09264 ; skirt
G1 X73.000 Y132.750 E4.03225 ; skirt
G1 X71.770 Y132.590 E0.09264 ; skirt
G1 X70.630 Y132.110 E0.09238 ; skirt
G1 X69.640 Y131.360 E0.09276 ; skirt
G1 X63.640 Y125.360 E0.63372 ; skirt
G1 X62.890 Y124.370 E0.09276 ; skirt
G1 X62.410 Y123.230 E0.09238 ; skirt
G1 X62.250 Y122.000 E0.09264 ; skirt
G1 X62.250 Y78.000 E3.28615 ; skirt
G1 X62.410 Y76.770 E0.09264 ; skirt
G1 X62.890 Y75.630 E0.09238 ; skirt
G1 X63.640 Y74.640 E0.09276 ; skirt
G1 X69.561 Y68.719 E0.62534 ; skirt
G1 F1800.000 E-2.40000 ; retract
G1 X73.166 Y103.400 F6000.000 ; move to first perimeter point
G1 E2.40000 F1800.000 ; compensate retraction
G1 X90.834 Y103.400 E1.31958 F900.000 ; perimeter
G1 X96.600 Y109.166 E0.60898 ; perimeter
G1 X96.600 Y121.834 E0.94616 ; perimeter
G1 X90.834 Y127.600 E0.60898 ; perimeter
G1 X73.166 Y127.600 E1.31958 ; perimeter
G1 X67.400 Y121.834 E0.60898 ; perimeter
G1 X67.400 Y109.166 E0.94616 ; perimeter
G1 X73.086 Y103.479 E0.60059 ; perimeter
G1 X73.695 Y103.929 F6000.000 ; move inwards before travel
G1 F1800.000 E-2.40000 ; retract
G1 X68.148 Y109.476 F6000.000 ; move to first perimeter point
G1 E2.40000 F1800.000 ; compensate retraction
G1 X73.476 Y104.148 E0.56267 F900.000 ; perimeter
G1 X90.524 Y104.148 E1.27327 ; perimeter
G1 X95.852 Y109.476 E0.56267 ; perimeter
G1 X95.852 Y121.524 E0.89985 ; perimeter
G1 X92.364 Y125.012 E0.36837 ; perimeter
G1 X91.979 Y124.717 E0.03623 ; perimeter
G1 X93.836 Y121.500 E0.27740 ; perimeter
G1 X91.668 Y117.745 E0.32385 ; perimeter
G1 X87.332 Y117.745 E0.32385 ; perimeter
G1 X85.164 Y121.500 E0.32385 ; perimeter
G1 X87.332 Y125.255 E0.32385 ; perimeter
G1 X92.121 Y125.255 E0.35764 ; perimeter
G1 X90.524 Y126.852 E0.16860 ; perimeter
G1 X73.476 Y126.852 E1.27327 ; perimeter
G1 X71.879 Y125.255 E0.16860 ; perimeter
G1 X76.668 Y125.255 E0.35764 ; perimeter
G1 X78.836 Y121.500 E0.32385 ; perimeter
G1 X76.668 Y117.745 E0.32385 ; perimeter
G1 X72.332 Y117.745 E0.32385 ; perimeter
G1 X70.164 Y121.500 E0.32385 ; perimeter
G1 X72.021 Y124.717 E0.27740 ; perimeter
G1 X71.636 Y125.012 E0.03623 ; perimeter
G1 X68.148 Y121.524 E0.36837 ; perimeter
G1 X68.148 Y109.588 E0.89146 ; perimeter
G1 F1800.000 E-2.40000 ; retract
G1 X72.764 Y118.493 F6000.000 ; move to first perimeter point
G1 E2.40000 F1800.000 ; compensate retraction
G1 X76.236 Y118.493 E0.25930 F780.000 ; perimeter
G1 X77.972 Y121.500 E0.25930 ; perimeter
G1 X76.236 Y124.507 E0.25930 ; perimeter
G1 X72.764 Y124.507 E0.25930 ; perimeter
G1 X71.028 Y121.500 E0.25930 ; perimeter
G1 X72.708 Y118.590 E0.25091 ; perimeter
G1 X72.894 Y117.756 F6000.000 ; move inwards before travel
G1 F1800.000 E-2.40000 ; retract
G1 X74.066 Y111.404 F6000.000 ; move to first perimeter point
G1 E2.40000 F1800.000 ; compensate retraction
G1 X73.653 Y111.259 E0.03265 F780.000 ; perimeter
G1 X73.283 Y111.027 E0.03265 ; perimeter
G1 X72.973 Y110.717 E0.03265 ; perimeter
G1 X72.741 Y110.347 E0.03265 ; perimeter
G1 X72.596 Y109.934 E0.03265 ; perimeter
G1 X72.547 Y109.500 E0.03265 ; perimeter
G1 X72.596 Y109.066 E0.03265 ; perimeter
G1 X72.741 Y108.653 E0.03265 ; perimeter
G1 X72.973 Y108.283 E0.03265 ; perimeter
G1 X73.283 Y107.973 E0.03265 ; perimeter
G1 X73.653 Y107.741 E0.03265 ; perimeter
G1 X74.066 Y107.596 E0.03265 ; perimeter
G1 X74.500 Y107.547 E0.03265 ; perimeter
G1 X74.934 Y107.596 E0.03265 ; perimeter
G1 X75.347 Y107.741 E0.03265 ; perimeter
G1 X75.717 Y107.973 E0.03265 ; perimeter
G1 X76.027 Y108.283 E0.03265 ; perimeter
G1 X76.259 Y108.653 E0.03265 ; perimeter
G1 X76.404 Y109.066 E0.03265 ; perimeter
G1 X76.453 Y109.500 E0.03265 ; perimeter
G1 X76.404 Y109.934 E0.03265 ; perimeter
G1 X76.259 Y110.347 E0.03265 ; perimeter
G1 X76.027 Y110.717 E0.03265 ; perimeter
G1 X75.717 Y111.027 E0.03265 ; perimeter
G1 X75.347 Y111.259 E0.03265 ; perimeter
G1 X74.934 Y111.404 E0.03265 ; perimeter
G1 X74.500 Y111.453 E0.03265 ; perimeter
G1 X74.177 Y111.416 E0.02427 ; perimeter
G1 X73.756 Y111.713 F6000.000 ; move inwards before travel
G1 X73.898 Y112.138 F6000.000 ; move to first perimeter point
G1 X73.326 Y111.938 E0.04525 F780.000 ; perimeter
G1 X72.813 Y111.615 E0.04525 ; perimeter
G1 X72.385 Y111.187 E0.04525 ; perimeter
G1 X72.062 Y110.674 E0.04525 ; perimeter
G1 X71.862 Y110.102 E0.04525 ; perimeter
G1 X71.794 Y109.500 E0.04525 ; perimeter
G1 X71.862 Y108.898 E0.04525 ; perimeter
G1 X72.062 Y108.326 E0.04525 ; perimeter
G1 X72.385 Y107.813 E0.04525 ; perimeter
G1 X72.813 Y107.385 E0.04525 ; perimeter
G1 X73.326 Y107.062 E0.04525 ; perimeter
G1 X73.898 Y106.862 E0.04525 ; perimeter
G1 X74.500 Y106.794 E0.04525 ; perimeter
G1 X75.102 Y106.862 E0.04525 ; perimeter
G1 X75.674 Y107.062 E0.04525 ; perimeter
G1 X76.187 Y107.385 E0.04525 ; perimeter
G1 X76.615 Y107.813 E0.04525 ; perimeter
G1 X76.938 Y108.326 E0.04525 ; perimeter
G1 X77.138 Y108.898 E0.04525 ; perimeter
G1 X77.206 Y109.500 E0.04525 ; perimeter
G1 X77.138 Y110.102 E0.04525 ; perimeter
G1 X76.938 Y110.674 E0.04525 ; perimeter
G1 X76.615 Y111.187 E0.04525 ; perimeter
G1 X76.187 Y111.615 E0.04525 ; perimeter
G1 X75.674 Y111.938 E0.04525 ; perimeter
G1 X75.102 Y112.138 E0.04525 ; perimeter
G1 X74.500 Y112.206 E0.04525 ; perimeter
G1 X74.009 Y112.150 E0.03687 ; perimeter
G1 F1800.000 E-2.40000 ; retract
G1 X87.596 Y109.934 F6000.000 ; move to first perimeter point
G1 E2.40000 F1800.000 ; compensate retraction
G1 X87.547 Y109.500 E0.03265 F780.000 ; perimeter
G1 X87.596 Y109.066 E0.03265 ; perimeter
G1 X87.741 Y108.653 E0.03265 ; perimeter
G1 X87.973 Y108.283 E0.03265 ; perimeter
G1 X88.283 Y107.973 E0.03265 ; perimeter
G1 X88.653 Y107.741 E0.03265 ; perimeter
G1 X89.066 Y107.596 E0.03265 ; perimeter
G1 X89.500 Y107.547 E0.03265 ; perimeter
G1 X89.934 Y107.596 E0.03265 ; perimeter
G1 X90.347 Y107.741 E0.03265 ; perimeter
G1 X90.717 Y107.973 E0.03265 ; perimeter
G1 X91.027 Y108.283 E0.03265 ; perimeter
G1 X91.259 Y108.653 E0.03265 ; perimeter
G1 X91.404 Y109.066 E0.03265 ; perimeter
G1 X91.453 Y109.500 E0.03265 ; perimeter
G1 X91.404 Y109.934 E0.03265 ; perimeter
G1 X91.259 Y110.347 E0.03265 ; perimeter
G1 X91.027 Y110.717 E0.03265 ; perimeter
G1 X90.717 Y111.027 E0.03265 ; perimeter
G1 X90.347 Y111.259 E0.03265 ; perimeter
G1 X89.934 Y111.404 E0.03265 ; perimeter
G1 X89.500 Y111.453 E0.03265 ; perimeter
G1 X89.066 Y111.404 E0.03265 ; perimeter
G1 X88.653 Y111.259 E0.03265 ; perimeter
G1 X88.283 Y111.027 E0.03265 ; perimeter
G1 X87.973 Y110.717 E0.03265 ; perimeter
G1 X87.741 Y110.347 E0.03265 ; perimeter
G1 X87.634 Y110.040 E0.02427 ; perimeter
G1 X87.184 Y109.790 F6000.000 ; move inwards before travel
G1 X86.862 Y110.102 F6000.000 ; move to first perimeter point
G1 X86.794 Y109.500 E0.04525 F780.000 ; perimeter
G1 X86.862 Y108.898 E0.04525 ; perimeter
G1 X87.062 Y108.326 E0.04525 ; perimeter
G1 X87.385 Y107.813 E0.04525 ; perimeter
G1 X87.813 Y107.385 E0.04525 ; perimeter
G1 X88.326 Y107.062 E0.04525 ; perimeter
G1 X88.898 Y106.862 E0.04525 ; perimeter
G1 X89.500 Y106.794 E0.04525 ; perimeter
G1 X90.102 Y106.862 E0.04525 ; perimeter
G1 X90.674 Y107.062 E0.04525 ; perimeter
G1 X91.187 Y107.385 E0.04525 ; perimeter
G1 X91.615 Y107.813 E0.04525 ; perimeter
G1 X91.938 Y108.326 E0.04525 ; perimeter
G1 X92.138 Y108.898 E0.04525 ; perimeter
G1 X92.206 Y109.500 E0.04525 ; perimeter
G1 X92.138 Y110.102 E0.04525 ; perimeter
G1 X91.938 Y110.674 E0.04525 ; perimeter
G1 X91.615 Y111.187 E0.04525 ; perimeter
G1 X91.187 Y111.615 E0.04525 ; perimeter
G1 X90.674 Y111.938 E0.04525 ; perimeter
G1 X90.102 Y112.138 E0.04525 ; perimeter
G1 X89.500 Y112.206 E0.04525 ; perimeter
G1 X88.898 Y112.138 E0.04525 ; perimeter
G1 X88.326 Y111.938 E0.04525 ; perimeter
G1 X87.813 Y111.615 E0.04525 ; perimeter
G1 X87.385 Y111.187 E0.04525 ; perimeter
G1 X87.062 Y110.674 E0.04525 ; perimeter
G1 X86.899 Y110.208 E0.03687 ; perimeter
G1 F1800.000 E-2.40000 ; retract
G1 X87.764 Y118.493 F6000.000 ; move to first perimeter point
G1 E2.40000 F1800.000 ; compensate retraction
G1 X91.236 Y118.493 E0.25930 F780.000 ; perimeter
G1 X92.972 Y121.500 E0.25930 ; perimeter
G1 X91.236 Y124.507 E0.25930 ; perimeter
G1 X87.764 Y124.507 E0.25930 ; perimeter
G1 X86.028 Y121.500 E0.25930 ; perimeter
G1 X87.708 Y118.590 E0.25091 ; perimeter
G1 X87.894 Y117.756 F6000.000 ; move inwards before travel
G1 F1800.000 E-2.40000 ; retract
G1 X91.143 Y117.212 F6000.000 ; move to first fill point
G1 E2.40000 F1800.000 ; compensate retraction
G1 X78.612 Y104.681 E1.32734 F900.000 ; fill
G1 X79.674 Y104.681 E0.07951 ; fill
G1 X95.319 Y120.326 E1.65720 ; fill
G1 X95.270 Y121.339 E0.07592 ; fill
G1 X93.113 Y119.182 E0.22848 ; fill
G1 F1800.000 E-2.40000 ; retract
G1 X95.319 Y117.141 F6000.000 ; move to first fill point
G1 E2.40000 F1800.000 ; compensate retraction
G1 X90.678 Y112.501 E0.49158 F900.000 ; fill
G1 X91.369 Y112.130 E0.05873 ; fill
G1 X95.319 Y116.080 E0.41838 ; fill
G1 X95.319 Y115.018 E0.07951 ; fill
G1 X91.928 Y111.628 E0.35916 ; fill
G1 X92.362 Y111.000 E0.05715 ; fill
G1 X95.319 Y113.957 E0.31320 ; fill
G1 X95.319 Y112.895 E0.07951 ; fill
G1 X92.656 Y110.233 E0.28201 ; fill
G1 X93.247 Y109.762 E0.05658 ; fill
G1 X95.319 Y111.834 E0.21943 ; fill
G1 X95.319 Y110.772 E0.07951 ; fill
G1 X92.912 Y108.366 E0.25490 ; fill
G1 X93.060 Y107.451 E0.06937 ; fill
G1 X95.319 Y109.710 E0.23931 ; fill
G1 F1800.000 E-2.40000 ; retract
G1 X91.549 Y105.940 F6000.000 ; move to first fill point
G1 E2.40000 F1800.000 ; compensate retraction
G1 X90.290 Y104.681 E0.13338 F900.000 ; fill
G1 X89.228 Y104.681 E0.07951 ; fill
G1 X90.634 Y106.088 E0.14897 ; fill
G1 X89.238 Y105.753 E0.10755 ; fill
G1 X88.166 Y104.681 E0.11351 ; fill
G1 X87.105 Y104.681 E0.07951 ; fill
G1 X88.767 Y106.344 E0.17609 ; fill
G1 X88.000 Y106.638 E0.06155 ; fill
G1 X86.043 Y104.681 E0.20727 ; fill
G1 X84.982 Y104.681 E0.07951 ; fill
G1 X87.372 Y107.072 E0.25324 ; fill
G1 X86.870 Y107.631 E0.05630 ; fill
G1 X83.920 Y104.681 E0.31246 ; fill
G1 X82.858 Y104.681 E0.07951 ; fill
G1 X86.499 Y108.322 E0.38565 ; fill
G1 X86.294 Y109.179 E0.06598 ; fill
G1 X81.797 Y104.681 E0.47640 ; fill
G1 X80.735 Y104.681 E0.07951 ; fill
G1 X86.374 Y110.320 E0.59726 ; fill
G1 F1800.000 E-2.40000 ; retract
G1 X88.680 Y112.626 F6000.000 ; move to first fill point
G1 E2.40000 F1800.000 ; compensate retraction
G1 X95.319 Y119.265 E0.70319 F900.000 ; fill
G1 X95.319 Y118.203 E0.07951 ; fill
G1 X89.821 Y112.706 E0.58232 ; fill
G1 F1800.000 E-2.40000 ; retract
G1 X85.635 Y123.381 F6000.000 ; move to first fill point
G1 E2.40000 F1800.000 ; compensate retraction
G1 X74.945 Y112.692 E1.13229 F900.000 ; fill
G1 X75.780 Y112.465 E0.06480 ; fill
G1 X84.646 Y121.331 E0.93914 ; fill
G1 X85.035 Y120.658 E0.05821 ; fill
G1 X76.454 Y112.077 E0.90895 ; fill
G1 X76.997 Y111.559 E0.05624 ; fill
G1 X85.423 Y119.985 E0.89256 ; fill
G1 X85.812 Y119.312 E0.05821 ; fill
G1 X77.415 Y110.915 E0.88942 ; fill
G1 X77.673 Y110.111 E0.06323 ; fill
G1 X86.201 Y118.639 E0.90329 ; fill
G1 X86.589 Y117.966 E0.05821 ; fill
G1 X77.693 Y109.070 E0.94229 ; fill
G1 F1800.000 E-2.40000 ; retract
G1 X77.551 Y104.681 F6000.000 ; move to first fill point
G1 E2.40000 F1800.000 ; compensate retraction
G1 X90.082 Y117.212 E1.32734 F900.000 ; fill
G1 X89.020 Y117.212 E0.07951 ; fill
G1 X76.489 Y104.681 E1.32734 ; fill
G1 X75.427 Y104.681 E0.07951 ; fill
G1 X87.958 Y117.212 E1.32734 ; fill
G1 X86.978 Y117.293 E0.07371 ; fill
G1 X74.366 Y104.681 E1.33590 ; fill
G1 X73.507 Y104.884 E0.06608 ; fill
G1 X74.362 Y105.739 E0.09053 ; fill
G1 X73.576 Y106.014 E0.06240 ; fill
G1 X72.977 Y105.415 E0.06345 ; fill
G1 X72.470 Y105.970 E0.05628 ; fill
G1 X72.789 Y106.289 E0.03385 ; fill
G1 F1800.000 E-2.40000 ; retract
G1 X71.241 Y107.926 F6000.000 ; move to first fill point
G1 E2.40000 F1800.000 ; compensate retraction
G1 X70.853 Y107.538 E0.04109 F900.000 ; fill
G1 X70.323 Y108.069 E0.05622 ; fill
G1 X70.966 Y108.712 E0.06816 ; fill
G1 X70.691 Y109.499 E0.06240 ; fill
G1 X69.792 Y108.600 E0.09524 ; fill
G1 X71.141 Y109.949 F6000.000 ; move to first fill point
G1 X71.330 Y110.138 E0.02000 F900.000 ; fill
G1 F1800.000 E-2.40000 ; retract
G1 X73.862 Y112.670 F6000.000 ; move to first fill point
G1 E2.40000 F1800.000 ; compensate retraction
G1 X86.289 Y125.097 E1.31632 F900.000 ; fill
G1 F1800.000 E-2.40000 ; retract
G1 X79.374 Y121.367 F6000.000 ; move to first fill point
G1 E2.40000 F1800.000 ; compensate retraction
G1 X84.326 Y126.319 E0.52452 F900.000 ; fill
G1 X83.265 Y126.319 E0.07951 ; fill
G1 X79.083 Y122.137 E0.44292 ; fill
G1 X78.695 Y122.810 E0.05821 ; fill
G1 X82.203 Y126.319 E0.37163 ; fill
G1 X81.142 Y126.319 E0.07951 ; fill
G1 X78.306 Y123.483 E0.30034 ; fill
G1 X77.918 Y124.156 E0.05821 ; fill
G1 X80.080 Y126.319 E0.22906 ; fill
G1 X79.018 Y126.319 E0.07951 ; fill
G1 X77.529 Y124.829 E0.15777 ; fill
G1 X77.414 Y125.776 E0.07145 ; fill
G1 X77.957 Y126.319 E0.05746 ; fill
G1 F1800.000 E-2.40000 ; retract
G1 X77.924 Y118.855 F6000.000 ; move to first fill point
G1 E2.40000 F1800.000 ; compensate retraction
G1 X85.388 Y126.319 E0.79057 F900.000 ; fill
G1 X86.449 Y126.319 E0.07951 ; fill
G1 X69.261 Y109.131 E1.82067 ; fill
G1 X68.730 Y109.661 E0.05622 ; fill
G1 X76.281 Y117.212 E0.79982 ; fill
