; generated by Slic3r 1.1.6 on 2015-05-17 at 22:24:04

; perimeters extrusion width = 0.50mm
; infill extrusion width = 0.50mm
; solid infill extrusion width = 0.50mm
; top infill extrusion width = 0.50mm

G21 ; set units to millimeters
M107 ; disable fan
M190 S57 ; wait for bed temperature to be reached
M104 S185 ; set temperature

M109 S185 ; wait for temperature to be reached
G90 ; use absolute coordinates
M83 ; use relative distances for extrusion
G1 F1800.000 E-4.00000 ; retract
G1 Z0.240 F6000.000 ; move to next layer (0)
G1 X54.396 Y71.284 F6000.000 ; move to first skirt point
G1 E4.00000 F1800.000 ; compensate retraction
G1 X56.073 Y70.211 E0.07942 F600.000 ; skirt
G1 X57.875 Y69.875 E0.07318 ; skirt
G1 X142.125 Y69.875 E3.36260 ; skirt
G1 X144.075 Y70.271 E0.07942 ; skirt
G1 X145.716 Y71.396 E0.07942 ; skirt
G1 X146.789 Y73.073 E0.07942 ; skirt
G1 X147.125 Y74.875 E0.07318 ; skirt
G1 X147.125 Y125.125 E2.00559 ; skirt
G1 X146.729 Y127.075 E0.07942 ; skirt
G1 X145.604 Y128.716 E0.07942 ; skirt
G1 X143.927 Y129.789 E0.07942 ; skirt
G1 X142.125 Y130.125 E0.07318 ; skirt
G1 X57.875 Y130.125 E3.36260 ; skirt
G1 X55.925 Y129.729 E0.07942 ; skirt
G1 X54.284 Y128.604 E0.07942 ; skirt
G1 X53.211 Y126.927 E0.07942 ; skirt
G1 X52.875 Y125.125 E0.07318 ; skirt
G1 X52.875 Y74.875 E2.00559 ; skirt
G1 X53.271 Y72.925 E0.07942 ; skirt
G1 X54.354 Y71.345 E0.07643 ; skirt
G1 X54.888 Y71.510 F6000.000 ; move to first skirt point
G1 X56.530 Y70.581 E0.07531 F600.000 ; skirt
G1 X57.875 Y70.375 E0.05431 ; skirt
G1 X142.125 Y70.375 E3.36260 ; skirt
G1 X143.970 Y70.771 E0.07531 ; skirt
G1 X145.490 Y71.888 E0.07531 ; skirt
G1 X146.419 Y73.530 E0.07531 ; skirt
G1 X146.625 Y74.875 E0.05431 ; skirt
G1 X146.625 Y125.125 E2.00559 ; skirt
G1 X146.229 Y126.970 E0.07531 ; skirt
G1 X145.112 Y128.490 E0.07531 ; skirt
G1 X143.470 Y129.419 E0.07531 ; skirt
G1 X142.125 Y129.625 E0.05431 ; skirt
G1 X57.875 Y129.625 E3.36260 ; skirt
G1 X56.030 Y129.229 E0.07531 ; skirt
G1 X54.510 Y128.112 E0.07531 ; skirt
G1 X53.581 Y126.470 E0.07531 ; skirt
G1 X53.375 Y125.125 E0.05431 ; skirt
G1 X53.375 Y74.875 E2.00559 ; skirt
G1 X53.771 Y73.030 E0.07531 ; skirt
G1 X54.843 Y71.570 E0.07231 ; skirt
G1 F1800.000 E-4.00000 ; retract
G1 X141.875 Y124.875 F6000.000 ; move to first perimeter point
G1 E4.00000 F1800.000 ; compensate retraction
G1 X58.125 Y124.875 E3.34264 F900.000 ; perimeter
G1 X58.125 Y75.125 E1.98563 ; perimeter
G1 X141.875 Y75.125 E3.34264 ; perimeter
G1 X141.875 Y124.800 E1.98264 ; perimeter
G1 X141.442 Y124.625 F6000.000 ; move inwards before travel
G1 X141.375 Y124.375 F6000.000 ; move to first perimeter point
G1 X58.625 Y124.375 E3.30273 F900.000 ; perimeter
G1 X58.625 Y75.625 E1.94572 ; perimeter
G1 X141.375 Y75.625 E3.30273 ; perimeter
G1 X141.375 Y124.300 E1.94272 ; perimeter
G1 F1800.000 E-4.00000 ; retract
G1 X70.739 Y115.197 F6000.000 ; move to first perimeter point
G1 E4.00000 F1800.000 ; compensate retraction
G1 X70.652 Y115.580 E0.01565 F900.000 ; perimeter
G1 X70.482 Y115.933 E0.01565 ; perimeter
G1 X70.246 Y116.229 E0.01509 ; perimeter
G1 X66.691 Y119.784 E0.20068 ; perimeter
G1 X66.395 Y120.020 E0.01509 ; perimeter
G1 X66.042 Y120.190 E0.01566 ; perimeter
G1 X65.659 Y120.277 E0.01565 ; perimeter
G1 X65.267 Y120.277 E0.01565 ; perimeter
G1 X64.885 Y120.190 E0.01565 ; perimeter
G1 X64.531 Y120.020 E0.01565 ; perimeter
G1 X64.225 Y119.775 E0.01566 ; perimeter
G1 X63.980 Y119.469 E0.01566 ; perimeter
G1 X63.810 Y119.115 E0.01565 ; perimeter
G1 X63.723 Y118.733 E0.01566 ; perimeter
G1 X63.723 Y118.341 E0.01565 ; perimeter
G1 X63.810 Y117.958 E0.01565 ; perimeter
G1 X63.980 Y117.605 E0.01565 ; perimeter
G1 X64.216 Y117.309 E0.01509 ; perimeter
G1 X67.771 Y113.754 E0.20068 ; perimeter
G1 X68.067 Y113.518 E0.01509 ; perimeter
G1 X68.420 Y113.348 E0.01566 ; perimeter
G1 X68.803 Y113.261 E0.01565 ; perimeter
G1 X69.195 Y113.261 E0.01565 ; perimeter
G1 X69.577 Y113.348 E0.01565 ; perimeter
G1 X69.931 Y113.518 E0.01565 ; perimeter
G1 X70.237 Y113.763 E0.01566 ; perimeter
G1 X70.482 Y114.069 E0.01566 ; perimeter
G1 X70.652 Y114.423 E0.01565 ; perimeter
G1 X70.739 Y114.805 E0.01566 ; perimeter
G1 X70.739 Y115.122 E0.01266 ; perimeter
G1 X71.046 Y115.442 F6000.000 ; move inwards before travel
G1 X71.239 Y115.254 F6000.000 ; move to first perimeter point
G1 X71.127 Y115.746 E0.02015 F900.000 ; perimeter
G1 X70.908 Y116.201 E0.02015 ; perimeter
G1 X70.620 Y116.562 E0.01846 ; perimeter
G1 X67.024 Y120.158 E0.20293 ; perimeter
G1 X66.663 Y120.446 E0.01846 ; perimeter
G1 X66.208 Y120.665 E0.02016 ; perimeter
G1 X65.716 Y120.777 E0.02015 ; perimeter
G1 X65.211 Y120.777 E0.02015 ; perimeter
G1 X64.719 Y120.665 E0.02015 ; perimeter
G1 X64.264 Y120.446 E0.02015 ; perimeter
G1 X63.869 Y120.131 E0.02016 ; perimeter
G1 X63.554 Y119.736 E0.02016 ; perimeter
G1 X63.335 Y119.282 E0.02015 ; perimeter
G1 X63.223 Y118.789 E0.02015 ; perimeter
G1 X63.223 Y118.284 E0.02015 ; perimeter
G1 X63.335 Y117.792 E0.02015 ; perimeter
G1 X63.554 Y117.337 E0.02015 ; perimeter
G1 X63.842 Y116.976 E0.01846 ; perimeter
G1 X67.438 Y113.381 E0.20293 ; perimeter
G1 X67.799 Y113.092 E0.01846 ; perimeter
G1 X68.254 Y112.873 E0.02016 ; perimeter
G1 X68.746 Y112.761 E0.02015 ; perimeter
G1 X69.251 Y112.761 E0.02015 ; perimeter
G1 X69.743 Y112.873 E0.02015 ; perimeter
G1 X70.198 Y113.092 E0.02015 ; perimeter
G1 X70.593 Y113.407 E0.02016 ; perimeter
G1 X70.908 Y113.802 E0.02016 ; perimeter
G1 X71.127 Y114.257 E0.02015 ; perimeter
G1 X71.239 Y114.749 E0.02015 ; perimeter
G1 X71.239 Y115.179 E0.01715 ; perimeter
G1 F1800.000 E-4.00000 ; retract
G1 X76.560 Y108.504 F6000.000 ; move to first perimeter point
G1 E4.00000 F1800.000 ; compensate retraction
G1 X75.842 Y107.819 E0.03960 F900.000 ; perimeter
G1 X75.208 Y107.099 E0.03828 ; perimeter
G1 X74.638 Y106.328 E0.03828 ; perimeter
G1 X74.135 Y105.511 E0.03828 ; perimeter
G1 X73.703 Y104.655 E0.03828 ; perimeter
G1 X73.345 Y103.765 E0.03828 ; perimeter
G1 X73.064 Y102.847 E0.03828 ; perimeter
G1 X72.862 Y101.910 E0.03828 ; perimeter
G1 X72.740 Y100.958 E0.03828 ; perimeter
G1 X72.700 Y100.000 E0.03828 ; perimeter
G1 X72.740 Y99.042 E0.03828 ; perimeter
G1 X72.862 Y98.090 E0.03828 ; perimeter
G1 X73.064 Y97.153 E0.03828 ; perimeter
G1 X73.336 Y96.267 E0.03696 ; perimeter
G1 X73.703 Y95.345 E0.03960 ; perimeter
G1 X74.135 Y94.489 E0.03828 ; perimeter
G1 X74.638 Y93.672 E0.03828 ; perimeter
G1 X75.208 Y92.901 E0.03828 ; perimeter
G1 X75.842 Y92.181 E0.03828 ; perimeter
G1 X76.534 Y91.517 E0.03828 ; perimeter
G1 X77.280 Y90.915 E0.03828 ; perimeter
G1 X78.075 Y90.378 E0.03828 ; perimeter
G1 X78.884 Y89.926 E0.03696 ; perimeter
G1 X79.787 Y89.515 E0.03960 ; perimeter
G1 X80.691 Y89.195 E0.03828 ; perimeter
G1 X81.619 Y88.953 E0.03828 ; perimeter
G1 X82.565 Y88.791 E0.03828 ; perimeter
G1 X83.520 Y88.710 E0.03828 ; perimeter
G1 X84.480 Y88.710 E0.03828 ; perimeter
G1 X85.402 Y88.788 E0.03696 ; perimeter
G1 X86.381 Y88.953 E0.03960 ; perimeter
G1 X87.309 Y89.195 E0.03828 ; perimeter
G1 X88.213 Y89.515 E0.03828 ; perimeter
G1 X89.087 Y89.910 E0.03828 ; perimeter
G1 X89.925 Y90.378 E0.03828 ; perimeter
G1 X90.720 Y90.915 E0.03829 ; perimeter
G1 X91.440 Y91.496 E0.03696 ; perimeter
G1 X92.158 Y92.181 E0.03960 ; perimeter
G1 X92.792 Y92.901 E0.03828 ; perimeter
G1 X93.362 Y93.672 E0.03828 ; perimeter
G1 X93.865 Y94.489 E0.03828 ; perimeter
G1 X94.297 Y95.345 E0.03828 ; perimeter
G1 X94.655 Y96.235 E0.03828 ; perimeter
G1 X94.936 Y97.153 E0.03828 ; perimeter
G1 X95.138 Y98.090 E0.03828 ; perimeter
G1 X95.260 Y99.042 E0.03828 ; perimeter
G1 X95.300 Y100.000 E0.03828 ; perimeter
G1 X95.260 Y100.958 E0.03828 ; perimeter
G1 X95.138 Y101.910 E0.03828 ; perimeter
G1 X94.936 Y102.847 E0.03828 ; perimeter
G1 X94.655 Y103.765 E0.03828 ; perimeter
G1 X94.297 Y104.655 E0.03828 ; perimeter
G1 X93.865 Y105.511 E0.03828 ; perimeter
G1 X93.362 Y106.328 E0.03828 ; perimeter
G1 X92.792 Y107.099 E0.03828 ; perimeter
G1 X92.158 Y107.819 E0.03828 ; perimeter
G1 X91.466 Y108.483 E0.03828 ; perimeter
G1 X90.719 Y109.085 E0.03828 ; perimeter
G1 X89.925 Y109.622 E0.03828 ; perimeter
G1 X89.116 Y110.074 E0.03696 ; perimeter
G1 X88.213 Y110.485 E0.03960 ; perimeter
G1 X87.309 Y110.805 E0.03828 ; perimeter
G1 X86.381 Y111.047 E0.03828 ; perimeter
G1 X85.435 Y111.209 E0.03828 ; perimeter
G1 X84.480 Y111.290 E0.03828 ; perimeter
G1 X83.520 Y111.290 E0.03828 ; perimeter
G1 X82.565 Y111.209 E0.03828 ; perimeter
G1 X81.619 Y111.047 E0.03828 ; perimeter
G1 X80.691 Y110.805 E0.03828 ; perimeter
G1 X79.787 Y110.485 E0.03828 ; perimeter
G1 X78.913 Y110.090 E0.03828 ; perimeter
G1 X78.075 Y109.622 E0.03828 ; perimeter
G1 X77.281 Y109.085 E0.03828 ; perimeter
G1 X76.618 Y108.551 E0.03397 ; perimeter
G1 X76.084 Y108.658 F6000.000 ; move inwards before travel
G1 X76.246 Y108.893 F6000.000 ; move to first perimeter point
G1 X75.480 Y108.165 E0.04214 F900.000 ; perimeter
G1 X74.819 Y107.413 E0.03998 ; perimeter
G1 X74.223 Y106.608 E0.03998 ; perimeter
G1 X73.698 Y105.755 E0.03998 ; perimeter
G1 X73.247 Y104.861 E0.03998 ; perimeter
G1 X72.873 Y103.931 E0.03998 ; perimeter
G1 X72.580 Y102.974 E0.03998 ; perimeter
G1 X72.369 Y101.994 E0.03998 ; perimeter
G1 X72.242 Y101.001 E0.03998 ; perimeter
G1 X72.199 Y100.000 E0.03998 ; perimeter
G1 X72.242 Y98.999 E0.03998 ; perimeter
G1 X72.369 Y98.006 E0.03998 ; perimeter
G1 X72.580 Y97.026 E0.03998 ; perimeter
G1 X72.857 Y96.121 E0.03781 ; perimeter
G1 X73.247 Y95.139 E0.04214 ; perimeter
G1 X73.698 Y94.245 E0.03998 ; perimeter
G1 X74.223 Y93.392 E0.03998 ; perimeter
G1 X74.819 Y92.587 E0.03998 ; perimeter
G1 X75.480 Y91.835 E0.03998 ; perimeter
G1 X76.204 Y91.142 E0.03998 ; perimeter
G1 X76.983 Y90.512 E0.03998 ; perimeter
G1 X77.813 Y89.951 E0.03998 ; perimeter
G1 X78.640 Y89.489 E0.03781 ; perimeter
G1 X79.600 Y89.050 E0.04214 ; perimeter
G1 X80.545 Y88.717 E0.03998 ; perimeter
G1 X81.514 Y88.464 E0.03998 ; perimeter
G1 X82.501 Y88.295 E0.03998 ; perimeter
G1 X83.499 Y88.210 E0.03998 ; perimeter
G1 X84.501 Y88.210 E0.03998 ; perimeter
G1 X85.445 Y88.290 E0.03781 ; perimeter
G1 X86.486 Y88.464 E0.04214 ; perimeter
G1 X87.456 Y88.717 E0.03998 ; perimeter
G1 X88.400 Y89.050 E0.03998 ; perimeter
G1 X89.313 Y89.463 E0.03998 ; perimeter
G1 X90.187 Y89.951 E0.03998 ; perimeter
G1 X91.017 Y90.512 E0.03998 ; perimeter
G1 X91.754 Y91.107 E0.03781 ; perimeter
G1 X92.520 Y91.835 E0.04214 ; perimeter
G1 X93.181 Y92.587 E0.03998 ; perimeter
G1 X93.777 Y93.392 E0.03998 ; perimeter
G1 X94.302 Y94.245 E0.03998 ; perimeter
G1 X94.753 Y95.139 E0.03998 ; perimeter
G1 X95.127 Y96.069 E0.03998 ; perimeter
G1 X95.420 Y97.027 E0.03998 ; perimeter
G1 X95.631 Y98.006 E0.03998 ; perimeter
G1 X95.758 Y98.999 E0.03998 ; perimeter
G1 X95.801 Y100.000 E0.03998 ; perimeter
G1 X95.758 Y101.001 E0.03998 ; perimeter
G1 X95.631 Y101.994 E0.03998 ; perimeter
G1 X95.420 Y102.974 E0.03998 ; perimeter
G1 X95.127 Y103.931 E0.03998 ; perimeter
G1 X94.753 Y104.861 E0.03998 ; perimeter
G1 X94.302 Y105.755 E0.03998 ; perimeter
G1 X93.777 Y106.608 E0.03998 ; perimeter
G1 X93.181 Y107.413 E0.03998 ; perimeter
G1 X92.520 Y108.165 E0.03998 ; perimeter
G1 X91.796 Y108.858 E0.03998 ; perimeter
G1 X91.017 Y109.488 E0.03998 ; perimeter
G1 X90.187 Y110.049 E0.03998 ; perimeter
G1 X89.313 Y110.537 E0.03998 ; perimeter
G1 X88.449 Y110.927 E0.03781 ; perimeter
G1 X87.456 Y111.283 E0.04214 ; perimeter
G1 X86.486 Y111.536 E0.03998 ; perimeter
G1 X85.499 Y111.705 E0.03998 ; perimeter
G1 X84.501 Y111.790 E0.03998 ; perimeter
G1 X83.499 Y111.790 E0.03998 ; perimeter
G1 X82.501 Y111.705 E0.03998 ; perimeter
G1 X81.514 Y111.536 E0.03998 ; perimeter
G1 X80.545 Y111.283 E0.03998 ; perimeter
G1 X79.600 Y110.950 E0.03998 ; perimeter
G1 X78.687 Y110.537 E0.03998 ; perimeter
G1 X77.813 Y110.049 E0.03998 ; perimeter
G1 X76.983 Y109.488 E0.03998 ; perimeter
G1 X76.304 Y108.940 E0.03482 ; perimeter
G1 F1800.000 E-4.00000 ; retract
G1 X97.763 Y86.237 F6000.000 ; move to first perimeter point
G1 E4.00000 F1800.000 ; compensate retraction
G1 X97.518 Y85.931 E0.01566 F900.000 ; perimeter
G1 X97.348 Y85.577 E0.01566 ; perimeter
G1 X97.261 Y85.195 E0.01565 ; perimeter
G1 X97.261 Y84.803 E0.01565 ; perimeter
G1 X97.348 Y84.420 E0.01565 ; perimeter
G1 X97.518 Y84.067 E0.01565 ; perimeter
G1 X97.754 Y83.771 E0.01509 ; perimeter
G1 X101.309 Y80.216 E0.20068 ; perimeter
G1 X101.605 Y79.980 E0.01509 ; perimeter
G1 X101.958 Y79.810 E0.01565 ; perimeter
G1 X102.341 Y79.723 E0.01565 ; perimeter
G1 X102.733 Y79.723 E0.01565 ; perimeter
G1 X103.115 Y79.810 E0.01565 ; perimeter
G1 X103.469 Y79.980 E0.01565 ; perimeter
G1 X103.775 Y80.225 E0.01565 ; perimeter
G1 X104.020 Y80.531 E0.01566 ; perimeter
G1 X104.190 Y80.885 E0.01566 ; perimeter
G1 X104.277 Y81.267 E0.01565 ; perimeter
G1 X104.277 Y81.659 E0.01565 ; perimeter
G1 X104.190 Y82.042 E0.01565 ; perimeter
G1 X104.020 Y82.395 E0.01565 ; perimeter
G1 X103.784 Y82.691 E0.01509 ; perimeter
G1 X100.229 Y86.246 E0.20068 ; perimeter
G1 X99.933 Y86.482 E0.01509 ; perimeter
G1 X99.580 Y86.652 E0.01565 ; perimeter
G1 X99.233 Y86.731 E0.01421 ; perimeter
G1 X98.805 Y86.739 E0.01707 ; perimeter
G1 X98.423 Y86.652 E0.01565 ; perimeter
G1 X98.069 Y86.482 E0.01565 ; perimeter
G1 X97.821 Y86.284 E0.01266 ; perimeter
G1 X97.380 Y86.325 F6000.000 ; move inwards before travel
G1 X97.479 Y86.651 F6000.000 ; move to first perimeter point
G1 X97.407 Y86.593 E0.00369 F900.000 ; perimeter
G1 X97.092 Y86.198 E0.02016 ; perimeter
G1 X96.873 Y85.743 E0.02016 ; perimeter
G1 X96.761 Y85.251 E0.02015 ; perimeter
G1 X96.761 Y84.746 E0.02015 ; perimeter
G1 X96.873 Y84.254 E0.02015 ; perimeter
G1 X97.092 Y83.799 E0.02015 ; perimeter
G1 X97.380 Y83.438 E0.01846 ; perimeter
G1 X100.976 Y79.842 E0.20292 ; perimeter
G1 X101.337 Y79.554 E0.01846 ; perimeter
G1 X101.792 Y79.335 E0.02015 ; perimeter
G1 X102.194 Y79.243 E0.01646 ; perimeter
G1 X102.284 Y79.223 E0.00369 ; perimeter
G1 X102.789 Y79.223 E0.02015 ; perimeter
G1 X103.281 Y79.335 E0.02015 ; perimeter
G1 X103.736 Y79.554 E0.02015 ; perimeter
G1 X104.131 Y79.869 E0.02015 ; perimeter
G1 X104.446 Y80.264 E0.02016 ; perimeter
G1 X104.605 Y80.595 E0.01468 ; perimeter
G1 X104.665 Y80.719 E0.00548 ; perimeter
G1 X104.777 Y81.211 E0.02015 ; perimeter
G1 X104.777 Y81.716 E0.02015 ; perimeter
G1 X104.665 Y82.208 E0.02015 ; perimeter
G1 X104.446 Y82.663 E0.02015 ; perimeter
G1 X104.158 Y83.024 E0.01846 ; perimeter
G1 X100.562 Y86.619 E0.20292 ; perimeter
G1 X100.201 Y86.908 E0.01847 ; perimeter
G1 X99.746 Y87.127 E0.02015 ; perimeter
G1 X99.344 Y87.219 E0.01646 ; perimeter
G1 X99.254 Y87.239 E0.00369 ; perimeter
G1 X98.749 Y87.239 E0.02015 ; perimeter
G1 X98.257 Y87.127 E0.02015 ; perimeter
G1 X97.802 Y86.908 E0.02015 ; perimeter
G1 X97.538 Y86.698 E0.01346 ; perimeter
G1 F1800.000 E-4.00000 ; retract
G1 X129.877 Y85.006 F6000.000 ; move to first perimeter point
G1 E4.00000 F1800.000 ; compensate retraction
G1 X129.898 Y84.483 E0.02088 F900.000 ; perimeter
G1 X130.003 Y83.971 E0.02088 ; perimeter
G1 X130.188 Y83.481 E0.02088 ; perimeter
G1 X130.450 Y83.028 E0.02088 ; perimeter
G1 X130.780 Y82.623 E0.02088 ; perimeter
G1 X131.172 Y82.276 E0.02088 ; perimeter
G1 X131.614 Y81.997 E0.02088 ; perimeter
G1 X132.096 Y81.791 E0.02088 ; perimeter
G1 X132.604 Y81.666 E0.02088 ; perimeter
G1 X133.125 Y81.624 E0.02088 ; perimeter
G1 X133.647 Y81.666 E0.02088 ; perimeter
G1 X134.154 Y81.791 E0.02088 ; perimeter
G1 X134.607 Y81.984 E0.01961 ; perimeter
G1 X135.078 Y82.276 E0.02213 ; perimeter
G1 X135.469 Y82.623 E0.02088 ; perimeter
G1 X135.800 Y83.028 E0.02088 ; perimeter
G1 X136.062 Y83.481 E0.02088 ; perimeter
G1 X136.247 Y83.971 E0.02088 ; perimeter
G1 X136.352 Y84.481 E0.02078 ; perimeter
G1 X136.372 Y85.013 E0.02128 ; perimeter
G1 X136.310 Y85.525 E0.02058 ; perimeter
G1 X136.165 Y86.028 E0.02088 ; perimeter
G1 X135.940 Y86.500 E0.02088 ; perimeter
G1 X135.643 Y86.931 E0.02088 ; perimeter
G1 X135.281 Y87.308 E0.02088 ; perimeter
G1 X134.862 Y87.623 E0.02088 ; perimeter
G1 X134.427 Y87.851 E0.01961 ; perimeter
G1 X133.903 Y88.031 E0.02213 ; perimeter
