; generated by Slic3r 1.1.6 on 2015-05-17 at 13:50:22

; perimeters extrusion width = 0.50mm
; infill extrusion width = 0.50mm
; solid infill extrusion width = 0.50mm
; top infill extrusion width = 0.50mm

G21 ; set units to millimeters
M107 ; disable fan
M190 S57 ; wait for bed temperature to be reached
M104 S185 ; set temperature

M109 S185 ; wait for temperature to be reached
G90 ; use absolute coordinates
M83 ; use relative distances for extrusion
G1 F1800.000 E-4.00000 ; retract
G1 Z0.240 F6000.000 ; move to next layer (0)
G1 X59.896 Y71.284 F6000.000 ; move to first skirt point
G1 E4.00000 F1800.000 ; compensate retraction
G1 X61.573 Y70.211 E0.07942 F600.000 ; skirt
G1 X63.375 Y69.875 E0.07318 ; skirt
G1 X136.625 Y69.875 E2.92357 ; skirt
G1 X138.575 Y70.271 E0.07942 ; skirt
G1 X140.216 Y71.396 E0.07942 ; skirt
G1 X141.289 Y73.073 E0.07942 ; skirt
G1 X141.625 Y74.875 E0.07318 ; skirt
G1 X141.625 Y125.125 E2.00559 ; skirt
G1 X141.229 Y127.075 E0.07942 ; skirt
G1 X140.104 Y128.716 E0.07942 ; skirt
G1 X138.427 Y129.789 E0.07942 ; skirt
G1 X136.625 Y130.125 E0.07318 ; skirt
G1 X63.375 Y130.125 E2.92357 ; skirt
G1 X61.425 Y129.729 E0.07942 ; skirt
G1 X59.784 Y128.604 E0.07942 ; skirt
G1 X58.711 Y126.927 E0.07942 ; skirt
G1 X58.375 Y125.125 E0.07318 ; skirt
G1 X58.375 Y74.875 E2.00559 ; skirt
G1 X58.771 Y72.925 E0.07942 ; skirt
G1 X59.854 Y71.345 E0.07643 ; skirt
G1 X60.388 Y71.510 F6000.000 ; move to first skirt point
G1 X62.030 Y70.581 E0.07531 F600.000 ; skirt
G1 X63.375 Y70.375 E0.05431 ; skirt
G1 X136.625 Y70.375 E2.92357 ; skirt
G1 X138.470 Y70.771 E0.07531 ; skirt
G1 X139.990 Y71.888 E0.07531 ; skirt
G1 X140.919 Y73.530 E0.07531 ; skirt
G1 X141.125 Y74.875 E0.05431 ; skirt
G1 X141.125 Y125.125 E2.00559 ; skirt
G1 X140.729 Y126.970 E0.07531 ; skirt
G1 X139.612 Y128.490 E0.07531 ; skirt
G1 X137.970 Y129.419 E0.07531 ; skirt
G1 X136.625 Y129.625 E0.05431 ; skirt
G1 X63.375 Y129.625 E2.92357 ; skirt
G1 X61.530 Y129.229 E0.07531 ; skirt
G1 X60.010 Y128.112 E0.07531 ; skirt
G1 X59.081 Y126.470 E0.07531 ; skirt
G1 X58.875 Y125.125 E0.05431 ; skirt
G1 X58.875 Y74.875 E2.00559 ; skirt
G1 X59.271 Y73.030 E0.07531 ; skirt
G1 X60.343 Y71.570 E0.07231 ; skirt
G1 F1800.000 E-4.00000 ; retract
G1 X136.375 Y124.875 F6000.000 ; move to first perimeter point
G1 E4.00000 F1800.000 ; compensate retraction
G1 X63.625 Y124.875 E2.90361 F900.000 ; perimeter
G1 X63.625 Y75.125 E1.98563 ; perimeter
G1 X136.375 Y75.125 E2.90361 ; perimeter
G1 X136.375 Y124.800 E1.98264 ; perimeter
G1 X135.942 Y124.625 F6000.000 ; move inwards before travel
G1 X135.875 Y124.375 F6000.000 ; move to first perimeter point
G1 X64.125 Y124.375 E2.86370 F900.000 ; perimeter
G1 X64.125 Y75.625 E1.94572 ; perimeter
G1 X135.875 Y75.625 E2.86370 ; perimeter
G1 X135.875 Y124.300 E1.94272 ; perimeter
G1 F1800.000 E-4.00000 ; retract
G1 X76.239 Y115.197 F6000.000 ; move to first perimeter point
G1 E4.00000 F1800.000 ; compensate retraction
G1 X76.152 Y115.580 E0.01566 F900.000 ; perimeter
G1 X75.982 Y115.933 E0.01566 ; perimeter
G1 X75.746 Y116.229 E0.01509 ; perimeter
G1 X72.191 Y119.784 E0.20068 ; perimeter
G1 X71.895 Y120.020 E0.01509 ; perimeter
G1 X71.542 Y120.190 E0.01565 ; perimeter
G1 X71.159 Y120.277 E0.01566 ; perimeter
G1 X70.767 Y120.277 E0.01565 ; perimeter
G1 X70.385 Y120.190 E0.01565 ; perimeter
G1 X70.064 Y120.036 E0.01421 ; perimeter
G1 X69.725 Y119.775 E0.01707 ; perimeter
G1 X69.480 Y119.469 E0.01565 ; perimeter
G1 X69.310 Y119.115 E0.01566 ; perimeter
G1 X69.223 Y118.733 E0.01565 ; perimeter
G1 X69.223 Y118.341 E0.01566 ; perimeter
G1 X69.310 Y117.958 E0.01565 ; perimeter
G1 X69.480 Y117.605 E0.01565 ; perimeter
G1 X69.716 Y117.309 E0.01509 ; perimeter
G1 X73.271 Y113.754 E0.20068 ; perimeter
G1 X73.567 Y113.518 E0.01509 ; perimeter
G1 X73.920 Y113.348 E0.01565 ; perimeter
G1 X74.303 Y113.261 E0.01566 ; perimeter
G1 X74.695 Y113.261 E0.01566 ; perimeter
G1 X75.077 Y113.348 E0.01565 ; perimeter
G1 X75.431 Y113.518 E0.01565 ; perimeter
G1 X75.737 Y113.763 E0.01565 ; perimeter
G1 X75.982 Y114.069 E0.01565 ; perimeter
G1 X76.152 Y114.423 E0.01565 ; perimeter
G1 X76.239 Y114.805 E0.01566 ; perimeter
G1 X76.239 Y115.122 E0.01266 ; perimeter
G1 X76.546 Y115.442 F6000.000 ; move inwards before travel
G1 X76.739 Y115.254 F6000.000 ; move to first perimeter point
G1 X76.627 Y115.746 E0.02015 F900.000 ; perimeter
G1 X76.408 Y116.201 E0.02015 ; perimeter
G1 X76.119 Y116.563 E0.01846 ; perimeter
G1 X72.524 Y120.158 E0.20292 ; perimeter
G1 X72.163 Y120.446 E0.01846 ; perimeter
G1 X71.708 Y120.665 E0.02015 ; perimeter
G1 X71.216 Y120.777 E0.02015 ; perimeter
G1 X70.711 Y120.777 E0.02015 ; perimeter
G1 X70.219 Y120.665 E0.02015 ; perimeter
G1 X69.764 Y120.446 E0.02015 ; perimeter
G1 X69.369 Y120.131 E0.02015 ; perimeter
G1 X69.054 Y119.736 E0.02015 ; perimeter
G1 X68.835 Y119.281 E0.02015 ; perimeter
G1 X68.723 Y118.789 E0.02015 ; perimeter
G1 X68.723 Y118.284 E0.02015 ; perimeter
G1 X68.835 Y117.792 E0.02015 ; perimeter
G1 X69.054 Y117.337 E0.02015 ; perimeter
G1 X69.342 Y116.976 E0.01846 ; perimeter
G1 X72.938 Y113.381 E0.20292 ; perimeter
G1 X73.299 Y113.092 E0.01846 ; perimeter
G1 X73.754 Y112.873 E0.02015 ; perimeter
G1 X74.246 Y112.761 E0.02015 ; perimeter
G1 X74.751 Y112.761 E0.02015 ; perimeter
G1 X75.243 Y112.873 E0.02015 ; perimeter
G1 X75.698 Y113.092 E0.02015 ; perimeter
G1 X76.093 Y113.407 E0.02015 ; perimeter
G1 X76.408 Y113.802 E0.02015 ; perimeter
G1 X76.627 Y114.257 E0.02015 ; perimeter
G1 X76.739 Y114.749 E0.02015 ; perimeter
G1 X76.739 Y115.179 E0.01716 ; perimeter
G1 F1800.000 E-4.00000 ; retract
G1 X100.588 Y102.139 F6000.000 ; move to first perimeter point
G1 E4.00000 F1800.000 ; compensate retraction
G1 X100.436 Y102.847 E0.02894 F900.000 ; perimeter
G1 X100.155 Y103.765 E0.03828 ; perimeter
G1 X99.797 Y104.655 E0.03828 ; perimeter
G1 X99.365 Y105.511 E0.03828 ; perimeter
G1 X98.862 Y106.328 E0.03828 ; perimeter
G1 X98.292 Y107.099 E0.03828 ; perimeter
G1 X97.658 Y107.819 E0.03828 ; perimeter
G1 X96.966 Y108.483 E0.03828 ; perimeter
G1 X96.245 Y109.065 E0.03696 ; perimeter
G1 X95.425 Y109.622 E0.03960 ; perimeter
G1 X94.587 Y110.090 E0.03828 ; perimeter
G1 X93.713 Y110.485 E0.03828 ; perimeter
G1 X92.840 Y110.794 E0.03696 ; perimeter
G1 X91.881 Y111.047 E0.03960 ; perimeter
G1 X90.935 Y111.209 E0.03828 ; perimeter
G1 X89.980 Y111.290 E0.03828 ; perimeter
G1 X89.020 Y111.290 E0.03828 ; perimeter
G1 X88.152 Y111.216 E0.03479 ; perimeter
G1 X87.119 Y111.047 E0.04176 ; perimeter
G1 X86.191 Y110.805 E0.03828 ; perimeter
G1 X85.287 Y110.485 E0.03828 ; perimeter
G1 X84.413 Y110.090 E0.03828 ; perimeter
G1 X83.604 Y109.639 E0.03696 ; perimeter
G1 X82.781 Y109.085 E0.03960 ; perimeter
G1 X82.034 Y108.483 E0.03828 ; perimeter
G1 X81.342 Y107.819 E0.03828 ; perimeter
G1 X80.708 Y107.099 E0.03828 ; perimeter
G1 X80.138 Y106.328 E0.03828 ; perimeter
G1 X79.635 Y105.511 E0.03828 ; perimeter
G1 X79.203 Y104.655 E0.03828 ; perimeter
G1 X78.845 Y103.765 E0.03828 ; perimeter
G1 X78.564 Y102.847 E0.03828 ; perimeter
G1 X78.362 Y101.910 E0.03828 ; perimeter
G1 X78.240 Y100.958 E0.03828 ; perimeter
G1 X78.200 Y100.000 E0.03828 ; perimeter
G1 X78.240 Y99.042 E0.03828 ; perimeter
G1 X78.362 Y98.090 E0.03828 ; perimeter
G1 X78.564 Y97.153 E0.03828 ; perimeter
G1 X78.845 Y96.235 E0.03828 ; perimeter
G1 X79.203 Y95.345 E0.03828 ; perimeter
G1 X79.635 Y94.489 E0.03828 ; perimeter
G1 X80.138 Y93.672 E0.03828 ; perimeter
G1 X80.708 Y92.901 E0.03828 ; perimeter
G1 X81.342 Y92.181 E0.03828 ; perimeter
G1 X82.034 Y91.517 E0.03828 ; perimeter
G1 X82.781 Y90.915 E0.03828 ; perimeter
G1 X83.575 Y90.378 E0.03828 ; perimeter
G1 X84.413 Y89.910 E0.03828 ; perimeter
G1 X85.287 Y89.515 E0.03828 ; perimeter
G1 X86.191 Y89.195 E0.03828 ; perimeter
G1 X87.119 Y88.953 E0.03828 ; perimeter
G1 X88.065 Y88.791 E0.03828 ; perimeter
G1 X89.020 Y88.710 E0.03828 ; perimeter
G1 X89.980 Y88.710 E0.03828 ; perimeter
G1 X90.935 Y88.791 E0.03828 ; perimeter
G1 X91.881 Y88.953 E0.03828 ; perimeter
G1 X92.809 Y89.195 E0.03828 ; perimeter
G1 X93.713 Y89.515 E0.03828 ; perimeter
G1 X94.587 Y89.910 E0.03828 ; perimeter
G1 X95.425 Y90.378 E0.03828 ; perimeter
G1 X96.192 Y90.896 E0.03696 ; perimeter
G1 X96.966 Y91.517 E0.03960 ; perimeter
G1 X97.658 Y92.181 E0.03828 ; perimeter
G1 X98.292 Y92.901 E0.03828 ; perimeter
G1 X98.862 Y93.672 E0.03828 ; perimeter
G1 X99.365 Y94.489 E0.03828 ; perimeter
G1 X99.797 Y95.345 E0.03828 ; perimeter
G1 X100.155 Y96.235 E0.03828 ; perimeter
G1 X100.436 Y97.153 E0.03828 ; perimeter
G1 X100.638 Y98.090 E0.03828 ; perimeter
G1 X100.760 Y99.042 E0.03828 ; perimeter
G1 X100.800 Y100.000 E0.03828 ; perimeter
G1 X100.760 Y100.958 E0.03828 ; perimeter
G1 X100.615 Y102.084 E0.04530 ; perimeter
G1 X100.967 Y102.466 F6000.000 ; move inwards before travel
G1 X100.992 Y102.639 F6000.000 ; move to first perimeter point
G1 X100.920 Y102.974 E0.01367 F900.000 ; perimeter
G1 X100.627 Y103.931 E0.03998 ; perimeter
G1 X100.253 Y104.861 E0.03998 ; perimeter
G1 X99.802 Y105.755 E0.03998 ; perimeter
G1 X99.277 Y106.608 E0.03998 ; perimeter
G1 X98.714 Y107.370 E0.03781 ; perimeter
G1 X98.020 Y108.165 E0.04214 ; perimeter
G1 X97.296 Y108.858 E0.03998 ; perimeter
G1 X96.559 Y109.454 E0.03781 ; perimeter
G1 X95.687 Y110.049 E0.04214 ; perimeter
G1 X94.813 Y110.537 E0.03998 ; perimeter
G1 X93.900 Y110.950 E0.03998 ; perimeter
G1 X92.956 Y111.283 E0.03998 ; perimeter
G1 X91.986 Y111.536 E0.03998 ; perimeter
G1 X91.052 Y111.696 E0.03781 ; perimeter
G1 X90.001 Y111.790 E0.04214 ; perimeter
G1 X88.999 Y111.790 E0.03998 ; perimeter
G1 X88.109 Y111.714 E0.03564 ; perimeter
G1 X87.014 Y111.536 E0.04430 ; perimeter
G1 X86.044 Y111.283 E0.03998 ; perimeter
G1 X85.100 Y110.950 E0.03998 ; perimeter
G1 X84.187 Y110.537 E0.03998 ; perimeter
G1 X83.313 Y110.049 E0.03998 ; perimeter
G1 X82.528 Y109.518 E0.03781 ; perimeter
G1 X81.704 Y108.858 E0.04214 ; perimeter
G1 X80.980 Y108.165 E0.03998 ; perimeter
G1 X80.319 Y107.413 E0.03998 ; perimeter
G1 X79.723 Y106.608 E0.03998 ; perimeter
G1 X79.198 Y105.755 E0.03998 ; perimeter
G1 X78.747 Y104.861 E0.03998 ; perimeter
G1 X78.373 Y103.931 E0.03998 ; perimeter
G1 X78.080 Y102.974 E0.03998 ; perimeter
G1 X77.869 Y101.994 E0.03998 ; perimeter
G1 X77.742 Y101.001 E0.03998 ; perimeter
G1 X77.699 Y100.000 E0.03998 ; perimeter
G1 X77.742 Y98.999 E0.03998 ; perimeter
G1 X77.869 Y98.006 E0.03998 ; perimeter
G1 X78.080 Y97.027 E0.03998 ; perimeter
G1 X78.373 Y96.069 E0.03998 ; perimeter
G1 X78.747 Y95.139 E0.03998 ; perimeter
G1 X79.198 Y94.245 E0.03998 ; perimeter
G1 X79.723 Y93.392 E0.03998 ; perimeter
G1 X80.319 Y92.587 E0.03998 ; perimeter
G1 X80.980 Y91.835 E0.03998 ; perimeter
G1 X81.704 Y91.142 E0.03998 ; perimeter
G1 X82.483 Y90.512 E0.03998 ; perimeter
G1 X83.313 Y89.951 E0.03998 ; perimeter
G1 X84.187 Y89.463 E0.03998 ; perimeter
G1 X85.100 Y89.050 E0.03998 ; perimeter
G1 X86.044 Y88.717 E0.03998 ; perimeter
G1 X87.014 Y88.464 E0.03998 ; perimeter
G1 X88.001 Y88.295 E0.03998 ; perimeter
G1 X88.999 Y88.210 E0.03998 ; perimeter
G1 X90.001 Y88.210 E0.03998 ; perimeter
G1 X90.999 Y88.295 E0.03998 ; perimeter
G1 X91.986 Y88.464 E0.03998 ; perimeter
G1 X92.956 Y88.717 E0.03998 ; perimeter
G1 X93.849 Y89.032 E0.03781 ; perimeter
G1 X94.813 Y89.463 E0.04214 ; perimeter
G1 X95.687 Y89.951 E0.03998 ; perimeter
G1 X96.472 Y90.482 E0.03781 ; perimeter
G1 X97.296 Y91.142 E0.04214 ; perimeter
G1 X98.020 Y91.835 E0.03998 ; perimeter
G1 X98.681 Y92.587 E0.03998 ; perimeter
G1 X99.277 Y93.392 E0.03998 ; perimeter
G1 X99.802 Y94.245 E0.03998 ; perimeter
G1 X100.253 Y95.139 E0.03998 ; perimeter
G1 X100.627 Y96.069 E0.03998 ; perimeter
G1 X100.920 Y97.027 E0.03998 ; perimeter
G1 X101.131 Y98.006 E0.03998 ; perimeter
G1 X101.258 Y98.999 E0.03998 ; perimeter
G1 X101.301 Y100.000 E0.03998 ; perimeter
G1 X101.258 Y101.001 E0.03998 ; perimeter
G1 X101.051 Y102.620 E0.06516 ; perimeter
G1 F1800.000 E-4.00000 ; retract
G1 X104.305 Y86.739 F6000.000 ; move to first perimeter point
G1 E4.00000 F1800.000 ; compensate retraction
G1 X103.923 Y86.652 E0.01565 F900.000 ; perimeter
G1 X103.569 Y86.482 E0.01566 ; perimeter
G1 X103.263 Y86.237 E0.01565 ; perimeter
G1 X103.018 Y85.931 E0.01565 ; perimeter
G1 X102.848 Y85.577 E0.01565 ; perimeter
G1 X102.761 Y85.195 E0.01566 ; perimeter
G1 X102.761 Y84.803 E0.01565 ; perimeter
G1 X102.848 Y84.420 E0.01565 ; perimeter
G1 X103.018 Y84.067 E0.01566 ; perimeter
G1 X103.254 Y83.771 E0.01509 ; perimeter
G1 X106.809 Y80.216 E0.20068 ; perimeter
G1 X107.105 Y79.980 E0.01509 ; perimeter
G1 X107.458 Y79.810 E0.01565 ; perimeter
G1 X107.841 Y79.723 E0.01565 ; perimeter
G1 X108.233 Y79.723 E0.01566 ; perimeter
G1 X108.615 Y79.810 E0.01565 ; perimeter
G1 X108.969 Y79.980 E0.01566 ; perimeter
G1 X109.275 Y80.225 E0.01566 ; perimeter
G1 X109.520 Y80.531 E0.01565 ; perimeter
G1 X109.690 Y80.885 E0.01566 ; perimeter
G1 X109.769 Y81.232 E0.01421 ; perimeter
G1 X109.777 Y81.659 E0.01707 ; perimeter
G1 X109.690 Y82.042 E0.01566 ; perimeter
G1 X109.520 Y82.395 E0.01565 ; perimeter
G1 X109.284 Y82.691 E0.01509 ; perimeter
G1 X105.729 Y86.246 E0.20068 ; perimeter
G1 X105.433 Y86.482 E0.01509 ; perimeter
G1 X105.080 Y86.652 E0.01565 ; perimeter
G1 X104.697 Y86.739 E0.01566 ; perimeter
G1 X104.380 Y86.739 E0.01266 ; perimeter
G1 X104.061 Y87.046 F6000.000 ; move inwards before travel
G1 X104.249 Y87.239 F6000.000 ; move to first perimeter point
G1 X103.757 Y87.127 E0.02015 F900.000 ; perimeter
G1 X103.302 Y86.908 E0.02015 ; perimeter
G1 X102.907 Y86.593 E0.02015 ; perimeter
G1 X102.592 Y86.198 E0.02015 ; perimeter
G1 X102.373 Y85.743 E0.02015 ; perimeter
G1 X102.261 Y85.251 E0.02015 ; perimeter
G1 X102.261 Y84.746 E0.02015 ; perimeter
G1 X102.373 Y84.254 E0.02015 ; perimeter
G1 X102.592 Y83.799 E0.02015 ; perimeter
G1 X102.880 Y83.438 E0.01846 ; perimeter
G1 X106.476 Y79.842 E0.20292 ; perimeter
G1 X106.837 Y79.554 E0.01846 ; perimeter
G1 X107.292 Y79.335 E0.02015 ; perimeter
G1 X107.784 Y79.223 E0.02015 ; perimeter
G1 X108.289 Y79.223 E0.02015 ; perimeter
G1 X108.781 Y79.335 E0.02015 ; perimeter
G1 X109.236 Y79.554 E0.02015 ; perimeter
G1 X109.631 Y79.869 E0.02015 ; perimeter
G1 X109.888 Y80.191 E0.01646 ; perimeter
G1 X109.946 Y80.264 E0.00369 ; perimeter
G1 X110.165 Y80.719 E0.02015 ; perimeter
G1 X110.277 Y81.211 E0.02015 ; perimeter
G1 X110.277 Y81.716 E0.02015 ; perimeter
G1 X110.165 Y82.208 E0.02015 ; perimeter
G1 X109.946 Y82.663 E0.02015 ; perimeter
G1 X109.658 Y83.024 E0.01846 ; perimeter
G1 X106.062 Y86.620 E0.20292 ; perimeter
G1 X105.701 Y86.908 E0.01846 ; perimeter
G1 X105.246 Y87.127 E0.02015 ; perimeter
G1 X104.754 Y87.239 E0.02015 ; perimeter
G1 X104.324 Y87.239 E0.01716 ; perimeter
G1 F1800.000 E-4.00000 ; retract
G1 X124.377 Y85.006 F6000.000 ; move to first perimeter point
G1 E4.00000 F1800.000 ; compensate retraction
G1 X124.398 Y84.483 E0.02088 F900.000 ; perimeter
G1 X124.503 Y83.971 E0.02088 ; perimeter
G1 X124.688 Y83.481 E0.02088 ; perimeter
G1 X124.950 Y83.028 E0.02088 ; perimeter
G1 X125.280 Y82.623 E0.02088 ; perimeter
G1 X125.672 Y82.276 E0.02088 ; perimeter
G1 X126.114 Y81.997 E0.02088 ; perimeter
G1 X126.596 Y81.791 E0.02088 ; perimeter
G1 X127.104 Y81.666 E0.02088 ; perimeter
G1 X127.625 Y81.624 E0.02088 ; perimeter
G1 X128.146 Y81.666 E0.02088 ; perimeter
G1 X128.654 Y81.791 E0.02088 ; perimeter
G1 X129.106 Y81.984 E0.01961 ; perimeter
G1 X129.578 Y82.276 E0.02213 ; perimeter
G1 X129.969 Y82.623 E0.02088 ; perimeter
G1 X130.300 Y83.028 E0.02088 ; perimeter
G1 X130.562 Y83.481 E0.02088 ; perimeter
G1 X130.747 Y83.971 E0.02088 ; perimeter
G1 X130.852 Y84.481 E0.02078 ; perimeter
G1 X130.872 Y85.013 E0.02128 ; perimeter
G1 X130.810 Y85.525 E0.02058 ; perimeter
G1 X130.665 Y86.028 E0.02088 ; perimeter
G1 X130.440 Y86.500 E0.02088 ; perimeter
G1 X130.143 Y86.931 E0.02088 ; perimeter
G1 X129.781 Y87.308 E0.02088 ; perimeter
G1 X129.362 Y87.623 E0.02088 ; perimeter
G1 X128.927 Y87.851 E0.01961 ; perimeter
G1 X128.403 Y88.031 E0.02213 ; perimeter
G1 X127.887 Y88.115 E0.02088 ; perimeter
