; generated by Slic3r 1.1.6 on 2015-04-18 at 14:59:10

; perimeters extrusion width = 0.50mm
; infill extrusion width = 0.50mm
; solid infill extrusion width = 0.50mm
; top infill extrusion width = 0.50mm

G21 ; set units to millimeters
M107 ; disable fan
M190 S57 ; wait for bed temperature to be reached
M104 S185 ; set temperature

M109 S185 ; wait for temperature to be reached
G90 ; use absolute coordinates
M83 ; use relative distances for extrusion
G1 F1800.000 E-4.00000 ; retract
G1 Z0.240 F6000.000 ; move to next layer (0)
G1 X59.896 Y71.284 F6000.000 ; move to first skirt point
G1 E4.00000 F1800.000 ; compensate retraction
G1 X61.573 Y70.211 E0.07942 F600.000 ; skirt
G1 X63.375 Y69.875 E0.07318 ; skirt
G1 X136.625 Y69.875 E2.92357 ; skirt
G1 X138.575 Y70.271 E0.07942 ; skirt
G1 X140.216 Y71.396 E0.07942 ; skirt
G1 X141.289 Y73.073 E0.07942 ; skirt
G1 X141.625 Y74.875 E0.07318 ; skirt
G1 X141.625 Y125.125 E2.00559 ; skirt
G1 X141.229 Y127.075 E0.07942 ; skirt
G1 X140.104 Y128.716 E0.07942 ; skirt
G1 X138.427 Y129.789 E0.07942 ; skirt
G1 X136.625 Y130.125 E0.07318 ; skirt
G1 X63.375 Y130.125 E2.92357 ; skirt
G1 X61.425 Y129.729 E0.07942 ; skirt
G1 X59.784 Y128.604 E0.07942 ; skirt
G1 X58.711 Y126.927 E0.07942 ; skirt
G1 X58.375 Y125.125 E0.07318 ; skirt
G1 X58.375 Y74.875 E2.00559 ; skirt
G1 X58.771 Y72.925 E0.07942 ; skirt
G1 X59.854 Y71.345 E0.07643 ; skirt
G1 X60.388 Y71.510 F6000.000 ; move to first skirt point
G1 X62.030 Y70.581 E0.07531 F600.000 ; skirt
G1 X63.375 Y70.375 E0.05431 ; skirt
G1 X136.625 Y70.375 E2.92357 ; skirt
G1 X138.470 Y70.771 E0.07531 ; skirt
G1 X139.990 Y71.888 E0.07531 ; skirt
G1 X140.919 Y73.530 E0.07531 ; skirt
G1 X141.125 Y74.875 E0.05431 ; skirt
G1 X141.125 Y125.125 E2.00559 ; skirt
G1 X140.729 Y126.970 E0.07531 ; skirt
G1 X139.612 Y128.490 E0.07531 ; skirt
G1 X137.970 Y129.419 E0.07531 ; skirt
G1 X136.625 Y129.625 E0.05431 ; skirt
G1 X63.375 Y129.625 E2.92357 ; skirt
G1 X61.530 Y129.229 E0.07531 ; skirt
G1 X60.010 Y128.112 E0.07531 ; skirt
G1 X59.081 Y126.470 E0.07531 ; skirt
G1 X58.875 Y125.125 E0.05431 ; skirt
G1 X58.875 Y74.875 E2.00559 ; skirt
G1 X59.271 Y73.030 E0.07531 ; skirt
G1 X60.343 Y71.570 E0.07231 ; skirt
G1 F1800.000 E-4.00000 ; retract
G1 X136.375 Y124.875 F6000.000 ; move to first perimeter point
G1 E4.00000 F1800.000 ; compensate retraction
G1 X63.625 Y124.875 E2.90361 F900.000 ; perimeter
G1 X63.625 Y75.125 E1.98563 ; perimeter
G1 X136.375 Y75.125 E2.90361 ; perimeter
G1 X136.375 Y124.800 E1.98264 ; perimeter
G1 X135.942 Y124.625 F6000.000 ; move inwards before travel
G1 X135.875 Y124.375 F6000.000 ; move to first perimeter point
G1 X64.125 Y124.375 E2.86370 F900.000 ; perimeter
G1 X64.125 Y75.625 E1.94572 ; perimeter
G1 X135.875 Y75.625 E2.86370 ; perimeter
G1 X135.875 Y124.300 E1.94272 ; perimeter
G1 F1800.000 E-4.00000 ; retract
G1 X129.781 Y117.558 F6000.000 ; move to first perimeter point
G1 E4.00000 F1800.000 ; compensate retraction
G1 X129.362 Y117.873 E0.02088 F900.000 ; perimeter
G1 X128.899 Y118.116 E0.02088 ; perimeter
G1 X128.433 Y118.271 E0.01961 ; perimeter
G1 X127.887 Y118.365 E0.02213 ; perimeter
G1 X127.363 Y118.365 E0.02088 ; perimeter
G1 X126.847 Y118.281 E0.02088 ; perimeter
G1 X126.351 Y118.116 E0.02088 ; perimeter
G1 X125.888 Y117.873 E0.02088 ; perimeter
G1 X125.469 Y117.558 E0.02088 ; perimeter
G1 X125.107 Y117.181 E0.02088 ; perimeter
G1 X124.810 Y116.750 E0.02088 ; perimeter
G1 X124.585 Y116.278 E0.02088 ; perimeter
G1 X124.440 Y115.775 E0.02088 ; perimeter
G1 X124.377 Y115.256 E0.02088 ; perimeter
G1 X124.397 Y114.765 E0.01961 ; perimeter
G1 X124.503 Y114.221 E0.02213 ; perimeter
G1 X124.688 Y113.731 E0.02088 ; perimeter
G1 X124.950 Y113.278 E0.02088 ; perimeter
G1 X125.280 Y112.873 E0.02088 ; perimeter
G1 X125.672 Y112.526 E0.02088 ; perimeter
G1 X126.114 Y112.247 E0.02088 ; perimeter
G1 X126.566 Y112.054 E0.01961 ; perimeter
G1 X127.104 Y111.916 E0.02213 ; perimeter
G1 X127.625 Y111.874 E0.02088 ; perimeter
G1 X128.146 Y111.916 E0.02088 ; perimeter
G1 X128.654 Y112.041 E0.02088 ; perimeter
G1 X129.136 Y112.247 E0.02088 ; perimeter
G1 X129.578 Y112.526 E0.02088 ; perimeter
G1 X129.969 Y112.873 E0.02088 ; perimeter
G1 X130.300 Y113.278 E0.02088 ; perimeter
G1 X130.562 Y113.731 E0.02088 ; perimeter
G1 X130.747 Y114.221 E0.02088 ; perimeter
G1 X130.852 Y114.731 E0.02078 ; perimeter
G1 X130.872 Y115.263 E0.02128 ; perimeter
G1 X130.810 Y115.775 E0.02058 ; perimeter
G1 X130.665 Y116.278 E0.02088 ; perimeter
G1 X130.440 Y116.750 E0.02088 ; perimeter
G1 X130.143 Y117.181 E0.02088 ; perimeter
G1 X129.833 Y117.504 E0.01789 ; perimeter
G1 X129.867 Y118.051 F6000.000 ; move inwards before travel
G1 X130.113 Y117.934 F6000.000 ; move to first perimeter point
G1 X129.631 Y118.297 E0.02410 F900.000 ; perimeter
G1 X129.096 Y118.577 E0.02410 ; perimeter
G1 X128.591 Y118.746 E0.02123 ; perimeter
G1 X127.927 Y118.865 E0.02694 ; perimeter
G1 X127.323 Y118.865 E0.02410 ; perimeter
G1 X126.727 Y118.768 E0.02410 ; perimeter
G1 X126.154 Y118.577 E0.02410 ; perimeter
G1 X125.619 Y118.297 E0.02410 ; perimeter
G1 X125.137 Y117.934 E0.02410 ; perimeter
G1 X124.718 Y117.498 E0.02410 ; perimeter
G1 X124.375 Y117.001 E0.02410 ; perimeter
G1 X124.116 Y116.456 E0.02410 ; perimeter
G1 X123.948 Y115.876 E0.02410 ; perimeter
G1 X123.876 Y115.276 E0.02410 ; perimeter
G1 X123.900 Y114.673 E0.02410 ; perimeter
G1 X124.021 Y114.081 E0.02410 ; perimeter
G1 X124.235 Y113.516 E0.02410 ; perimeter
G1 X124.537 Y112.993 E0.02410 ; perimeter
G1 X124.919 Y112.526 E0.02410 ; perimeter
G1 X125.371 Y112.125 E0.02410 ; perimeter
G1 X125.881 Y111.802 E0.02410 ; perimeter
G1 X126.437 Y111.566 E0.02410 ; perimeter
G1 X126.953 Y111.438 E0.02122 ; perimeter
G1 X127.625 Y111.373 E0.02695 ; perimeter
G1 X128.227 Y111.421 E0.02410 ; perimeter
G1 X128.813 Y111.566 E0.02410 ; perimeter
G1 X129.369 Y111.802 E0.02410 ; perimeter
G1 X129.879 Y112.125 E0.02410 ; perimeter
G1 X130.331 Y112.526 E0.02410 ; perimeter
G1 X130.713 Y112.993 E0.02410 ; perimeter
G1 X131.015 Y113.516 E0.02410 ; perimeter
G1 X131.229 Y114.081 E0.02410 ; perimeter
G1 X131.349 Y114.665 E0.02380 ; perimeter
G1 X131.372 Y115.299 E0.02530 ; perimeter
G1 X131.302 Y115.876 E0.02319 ; perimeter
G1 X131.134 Y116.456 E0.02411 ; perimeter
G1 X130.875 Y117.001 E0.02410 ; perimeter
G1 X130.532 Y117.498 E0.02410 ; perimeter
G1 X130.165 Y117.880 E0.02111 ; perimeter
G1 F1800.000 E-4.00000 ; retract
G1 X106.213 Y115.355 F6000.000 ; move to first perimeter point
G1 E4.00000 F1800.000 ; compensate retraction
G1 X106.079 Y115.761 E0.01707 F900.000 ; perimeter
G1 X105.871 Y116.093 E0.01565 ; perimeter
G1 X105.593 Y116.371 E0.01565 ; perimeter
G1 X105.261 Y116.579 E0.01565 ; perimeter
G1 X104.891 Y116.709 E0.01565 ; perimeter
G1 X104.501 Y116.753 E0.01566 ; perimeter
G1 X104.111 Y116.709 E0.01566 ; perimeter
G1 X103.741 Y116.579 E0.01566 ; perimeter
G1 X103.409 Y116.371 E0.01565 ; perimeter
G1 X103.132 Y116.093 E0.01566 ; perimeter
G1 X102.923 Y115.761 E0.01565 ; perimeter
G1 X102.794 Y115.391 E0.01565 ; perimeter
G1 X102.750 Y115.001 E0.01565 ; perimeter
G1 X102.790 Y114.647 E0.01421 ; perimeter
G1 X102.923 Y114.241 E0.01707 ; perimeter
G1 X103.132 Y113.909 E0.01565 ; perimeter
G1 X103.409 Y113.632 E0.01566 ; perimeter
G1 X103.741 Y113.423 E0.01565 ; perimeter
G1 X104.111 Y113.294 E0.01565 ; perimeter
G1 X104.501 Y113.250 E0.01565 ; perimeter
G1 X104.891 Y113.294 E0.01566 ; perimeter
G1 X105.261 Y113.423 E0.01565 ; perimeter
G1 X105.563 Y113.613 E0.01421 ; perimeter
G1 X105.871 Y113.909 E0.01707 ; perimeter
G1 X106.079 Y114.241 E0.01565 ; perimeter
G1 X106.209 Y114.611 E0.01565 ; perimeter
G1 X106.253 Y115.001 E0.01566 ; perimeter
G1 X106.221 Y115.281 E0.01122 ; perimeter
G1 X106.519 Y115.654 F6000.000 ; move inwards before travel
G1 X106.710 Y115.411 F6000.000 ; move to first perimeter point
G1 X106.699 Y115.503 E0.00369 F900.000 ; perimeter
G1 X106.533 Y115.980 E0.02015 ; perimeter
G1 X106.264 Y116.407 E0.02015 ; perimeter
G1 X105.907 Y116.764 E0.02015 ; perimeter
G1 X105.480 Y117.033 E0.02015 ; perimeter
G1 X105.003 Y117.199 E0.02015 ; perimeter
G1 X104.501 Y117.256 E0.02015 ; perimeter
G1 X103.999 Y117.199 E0.02015 ; perimeter
G1 X103.523 Y117.033 E0.02015 ; perimeter
G1 X103.095 Y116.764 E0.02015 ; perimeter
G1 X102.738 Y116.407 E0.02015 ; perimeter
G1 X102.470 Y115.980 E0.02015 ; perimeter
G1 X102.303 Y115.503 E0.02015 ; perimeter
G1 X102.247 Y115.001 E0.02015 ; perimeter
G1 X102.293 Y114.591 E0.01646 ; perimeter
G1 X102.303 Y114.499 E0.00369 ; perimeter
G1 X102.470 Y114.023 E0.02015 ; perimeter
G1 X102.738 Y113.595 E0.02015 ; perimeter
G1 X103.095 Y113.238 E0.02015 ; perimeter
G1 X103.523 Y112.970 E0.02015 ; perimeter
G1 X103.999 Y112.803 E0.02015 ; perimeter
G1 X104.501 Y112.747 E0.02015 ; perimeter
G1 X105.003 Y112.803 E0.02016 ; perimeter
G1 X105.480 Y112.970 E0.02015 ; perimeter
G1 X105.829 Y113.189 E0.01646 ; perimeter
G1 X105.907 Y113.238 E0.00370 ; perimeter
G1 X106.264 Y113.595 E0.02015 ; perimeter
G1 X106.533 Y114.023 E0.02015 ; perimeter
G1 X106.699 Y114.499 E0.02015 ; perimeter
G1 X106.756 Y115.001 E0.02015 ; perimeter
G1 X106.718 Y115.337 E0.01347 ; perimeter
G1 F1800.000 E-4.00000 ; retract
G1 X97.680 Y107.794 F6000.000 ; move to first perimeter point
G1 E4.00000 F1800.000 ; compensate retraction
G1 X96.966 Y108.483 E0.03960 F900.000 ; perimeter
G1 X96.219 Y109.085 E0.03828 ; perimeter
G1 X95.425 Y109.622 E0.03828 ; perimeter
G1 X94.587 Y110.090 E0.03828 ; perimeter
G1 X93.713 Y110.485 E0.03828 ; perimeter
G1 X92.809 Y110.805 E0.03828 ; perimeter
G1 X91.913 Y111.038 E0.03696 ; perimeter
G1 X90.935 Y111.209 E0.03960 ; perimeter
G1 X89.980 Y111.290 E0.03828 ; perimeter
G1 X89.020 Y111.290 E0.03828 ; perimeter
G1 X88.065 Y111.209 E0.03828 ; perimeter
G1 X87.119 Y111.047 E0.03828 ; perimeter
G1 X86.191 Y110.805 E0.03828 ; perimeter
G1 X85.287 Y110.485 E0.03828 ; perimeter
G1 X84.413 Y110.090 E0.03828 ; perimeter
G1 X83.604 Y109.639 E0.03696 ; perimeter
G1 X82.781 Y109.085 E0.03960 ; perimeter
G1 X82.034 Y108.483 E0.03828 ; perimeter
G1 X81.342 Y107.819 E0.03828 ; perimeter
G1 X80.708 Y107.099 E0.03828 ; perimeter
G1 X80.138 Y106.328 E0.03828 ; perimeter
G1 X79.635 Y105.511 E0.03828 ; perimeter
G1 X79.203 Y104.655 E0.03828 ; perimeter
G1 X78.845 Y103.765 E0.03828 ; perimeter
G1 X78.564 Y102.847 E0.03828 ; perimeter
G1 X78.362 Y101.910 E0.03828 ; perimeter
G1 X78.240 Y100.958 E0.03828 ; perimeter
G1 X78.200 Y100.000 E0.03828 ; perimeter
G1 X78.240 Y99.042 E0.03828 ; perimeter
G1 X78.362 Y98.090 E0.03828 ; perimeter
G1 X78.564 Y97.153 E0.03828 ; perimeter
G1 X78.845 Y96.235 E0.03828 ; perimeter
G1 X79.203 Y95.345 E0.03828 ; perimeter
G1 X79.635 Y94.489 E0.03828 ; perimeter
G1 X80.138 Y93.672 E0.03828 ; perimeter
G1 X80.708 Y92.901 E0.03828 ; perimeter
G1 X81.320 Y92.206 E0.03696 ; perimeter
G1 X82.034 Y91.517 E0.03960 ; perimeter
G1 X82.780 Y90.915 E0.03828 ; perimeter
G1 X83.575 Y90.378 E0.03828 ; perimeter
G1 X84.413 Y89.910 E0.03828 ; perimeter
G1 X85.287 Y89.515 E0.03828 ; perimeter
G1 X86.191 Y89.195 E0.03828 ; perimeter
G1 X87.087 Y88.962 E0.03696 ; perimeter
G1 X88.065 Y88.791 E0.03960 ; perimeter
G1 X89.020 Y88.710 E0.03828 ; perimeter
G1 X89.980 Y88.710 E0.03828 ; perimeter
G1 X90.935 Y88.791 E0.03828 ; perimeter
G1 X91.848 Y88.948 E0.03696 ; perimeter
G1 X92.809 Y89.195 E0.03960 ; perimeter
G1 X93.713 Y89.515 E0.03828 ; perimeter
G1 X94.587 Y89.910 E0.03828 ; perimeter
G1 X95.425 Y90.378 E0.03828 ; perimeter
G1 X96.220 Y90.915 E0.03828 ; perimeter
G1 X96.966 Y91.517 E0.03828 ; perimeter
G1 X97.658 Y92.181 E0.03828 ; perimeter
G1 X98.292 Y92.901 E0.03828 ; perimeter
G1 X98.862 Y93.672 E0.03828 ; perimeter
G1 X99.365 Y94.489 E0.03828 ; perimeter
G1 X99.797 Y95.345 E0.03828 ; perimeter
G1 X100.155 Y96.235 E0.03828 ; perimeter
G1 X100.436 Y97.153 E0.03828 ; perimeter
G1 X100.638 Y98.090 E0.03828 ; perimeter
G1 X100.760 Y99.042 E0.03828 ; perimeter
G1 X100.800 Y100.000 E0.03828 ; perimeter
G1 X100.760 Y100.958 E0.03828 ; perimeter
G1 X100.638 Y101.910 E0.03828 ; perimeter
G1 X100.436 Y102.847 E0.03828 ; perimeter
G1 X100.155 Y103.765 E0.03828 ; perimeter
G1 X99.797 Y104.655 E0.03828 ; perimeter
G1 X99.365 Y105.511 E0.03828 ; perimeter
G1 X98.862 Y106.328 E0.03828 ; perimeter
G1 X98.292 Y107.099 E0.03828 ; perimeter
G1 X97.730 Y107.738 E0.03397 ; perimeter
G1 X97.814 Y108.276 F6000.000 ; move inwards before travel
G1 X98.055 Y108.125 F6000.000 ; move to first perimeter point
G1 X97.296 Y108.858 E0.04214 F900.000 ; perimeter
G1 X96.517 Y109.488 E0.03998 ; perimeter
G1 X95.687 Y110.049 E0.03998 ; perimeter
G1 X94.813 Y110.537 E0.03998 ; perimeter
G1 X93.900 Y110.950 E0.03998 ; perimeter
G1 X92.956 Y111.283 E0.03998 ; perimeter
G1 X92.039 Y111.522 E0.03781 ; perimeter
G1 X90.999 Y111.705 E0.04214 ; perimeter
G1 X90.001 Y111.790 E0.03998 ; perimeter
G1 X88.999 Y111.790 E0.03998 ; perimeter
G1 X88.001 Y111.705 E0.03998 ; perimeter
G1 X87.014 Y111.536 E0.03998 ; perimeter
G1 X86.044 Y111.283 E0.03998 ; perimeter
G1 X85.100 Y110.950 E0.03998 ; perimeter
G1 X84.187 Y110.537 E0.03998 ; perimeter
G1 X83.360 Y110.075 E0.03781 ; perimeter
G1 X82.483 Y109.488 E0.04214 ; perimeter
G1 X81.704 Y108.858 E0.03998 ; perimeter
G1 X80.980 Y108.165 E0.03998 ; perimeter
G1 X80.319 Y107.413 E0.03998 ; perimeter
G1 X79.723 Y106.608 E0.03998 ; perimeter
G1 X79.198 Y105.755 E0.03998 ; perimeter
G1 X78.747 Y104.861 E0.03997 ; perimeter
G1 X78.373 Y103.931 E0.03998 ; perimeter
G1 X78.080 Y102.974 E0.03998 ; perimeter
G1 X77.869 Y101.994 E0.03998 ; perimeter
G1 X77.742 Y101.001 E0.03998 ; perimeter
G1 X77.699 Y100.000 E0.03998 ; perimeter
G1 X77.742 Y98.999 E0.03997 ; perimeter
G1 X77.869 Y98.006 E0.03998 ; perimeter
G1 X78.080 Y97.026 E0.03998 ; perimeter
G1 X78.373 Y96.069 E0.03998 ; perimeter
G1 X78.747 Y95.139 E0.03998 ; perimeter
G1 X79.198 Y94.245 E0.03998 ; perimeter
G1 X79.723 Y93.392 E0.03998 ; perimeter
G1 X80.319 Y92.587 E0.03998 ; perimeter
G1 X80.945 Y91.875 E0.03781 ; perimeter
G1 X81.704 Y91.142 E0.04214 ; perimeter
G1 X82.483 Y90.512 E0.03998 ; perimeter
G1 X83.313 Y89.951 E0.03998 ; perimeter
G1 X84.187 Y89.463 E0.03998 ; perimeter
G1 X85.100 Y89.050 E0.03998 ; perimeter
G1 X86.045 Y88.717 E0.03998 ; perimeter
G1 X86.961 Y88.478 E0.03781 ; perimeter
G1 X88.001 Y88.295 E0.04214 ; perimeter
G1 X88.999 Y88.210 E0.03998 ; perimeter
G1 X90.001 Y88.210 E0.03998 ; perimeter
G1 X90.999 Y88.295 E0.03998 ; perimeter
G1 X91.933 Y88.455 E0.03781 ; perimeter
G1 X92.956 Y88.717 E0.04214 ; perimeter
G1 X93.900 Y89.050 E0.03998 ; perimeter
G1 X94.813 Y89.463 E0.03998 ; perimeter
G1 X95.687 Y89.951 E0.03998 ; perimeter
G1 X96.517 Y90.512 E0.03998 ; perimeter
G1 X97.296 Y91.142 E0.03998 ; perimeter
G1 X98.020 Y91.835 E0.03998 ; perimeter
G1 X98.681 Y92.587 E0.03998 ; perimeter
G1 X99.277 Y93.392 E0.03998 ; perimeter
G1 X99.802 Y94.245 E0.03998 ; perimeter
G1 X100.253 Y95.139 E0.03998 ; perimeter
G1 X100.627 Y96.069 E0.03998 ; perimeter
G1 X100.920 Y97.026 E0.03998 ; perimeter
G1 X101.131 Y98.006 E0.03998 ; perimeter
G1 X101.258 Y98.999 E0.03998 ; perimeter
G1 X101.301 Y100.000 E0.03998 ; perimeter
G1 X101.258 Y101.001 E0.03998 ; perimeter
G1 X101.131 Y101.994 E0.03998 ; perimeter
G1 X100.920 Y102.974 E0.03998 ; perimeter
G1 X100.627 Y103.931 E0.03998 ; perimeter
G1 X100.253 Y104.861 E0.03998 ; perimeter
G1 X99.802 Y105.755 E0.03998 ; perimeter
G1 X99.277 Y106.608 E0.03998 ; perimeter
G1 X98.681 Y107.413 E0.03998 ; perimeter
G1 X98.105 Y108.068 E0.03482 ; perimeter
G1 F1800.000 E-4.00000 ; retract
G1 X104.111 Y86.706 F6000.000 ; move to first perimeter point
G1 E4.00000 F1800.000 ; compensate retraction
G1 X103.741 Y86.577 E0.01566 F900.000 ; perimeter
G1 X103.409 Y86.368 E0.01565 ; perimeter
G1 X103.132 Y86.091 E0.01566 ; perimeter
G1 X102.942 Y85.789 E0.01421 ; perimeter
G1 X102.794 Y85.389 E0.01707 ; perimeter
G1 X102.750 Y84.999 E0.01565 ; perimeter
G1 X102.794 Y84.609 E0.01566 ; perimeter
G1 X102.923 Y84.239 E0.01566 ; perimeter
G1 X103.132 Y83.907 E0.01565 ; perimeter
G1 X103.409 Y83.629 E0.01566 ; perimeter
