; generated by Slic3r 1.2.5 on 2015-01-26 at 20:25:33

; external perimeters extrusion width = 0.50mm
; perimeters extrusion width = 0.58mm
; infill extrusion width = 0.58mm
; solid infill extrusion width = 0.58mm
; top infill extrusion width = 0.58mm

M107
M190 S65 ; set bed temperature
G28 ; home all axes
G1 Z5 F5000 ; lift nozzle
G21 ; set units to millimeters
G90 ; use absolute coordinates
M82 ; use absolute distances for extrusion
G92 E0
G1 E-1.00000 F1800.00000
G92 E0
G1 Z0.500 F7800.000
G1 X55.412 Y71.015 F7800.000
G1 E1.00000 F1800.00000
G1 X57.587 Y70.154 E1.14774 F1080.000
G1 X59.000 Y70.007 E1.23742
G1 X141.000 Y70.007 E6.41536
G1 X143.306 Y70.404 E6.56310
G1 X145.346 Y71.550 E6.71084 F1080.000
G1 X146.885 Y73.312 E6.85858
G1 X147.746 Y75.487 E7.00632
G1 X147.893 Y76.900 E7.09600
G1 X147.893 Y120.250 E9.83336
G1 X147.760 Y121.595 E9.91868
G1 X147.543 Y122.685 E9.98890
G1 X146.514 Y125.170 E10.15873
G1 X145.896 Y126.095 E10.22895
G1 X143.995 Y127.996 E10.39876
G1 X143.070 Y128.614 E10.46899
G1 X140.585 Y129.643 E10.63881
G1 X139.495 Y129.860 E10.70903
G1 X138.150 Y129.993 E10.79435
G1 X61.850 Y129.993 E15.61236
G1 X60.505 Y129.860 E15.69768
G1 X59.415 Y129.643 E15.76790
G1 X56.930 Y128.614 E15.93772
G1 X56.005 Y127.996 E16.00795
G1 X54.104 Y126.095 E16.17776
G1 X53.486 Y125.170 E16.24798
G1 X52.457 Y122.685 E16.41781
G1 X52.240 Y121.595 E16.48803
G1 X52.107 Y120.250 E16.57335
G1 X52.107 Y76.900 E19.31071
G1 X52.504 Y74.594 E19.45845
G1 X53.650 Y72.554 E19.60619
G1 X55.355 Y71.064 E19.74919
G1 E18.74919 F1800.00000
G92 E0
G1 X134.632 Y92.100 F7800.000
G1 E1.00000 F1800.00000
G1 X134.950 Y90.916 E1.07739 F540.000
G1 X135.816 Y90.049 E1.15478
G1 X137.000 Y89.732 E1.23217
G1 X137.654 Y89.907 E1.27495
G1 X138.184 Y90.049 E1.30956 F540.000
G1 X139.050 Y90.916 E1.38695
G1 X139.368 Y92.100 E1.46434
G1 X139.050 Y93.283 E1.54173
G1 X138.184 Y94.150 E1.61912
G1 X137.000 Y94.467 E1.69651
G1 X135.816 Y94.150 E1.77390
G1 X134.950 Y93.283 E1.85129
G1 X134.652 Y92.172 E1.92394
G1 X134.223 Y91.813 F7800.000
G1 X65.368 Y92.100 F7800.000
G1 X65.050 Y93.283 E2.00133 F540.000
G1 X64.184 Y94.150 E2.07872
G1 X63.529 Y94.325 E2.12150
G1 X63.000 Y94.467 E2.15611
G1 X61.816 Y94.150 E2.23350
G1 X60.950 Y93.283 E2.31089
G1 X60.632 Y92.100 E2.38828
G1 X60.950 Y90.916 E2.46567
G1 X61.816 Y90.049 E2.54306
G1 X63.000 Y89.732 E2.62045
G1 X63.992 Y89.998 E2.68527
G1 X64.184 Y90.049 E2.69784 F540.000
G1 X65.050 Y90.916 E2.77523
G1 X65.348 Y92.027 E2.84789
G1 X65.777 Y92.386 F7800.000
G1 X63.000 Y89.214 F7800.000
G1 X61.285 Y88.343 F7800.000
G1 X61.285 Y79.185 E3.42615 F540.000
G1 X138.715 Y79.185 E8.31546
G1 X138.715 Y88.343 E8.89373
G1 X137.000 Y87.884 E9.00581
G1 X134.892 Y88.448 E9.14362
G1 X133.349 Y89.992 E9.28143
G1 X132.784 Y92.100 E9.41924
G1 X133.349 Y94.208 E9.55704
G1 X134.892 Y95.751 E9.69485
G1 X137.000 Y96.316 E9.83266
G1 X138.715 Y95.856 E9.94475
G1 X138.715 Y116.683 E11.25987
G1 X137.000 Y116.224 E11.37196
G1 X134.892 Y116.788 E11.50976
G1 X133.349 Y118.332 E11.64757
G1 X132.784 Y120.440 E11.78538
G1 X132.884 Y120.815 E11.80989
G1 X67.116 Y120.815 E15.96290
G1 X67.216 Y120.440 E15.98742
G1 X66.651 Y118.332 E16.12522
G1 X65.108 Y116.788 E16.26303
G1 X63.000 Y116.224 E16.40084
G1 X61.285 Y116.683 E16.51293
G1 X61.285 Y95.856 E17.82805
G1 X63.000 Y96.316 E17.94013
G1 X65.108 Y95.751 E18.07794
G1 X66.651 Y94.208 E18.21575
G1 X67.216 Y92.100 E18.35356
G1 X66.651 Y89.992 E18.49136
G1 X65.108 Y88.448 E18.62917
G1 X63.000 Y87.884 E18.76698
G1 X61.358 Y88.324 E18.87433
G1 X60.393 Y90.210 F7800.000
G1 X60.393 Y78.293 E19.62687 F540.000
G1 X139.607 Y78.293 E24.62892
G1 X139.607 Y90.210 E25.38146
G1 X138.646 Y89.249 E25.46731
G1 X137.000 Y88.808 E25.57491
G1 X135.354 Y89.249 E25.68251
G1 X134.149 Y90.454 E25.79010
G1 X133.708 Y92.100 E25.89770
G1 X134.149 Y93.746 E26.00530
G1 X135.354 Y94.950 E26.11290
G1 X137.000 Y95.391 E26.22050
G1 X138.646 Y94.950 E26.32810
G1 X139.607 Y93.989 E26.41395
G1 X139.607 Y118.550 E27.96488
G1 X138.646 Y117.589 E28.05073
G1 X137.000 Y117.148 E28.15833
G1 X135.354 Y117.589 E28.26593
G1 X134.149 Y118.794 E28.37353
G1 X133.708 Y120.440 E28.48112
G1 X134.048 Y121.707 E28.56400
G1 X65.952 Y121.707 E32.86393
G1 X66.292 Y120.440 E32.94680
G1 X65.851 Y118.794 E33.05440
G1 X64.646 Y117.589 E33.16200
G1 X63.000 Y117.148 E33.26960
G1 X61.354 Y117.589 E33.37720
G1 X60.393 Y118.550 E33.46305
G1 X60.393 Y93.989 E35.01398
G1 X61.354 Y94.950 E35.09983
G1 X63.000 Y95.391 E35.20743
G1 X64.646 Y94.950 E35.31503
G1 X65.851 Y93.746 E35.42263
G1 X66.292 Y92.100 E35.53023
G1 X65.851 Y90.454 E35.63783
G1 X64.646 Y89.249 E35.74542
G1 X63.000 Y88.808 E35.85302
G1 X61.354 Y89.249 E35.96062
G1 X60.446 Y90.157 E36.04174
G1 X59.500 Y77.400 F7800.000
G1 X140.500 Y77.400 E41.15653 F378.000
G1 X140.500 Y120.201 E43.85920
G1 X140.312 Y121.146 E43.92003
G1 X139.805 Y121.905 E43.97769
G1 X139.046 Y122.412 E44.03535
G1 X138.738 Y122.473 E44.05513
G1 X138.551 Y122.123 E44.08022
G1 X139.050 Y121.623 E44.12481
G1 X139.368 Y120.440 E44.20220
G1 X139.050 Y119.256 E44.27959
G1 X138.184 Y118.389 E44.35698
G1 X137.000 Y118.072 E44.43437
G1 X135.816 Y118.389 E44.51176
G1 X134.950 Y119.256 E44.58915
G1 X134.632 Y120.440 E44.66654
G1 X134.950 Y121.623 E44.74393
G1 X135.926 Y122.600 E44.83114
G1 X64.074 Y122.600 E49.36829
G1 X65.050 Y121.623 E49.45549
G1 X65.368 Y120.440 E49.53288
G1 X65.050 Y119.256 E49.61027
G1 X64.184 Y118.389 E49.68766
G1 X63.000 Y118.072 E49.76505
G1 X61.816 Y118.389 E49.84244
G1 X60.950 Y119.256 E49.91983
G1 X60.632 Y120.440 E49.99722
G1 X60.950 Y121.623 E50.07461
G1 X61.449 Y122.123 E50.11921
G1 X61.262 Y122.473 E50.14429
G1 X60.954 Y122.412 E50.16407
G1 X60.195 Y121.905 E50.22173
G1 X59.688 Y121.146 E50.27939
G1 X59.500 Y120.201 E50.34022
G1 X59.500 Y77.475 E53.03816
G1 X59.933 Y77.650 F7800.000
G1 X62.714 Y87.311 F7800.000
G1 X61.913 Y86.510 E53.11038 F1080.000
G1 X61.913 Y85.235 E53.19161
G1 X64.245 Y87.568 E53.40185
G1 X74.681 Y107.419 F7800.000
G1 X61.913 Y115.820 F7800.000
G1 X61.949 Y115.856 E53.40513 F1080.000
G1 X62.954 Y115.587 E53.47145
G1 X61.913 Y114.545 E53.56532
G1 X61.913 Y113.271 E53.64654
G1 X64.661 Y116.019 E53.89429
G1 X67.420 Y118.779 F7800.000
G1 X68.829 Y120.187 E54.02128 F1080.000
G1 X70.103 Y120.187 E54.10250
G1 X61.913 Y111.997 E54.84083
G1 X61.913 Y110.722 E54.92206
G1 X71.378 Y120.187 E55.77526
G1 X72.652 Y120.187 E55.85648
G1 X61.913 Y109.448 E56.82455
G1 X61.913 Y108.174 E56.90578
G1 X73.926 Y120.187 E57.98872
G1 X75.201 Y120.187 E58.06994
G1 X61.913 Y106.899 E59.26775
G1 X61.913 Y105.625 E59.34898
G1 X76.475 Y120.187 E60.66166
G1 X77.749 Y120.187 E60.74288
G1 X61.913 Y104.351 E62.17043
G1 X61.913 Y103.076 E62.25166
G1 X79.024 Y120.187 E63.79408
G1 X80.298 Y120.187 E63.87530
G1 X61.913 Y101.802 E65.53260
G1 X61.913 Y100.528 E65.61382
G1 X81.572 Y120.187 E67.38598
G1 X82.847 Y120.187 E67.46721
G1 X61.913 Y99.253 E69.35424
G1 X61.913 Y97.979 E69.43546
G1 X84.121 Y120.187 E71.43737
G1 X85.395 Y120.187 E71.51859
G1 X61.913 Y96.705 E73.63536
G1 X63.353 Y96.870 E73.72777
G1 X86.670 Y120.187 E75.82959
G1 X87.944 Y120.187 E75.91081
G1 X64.358 Y96.601 E78.03691
G1 X65.363 Y96.332 E78.10323
G1 X89.218 Y120.187 E80.25360
G1 X90.493 Y120.187 E80.33482
G1 X66.026 Y95.720 E82.54032
G1 X66.663 Y95.083 E82.59776
G1 X91.767 Y120.187 E84.86069
G1 X93.042 Y120.187 E84.94192
G1 X67.250 Y94.396 E87.26679
G1 X67.519 Y93.391 E87.33311
G1 X94.316 Y120.187 E89.74857
G1 X95.590 Y120.187 E89.82980
G1 X67.789 Y92.386 E92.33586
G1 X67.532 Y90.855 E92.43482
G1 X96.865 Y120.187 E95.07891
G1 X98.139 Y120.187 E95.16014
G1 X61.913 Y83.961 E98.42561
G1 X61.913 Y82.687 E98.50684
G1 X99.413 Y120.187 E101.88718
G1 X100.688 Y120.187 E101.96841
G1 X61.913 Y81.412 E105.46363
G1 X61.913 Y80.138 E105.54485
G1 X101.962 Y120.187 E109.15494
G1 X103.236 Y120.187 E109.23616
G1 X62.861 Y79.813 E112.87559
G1 X64.136 Y79.813 E112.95682
G1 X104.511 Y120.187 E116.59625
G1 X105.785 Y120.187 E116.67747
G1 X65.410 Y79.813 E120.31690
G1 X66.684 Y79.813 E120.39813
G1 X107.059 Y120.187 E124.03756
G1 X108.334 Y120.187 E124.11879
G1 X67.959 Y79.813 E127.75822
G1 X69.233 Y79.813 E127.83944
G1 X109.608 Y120.187 E131.47887
G1 X110.882 Y120.187 E131.56010
G1 X70.507 Y79.813 E135.19953
G1 X71.782 Y79.813 E135.28075
G1 X112.157 Y120.187 E138.92018
G1 X113.431 Y120.187 E139.00141
G1 X73.056 Y79.813 E142.64084
G1 X74.330 Y79.813 E142.72206
G1 X114.705 Y120.187 E146.36149
G1 X115.980 Y120.187 E146.44272
G1 X75.605 Y79.813 E150.08215
G1 X76.879 Y79.813 E150.16338
G1 X117.254 Y120.187 E153.80281
G1 X118.528 Y120.187 E153.88403
G1 X78.153 Y79.813 E157.52346
G1 X79.428 Y79.813 E157.60469
G1 X119.803 Y120.187 E161.24412
G1 X121.077 Y120.187 E161.32534
G1 X80.702 Y79.813 E164.96477
G1 X81.976 Y79.813 E165.04600
G1 X122.351 Y120.187 E168.68543
G1 X123.626 Y120.187 E168.76665
G1 X83.251 Y79.813 E172.40608
G1 X84.525 Y79.813 E172.48731
G1 X124.900 Y120.187 E176.12674
G1 X126.174 Y120.187 E176.20796
G1 X85.799 Y79.813 E179.84740
G1 X87.074 Y79.813 E179.92862
G1 X127.449 Y120.187 E183.56805
G1 X128.723 Y120.187 E183.64928
G1 X88.348 Y79.813 E187.28871
G1 X89.623 Y79.813 E187.36993
G1 X129.997 Y120.187 E191.00936
G1 X131.272 Y120.187 E191.09059
G1 X90.897 Y79.813 E194.73002
G1 X92.171 Y79.813 E194.81124
G1 X132.275 Y119.916 E198.42623
G1 X132.544 Y118.911 E198.49255
G1 X93.446 Y79.813 E202.01695
G1 X94.720 Y79.813 E202.09817
G1 X132.850 Y117.943 E205.53530
G1 X133.488 Y117.306 E205.59273
G1 X95.994 Y79.813 E208.97242
G1 X97.269 Y79.813 E209.05365
G1 X134.125 Y116.669 E212.37590
G1 X134.874 Y116.144 E212.43422
G1 X98.543 Y79.813 E215.70917
G1 X99.817 Y79.813 E215.79039
G1 X135.879 Y115.875 E219.04106
G1 X136.884 Y115.605 E219.10738
G1 X101.092 Y79.813 E222.33378
G1 X102.366 Y79.813 E222.41500
G1 X138.087 Y115.534 E225.63498
G1 X138.087 Y114.260 E225.71620
G1 X103.640 Y79.813 E228.82131
G1 X104.915 Y79.813 E228.90253
G1 X138.087 Y112.985 E231.89277
G1 X138.087 Y111.711 E231.97399
G1 X106.189 Y79.813 E234.84935
G1 X107.463 Y79.813 E234.93058
G1 X138.087 Y110.437 E237.69107
G1 X138.087 Y109.162 E237.77230
G1 X108.738 Y79.813 E240.41792
G1 X110.012 Y79.813 E240.49915
G1 X138.087 Y107.888 E243.02990
G1 X138.087 Y106.614 E243.11113
G1 X111.286 Y79.813 E245.52701
G1 X112.561 Y79.813 E245.60823
G1 X138.087 Y105.339 E247.90924
G1 X138.087 Y104.065 E247.99047
G1 X113.835 Y79.813 E250.17661
G1 X115.109 Y79.813 E250.25784
G1 X138.087 Y102.791 E252.32911
G1 X138.087 Y101.516 E252.41033
G1 X116.384 Y79.813 E254.36673
G1 X117.658 Y79.813 E254.44796
G1 X138.087 Y100.242 E256.28949
G1 X137.283 Y96.889 F7800.000
G1 X138.087 Y97.693 E256.36199 F1080.000
G1 X138.087 Y98.968 E256.44321
G1 X135.750 Y96.630 E256.65394
G1 X132.470 Y93.350 F7800.000
G1 X118.932 Y79.813 E257.87421 F1080.000
G1 X120.207 Y79.813 E257.95544
G1 X132.211 Y91.816 E259.03748
G1 X132.480 Y90.811 E259.10380
G1 X121.481 Y79.813 E260.09525
G1 X122.755 Y79.813 E260.17647
G1 X132.749 Y89.806 E261.07732
G1 X133.335 Y89.118 E261.13494
G1 X124.030 Y79.813 E261.97376
G1 X125.304 Y79.813 E262.05498
G1 X133.972 Y88.481 E262.83637
G1 X134.634 Y87.868 E262.89384
G1 X126.578 Y79.813 E263.61999
G1 X127.853 Y79.813 E263.70122
G1 X135.639 Y87.599 E264.40309
G1 X136.644 Y87.330 E264.46941
G1 X129.127 Y79.813 E265.14701
G1 X130.401 Y79.813 E265.22823
G1 X138.087 Y87.499 E265.92106
G1 X138.087 Y86.224 E266.00229
G1 X131.676 Y79.813 E266.58024
G1 X132.950 Y79.813 E266.66147
G1 X138.087 Y84.950 E267.12456
G1 X138.087 Y83.676 E267.20578
G1 X134.224 Y79.813 E267.55400
G1 X135.499 Y79.813 E267.63522
G1 X138.087 Y82.401 E267.86857
G1 X138.087 Y81.127 E267.94980
G1 X136.773 Y79.813 E268.06827
G1 X138.047 Y79.813 E268.14950
G1 X138.087 Y79.853 E268.15310
M140 S60 ; wait for bed temperature to be reached
G1 E267.15310 F1800.00000
G92 E0
G1 Z0.900 F7800.000
G1 X64.610 Y119.510 F7800.000
G1 E1.00000 F1800.00000
G1 X64.859 Y120.440 E1.02255 F1800.000
G1 X64.610 Y121.369 E1.04510
G1 X63.929 Y122.049 E1.06765
G1 X63.000 Y122.298 E1.09020
G1 X62.071 Y122.049 E1.11275
G1 X61.390 Y121.369 E1.13530
G1 X61.141 Y120.440 E1.15785
G1 X61.390 Y119.510 E1.18041
G1 X62.071 Y118.830 E1.20296
G1 X63.000 Y118.581 E1.22551
G1 X63.225 Y118.641 E1.23096
G1 X63.929 Y118.830 E1.24806 F1800.000
G1 X64.557 Y119.457 E1.26885
G1 X65.108 Y119.554 F7800.000
G1 X63.000 Y94.427 F7800.000
G1 X61.836 Y94.115 E1.30231 F1800.000
G1 X61.586 Y93.865 E1.31214
G1 X60.984 Y93.263 E1.33578
G1 X60.673 Y92.100 E1.36924
G1 X60.984 Y90.936 E1.40271
G1 X61.836 Y90.084 E1.43617
G1 X63.000 Y89.772 E1.46963
G1 X63.342 Y89.864 E1.47946
G1 X64.164 Y90.084 E1.50310 F1800.000
G1 X65.015 Y90.936 E1.53656
G1 X65.165 Y91.494 E1.55262
G1 X65.490 Y91.494 E1.56163
G1 X65.015 Y93.263 E1.61250
G1 X64.164 Y94.115 E1.64596
G1 X63.072 Y94.408 E1.67734
G1 X63.000 Y93.958 F7800.000
G1 X62.071 Y93.709 E1.69990 F1800.000
G1 X61.906 Y93.545 E1.70535
G1 X61.390 Y93.029 E1.72245
G1 X61.141 Y92.100 E1.74500
G1 X61.390 Y91.170 E1.76755
G1 X62.071 Y90.490 E1.79010
G1 X62.295 Y90.430 E1.79555
G1 X63.000 Y90.241 E1.81265 F1800.000
G1 X63.929 Y90.490 E1.83520
G1 X64.610 Y91.170 E1.85775
G1 X64.818 Y91.947 E1.87659
G1 X64.900 Y91.947 E1.87851
G1 X64.610 Y93.029 E1.90477
G1 X63.929 Y93.709 E1.92732
G1 X63.072 Y93.939 E1.94811
G1 X62.713 Y94.368 F7800.000
G1 X134.673 Y92.100 F7800.000
G1 X134.985 Y90.936 E1.98158 F1800.000
G1 X135.836 Y90.084 E2.01504
G1 X137.000 Y89.772 E2.04851
G1 X137.342 Y89.864 E2.05834
G1 X138.164 Y90.084 E2.08197 F1800.000
G1 X139.015 Y90.936 E2.11543
G1 X139.327 Y92.100 E2.14890
G1 X139.015 Y93.263 E2.18236
G1 X138.164 Y94.115 E2.21582
G1 X137.000 Y94.427 E2.24929
G1 X135.836 Y94.115 E2.28275
G1 X134.984 Y93.263 E2.31622
G1 X134.692 Y92.172 E2.34760
G1 X135.141 Y92.100 F7800.000
G1 X135.390 Y91.170 E2.37015 F1800.000
G1 X136.071 Y90.490 E2.39270
G1 X137.000 Y90.241 E2.41525 F1800.000
G1 X137.929 Y90.490 E2.43780
G1 X138.610 Y91.170 E2.46035
G1 X138.859 Y92.100 E2.48290
G1 X138.610 Y93.029 E2.50545
G1 X137.929 Y93.709 E2.52800
G1 X137.000 Y93.958 E2.55055
G1 X136.071 Y93.709 E2.57310
G1 X135.390 Y93.029 E2.59565
G1 X135.161 Y92.172 E2.61645
G1 X134.732 Y91.813 F7800.000
G1 X137.000 Y118.581 F7800.000
G1 X137.225 Y118.641 E2.62190 F1800.000
G1 X137.929 Y118.830 E2.63900 F1800.000
G1 X138.610 Y119.510 E2.66155
G1 X138.859 Y120.440 E2.68410
G1 X138.610 Y121.369 E2.70665
G1 X137.929 Y122.049 E2.72920
G1 X137.000 Y122.298 E2.75175
G1 X136.071 Y122.049 E2.77430
G1 X135.390 Y121.369 E2.79685
G1 X135.141 Y120.440 E2.81940
G1 X135.390 Y119.510 E2.84195
G1 X136.071 Y118.830 E2.86450
G1 X136.928 Y118.600 E2.88530
G1 X137.133 Y118.390 F7800.000
G1 X66.129 Y91.003 F7800.000
G1 X65.542 Y91.003 E2.90161 F1800.000
G1 X65.456 Y90.682 E2.91086
G1 X64.418 Y89.644 E2.95163
G1 X63.000 Y89.264 E2.99240
G1 X61.582 Y89.644 E3.03317
G1 X60.544 Y90.682 E3.07395
G1 X60.449 Y91.036 E3.08413
G1 X60.193 Y91.002 E3.09131
G1 X60.193 Y78.093 E3.44989
G1 X139.807 Y78.093 E5.66137
G1 X139.807 Y91.002 E6.01996
G1 X139.551 Y91.036 E6.02713
G1 X139.456 Y90.682 E6.03732
G1 X138.418 Y89.644 E6.07809
G1 X137.000 Y89.264 E6.11886
G1 X135.582 Y89.644 E6.15963
G1 X134.544 Y90.682 E6.20040
G1 X134.165 Y92.100 E6.24117
G1 X134.544 Y93.517 E6.28195
G1 X135.582 Y94.555 E6.32272
G1 X137.000 Y94.935 E6.36349
G1 X138.418 Y94.555 E6.40426
G1 X139.456 Y93.517 E6.44503
G1 X139.551 Y93.163 E6.45522
G1 X139.807 Y93.197 E6.46239
G1 X139.807 Y119.342 E7.18866
G1 X139.551 Y119.376 E7.19583
G1 X139.456 Y119.022 E7.20602
G1 X138.418 Y117.984 E7.24679
G1 X137.000 Y117.604 E7.28756
G1 X135.582 Y117.984 E7.32834
G1 X134.544 Y119.022 E7.36911
G1 X134.165 Y120.440 E7.40988
G1 X134.558 Y121.907 E7.45206
G1 X65.442 Y121.907 E9.37193
G1 X65.836 Y120.440 E9.41412
G1 X65.456 Y119.022 E9.45489
G1 X64.418 Y117.984 E9.49566
G1 X63.000 Y117.604 E9.53643
G1 X61.582 Y117.984 E9.57720
G1 X60.544 Y119.022 E9.61797
G1 X60.449 Y119.376 E9.62816
G1 X60.193 Y119.342 E9.63534
G1 X60.193 Y93.197 E10.36160
G1 X60.449 Y93.163 E10.36878
G1 X60.544 Y93.517 E10.37896
G1 X61.582 Y94.555 E10.41974
G1 X63.000 Y94.935 E10.46051
G1 X64.418 Y94.555 E10.50128
