; generated by Slic3r 1.0.1 on 2014-07-07 at 17:49:03

; layer_height = 0.24
; perimeters = 2
; top_solid_layers = 3
; bottom_solid_layers = 3
; fill_density = 0.25
; perimeter_speed = 30
; infill_speed = 30
; travel_speed = 100
; nozzle_diameter = 0.5
; filament_diameter = 1.75
; extrusion_multiplier = 1
; perimeters extrusion width = 0.50mm
; infill extrusion width = 0.50mm
; solid infill extrusion width = 0.50mm
; top infill extrusion width = 0.50mm
; first layer extrusion width = 0.80mm

G21 ; set units to millimeters
M107 ; disable fan
M190 S57 ; wait for bed temperature to be reached
M104 S200 ; set temperature

M109 S200 ; wait for temperature to be reached
G90 ; use absolute coordinates
M83 ; use relative distances for extrusion
G1 F1800.000 E-2.40000 ; retract
G1 Z0.240 F6000.000 ; move to next layer (0)
G1 X82.190 Y88.291 F6000.000 ; move to first skirt point
G1 E2.40000 F1800.000 ; compensate retraction
G1 X83.320 Y87.421 E0.10651 F900.000 ; skirt
G1 X84.650 Y86.871 E0.10749 ; skirt
G1 X86.070 Y86.681 E0.10700 ; skirt
G1 X113.920 Y86.681 E2.07998 ; skirt
G1 X115.340 Y86.871 E0.10700 ; skirt
G1 X116.670 Y87.421 E0.10749 ; skirt
G1 X117.800 Y88.291 E0.10651 ; skirt
G1 X123.700 Y94.181 E0.62263 ; skirt
G1 X124.580 Y95.321 E0.10756 ; skirt
G1 X125.130 Y96.651 E0.10749 ; skirt
G1 X125.320 Y98.071 E0.10700 ; skirt
G1 X125.320 Y107.811 E0.72743 ; skirt
G1 X125.180 Y109.031 E0.09171 ; skirt
G1 X124.770 Y110.201 E0.09259 ; skirt
G1 X124.120 Y111.241 E0.09160 ; skirt
G1 X123.250 Y112.111 E0.09189 ; skirt
G1 X122.210 Y112.761 E0.09160 ; skirt
G1 X121.040 Y113.171 E0.09259 ; skirt
G1 X119.820 Y113.311 E0.09171 ; skirt
G1 X80.170 Y113.311 E2.96127 ; skirt
G1 X78.950 Y113.171 E0.09171 ; skirt
G1 X77.780 Y112.761 E0.09259 ; skirt
G1 X76.740 Y112.111 E0.09160 ; skirt
G1 X75.870 Y111.241 E0.09189 ; skirt
G1 X75.220 Y110.201 E0.09160 ; skirt
G1 X74.810 Y109.031 E0.09259 ; skirt
G1 X74.670 Y107.811 E0.09171 ; skirt
G1 X74.670 Y98.071 E0.72743 ; skirt
G1 X74.860 Y96.651 E0.10700 ; skirt
G1 X75.410 Y95.321 E0.10749 ; skirt
G1 X76.290 Y94.181 E0.10756 ; skirt
G1 X82.111 Y88.370 E0.61425 ; skirt
G1 X82.720 Y88.821 F6000.000 ; move to first skirt point
G1 X83.700 Y88.071 E0.09217 F900.000 ; skirt
G1 X84.840 Y87.591 E0.09238 ; skirt
G1 X86.070 Y87.431 E0.09264 ; skirt
G1 X113.920 Y87.431 E2.07998 ; skirt
G1 X115.150 Y87.591 E0.09264 ; skirt
G1 X116.290 Y88.071 E0.09238 ; skirt
G1 X117.270 Y88.821 E0.09217 ; skirt
G1 X123.170 Y94.711 E0.62263 ; skirt
G1 X123.930 Y95.691 E0.09262 ; skirt
G1 X124.410 Y96.841 E0.09307 ; skirt
G1 X124.570 Y98.071 E0.09264 ; skirt
G1 X124.570 Y107.811 E0.72743 ; skirt
G1 X124.410 Y109.041 E0.09264 ; skirt
G1 X123.930 Y110.181 E0.09238 ; skirt
G1 X123.180 Y111.171 E0.09276 ; skirt
G1 X122.190 Y111.921 E0.09276 ; skirt
G1 X121.050 Y112.401 E0.09238 ; skirt
G1 X119.820 Y112.561 E0.09264 ; skirt
G1 X80.170 Y112.561 E2.96127 ; skirt
G1 X78.940 Y112.401 E0.09264 ; skirt
G1 X77.800 Y111.921 E0.09238 ; skirt
G1 X76.810 Y111.171 E0.09276 ; skirt
G1 X76.060 Y110.181 E0.09276 ; skirt
G1 X75.580 Y109.041 E0.09238 ; skirt
G1 X75.420 Y107.811 E0.09264 ; skirt
G1 X75.420 Y98.071 E0.72743 ; skirt
G1 X75.580 Y96.841 E0.09264 ; skirt
G1 X76.060 Y95.691 E0.09307 ; skirt
G1 X76.820 Y94.711 E0.09262 ; skirt
G1 X82.641 Y88.900 E0.61425 ; skirt
G1 F1800.000 E-2.40000 ; retract
G1 X86.239 Y92.581 F6000.000 ; move to first perimeter point
G1 E2.40000 F1800.000 ; compensate retraction
G1 X113.759 Y92.581 E2.05530 F900.000 ; perimeter
G1 X119.420 Y98.240 E0.59784 ; perimeter
G1 X119.420 Y107.419 E0.68551 ; perimeter
G1 X80.579 Y107.419 E2.90086 ; perimeter
G1 X80.579 Y98.240 E0.68551 ; perimeter
G1 X86.160 Y92.660 E0.58941 ; perimeter
G1 X86.768 Y93.110 F6000.000 ; move inwards before travel
G1 X86.549 Y93.329 F6000.000 ; move to first perimeter point
G1 X113.449 Y93.329 E2.00900 F900.000 ; perimeter
G1 X118.672 Y98.550 E0.55153 ; perimeter
G1 X118.672 Y106.671 E0.60645 ; perimeter
G1 X81.327 Y106.671 E2.78906 ; perimeter
G1 X81.327 Y98.550 E0.60646 ; perimeter
G1 X86.470 Y93.409 E0.54310 ; perimeter
G1 F1800.000 E-2.40000 ; retract
G1 X91.128 Y99.368 F6000.000 ; move to first perimeter point
G1 E2.40000 F1800.000 ; compensate retraction
G1 X91.433 Y99.153 E0.02783 F780.000 ; perimeter
G1 X91.770 Y98.996 E0.02779 ; perimeter
G1 X92.128 Y98.901 E0.02764 ; perimeter
G1 X92.499 Y98.867 E0.02780 ; perimeter
G1 X92.868 Y98.901 E0.02771 ; perimeter
G1 X93.228 Y98.996 E0.02782 ; perimeter
G1 X93.436 Y99.093 E0.01707 ; perimeter
G1 X93.565 Y99.154 E0.01071 ; perimeter
G1 X93.870 Y99.368 E0.02777 ; perimeter
G1 X94.131 Y99.629 E0.02763 ; perimeter
G1 X94.346 Y99.934 E0.02783 ; perimeter
G1 X94.503 Y100.271 E0.02779 ; perimeter
G1 X94.598 Y100.630 E0.02774 ; perimeter
G1 X94.618 Y100.859 E0.01718 ; perimeter
G1 X94.629 Y101.002 E0.01070 ; perimeter
G1 X94.598 Y101.368 E0.02741 ; perimeter
G1 X94.503 Y101.729 E0.02792 ; perimeter
G1 X94.345 Y102.066 E0.02778 ; perimeter
G1 X94.131 Y102.371 E0.02777 ; perimeter
G1 X93.870 Y102.632 E0.02763 ; perimeter
G1 X93.565 Y102.847 E0.02783 ; perimeter
G1 X93.228 Y103.004 E0.02779 ; perimeter
G1 X92.870 Y103.099 E0.02765 ; perimeter
G1 X92.497 Y103.133 E0.02796 ; perimeter
G1 X92.130 Y103.099 E0.02756 ; perimeter
G1 X91.770 Y103.004 E0.02781 ; perimeter
G1 X91.433 Y102.846 E0.02778 ; perimeter
G1 X91.128 Y102.632 E0.02777 ; perimeter
G1 X90.867 Y102.371 E0.02763 ; perimeter
G1 X90.652 Y102.066 E0.02783 ; perimeter
G1 X90.495 Y101.729 E0.02779 ; perimeter
G1 X90.400 Y101.371 E0.02764 ; perimeter
G1 X90.366 Y101.000 E0.02780 ; perimeter
G1 X90.400 Y100.631 E0.02771 ; perimeter
G1 X90.495 Y100.271 E0.02782 ; perimeter
G1 X90.653 Y99.934 E0.02778 ; perimeter
G1 X90.867 Y99.629 E0.02777 ; perimeter
G1 X91.049 Y99.447 E0.01925 ; perimeter
G1 X91.074 Y98.999 F6000.000 ; move inwards before travel
G1 X90.884 Y98.624 F6000.000 ; move to first perimeter point
G1 X91.057 Y98.503 E0.01576 F780.000 ; perimeter
G1 X91.515 Y98.289 E0.03772 ; perimeter
G1 X91.996 Y98.162 E0.03716 ; perimeter
G1 X92.500 Y98.116 E0.03784 ; perimeter
G1 X92.997 Y98.161 E0.03730 ; perimeter
G1 X93.485 Y98.290 E0.03766 ; perimeter
G1 X93.942 Y98.504 E0.03770 ; perimeter
G1 X94.353 Y98.793 E0.03750 ; perimeter
G1 X94.706 Y99.146 E0.03729 ; perimeter
G1 X94.996 Y99.558 E0.03766 ; perimeter
G1 X95.210 Y100.016 E0.03772 ; perimeter
G1 X95.338 Y100.500 E0.03745 ; perimeter
G1 X95.381 Y101.004 E0.03779 ; perimeter
G1 X95.339 Y101.495 E0.03674 ; perimeter
G1 X95.209 Y101.986 E0.03795 ; perimeter
G1 X94.995 Y102.443 E0.03770 ; perimeter
G1 X94.706 Y102.854 E0.03750 ; perimeter
G1 X94.353 Y103.207 E0.03729 ; perimeter
G1 X93.941 Y103.497 E0.03766 ; perimeter
G1 X93.483 Y103.711 E0.03772 ; perimeter
G1 X93.002 Y103.838 E0.03718 ; perimeter
G1 X92.495 Y103.884 E0.03802 ; perimeter
G1 X92.000 Y103.839 E0.03713 ; perimeter
G1 X91.513 Y103.710 E0.03763 ; perimeter
G1 X91.056 Y103.496 E0.03770 ; perimeter
G1 X90.645 Y103.207 E0.03750 ; perimeter
G1 X90.292 Y102.854 E0.03729 ; perimeter
G1 X90.002 Y102.442 E0.03766 ; perimeter
G1 X89.788 Y101.984 E0.03772 ; perimeter
G1 X89.661 Y101.503 E0.03716 ; perimeter
G1 X89.615 Y100.999 E0.03784 ; perimeter
G1 X89.660 Y100.502 E0.03730 ; perimeter
G1 X89.789 Y100.014 E0.03766 ; perimeter
G1 X90.003 Y99.557 E0.03770 ; perimeter
G1 X90.292 Y99.146 E0.03750 ; perimeter
G1 X90.645 Y98.793 E0.03729 ; perimeter
G1 X90.793 Y98.689 E0.01352 ; perimeter
G1 F1800.000 E-2.40000 ; retract
G1 X105.400 Y100.631 F6000.000 ; move to first perimeter point
G1 E2.40000 F1800.000 ; compensate retraction
G1 X105.495 Y100.271 E0.02782 F780.000 ; perimeter
G1 X105.653 Y99.934 E0.02778 ; perimeter
G1 X105.867 Y99.629 E0.02778 ; perimeter
G1 X106.128 Y99.368 E0.02763 ; perimeter
G1 X106.433 Y99.153 E0.02783 ; perimeter
G1 X106.770 Y98.996 E0.02779 ; perimeter
G1 X107.128 Y98.901 E0.02764 ; perimeter
G1 X107.499 Y98.867 E0.02780 ; perimeter
G1 X107.868 Y98.901 E0.02771 ; perimeter
G1 X108.228 Y98.996 E0.02782 ; perimeter
G1 X108.565 Y99.154 E0.02778 ; perimeter
G1 X108.870 Y99.368 E0.02778 ; perimeter
G1 X109.131 Y99.629 E0.02763 ; perimeter
G1 X109.346 Y99.934 E0.02783 ; perimeter
G1 X109.503 Y100.271 E0.02779 ; perimeter
G1 X109.598 Y100.630 E0.02774 ; perimeter
G1 X109.629 Y101.002 E0.02787 ; perimeter
G1 X109.598 Y101.368 E0.02741 ; perimeter
G1 X109.503 Y101.729 E0.02792 ; perimeter
G1 X109.345 Y102.066 E0.02778 ; perimeter
G1 X109.131 Y102.371 E0.02777 ; perimeter
G1 X108.870 Y102.632 E0.02763 ; perimeter
G1 X108.565 Y102.847 E0.02783 ; perimeter
G1 X108.228 Y103.004 E0.02779 ; perimeter
G1 X107.870 Y103.099 E0.02765 ; perimeter
G1 X107.497 Y103.133 E0.02796 ; perimeter
G1 X107.130 Y103.099 E0.02756 ; perimeter
G1 X106.770 Y103.004 E0.02781 ; perimeter
G1 X106.433 Y102.846 E0.02778 ; perimeter
G1 X106.128 Y102.632 E0.02777 ; perimeter
G1 X105.867 Y102.371 E0.02763 ; perimeter
G1 X105.652 Y102.066 E0.02783 ; perimeter
G1 X105.495 Y101.729 E0.02779 ; perimeter
G1 X105.400 Y101.371 E0.02764 ; perimeter
G1 X105.366 Y101.000 E0.02780 ; perimeter
G1 X105.390 Y100.743 E0.01933 ; perimeter
G1 X105.122 Y100.383 F6000.000 ; move inwards before travel
G1 X104.735 Y100.218 F6000.000 ; move to first perimeter point
G1 X104.789 Y100.014 E0.01579 F780.000 ; perimeter
G1 X105.003 Y99.557 E0.03770 ; perimeter
G1 X105.292 Y99.146 E0.03750 ; perimeter
G1 X105.645 Y98.793 E0.03729 ; perimeter
G1 X106.057 Y98.503 E0.03766 ; perimeter
G1 X106.515 Y98.289 E0.03772 ; perimeter
G1 X106.996 Y98.162 E0.03716 ; perimeter
G1 X107.500 Y98.116 E0.03784 ; perimeter
G1 X107.997 Y98.161 E0.03730 ; perimeter
G1 X108.485 Y98.290 E0.03766 ; perimeter
G1 X108.942 Y98.504 E0.03770 ; perimeter
G1 X109.353 Y98.793 E0.03750 ; perimeter
G1 X109.706 Y99.146 E0.03729 ; perimeter
G1 X109.996 Y99.558 E0.03766 ; perimeter
G1 X110.210 Y100.016 E0.03772 ; perimeter
G1 X110.338 Y100.500 E0.03745 ; perimeter
G1 X110.381 Y101.004 E0.03778 ; perimeter
G1 X110.339 Y101.495 E0.03674 ; perimeter
G1 X110.209 Y101.986 E0.03795 ; perimeter
G1 X109.995 Y102.443 E0.03770 ; perimeter
G1 X109.706 Y102.854 E0.03750 ; perimeter
G1 X109.353 Y103.207 E0.03729 ; perimeter
G1 X108.941 Y103.497 E0.03766 ; perimeter
G1 X108.483 Y103.711 E0.03772 ; perimeter
G1 X108.002 Y103.838 E0.03718 ; perimeter
G1 X107.495 Y103.884 E0.03802 ; perimeter
G1 X107.000 Y103.839 E0.03713 ; perimeter
G1 X106.513 Y103.710 E0.03763 ; perimeter
G1 X106.056 Y103.496 E0.03770 ; perimeter
G1 X105.645 Y103.207 E0.03750 ; perimeter
G1 X105.292 Y102.854 E0.03729 ; perimeter
G1 X105.002 Y102.442 E0.03766 ; perimeter
G1 X104.788 Y101.984 E0.03772 ; perimeter
G1 X104.661 Y101.503 E0.03716 ; perimeter
G1 X104.615 Y100.999 E0.03784 ; perimeter
G1 X104.660 Y100.502 E0.03730 ; perimeter
G1 X104.706 Y100.327 E0.01348 ; perimeter
G1 F1800.000 E-2.40000 ; retract
G1 X106.625 Y104.290 F6000.000 ; move to first fill point
G1 E2.40000 F1800.000 ; compensate retraction
G1 X108.472 Y106.138 E0.19609 F900.000 ; fill
G1 X109.536 Y106.138 E0.07983 ; fill
G1 X107.790 Y104.392 E0.18528 ; fill
G1 X108.672 Y104.210 E0.06757 ; fill
G1 X110.600 Y106.138 E0.20458 ; fill
G1 X111.663 Y106.138 E0.07983 ; fill
G1 X109.371 Y103.846 E0.24328 ; fill
G1 X109.951 Y103.362 E0.05668 ; fill
G1 X112.727 Y106.138 E0.29460 ; fill
G1 X113.791 Y106.138 E0.07983 ; fill
G1 X110.419 Y102.766 E0.35783 ; fill
G1 X110.748 Y102.031 E0.06044 ; fill
G1 X114.855 Y106.138 E0.43587 ; fill
G1 X115.918 Y106.138 E0.07983 ; fill
G1 X110.905 Y101.125 E0.53209 ; fill
G1 X110.725 Y99.881 F6000.000 ; move to first fill point
G1 X116.982 Y106.138 E0.66409 F900.000 ; fill
G1 X118.046 Y106.138 E0.07983 ; fill
G1 X105.770 Y93.862 E1.30290 ; fill
G1 X106.834 Y93.862 E0.07983 ; fill
G1 X118.139 Y105.167 E1.19990 ; fill
G1 X118.139 Y104.104 E0.07983 ; fill
G1 X107.897 Y93.862 E1.08700 ; fill
G1 X108.961 Y93.862 E0.07983 ; fill
G1 X118.139 Y103.040 E0.97410 ; fill
G1 X118.139 Y101.976 E0.07983 ; fill
G1 X110.025 Y93.862 E0.86121 ; fill
G1 X111.088 Y93.862 E0.07983 ; fill
G1 X118.139 Y100.913 E0.74831 ; fill
G1 X118.139 Y99.849 E0.07983 ; fill
G1 X112.152 Y93.862 E0.63541 ; fill
G1 X113.216 Y93.862 E0.07983 ; fill
G1 X118.139 Y98.785 E0.52252 ; fill
G1 F1800.000 E-2.40000 ; retract
G1 X108.619 Y97.775 F6000.000 ; move to first fill point
G1 E2.40000 F1800.000 ; compensate retraction
G1 X104.706 Y93.862 E0.41526 F900.000 ; fill
G1 X103.642 Y93.862 E0.07983 ; fill
G1 X107.373 Y97.593 E0.39593 ; fill
G1 X106.468 Y97.751 E0.06898 ; fill
G1 X102.579 Y93.862 E0.41273 ; fill
G1 X101.515 Y93.862 E0.07983 ; fill
G1 X105.733 Y98.080 E0.44764 ; fill
G1 X105.137 Y98.548 E0.05686 ; fill
G1 X100.451 Y93.862 E0.49729 ; fill
G1 X99.388 Y93.862 E0.07983 ; fill
G1 X104.653 Y99.128 E0.55886 ; fill
G1 X104.289 Y99.827 E0.05918 ; fill
G1 X98.324 Y93.862 E0.63308 ; fill
G1 X97.260 Y93.862 E0.07983 ; fill
G1 X104.106 Y100.708 E0.72662 ; fill
G1 X104.208 Y101.874 E0.08779 ; fill
G1 X96.197 Y93.862 E0.85031 ; fill
G1 X95.133 Y93.862 E0.07983 ; fill
G1 X107.409 Y106.138 E1.30290 ; fill
G1 X106.345 Y106.138 E0.07983 ; fill
G1 X94.069 Y93.862 E1.30290 ; fill
G1 X93.006 Y93.862 E0.07983 ; fill
G1 X105.281 Y106.138 E1.30290 ; fill
G1 X104.218 Y106.138 E0.07983 ; fill
G1 X91.942 Y93.862 E1.30290 ; fill
G1 X90.878 Y93.862 E0.07983 ; fill
G1 X103.154 Y106.138 E1.30290 ; fill
G1 X102.090 Y106.138 E0.07983 ; fill
G1 X95.648 Y99.696 E0.68372 ; fill
G1 F1800.000 E-2.40000 ; retract
G1 X93.803 Y97.851 F6000.000 ; move to first fill point
G1 E2.40000 F1800.000 ; compensate retraction
G1 X89.814 Y93.862 E0.42336 F900.000 ; fill
G1 X88.751 Y93.862 E0.07983 ; fill
G1 X92.472 Y97.583 E0.39496 ; fill
G1 X91.553 Y97.728 E0.06981 ; fill
G1 X87.687 Y93.862 E0.41033 ; fill
G1 X86.703 Y93.942 E0.07408 ; fill
G1 X90.797 Y98.036 E0.43455 ; fill
G1 X90.191 Y98.493 E0.05700 ; fill
G1 X86.171 Y94.474 E0.42663 ; fill
G1 X85.639 Y95.006 E0.05645 ; fill
G1 X89.698 Y99.064 E0.43075 ; fill
G1 X89.323 Y99.753 E0.05886 ; fill
G1 X85.108 Y95.537 E0.44743 ; fill
G1 X84.576 Y96.069 E0.05645 ; fill
G1 X89.116 Y100.609 E0.48183 ; fill
G1 X89.169 Y101.726 E0.08395 ; fill
G1 X84.044 Y96.601 E0.54397 ; fill
G1 X83.512 Y97.133 E0.05645 ; fill
G1 X92.517 Y106.138 E0.95574 ; fill
G1 X91.453 Y106.138 E0.07983 ; fill
G1 X82.980 Y97.665 E0.89929 ; fill
G1 X82.448 Y98.197 E0.05645 ; fill
G1 X90.390 Y106.138 E0.84284 ; fill
G1 X89.326 Y106.138 E0.07983 ; fill
G1 X81.916 Y98.729 E0.78640 ; fill
G1 X81.860 Y99.736 E0.07570 ; fill
G1 X88.262 Y106.138 E0.67950 ; fill
G1 X87.198 Y106.138 E0.07983 ; fill
G1 X81.860 Y100.799 E0.56661 ; fill
G1 X81.860 Y101.863 E0.07983 ; fill
G1 X86.135 Y106.138 E0.45371 ; fill
G1 X85.071 Y106.138 E0.07983 ; fill
G1 X81.860 Y102.927 E0.34081 ; fill
G1 X81.860 Y103.990 E0.07983 ; fill
G1 X84.007 Y106.138 E0.22792 ; fill
G1 X82.944 Y106.138 E0.07983 ; fill
G1 X81.860 Y105.054 E0.11502 ; fill
G1 X81.860 Y106.118 E0.07983 ; fill
G1 X81.880 Y106.138 E0.00212 ; fill
G1 F1800.000 E-2.40000 ; retract
G1 X93.581 Y106.138 F6000.000 ; move to first fill point
G1 E2.40000 F1800.000 ; compensate retraction
G1 X91.772 Y104.329 E0.19195 F900.000 ; fill
G1 X92.890 Y104.383 E0.08397 ; fill
G1 X94.644 Y106.138 E0.18624 ; fill
G1 X95.708 Y106.138 E0.07983 ; fill
G1 X93.746 Y104.176 E0.20824 ; fill
G1 X94.435 Y103.801 E0.05886 ; fill
G1 X96.772 Y106.138 E0.24802 ; fill
G1 X97.835 Y106.138 E0.07983 ; fill
G1 X95.006 Y103.308 E0.30034 ; fill
G1 X95.463 Y102.702 E0.05700 ; fill
G1 X98.899 Y106.138 E0.36472 ; fill
G1 X99.963 Y106.138 E0.07983 ; fill
G1 X95.770 Y101.946 E0.44496 ; fill
G1 X95.913 Y101.025 E0.06993 ; fill
G1 X101.026 Y106.138 E0.54268 ; fill
M104 S190 ; set temperature
G1 F1800.000 E-2.40000 ; retract
G1 Z0.480 F6000.000 ; move to next layer (1)
G1 X119.750 Y107.749 F6000.000 ; move to first perimeter point
G1 E2.40000 F1800.000 ; compensate retraction
G1 X80.250 Y107.749 E1.97066 F1800 ; perimeter
G1 X80.250 Y98.103 E0.48126 ; perimeter
G1 X86.102 Y92.251 E0.41286 ; perimeter
G1 X113.896 Y92.251 E1.38669 ; perimeter
G1 X119.750 Y98.103 E0.41293 ; perimeter
G1 X119.750 Y107.674 E0.47752 ; perimeter
