; generated by Slic3r 1.1.6 on 2015-01-26 at 22:23:11

; perimeters extrusion width = 0.50mm
; infill extrusion width = 0.50mm
; solid infill extrusion width = 0.50mm
; top infill extrusion width = 0.50mm

G21 ; set units to millimeters
M107 ; disable fan
M190 S57 ; wait for bed temperature to be reached
M104 S200 ; set temperature

M109 S200 ; wait for temperature to be reached
G90 ; use absolute coordinates
M83 ; use relative distances for extrusion
G1 F1800.000 E-4.00000 ; retract
G1 Z0.240 F6000.000 ; move to next layer (0)
G1 X55.031 Y73.097 F6000.000 ; move to first skirt point
G1 E4.00000 F1800.000 ; compensate retraction
G1 X56.736 Y71.891 E0.12472 F600.000 ; skirt
G1 X59.000 Y71.403 E0.13840 ; skirt
G1 X141.000 Y71.403 E4.89935 ; skirt
G1 X143.050 Y71.799 E0.12472 ; skirt
G1 X144.803 Y72.931 E0.12472 ; skirt
G1 X146.009 Y74.636 E0.12472 ; skirt
G1 X146.497 Y76.900 E0.13840 ; skirt
G1 X146.497 Y120.250 E2.59008 ; skirt
G1 X146.391 Y121.322 E0.06438 ; skirt
G1 X146.174 Y122.413 E0.06644 ; skirt
G1 X145.354 Y124.395 E0.12815 ; skirt
G1 X144.736 Y125.319 E0.06644 ; skirt
G1 X143.219 Y126.836 E0.12814 ; skirt
G1 X142.295 Y127.454 E0.06644 ; skirt
G1 X140.313 Y128.274 E0.12815 ; skirt
G1 X139.222 Y128.491 E0.06644 ; skirt
G1 X138.150 Y128.597 E0.06438 ; skirt
G1 X61.850 Y128.597 E4.55878 ; skirt
G1 X60.778 Y128.491 E0.06438 ; skirt
G1 X59.687 Y128.274 E0.06645 ; skirt
G1 X57.705 Y127.454 E0.12814 ; skirt
G1 X56.781 Y126.836 E0.06644 ; skirt
G1 X55.264 Y125.319 E0.12815 ; skirt
G1 X54.646 Y124.395 E0.06644 ; skirt
G1 X53.826 Y122.413 E0.12815 ; skirt
G1 X53.609 Y121.322 E0.06645 ; skirt
G1 X53.503 Y120.250 E0.06438 ; skirt
G1 X53.503 Y76.900 E2.59008 ; skirt
G1 X53.899 Y74.850 E0.12472 ; skirt
G1 X54.991 Y73.160 E0.12024 ; skirt
G1 X55.769 Y73.421 F6000.000 ; move to first skirt point
G1 X57.429 Y72.419 E0.11584 F600.000 ; skirt
G1 X59.000 Y72.152 E0.09523 ; skirt
G1 X141.000 Y72.152 E4.89935 ; skirt
G1 X142.898 Y72.547 E0.11584 ; skirt
G1 X144.479 Y73.669 E0.11584 ; skirt
G1 X145.481 Y75.329 E0.11584 ; skirt
G1 X145.748 Y76.900 E0.09523 ; skirt
G1 X145.657 Y121.176 E2.64544 ; skirt
G1 X145.440 Y122.267 E0.06644 ; skirt
G1 X144.731 Y123.979 E0.11070 ; skirt
G1 X144.113 Y124.903 E0.06644 ; skirt
G1 X142.803 Y126.213 E0.11070 ; skirt
G1 X141.879 Y126.831 E0.06644 ; skirt
G1 X140.167 Y127.540 E0.11070 ; skirt
G1 X138.150 Y127.848 E0.12191 ; skirt
G1 X60.924 Y127.757 E4.61414 ; skirt
G1 X59.833 Y127.540 E0.06645 ; skirt
G1 X58.121 Y126.831 E0.11069 ; skirt
G1 X57.197 Y126.213 E0.06644 ; skirt
G1 X55.887 Y124.903 E0.11070 ; skirt
G1 X55.269 Y123.979 E0.06644 ; skirt
G1 X54.560 Y122.267 E0.11070 ; skirt
G1 X54.360 Y121.264 E0.06113 ; skirt
G1 X54.252 Y120.250 E0.06090 ; skirt
G1 X54.252 Y76.900 E2.59008 ; skirt
G1 X54.647 Y75.002 E0.11584 ; skirt
G1 X55.725 Y73.482 E0.11136 ; skirt
G1 F1800.000 E-4.00000 ; retract
G1 X138.735 Y122.576 F6000.000 ; move to first perimeter point
G1 E4.00000 F1800.000 ; compensate retraction
G1 X138.526 Y122.184 E0.02653 F900.000 ; perimeter
G1 X139.073 Y121.637 E0.04625 ; perimeter
G1 X139.394 Y120.440 E0.07404 ; perimeter
G1 X139.073 Y119.243 E0.07404 ; perimeter
G1 X138.197 Y118.366 E0.07404 ; perimeter
G1 X137.000 Y118.046 E0.07404 ; perimeter
G1 X135.803 Y118.366 E0.07404 ; perimeter
G1 X135.587 Y118.583 E0.01828 ; perimeter
G1 X134.927 Y119.243 E0.05577 ; perimeter
G1 X134.606 Y120.440 E0.07404 ; perimeter
G1 X134.927 Y121.637 E0.07404 ; perimeter
G1 X135.990 Y122.700 E0.08985 ; perimeter
G1 X64.010 Y122.700 E4.30066 ; perimeter
G1 X65.073 Y121.637 E0.08984 ; perimeter
G1 X65.394 Y120.440 E0.07405 ; perimeter
G1 X65.073 Y119.243 E0.07404 ; perimeter
G1 X64.857 Y119.026 E0.01828 ; perimeter
G1 X64.197 Y118.366 E0.05577 ; perimeter
G1 X63.000 Y118.046 E0.07405 ; perimeter
G1 X61.803 Y118.366 E0.07404 ; perimeter
G1 X60.927 Y119.243 E0.07404 ; perimeter
G1 X60.606 Y120.440 E0.07405 ; perimeter
G1 X60.927 Y121.637 E0.07405 ; perimeter
G1 X61.474 Y122.184 E0.04625 ; perimeter
G1 X61.265 Y122.576 E0.02653 ; perimeter
G1 X60.915 Y122.506 E0.02128 ; perimeter
G1 X60.123 Y121.977 E0.05693 ; perimeter
G1 X59.594 Y121.185 E0.05693 ; perimeter
G1 X59.400 Y120.211 E0.05933 ; perimeter
G1 X59.400 Y77.300 E2.56383 ; perimeter
G1 X140.600 Y77.300 E4.85155 ; perimeter
G1 X140.600 Y120.211 E2.56383 ; perimeter
G1 X140.406 Y121.185 E0.05933 ; perimeter
G1 X139.877 Y121.977 E0.05693 ; perimeter
G1 X139.085 Y122.506 E0.05693 ; perimeter
G1 X138.809 Y122.561 E0.01680 ; perimeter
G1 X138.793 Y122.135 F6000.000 ; move inwards before travel
G1 F1800.000 E-4.00000 ; retract
G1 X139.852 Y118.962 F6000.000 ; move to first perimeter point
G1 E4.00000 F1800.000 ; compensate retraction
G1 X138.585 Y117.695 E0.10706 F900.000 ; perimeter
G1 X137.000 Y117.271 E0.09801 ; perimeter
G1 X135.415 Y117.695 E0.09801 ; perimeter
G1 X134.256 Y118.855 E0.09801 ; perimeter
G1 X133.831 Y120.440 E0.09801 ; perimeter
G1 X134.236 Y121.951 E0.09352 ; perimeter
G1 X65.764 Y121.951 E4.09109 ; perimeter
G1 X66.169 Y120.440 E0.09352 ; perimeter
G1 X65.744 Y118.855 E0.09801 ; perimeter
G1 X64.585 Y117.695 E0.09801 ; perimeter
G1 X63.000 Y117.271 E0.09801 ; perimeter
G1 X61.416 Y117.695 E0.09801 ; perimeter
G1 X60.148 Y118.962 E0.10706 ; perimeter
G1 X60.148 Y93.577 E1.51671 ; perimeter
G1 X61.415 Y94.844 E0.10706 ; perimeter
G1 X63.000 Y95.269 E0.09801 ; perimeter
G1 X64.584 Y94.844 E0.09801 ; perimeter
G1 X65.744 Y93.684 E0.09801 ; perimeter
G1 X66.169 Y92.100 E0.09801 ; perimeter
G1 X65.744 Y90.515 E0.09801 ; perimeter
G1 X65.386 Y90.157 E0.03026 ; perimeter
G1 X64.584 Y89.355 E0.06775 ; perimeter
G1 X63.000 Y88.931 E0.09801 ; perimeter
G1 X61.415 Y89.355 E0.09801 ; perimeter
G1 X60.148 Y90.622 E0.10706 ; perimeter
G1 X60.148 Y78.048 E0.75126 ; perimeter
G1 X139.852 Y78.048 E4.76211 ; perimeter
G1 X139.852 Y90.622 E0.75125 ; perimeter
G1 X138.584 Y89.355 E0.10706 ; perimeter
G1 X137.000 Y88.931 E0.09801 ; perimeter
G1 X135.415 Y89.355 E0.09801 ; perimeter
G1 X134.256 Y90.515 E0.09801 ; perimeter
G1 X133.831 Y92.100 E0.09801 ; perimeter
G1 X134.256 Y93.684 E0.09801 ; perimeter
G1 X135.415 Y94.844 E0.09801 ; perimeter
G1 X137.000 Y95.269 E0.09801 ; perimeter
G1 X138.584 Y94.844 E0.09801 ; perimeter
G1 X139.852 Y93.577 E0.10706 ; perimeter
G1 X139.852 Y118.887 E1.51223 ; perimeter
G1 F1800.000 E-4.00000 ; retract
G1 X65.073 Y93.297 F6000.000 ; move to first perimeter point
G1 E4.00000 F1800.000 ; compensate retraction
G1 X64.197 Y94.173 E0.07404 F900.000 ; perimeter
G1 X63.000 Y94.494 E0.07404 ; perimeter
G1 X61.803 Y94.173 E0.07405 ; perimeter
G1 X60.927 Y93.297 E0.07404 ; perimeter
G1 X60.606 Y92.100 E0.07404 ; perimeter
G1 X60.927 Y90.903 E0.07405 ; perimeter
G1 X61.803 Y90.026 E0.07404 ; perimeter
G1 X62.704 Y89.785 E0.05577 ; perimeter
G1 X63.000 Y89.706 E0.01828 ; perimeter
G1 X64.197 Y90.026 E0.07404 ; perimeter
G1 X65.073 Y90.903 E0.07405 ; perimeter
G1 X65.394 Y92.100 E0.07404 ; perimeter
G1 X65.093 Y93.224 E0.06956 ; perimeter
G1 X65.285 Y93.750 F6000.000 ; move inwards before travel
G1 F1800.000 E-4.00000 ; retract
G1 X134.606 Y92.100 F6000.000 ; move to first perimeter point
G1 E4.00000 F1800.000 ; compensate retraction
G1 X134.927 Y90.903 E0.07405 F900.000 ; perimeter
G1 X135.803 Y90.026 E0.07404 ; perimeter
G1 X137.000 Y89.706 E0.07404 ; perimeter
G1 X138.197 Y90.026 E0.07404 ; perimeter
G1 X139.073 Y90.903 E0.07404 ; perimeter
G1 X139.315 Y91.804 E0.05577 ; perimeter
G1 X139.394 Y92.100 E0.01828 ; perimeter
G1 X139.073 Y93.297 E0.07404 ; perimeter
G1 X138.197 Y94.173 E0.07405 ; perimeter
G1 X137.000 Y94.494 E0.07404 ; perimeter
G1 X135.803 Y94.173 E0.07405 ; perimeter
G1 X134.927 Y93.297 E0.07404 ; perimeter
G1 X134.625 Y92.172 E0.06956 ; perimeter
G1 X134.196 Y91.813 F6000.000 ; move inwards before travel
G1 F1800.000 E-4.00000 ; retract
G1 X137.608 Y88.553 F6000.000 ; move to first fill point
G1 E4.00000 F1800.000 ; compensate retraction
G1 X127.627 Y78.571 E0.84340 F900.000 ; fill
G1 X126.567 Y78.571 E0.06334 ; fill
G1 X136.515 Y88.519 E0.84060 ; fill
G1 X135.679 Y88.744 E0.05172 ; fill
G1 X125.507 Y78.571 E0.85953 ; fill
G1 X124.447 Y78.571 E0.06334 ; fill
G1 X134.953 Y89.078 E0.88780 ; fill
G1 X134.423 Y89.608 E0.04479 ; fill
G1 X123.386 Y78.571 E0.93259 ; fill
G1 X122.326 Y78.571 E0.06334 ; fill
G1 X133.893 Y90.138 E0.97738 ; fill
G1 X133.608 Y90.913 E0.04933 ; fill
G1 X121.266 Y78.571 E1.04285 ; fill
G1 X120.206 Y78.571 E0.06334 ; fill
G1 X133.384 Y91.749 E1.11350 ; fill
G1 X133.515 Y92.941 E0.07163 ; fill
G1 X119.146 Y78.571 E1.21419 ; fill
G1 X118.085 Y78.571 E0.06334 ; fill
G1 X139.329 Y99.815 E1.79499 ; fill
G1 X139.329 Y98.754 E0.06334 ; fill
G1 X136.159 Y95.584 E0.26785 ; fill
G1 X137.351 Y95.716 E0.07163 ; fill
G1 X139.329 Y97.694 E0.16717 ; fill
G1 X139.329 Y96.634 E0.06334 ; fill
G1 X138.187 Y95.492 E0.09652 ; fill
G1 X138.961 Y95.206 E0.04933 ; fill
G1 X139.329 Y95.574 E0.03105 ; fill
G1 F1800.000 E-4.00000 ; retract
G1 X139.329 Y100.875 F6000.000 ; move to first fill point
G1 E4.00000 F1800.000 ; compensate retraction
G1 X117.025 Y78.571 E1.88458 F900.000 ; fill
G1 X115.965 Y78.571 E0.06334 ; fill
G1 X139.329 Y101.935 E1.97416 ; fill
G1 X139.329 Y102.995 E0.06334 ; fill
G1 X114.905 Y78.571 E2.06374 ; fill
G1 X113.845 Y78.571 E0.06334 ; fill
G1 X139.329 Y104.055 E2.15332 ; fill
G1 X139.329 Y105.115 E0.06334 ; fill
G1 X112.785 Y78.571 E2.24290 ; fill
G1 X111.724 Y78.571 E0.06334 ; fill
G1 X139.329 Y106.176 E2.33248 ; fill
G1 X139.329 Y107.236 E0.06334 ; fill
G1 X110.664 Y78.571 E2.42206 ; fill
G1 X109.604 Y78.571 E0.06334 ; fill
G1 X139.329 Y108.296 E2.51164 ; fill
G1 X139.329 Y109.356 E0.06334 ; fill
G1 X108.544 Y78.571 E2.60122 ; fill
G1 X107.484 Y78.571 E0.06334 ; fill
G1 X139.329 Y110.416 E2.69080 ; fill
G1 X139.329 Y111.476 E0.06334 ; fill
G1 X106.424 Y78.571 E2.78038 ; fill
G1 X105.363 Y78.571 E0.06334 ; fill
G1 X139.329 Y112.537 E2.86996 ; fill
G1 X139.329 Y113.597 E0.06334 ; fill
G1 X104.303 Y78.571 E2.95954 ; fill
G1 X103.243 Y78.571 E0.06334 ; fill
G1 X139.329 Y114.657 E3.04912 ; fill
G1 X139.329 Y115.717 E0.06334 ; fill
G1 X102.183 Y78.571 E3.13871 ; fill
G1 X101.123 Y78.571 E0.06334 ; fill
G1 X139.329 Y116.777 E3.22829 ; fill
G1 X138.668 Y117.176 E0.04613 ; fill
G1 X100.063 Y78.571 E3.26202 ; fill
G1 X99.002 Y78.571 E0.06334 ; fill
G1 X137.220 Y116.788 E3.22923 ; fill
G1 X136.291 Y116.920 E0.05606 ; fill
G1 X97.942 Y78.571 E3.24032 ; fill
G1 X96.882 Y78.571 E0.06334 ; fill
G1 X135.455 Y117.144 E3.25925 ; fill
G1 X134.811 Y117.560 E0.04580 ; fill
G1 X95.822 Y78.571 E3.29446 ; fill
G1 X94.762 Y78.571 E0.06334 ; fill
G1 X134.281 Y118.090 E3.33925 ; fill
G1 X133.772 Y118.641 E0.04482 ; fill
G1 X93.702 Y78.571 E3.38580 ; fill
G1 X92.641 Y78.571 E0.06334 ; fill
G1 X133.548 Y119.477 E3.45645 ; fill
G1 X133.324 Y120.314 E0.05172 ; fill
G1 X91.581 Y78.571 E3.52710 ; fill
G1 X90.521 Y78.571 E0.06334 ; fill
G1 X133.379 Y121.429 E3.62133 ; fill
G1 X132.319 Y121.429 E0.06334 ; fill
G1 X89.461 Y78.571 E3.62133 ; fill
G1 X88.401 Y78.571 E0.06334 ; fill
G1 X131.258 Y121.429 E3.62133 ; fill
G1 X130.198 Y121.429 E0.06334 ; fill
G1 X87.341 Y78.571 E3.62133 ; fill
G1 X86.280 Y78.571 E0.06334 ; fill
G1 X129.138 Y121.429 E3.62133 ; fill
G1 X128.078 Y121.429 E0.06334 ; fill
G1 X85.220 Y78.571 E3.62133 ; fill
G1 X84.160 Y78.571 E0.06334 ; fill
G1 X127.018 Y121.429 E3.62133 ; fill
G1 X125.958 Y121.429 E0.06334 ; fill
G1 X83.100 Y78.571 E3.62133 ; fill
G1 X82.040 Y78.571 E0.06334 ; fill
G1 X124.897 Y121.429 E3.62133 ; fill
G1 X123.837 Y121.429 E0.06334 ; fill
G1 X80.980 Y78.571 E3.62133 ; fill
G1 X79.919 Y78.571 E0.06334 ; fill
G1 X122.777 Y121.429 E3.62133 ; fill
G1 X121.717 Y121.429 E0.06334 ; fill
G1 X78.859 Y78.571 E3.62133 ; fill
G1 X77.799 Y78.571 E0.06334 ; fill
G1 X120.657 Y121.429 E3.62133 ; fill
G1 X119.597 Y121.429 E0.06334 ; fill
G1 X76.739 Y78.571 E3.62133 ; fill
G1 X75.679 Y78.571 E0.06334 ; fill
G1 X118.536 Y121.429 E3.62133 ; fill
G1 X117.476 Y121.429 E0.06334 ; fill
G1 X74.619 Y78.571 E3.62133 ; fill
G1 X73.558 Y78.571 E0.06334 ; fill
G1 X116.416 Y121.429 E3.62133 ; fill
G1 X115.356 Y121.429 E0.06334 ; fill
G1 X72.498 Y78.571 E3.62133 ; fill
G1 X71.438 Y78.571 E0.06334 ; fill
G1 X114.296 Y121.429 E3.62133 ; fill
G1 X113.236 Y121.429 E0.06334 ; fill
G1 X70.378 Y78.571 E3.62133 ; fill
G1 X69.318 Y78.571 E0.06334 ; fill
G1 X112.175 Y121.429 E3.62133 ; fill
G1 X111.115 Y121.429 E0.06334 ; fill
G1 X68.258 Y78.571 E3.62133 ; fill
G1 X67.197 Y78.571 E0.06334 ; fill
G1 X110.055 Y121.429 E3.62133 ; fill
G1 X108.995 Y121.429 E0.06334 ; fill
G1 X66.137 Y78.571 E3.62133 ; fill
G1 X65.077 Y78.571 E0.06334 ; fill
G1 X107.935 Y121.429 E3.62133 ; fill
G1 X106.875 Y121.429 E0.06334 ; fill
G1 X64.017 Y78.571 E3.62133 ; fill
G1 X62.957 Y78.571 E0.06334 ; fill
G1 X105.814 Y121.429 E3.62133 ; fill
G1 X104.754 Y121.429 E0.06334 ; fill
G1 X61.897 Y78.571 E3.62133 ; fill
G1 X60.836 Y78.571 E0.06334 ; fill
G1 X103.694 Y121.429 E3.62133 ; fill
G1 X102.634 Y121.429 E0.06334 ; fill
G1 X60.671 Y79.466 E3.54571 ; fill
G1 X60.671 Y80.526 E0.06334 ; fill
G1 X101.574 Y121.429 E3.45613 ; fill
G1 X100.514 Y121.429 E0.06334 ; fill
G1 X60.671 Y81.586 E3.36655 ; fill
G1 X60.671 Y82.647 E0.06334 ; fill
G1 X99.453 Y121.429 E3.27697 ; fill
G1 X98.393 Y121.429 E0.06334 ; fill
G1 X60.671 Y83.707 E3.18739 ; fill
G1 X60.671 Y84.767 E0.06334 ; fill
G1 X64.767 Y88.863 E0.34611 ; fill
G1 X63.319 Y88.475 E0.08958 ; fill
G1 X60.671 Y85.827 E0.22374 ; fill
G1 X60.671 Y86.887 E0.06334 ; fill
G1 X62.348 Y88.564 E0.14170 ; fill
G1 X61.512 Y88.788 E0.05172 ; fill
G1 X60.671 Y87.947 E0.07105 ; fill
G1 X60.671 Y89.008 E0.06334 ; fill
G1 X60.848 Y89.184 E0.01491 ; fill
G1 F1800.000 E-4.00000 ; retract
G1 X66.237 Y90.332 F6000.000 ; move to first fill point
G1 E4.00000 F1800.000 ; compensate retraction
G1 X97.333 Y121.429 E2.62755 F900.000 ; fill
G1 X96.273 Y121.429 E0.06334 ; fill
G1 X66.625 Y91.781 E2.50518 ; fill
G1 X66.535 Y92.752 E0.05826 ; fill
G1 X95.213 Y121.429 E2.42314 ; fill
G1 X94.153 Y121.429 E0.06334 ; fill
G1 X66.311 Y93.588 E2.35249 ; fill
G1 X65.916 Y94.252 E0.04621 ; fill
G1 X93.092 Y121.429 E2.29635 ; fill
G1 X92.032 Y121.429 E0.06334 ; fill
G1 X65.386 Y94.782 E2.25156 ; fill
G1 X64.855 Y95.312 E0.04479 ; fill
G1 X90.972 Y121.429 E2.20677 ; fill
G1 X89.912 Y121.429 E0.06334 ; fill
G1 X64.020 Y95.537 E2.18781 ; fill
G1 X63.183 Y95.761 E0.05172 ; fill
G1 X88.852 Y121.429 E2.16888 ; fill
G1 X87.792 Y121.429 E0.06334 ; fill
G1 X61.869 Y95.507 E2.19033 ; fill
G1 X60.671 Y95.369 E0.07207 ; fill
G1 X86.731 Y121.429 E2.20200 ; fill
G1 X85.671 Y121.429 E0.06334 ; fill
G1 X60.671 Y96.429 E2.11242 ; fill
G1 X60.671 Y97.489 E0.06334 ; fill
G1 X84.611 Y121.429 E2.02284 ; fill
G1 X83.551 Y121.429 E0.06334 ; fill
G1 X60.671 Y98.549 E1.93326 ; fill
G1 X60.671 Y99.609 E0.06334 ; fill
G1 X82.491 Y121.429 E1.84368 ; fill
G1 X81.431 Y121.429 E0.06334 ; fill
G1 X60.671 Y100.669 E1.75410 ; fill
G1 X60.671 Y101.730 E0.06334 ; fill
G1 X80.370 Y121.429 E1.66452 ; fill
G1 X79.310 Y121.429 E0.06334 ; fill
G1 X60.671 Y102.790 E1.57494 ; fill
G1 X60.671 Y103.850 E0.06334 ; fill
G1 X78.250 Y121.429 E1.48536 ; fill
G1 X77.190 Y121.429 E0.06334 ; fill
G1 X60.671 Y104.910 E1.39578 ; fill
G1 X60.671 Y105.970 E0.06334 ; fill
G1 X76.130 Y121.429 E1.30620 ; fill
G1 X75.070 Y121.429 E0.06334 ; fill
G1 X60.671 Y107.030 E1.21662 ; fill
G1 X60.671 Y108.091 E0.06334 ; fill
G1 X74.009 Y121.429 E1.12703 ; fill
G1 X72.949 Y121.429 E0.06334 ; fill
G1 X60.671 Y109.151 E1.03745 ; fill
G1 X60.671 Y110.211 E0.06334 ; fill
G1 X71.889 Y121.429 E0.94787 ; fill
G1 X70.829 Y121.429 E0.06334 ; fill
G1 X60.671 Y111.271 E0.85829 ; fill
G1 X60.671 Y112.331 E0.06334 ; fill
G1 X69.769 Y121.429 E0.76871 ; fill
G1 X68.709 Y121.429 E0.06334 ; fill
G1 X66.341 Y119.061 E0.20007 ; fill
G1 X66.699 Y120.480 E0.08744 ; fill
G1 X67.648 Y121.429 E0.08019 ; fill
G1 X66.588 Y121.429 E0.06334 ; fill
G1 X66.475 Y121.316 E0.00954 ; fill
G1 F1800.000 E-4.00000 ; retract
G1 X64.379 Y117.099 F6000.000 ; move to first fill point
G1 E4.00000 F1800.000 ; compensate retraction
