; generated by Slic3r 1.2.5 on 2015-02-03 at 20:40:08

; external perimeters extrusion width = 0.50mm
; perimeters extrusion width = 0.50mm
; infill extrusion width = 0.50mm
; solid infill extrusion width = 0.50mm
; top infill extrusion width = 0.50mm

M107 ; disable fan
M190 S57 ; set bed temperature
M104 S200 ; set temperature

M109 S200 ; wait for temperature to be reached
G21 ; set units to millimeters
G90 ; use absolute coordinates
M83 ; use relative distances for extrusion
G1 E-4.00000 F1800.00000 ; retract
G1 Z0.240 F6000.000 ; move to next layer (0)
G1 X57.614 Y61.874 F6000.000 ; move to first skirt point
G1 E4.00000 F1800.00000 ; unretract
G1 X59.058 Y60.595 E0.11524 F600.000 ; skirt
G1 X60.149 Y59.842 E0.07917 ; skirt
G1 X61.857 Y58.945 E0.11525 ; skirt
G1 X63.095 Y58.476 E0.07913 ; skirt
G1 X64.968 Y58.014 E0.11526 ; skirt
G1 X65.875 Y57.869 E0.05490 ; skirt
G1 X115.650 Y54.162 E2.98221 ; skirt
G1 X117.688 Y54.149 E0.12176 ; skirt
G1 X137.736 Y54.622 E1.19812 F600.000 ; skirt
G1 X139.775 Y55.066 E0.12472 ; skirt
G1 X141.502 Y56.239 E0.12472 ; skirt
G1 X142.667 Y57.971 E0.12472 ; skirt
G1 X143.077 Y59.582 E0.09927 ; skirt
G1 X146.374 Y93.270 E2.02243 ; skirt
G1 X146.400 Y93.781 E0.03058 ; skirt
G1 X146.593 Y137.130 E2.59008 ; skirt
G1 X146.492 Y138.203 E0.06438 ; skirt
G1 X146.280 Y139.295 E0.06645 ; skirt
G1 X145.468 Y141.280 E0.12813 ; skirt
G1 X144.854 Y142.207 E0.06644 ; skirt
G1 X143.344 Y143.731 E0.12815 ; skirt
G1 X142.422 Y144.353 E0.06645 ; skirt
G1 X140.444 Y145.182 E0.12814 ; skirt
G1 X139.355 Y145.404 E0.06644 ; skirt
G1 X138.283 Y145.514 E0.06439 ; skirt
G1 X61.983 Y145.853 E4.55879 ; skirt
G1 X60.911 Y145.752 E0.06437 ; skirt
G1 X59.819 Y145.540 E0.06646 ; skirt
G1 X57.834 Y144.728 E0.12814 ; skirt
G1 X56.906 Y144.114 E0.06645 ; skirt
G1 X55.383 Y142.604 E0.12815 ; skirt
G1 X54.761 Y141.682 E0.06646 ; skirt
G1 X53.932 Y139.704 E0.12813 ; skirt
G1 X53.710 Y138.615 E0.06645 ; skirt
G1 X53.600 Y137.543 E0.06438 ; skirt
G1 X53.407 Y94.193 E2.59008 ; skirt
G1 X53.751 Y71.210 E1.37332 ; skirt
G1 X53.791 Y70.631 E0.03473 ; skirt
G1 X54.023 Y68.716 E0.11525 ; skirt
G1 X54.340 Y67.429 E0.07916 ; skirt
G1 X55.024 Y65.626 E0.11524 ; skirt
G1 X55.640 Y64.453 E0.07915 ; skirt
G1 X56.736 Y62.865 E0.11525 ; skirt
G1 X57.565 Y61.930 E0.07470 ; skirt
G1 X58.111 Y62.434 F6000.000 ; move to first skirt point
G1 X59.554 Y61.155 E0.11524 F600.000 ; skirt
G1 X60.496 Y60.505 E0.06839 ; skirt
G1 X62.204 Y59.608 E0.11524 ; skirt
G1 X63.274 Y59.203 E0.06835 ; skirt
G1 X65.147 Y58.741 E0.11525 ; skirt
G1 X65.931 Y58.616 E0.04743 ; skirt
G1 X115.706 Y54.909 E2.98221 ; skirt
G1 X117.671 Y54.897 E0.11739 ; skirt
G1 X137.718 Y55.370 E1.19812 F600.000 ; skirt
G1 X139.606 Y55.810 E0.11584 ; skirt
G1 X141.161 Y56.969 E0.11584 ; skirt
G1 X142.123 Y58.652 E0.11584 ; skirt
G1 X142.332 Y59.655 E0.06119 ; skirt
G1 X145.629 Y93.343 E2.02243 ; skirt
G1 X145.652 Y93.784 E0.02642 ; skirt
G1 X145.844 Y137.134 E2.59008 ; skirt
G1 X145.757 Y138.061 E0.05561 ; skirt
G1 X145.545 Y139.152 E0.06645 ; skirt
G1 X144.844 Y140.867 E0.11069 ; skirt
G1 X144.230 Y141.794 E0.06644 ; skirt
G1 X142.926 Y143.110 E0.11070 ; skirt
G1 X142.004 Y143.732 E0.06645 ; skirt
G1 X140.295 Y144.449 E0.11069 ; skirt
G1 X139.205 Y144.671 E0.06644 ; skirt
G1 X138.279 Y144.766 E0.05562 ; skirt
G1 X61.980 Y145.104 E4.55879 ; skirt
G1 X61.053 Y145.017 E0.05561 ; skirt
G1 X59.962 Y144.805 E0.06645 ; skirt
G1 X58.247 Y144.104 E0.11069 ; skirt
G1 X57.319 Y143.490 E0.06645 ; skirt
G1 X56.004 Y142.185 E0.11070 ; skirt
G1 X55.382 Y141.263 E0.06645 ; skirt
G1 X54.665 Y139.555 E0.11068 ; skirt
G1 X54.443 Y138.465 E0.06645 ; skirt
G1 X54.348 Y137.539 E0.05561 ; skirt
G1 X54.156 Y94.190 E2.59008 ; skirt
G1 X54.500 Y71.222 E1.37245 ; skirt
G1 X54.534 Y70.721 E0.03000 ; skirt
G1 X54.766 Y68.806 E0.11524 ; skirt
G1 X55.040 Y67.695 E0.06838 ; skirt
G1 X55.724 Y65.891 E0.11524 ; skirt
G1 X56.256 Y64.878 E0.06837 ; skirt
G1 X57.352 Y63.291 E0.11525 ; skirt
G1 X58.061 Y62.490 E0.06391 ; skirt
G1 E-4.00000 F1800.00000 ; retract
G1 X59.306 Y94.567 F6000.000 ; move to first perimeter point
G1 E4.00000 F1800.00000 ; unretract
G1 X140.505 Y94.207 E4.85155 F900.000 ; perimeter
G1 X140.696 Y137.117 E2.56383 ; perimeter
G1 X140.506 Y138.092 E0.05933 ; perimeter
G1 X139.980 Y138.887 E0.05694 ; perimeter
G1 X139.190 Y139.420 E0.05693 ; perimeter
G1 X138.654 Y139.529 E0.03270 ; perimeter
G1 X138.496 Y139.236 E0.01990 ; perimeter
G1 X139.175 Y138.550 E0.05768 ; perimeter
G1 X139.491 Y137.352 E0.07404 ; perimeter
G1 X139.165 Y136.156 E0.07404 ; perimeter
G1 X138.284 Y135.284 E0.07405 ; perimeter
G1 X137.086 Y134.968 E0.07405 ; perimeter
G1 X135.890 Y135.294 E0.07405 ; perimeter
G1 X135.018 Y136.174 E0.07405 ; perimeter
G1 X134.702 Y137.373 E0.07404 ; perimeter
G1 X135.029 Y138.569 E0.07405 ; perimeter
G1 X136.097 Y139.627 E0.08985 ; perimeter
G1 X64.117 Y139.946 E4.30067 ; perimeter
G1 X65.176 Y138.878 E0.08985 ; perimeter
G1 X65.491 Y137.680 E0.07405 ; perimeter
G1 X65.165 Y136.484 E0.07404 ; perimeter
G1 X64.285 Y135.612 E0.07404 ; perimeter
G1 X63.087 Y135.296 E0.07404 ; perimeter
G1 X61.891 Y135.622 E0.07404 ; perimeter
G1 X61.019 Y136.502 E0.07404 ; perimeter
G1 X60.703 Y137.701 E0.07405 ; perimeter
G1 X61.029 Y138.897 E0.07404 ; perimeter
G1 X61.715 Y139.576 E0.05768 ; perimeter
G1 X61.559 Y139.871 E0.01990 ; perimeter
G1 X61.022 Y139.766 E0.03271 ; perimeter
G1 X60.227 Y139.240 E0.05693 ; perimeter
G1 X59.694 Y138.450 E0.05694 ; perimeter
G1 X59.496 Y137.477 E0.05933 ; perimeter
G1 X59.306 Y94.642 E2.55935 ; perimeter
G1 X59.740 Y94.815 F6000.000 ; move inwards before travel
G1 E-4.00000 F1800.00000 ; retract
G1 X63.018 Y104.956 F6000.000 ; move to first perimeter point
G1 E4.00000 F1800.00000 ; unretract
G1 X60.114 Y107.886 E0.24650 F900.000 ; perimeter
G1 X60.058 Y95.312 E0.75126 ; perimeter
G1 X139.760 Y94.959 E4.76211 ; perimeter
G1 X139.816 Y107.532 E0.75126 ; perimeter
G1 X138.543 Y106.271 E0.10706 ; perimeter
G1 X136.957 Y105.854 E0.09801 ; perimeter
G1 X135.374 Y106.285 E0.09801 ; perimeter
G1 X134.220 Y107.450 E0.09801 ; perimeter
G1 X133.802 Y109.037 E0.09801 ; perimeter
G1 X134.234 Y110.619 E0.09801 ; perimeter
G1 X135.399 Y111.774 E0.09801 ; perimeter
G1 X136.985 Y112.192 E0.09801 ; perimeter
G1 X138.568 Y111.760 E0.09801 ; perimeter
G1 X139.829 Y110.487 E0.10706 ; perimeter
G1 X139.941 Y135.872 E1.51672 ; perimeter
G1 X138.669 Y134.611 E0.10706 ; perimeter
G1 X137.083 Y134.193 E0.09801 ; perimeter
G1 X135.500 Y134.625 E0.09801 ; perimeter
G1 X134.345 Y135.790 E0.09801 ; perimeter
G1 X133.928 Y137.376 E0.09801 ; perimeter
G1 X134.339 Y138.886 E0.09352 ; perimeter
G1 X65.868 Y139.190 E4.09109 ; perimeter
G1 X66.266 Y137.676 E0.09352 ; perimeter
G1 X65.835 Y136.094 E0.09801 ; perimeter
G1 X64.670 Y134.939 E0.09801 ; perimeter
G1 X63.083 Y134.521 E0.09801 ; perimeter
G1 X61.501 Y134.953 E0.09801 ; perimeter
G1 X60.239 Y136.225 E0.10706 ; perimeter
G1 X60.127 Y110.841 E1.51671 ; perimeter
G1 X61.399 Y112.102 E0.10706 ; perimeter
G1 X62.986 Y112.520 E0.09801 ; perimeter
G1 X64.568 Y112.088 E0.09801 ; perimeter
G1 X65.723 Y110.923 E0.09801 ; perimeter
G1 X66.141 Y109.337 E0.09801 ; perimeter
G1 X65.709 Y107.754 E0.09801 ; perimeter
G1 X64.544 Y106.599 E0.09801 ; perimeter
G1 X63.018 Y106.197 E0.09428 ; perimeter
G1 X63.018 Y105.031 E0.06972 ; perimeter
G1 E-4.00000 F1800.00000 ; retract
G1 X62.269 Y107.145 F6000.000 ; move to first perimeter point
G1 E4.00000 F1800.00000 ; unretract
G1 X62.961 Y106.956 E0.04283 F780.000 ; perimeter
G1 X64.160 Y107.272 E0.07404 ; perimeter
G1 X65.040 Y108.144 E0.07405 ; perimeter
G1 X65.366 Y109.340 E0.07404 ; perimeter
G1 X65.128 Y110.243 E0.05576 ; perimeter
G1 X65.050 Y110.538 E0.01828 ; perimeter
G1 X64.178 Y111.419 E0.07404 ; perimeter
G1 X62.982 Y111.745 E0.07405 ; perimeter
G1 X61.784 Y111.429 E0.07404 ; perimeter
G1 X60.904 Y110.557 E0.07404 ; perimeter
G1 X60.578 Y109.361 E0.07405 ; perimeter
G1 X60.893 Y108.163 E0.07404 ; perimeter
G1 X62.269 Y106.774 E0.11682 ; perimeter
G1 X62.269 Y107.070 E0.01769 ; perimeter
G1 X62.652 Y106.823 F6000.000 ; move inwards before travel
G1 E-4.00000 F1800.00000 ; retract
G1 X134.577 Y109.033 F6000.000 ; move to first perimeter point
G1 E4.00000 F1800.00000 ; unretract
G1 X134.892 Y107.835 E0.07405 F780.000 ; perimeter
G1 X135.765 Y106.955 E0.07404 ; perimeter
G1 X136.960 Y106.628 E0.07405 ; perimeter
G1 X137.863 Y106.866 E0.05576 ; perimeter
G1 X138.159 Y106.944 E0.01828 F780.000 ; perimeter
G1 X139.039 Y107.816 E0.07404 ; perimeter
G1 X139.365 Y109.012 E0.07405 ; perimeter
G1 X139.050 Y110.210 E0.07404 ; perimeter
G1 X138.177 Y111.091 E0.07404 ; perimeter
G1 X136.982 Y111.417 E0.07404 ; perimeter
G1 X135.783 Y111.101 E0.07405 ; perimeter
G1 X134.903 Y110.229 E0.07404 ; perimeter
G1 X134.597 Y109.106 E0.06956 ; perimeter
G1 X134.166 Y108.748 F6000.000 ; move inwards before travel
G1 E-4.00000 F1800.00000 ; retract
G1 X139.670 Y109.905 F6000.000 ; move to first infill point
G1 E4.00000 F1800.00000 ; unretract
G1 X139.920 Y109.468 E0.01401 F300.000 ; infill
G1 X139.970 Y108.951 E0.01446 ; infill
G1 X139.916 Y108.551 E0.01122 ; infill
G1 X139.662 Y108.116 E0.01401 ; infill
G1 E-4.00000 F1800.00000 ; retract
G1 X139.316 Y112.587 F6000.000 ; move to first infill point
G1 E4.00000 F1800.00000 ; unretract
G1 X138.898 Y112.169 E0.03543 F900.000 ; infill
G1 X138.097 Y112.430 E0.05048 ; infill
G1 X139.320 Y113.654 E0.10372 ; infill
G1 X139.325 Y114.720 E0.06391 ; infill
G1 X137.262 Y112.658 E0.17483 ; infill
G1 X136.021 Y112.478 F6000.000 ; move to first infill point
G1 X139.330 Y115.787 E0.28041 F900.000 ; infill
G1 X139.335 Y116.853 E0.06391 ; infill
G1 X118.059 Y95.578 E1.80316 ; infill
G1 X117.002 Y95.582 E0.06335 ; infill
G1 X139.339 Y117.920 E1.89315 ; infill
G1 X139.344 Y118.986 E0.06391 ; infill
G1 X115.945 Y95.587 E1.98314 ; infill
G1 X114.888 Y95.592 E0.06335 ; infill
G1 X139.349 Y120.053 E2.07313 ; infill
G1 X139.353 Y121.119 E0.06391 ; infill
G1 X113.831 Y95.596 E2.16312 ; infill
G1 X112.774 Y95.601 E0.06335 ; infill
G1 X139.358 Y122.186 E2.25311 ; infill
G1 X139.363 Y123.252 E0.06391 ; infill
G1 X111.717 Y95.606 E2.34310 ; infill
G1 X110.660 Y95.611 E0.06335 ; infill
G1 X139.368 Y124.319 E2.43308 ; infill
G1 X139.372 Y125.385 E0.06391 ; infill
G1 X109.602 Y95.615 E2.52307 ; infill
G1 X108.545 Y95.620 E0.06335 ; infill
G1 X139.377 Y126.452 E2.61306 ; infill
G1 X139.382 Y127.518 E0.06391 ; infill
G1 X107.488 Y95.625 E2.70305 ; infill
G1 X106.431 Y95.629 E0.06335 ; infill
G1 X139.387 Y128.584 E2.79304 ; infill
G1 X139.391 Y129.651 E0.06391 ; infill
G1 X105.374 Y95.634 E2.88303 ; infill
G1 X104.317 Y95.639 E0.06335 ; infill
G1 X139.396 Y130.717 E2.97302 ; infill
G1 X139.401 Y131.784 E0.06391 ; infill
G1 X103.260 Y95.643 E3.06301 ; infill
G1 X102.203 Y95.648 E0.06335 ; infill
G1 X139.405 Y132.850 E3.15299 ; infill
G1 X139.410 Y133.917 E0.06391 ; infill
G1 X101.146 Y95.653 E3.24298 ; infill
G1 X100.089 Y95.657 E0.06335 ; infill
G1 X138.442 Y134.011 E3.25054 ; infill
G1 X137.034 Y133.665 E0.08688 ; infill
G1 X99.032 Y95.662 E3.22081 ; infill
G1 X97.975 Y95.667 E0.06335 ; infill
G1 X136.200 Y133.892 E3.23970 ; infill
G1 X135.366 Y134.120 E0.05182 ; infill
G1 X96.918 Y95.671 E3.25858 ; infill
G1 X95.861 Y95.676 E0.06335 ; infill
G1 X134.787 Y134.602 E3.29907 ; infill
G1 X134.258 Y135.135 E0.04499 ; infill
G1 X94.804 Y95.681 E3.34387 ; infill
G1 X93.747 Y95.686 E0.06335 ; infill
G1 X133.814 Y135.753 E3.39584 ; infill
G1 X133.593 Y136.594 E0.05209 ; infill
G1 X92.690 Y95.690 E3.46668 ; infill
G1 X91.633 Y95.695 E0.06335 ; infill
G1 X133.413 Y137.475 E3.54099 ; infill
G1 X133.245 Y138.369 E0.05449 ; infill
G1 X90.576 Y95.700 E3.61631 ; infill
G1 X89.518 Y95.704 E0.06335 ; infill
G1 X132.188 Y138.373 E3.61631 ; infill
G1 X131.130 Y138.378 E0.06335 ; infill
G1 X88.461 Y95.709 E3.61631 ; infill
G1 X87.404 Y95.714 E0.06335 ; infill
G1 X130.073 Y138.383 E3.61631 ; infill
G1 X129.016 Y138.387 E0.06335 ; infill
G1 X86.347 Y95.718 E3.61631 ; infill
G1 X85.290 Y95.723 E0.06335 ; infill
G1 X127.959 Y138.392 E3.61631 ; infill
G1 X126.902 Y138.397 E0.06335 ; infill
G1 X84.233 Y95.728 E3.61631 ; infill
G1 X83.176 Y95.732 E0.06335 ; infill
G1 X125.845 Y138.401 E3.61631 ; infill
G1 X124.788 Y138.406 E0.06335 ; infill
G1 X82.119 Y95.737 E3.61631 ; infill
G1 X81.062 Y95.742 E0.06335 ; infill
G1 X123.731 Y138.411 E3.61631 ; infill
G1 X122.674 Y138.415 E0.06335 ; infill
G1 X80.005 Y95.746 E3.61631 ; infill
G1 X78.948 Y95.751 E0.06335 ; infill
G1 X121.617 Y138.420 E3.61631 ; infill
G1 X120.560 Y138.425 E0.06335 ; infill
G1 X77.891 Y95.756 E3.61631 ; infill
G1 X76.834 Y95.760 E0.06335 ; infill
G1 X119.503 Y138.430 E3.61631 ; infill
G1 X118.446 Y138.434 E0.06335 ; infill
G1 X75.777 Y95.765 E3.61631 ; infill
G1 X74.720 Y95.770 E0.06335 ; infill
G1 X117.389 Y138.439 E3.61631 ; infill
G1 X116.332 Y138.444 E0.06335 ; infill
G1 X73.663 Y95.775 E3.61631 ; infill
G1 X72.606 Y95.779 E0.06335 ; infill
G1 X115.275 Y138.448 E3.61631 ; infill
G1 X114.218 Y138.453 E0.06335 ; infill
G1 X71.549 Y95.784 E3.61631 ; infill
G1 X70.492 Y95.789 E0.06335 ; infill
G1 X113.161 Y138.458 E3.61631 ; infill
G1 X112.104 Y138.462 E0.06335 ; infill
G1 X69.434 Y95.793 E3.61631 ; infill
G1 X68.377 Y95.798 E0.06335 ; infill
G1 X111.046 Y138.467 E3.61631 ; infill
G1 X109.989 Y138.472 E0.06335 ; infill
G1 X67.320 Y95.803 E3.61631 ; infill
G1 X66.263 Y95.807 E0.06335 ; infill
G1 X108.932 Y138.476 E3.61631 ; infill
G1 X107.875 Y138.481 E0.06335 ; infill
G1 X65.206 Y95.812 E3.61631 ; infill
G1 X64.149 Y95.817 E0.06335 ; infill
G1 X106.818 Y138.486 E3.61631 ; infill
G1 X105.761 Y138.490 E0.06335 ; infill
G1 X63.092 Y95.821 E3.61631 ; infill
G1 X62.035 Y95.826 E0.06335 ; infill
G1 X104.704 Y138.495 E3.61631 ; infill
G1 X103.647 Y138.500 E0.06335 ; infill
G1 X60.978 Y95.831 E3.61631 ; infill
G1 X60.586 Y96.500 E0.04650 ; infill
G1 X102.590 Y138.504 E3.55997 ; infill
G1 X101.533 Y138.509 E0.06335 ; infill
G1 X60.591 Y97.567 E3.46998 ; infill
G1 X60.595 Y98.633 E0.06391 ; infill
G1 X100.476 Y138.514 E3.37999 ; infill
G1 X99.419 Y138.519 E0.06335 ; infill
G1 X60.600 Y99.700 E3.29000 ; infill
G1 X60.605 Y100.766 E0.06391 ; infill
G1 X98.362 Y138.523 E3.20001 ; infill
G1 X97.305 Y138.528 E0.06335 ; infill
G1 X60.609 Y101.833 E3.11002 ; infill
G1 X60.614 Y102.899 E0.06391 ; infill
G1 X62.476 Y104.760 E0.15775 ; infill
G1 X61.947 Y105.294 E0.04499 ; infill
G1 X60.619 Y103.966 E0.11256 ; infill
G1 X60.624 Y105.032 E0.06391 ; infill
G1 X61.418 Y105.827 E0.06737 ; infill
G1 X60.890 Y106.360 E0.04499 ; infill
G1 X60.628 Y106.098 E0.02217 ; infill
G1 E-4.00000 F1800.00000 ; retract
G1 X60.657 Y112.497 F6000.000 ; move to first infill point
G1 E4.00000 F1800.00000 ; unretract
G1 X86.734 Y138.575 E2.21014 F900.000 ; infill
G1 X85.677 Y138.579 E0.06335 ; infill
G1 X60.661 Y113.564 E2.12015 ; infill
G1 X60.666 Y114.630 E0.06391 ; infill
G1 X84.620 Y138.584 E2.03016 ; infill
G1 X83.563 Y138.589 E0.06335 ; infill
G1 X60.671 Y115.697 E1.94017 ; infill
G1 X60.676 Y116.763 E0.06391 ; infill
G1 X82.506 Y138.594 E1.85018 ; infill
G1 X81.449 Y138.598 E0.06335 ; infill
G1 X60.680 Y117.830 E1.76019 ; infill
G1 X60.685 Y118.896 E0.06391 ; infill
G1 X80.392 Y138.603 E1.67020 ; infill
G1 X79.335 Y138.608 E0.06335 ; infill
G1 X60.690 Y119.963 E1.58021 ; infill
G1 X60.695 Y121.029 E0.06391 ; infill
G1 X78.278 Y138.612 E1.49023 ; infill
G1 X77.221 Y138.617 E0.06335 ; infill
G1 X60.699 Y122.095 E1.40024 ; infill
G1 X60.704 Y123.162 E0.06391 ; infill
G1 X76.164 Y138.622 E1.31025 ; infill
G1 X75.107 Y138.626 E0.06335 ; infill
G1 X60.709 Y124.228 E1.22026 ; infill
G1 X60.713 Y125.295 E0.06391 ; infill
G1 X74.050 Y138.631 E1.13027 ; infill
G1 X72.993 Y138.636 E0.06335 ; infill
G1 X60.718 Y126.361 E1.04028 ; infill
G1 X60.723 Y127.428 E0.06391 ; infill
G1 X71.935 Y138.640 E0.95029 ; infill
G1 X70.878 Y138.645 E0.06335 ; infill
G1 X60.728 Y128.494 E0.86030 ; infill
G1 X60.732 Y129.561 E0.06391 ; infill
G1 X69.821 Y138.650 E0.77032 ; infill
G1 X68.764 Y138.654 E0.06335 ; infill
