; generated by Slic3r 1.1.6 on 2014-10-27 at 22:11:20

; perimeters extrusion width = 0.50mm
; infill extrusion width = 0.50mm
; solid infill extrusion width = 0.50mm
; top infill extrusion width = 0.50mm

G21 ; set units to millimeters
M107 ; disable fan
M190 S57 ; wait for bed temperature to be reached
M104 S200 ; set temperature

M109 S200 ; wait for temperature to be reached
G90 ; use absolute coordinates
M83 ; use relative distances for extrusion
G1 F1800.000 E-2.40000 ; retract
G1 Z0.240 F6000.000 ; move to next layer (0)
G1 X85.341 Y80.717 F6000.000 ; move to first skirt point
G1 E2.40000 F1800.000 ; compensate retraction
G1 X86.177 Y80.085 E0.07824 F600.000 ; skirt
G1 X87.111 Y79.609 E0.07829 ; skirt
G1 X88.112 Y79.302 E0.07821 ; skirt
G1 X89.153 Y79.173 E0.07834 ; skirt
G1 X111.251 Y79.156 E1.65035 ; skirt
G1 X112.273 Y79.391 E0.07832 ; skirt
G1 X113.238 Y79.800 E0.07827 ; skirt
G1 X114.117 Y80.370 E0.07827 ; skirt
G1 X114.550 Y80.739 E0.04252 ; skirt
G1 X117.463 Y83.521 E0.30081 ; skirt
G1 X118.094 Y84.356 E0.07820 ; skirt
G1 X118.542 Y85.220 E0.07269 ; skirt
G1 X122.357 Y94.543 E0.75236 ; skirt
G1 X122.576 Y95.568 E0.07822 ; skirt
G1 X122.621 Y96.136 E0.04255 ; skirt
G1 X122.714 Y100.162 E0.30081 ; skirt
G1 X122.569 Y101.199 E0.07819 ; skirt
G1 X122.275 Y102.127 E0.07270 ; skirt
G1 X118.380 Y111.417 E0.75236 ; skirt
G1 X117.811 Y112.296 E0.07820 ; skirt
G1 X117.315 Y112.863 E0.05624 ; skirt
G1 X114.652 Y115.649 E0.28784 ; skirt
G1 X113.823 Y116.274 E0.07751 ; skirt
G1 X112.960 Y116.722 E0.07266 ; skirt
G1 X103.627 Y120.540 E0.75307 ; skirt
G1 X102.612 Y120.755 E0.07754 ; skirt
G1 X102.044 Y120.800 E0.04252 ; skirt
G1 X98.018 Y120.893 E0.30078 ; skirt
G1 X96.981 Y120.749 E0.07822 ; skirt
G1 X96.053 Y120.455 E0.07270 ; skirt
G1 X86.762 Y116.560 E0.75238 ; skirt
G1 X85.884 Y115.990 E0.07818 ; skirt
G1 X85.450 Y115.620 E0.04257 ; skirt
G1 X82.537 Y112.839 E0.30081 ; skirt
G1 X81.906 Y112.003 E0.07821 ; skirt
G1 X81.458 Y111.139 E0.07267 ; skirt
G1 X77.643 Y101.816 E0.75237 ; skirt
G1 X77.424 Y100.792 E0.07820 ; skirt
G1 X77.379 Y100.224 E0.04256 ; skirt
G1 X77.286 Y96.197 E0.30083 ; skirt
G1 X77.431 Y95.160 E0.07820 ; skirt
G1 X77.725 Y94.232 E0.07266 ; skirt
G1 X81.620 Y84.942 E0.75233 ; skirt
G1 X82.190 Y84.063 E0.07826 ; skirt
G1 X82.559 Y83.630 E0.04254 ; skirt
G1 X85.289 Y80.771 E0.29524 ; skirt
G1 X85.838 Y81.276 F6000.000 ; move to first skirt point
G1 X86.570 Y80.723 E0.06850 F600.000 ; skirt
G1 X87.387 Y80.305 E0.06854 ; skirt
G1 X88.263 Y80.035 E0.06847 ; skirt
G1 X89.174 Y79.921 E0.06859 ; skirt
G1 X111.142 Y79.896 E1.64063 ; skirt
G1 X112.036 Y80.101 E0.06857 ; skirt
G1 X112.882 Y80.458 E0.06852 ; skirt
G1 X113.652 Y80.956 E0.06852 ; skirt
G1 X114.036 Y81.283 E0.03764 ; skirt
G1 X116.903 Y84.018 E0.29594 ; skirt
G1 X117.456 Y84.749 E0.06846 ; skirt
G1 X117.850 Y85.505 E0.06370 ; skirt
G1 X121.640 Y94.757 E0.74671 ; skirt
G1 X121.832 Y95.654 E0.06848 ; skirt
G1 X121.872 Y96.157 E0.03767 ; skirt
G1 X121.966 Y100.118 E0.29594 ; skirt
G1 X121.841 Y101.026 E0.06845 ; skirt
G1 X121.584 Y101.840 E0.06371 ; skirt
G1 X117.722 Y111.062 E0.74672 ; skirt
G1 X117.224 Y111.831 E0.06847 ; skirt
G1 X116.771 Y112.349 E0.05135 ; skirt
G1 X114.162 Y115.083 E0.28226 ; skirt
G1 X113.431 Y115.636 E0.06848 ; skirt
G1 X112.674 Y116.030 E0.06368 ; skirt
G1 X103.413 Y119.822 E0.74742 ; skirt
G1 X102.525 Y120.012 E0.06780 ; skirt
G1 X102.023 Y120.052 E0.03764 ; skirt
G1 X98.062 Y120.146 E0.29591 ; skirt
G1 X97.154 Y120.020 E0.06848 ; skirt
G1 X96.340 Y119.764 E0.06371 ; skirt
G1 X87.118 Y115.901 E0.74673 ; skirt
G1 X86.348 Y115.403 E0.06845 ; skirt
G1 X85.964 Y115.076 E0.03769 ; skirt
G1 X83.097 Y112.342 E0.29594 ; skirt
G1 X82.543 Y111.610 E0.06848 ; skirt
G1 X82.150 Y110.854 E0.06369 ; skirt
G1 X78.360 Y101.602 E0.74673 ; skirt
G1 X78.168 Y100.705 E0.06846 ; skirt
G1 X78.128 Y100.203 E0.03768 ; skirt
G1 X78.034 Y96.241 E0.29596 ; skirt
G1 X78.159 Y95.333 E0.06846 ; skirt
G1 X78.416 Y94.520 E0.06368 ; skirt
G1 X82.278 Y85.298 E0.74669 ; skirt
G1 X82.776 Y84.528 E0.06851 ; skirt
G1 X83.103 Y84.144 E0.03766 ; skirt
G1 X85.787 Y81.330 E0.29036 ; skirt
G1 F1800.000 E-2.40000 ; retract
G1 X88.216 Y109.449 F6000.000 ; move to first perimeter point
G1 E2.40000 F1800.000 ; compensate retraction
G1 X87.814 Y109.741 E0.03708 F900.000 ; perimeter
G1 X86.850 Y108.830 E0.09908 ; perimeter
G1 X87.505 Y107.835 E0.08892 ; perimeter
G1 X87.949 Y107.996 E0.03524 ; perimeter
G1 X87.917 Y108.294 E0.02242 ; perimeter
G1 X87.943 Y108.713 E0.03132 ; perimeter
G1 X88.046 Y109.081 E0.02856 ; perimeter
G1 X88.184 Y109.382 E0.02471 ; perimeter
G1 X87.720 Y109.469 F6000.000 ; move inwards before travel
G1 X88.862 Y110.070 F6000.000 ; move to first perimeter point
G1 X89.255 Y110.218 E0.03137 F900.000 ; perimeter
G1 X89.667 Y110.300 E0.03132 ; perimeter
G1 X90.086 Y110.291 E0.03131 ; perimeter
G1 X90.352 Y110.240 E0.02022 ; perimeter
G1 X90.545 Y110.678 E0.03571 ; perimeter
G1 X89.571 Y111.401 E0.09059 ; perimeter
G1 X88.603 Y110.486 E0.09954 ; perimeter
G1 X88.822 Y110.134 E0.03098 ; perimeter
G1 X89.107 Y110.412 F6000.000 ; move inwards before travel
G1 F1800.000 E-2.40000 ; retract
G1 X91.469 Y109.427 F6000.000 ; move to first perimeter point
G1 E2.40000 F1800.000 ; compensate retraction
G1 X91.646 Y109.028 E0.03261 F900.000 ; perimeter
G1 X91.714 Y108.789 E0.01852 ; perimeter
G1 X91.756 Y108.408 E0.02867 ; perimeter
G1 X91.743 Y108.160 E0.01852 ; perimeter
G1 X91.660 Y107.786 E0.02867 ; perimeter
G1 X91.567 Y107.555 E0.01852 ; perimeter
G1 X91.367 Y107.228 E0.02867 ; perimeter
G1 X91.205 Y107.040 E0.01852 ; perimeter
G1 X91.050 Y106.898 E0.01575 ; perimeter
G1 X90.729 Y106.687 E0.02867 ; perimeter
G1 X90.503 Y106.585 E0.01852 ; perimeter
G1 X90.301 Y106.523 E0.01575 ; perimeter
G1 X89.884 Y106.466 E0.03145 ; perimeter
G1 X89.464 Y106.502 E0.03145 ; perimeter
G1 X89.063 Y106.628 E0.03145 ; perimeter
G1 X88.719 Y106.802 E0.02875 ; perimeter
G1 X88.413 Y106.458 E0.03438 ; perimeter
G1 X89.250 Y105.169 E0.11483 ; perimeter
G1 X89.309 Y104.984 E0.01446 ; perimeter
G1 X89.330 Y104.726 E0.01934 ; perimeter
G1 X89.266 Y104.452 E0.02101 ; perimeter
G1 X87.952 Y101.280 E0.25642 ; perimeter
G1 X87.888 Y101.156 E0.01045 ; perimeter
G1 X87.792 Y101.030 E0.01183 ; perimeter
G1 X87.676 Y100.922 E0.01180 ; perimeter
G1 X87.544 Y100.836 E0.01181 ; perimeter
G1 X87.398 Y100.774 E0.01182 ; perimeter
G1 X87.262 Y100.742 E0.01045 ; perimeter
G1 X83.277 Y100.155 E0.30086 ; perimeter
G1 X83.171 Y96.412 E0.27964 ; perimeter
G1 X87.332 Y95.556 E0.31724 ; perimeter
G1 X87.594 Y95.455 E0.02101 ; perimeter
G1 X87.718 Y95.369 E0.01127 ; perimeter
G1 X87.826 Y95.264 E0.01127 ; perimeter
G1 X87.975 Y95.025 E0.02101 ; perimeter
G1 X89.331 Y91.720 E0.26683 ; perimeter
G1 X89.353 Y91.563 E0.01182 ; perimeter
G1 X89.347 Y91.405 E0.01181 ; perimeter
G1 X89.314 Y91.250 E0.01181 ; perimeter
G1 X89.255 Y91.103 E0.01182 ; perimeter
G1 X89.181 Y90.984 E0.01045 ; perimeter
G1 X86.778 Y87.751 E0.30085 ; perimeter
G1 X89.350 Y85.030 E0.27964 ; perimeter
G1 X92.897 Y87.367 E0.31724 ; perimeter
G1 X93.154 Y87.481 E0.02101 ; perimeter
G1 X93.412 Y87.509 E0.01935 ; perimeter
G1 X93.604 Y87.486 E0.01445 ; perimeter
G1 X95.250 Y86.815 E0.13280 ; perimeter
G1 X97.681 Y93.638 E0.54092 ; perimeter
G1 X97.181 Y93.928 E0.04317 ; perimeter
G1 X96.921 Y94.113 E0.02385 ; perimeter
G1 X96.672 Y94.313 E0.02385 ; perimeter
G1 X96.216 Y94.759 E0.04768 ; perimeter
G1 X96.009 Y95.003 E0.02385 ; perimeter
G1 X95.643 Y95.526 E0.04768 ; perimeter
G1 X95.486 Y95.804 E0.02385 ; perimeter
G1 X95.225 Y96.386 E0.04768 ; perimeter
G1 X95.038 Y96.997 E0.04768 ; perimeter
G1 X94.929 Y97.626 E0.04768 ; perimeter
G1 X94.904 Y97.944 E0.02385 ; perimeter
G1 X94.915 Y98.583 E0.04768 ; perimeter
G1 X94.950 Y98.900 E0.02385 ; perimeter
G1 X95.005 Y99.215 E0.02385 ; perimeter
G1 X95.173 Y99.830 E0.04768 ; perimeter
G1 X95.417 Y100.420 E0.04768 ; perimeter
G1 X95.733 Y100.975 E0.04768 ; perimeter
G1 X95.916 Y101.237 E0.02385 ; perimeter
G1 X96.330 Y101.723 E0.04768 ; perimeter
G1 X96.559 Y101.945 E0.02385 ; perimeter
G1 X97.056 Y102.346 E0.04768 ; perimeter
G1 X97.323 Y102.522 E0.02385 ; perimeter
G1 X97.886 Y102.822 E0.04768 ; perimeter
G1 X98.181 Y102.945 E0.02385 ; perimeter
G1 X98.790 Y103.135 E0.04768 ; perimeter
G1 X99.391 Y103.243 E0.04561 ; perimeter
G1 X99.737 Y103.274 E0.02592 ; perimeter
G1 X100.348 Y103.268 E0.04561 ; perimeter
G1 X100.693 Y103.233 E0.02592 ; perimeter
G1 X101.319 Y103.107 E0.04768 ; perimeter
G1 X101.624 Y103.015 E0.02385 ; perimeter
G1 X102.190 Y102.786 E0.04561 ; perimeter
G1 X102.772 Y102.462 E0.04974 ; perimeter
G1 X103.285 Y102.082 E0.04768 ; perimeter
G1 X103.523 Y101.869 E0.02385 ; perimeter
G1 X103.938 Y101.421 E0.04561 ; perimeter
G1 X104.327 Y100.880 E0.04974 ; perimeter
G1 X104.631 Y100.319 E0.04768 ; perimeter
G1 X104.853 Y99.750 E0.04561 ; perimeter
G1 X104.949 Y99.416 E0.02592 ; perimeter
G1 X105.017 Y99.104 E0.02385 ; perimeter
G1 X105.090 Y98.498 E0.04561 ; perimeter
G1 X105.089 Y97.832 E0.04974 ; perimeter
G1 X105.010 Y97.227 E0.04561 ; perimeter
G1 X104.935 Y96.888 E0.02592 ; perimeter
G1 X104.735 Y96.282 E0.04768 ; perimeter
G1 X104.607 Y95.989 E0.02385 ; perimeter
G1 X104.461 Y95.705 E0.02385 ; perimeter
G1 X104.132 Y95.190 E0.04561 ; perimeter
G1 X103.708 Y94.677 E0.04974 ; perimeter
G1 X103.263 Y94.259 E0.04561 ; perimeter
G1 X102.989 Y94.046 E0.02592 ; perimeter
G1 X102.724 Y93.867 E0.02385 ; perimeter
G1 X102.248 Y93.587 E0.04126 ; perimeter
G1 X105.009 Y86.923 E0.53873 ; perimeter
G1 X106.460 Y87.511 E0.11696 ; perimeter
G1 X106.661 Y87.531 E0.01505 ; perimeter
G1 X106.929 Y87.494 E0.02027 ; perimeter
G1 X107.076 Y87.434 E0.01182 ; perimeter
G1 X107.195 Y87.361 E0.01044 ; perimeter
G1 X110.429 Y84.958 E0.30086 ; perimeter
G1 X113.150 Y87.530 E0.27964 ; perimeter
G1 X110.813 Y91.077 E0.31724 ; perimeter
G1 X110.699 Y91.334 E0.02101 ; perimeter
G1 X110.672 Y91.482 E0.01126 ; perimeter
G1 X110.670 Y91.633 E0.01127 ; perimeter
G1 X110.734 Y91.907 E0.02101 ; perimeter
G1 X112.112 Y95.204 E0.26684 ; perimeter
G1 X112.208 Y95.330 E0.01182 ; perimeter
G1 X112.324 Y95.437 E0.01180 ; perimeter
G1 X112.456 Y95.523 E0.01181 ; perimeter
G1 X112.602 Y95.585 E0.01182 ; perimeter
G1 X112.738 Y95.618 E0.01045 ; perimeter
G1 X116.723 Y96.205 E0.30086 ; perimeter
G1 X116.829 Y99.947 E0.27964 ; perimeter
G1 X112.668 Y100.803 E0.31724 ; perimeter
G1 X112.406 Y100.904 E0.02101 ; perimeter
G1 X112.282 Y100.990 E0.01127 ; perimeter
G1 X112.174 Y101.096 E0.01127 ; perimeter
G1 X112.025 Y101.334 E0.02101 ; perimeter
G1 X110.669 Y104.640 E0.26684 ; perimeter
G1 X110.647 Y104.797 E0.01182 ; perimeter
G1 X110.653 Y104.955 E0.01180 ; perimeter
G1 X110.686 Y105.109 E0.01181 ; perimeter
G1 X110.745 Y105.256 E0.01182 ; perimeter
G1 X110.819 Y105.375 E0.01045 ; perimeter
G1 X113.222 Y108.608 E0.30086 ; perimeter
G1 X110.650 Y111.330 E0.27964 ; perimeter
G1 X107.103 Y108.992 E0.31724 ; perimeter
G1 X106.846 Y108.878 E0.02101 ; perimeter
G1 X106.697 Y108.852 E0.01127 ; perimeter
G1 X106.546 Y108.850 E0.01127 ; perimeter
G1 X106.272 Y108.913 E0.02101 ; perimeter
G1 X102.976 Y110.292 E0.26684 ; perimeter
G1 X102.850 Y110.387 E0.01182 ; perimeter
G1 X102.742 Y110.503 E0.01181 ; perimeter
G1 X102.656 Y110.636 E0.01181 ; perimeter
G1 X102.594 Y110.781 E0.01182 ; perimeter
G1 X102.562 Y110.918 E0.01045 ; perimeter
G1 X101.975 Y114.903 E0.30086 ; perimeter
G1 X98.232 Y115.009 E0.27964 ; perimeter
G1 X97.377 Y110.848 E0.31724 ; perimeter
G1 X97.276 Y110.586 E0.02101 ; perimeter
G1 X97.084 Y110.354 E0.02246 ; perimeter
G1 X96.845 Y110.205 E0.02101 ; perimeter
G1 X93.540 Y108.849 E0.26684 ; perimeter
G1 X93.383 Y108.827 E0.01182 ; perimeter
G1 X93.225 Y108.833 E0.01181 ; perimeter
G1 X93.071 Y108.866 E0.01181 ; perimeter
G1 X92.924 Y108.925 E0.01182 ; perimeter
G1 X91.830 Y109.723 E0.10110 ; perimeter
G1 X91.527 Y109.474 E0.02928 ; perimeter
G1 X91.843 Y109.203 F6000.000 ; move inwards before travel
G1 X92.522 Y108.279 F6000.000 ; move to first perimeter point
G1 X92.434 Y107.773 E0.03836 F900.000 ; perimeter
G1 X92.271 Y107.295 E0.03777 ; perimeter
G1 X92.097 Y106.967 E0.02769 ; perimeter
G1 X91.928 Y106.728 E0.02184 ; perimeter
G1 X91.734 Y106.509 E0.02184 ; perimeter
G1 X91.517 Y106.313 E0.02185 ; perimeter
G1 X91.345 Y106.186 E0.01598 ; perimeter
G1 X91.026 Y105.997 E0.02770 ; perimeter
G1 X90.758 Y105.881 E0.02184 ; perimeter
G1 X90.478 Y105.795 E0.02185 ; perimeter
G1 X89.864 Y105.682 E0.04667 ; perimeter
G1 X90.027 Y105.219 E0.03667 ; perimeter
G1 X90.076 Y104.948 E0.02053 ; perimeter
G1 X90.079 Y104.673 E0.02054 ; perimeter
G1 X90.036 Y104.398 E0.02079 ; perimeter
G1 X89.968 Y104.190 E0.01638 ; perimeter
G1 X88.632 Y100.965 E0.26069 ; perimeter
G1 X88.523 Y100.755 E0.01764 ; perimeter
G1 X88.349 Y100.525 E0.02154 ; perimeter
G1 X88.138 Y100.330 E0.02148 ; perimeter
G1 X87.897 Y100.173 E0.02149 ; perimeter
G1 X87.632 Y100.060 E0.02152 ; perimeter
G1 X87.459 Y100.019 E0.01328 ; perimeter
G1 X84.007 Y99.506 E0.26063 ; perimeter
G1 X83.937 Y97.019 E0.18582 ; perimeter
G1 X87.508 Y96.284 E0.27227 ; perimeter
G1 X87.719 Y96.223 E0.01639 ; perimeter
G1 X87.970 Y96.105 E0.02078 ; perimeter
G1 X88.196 Y95.948 E0.02054 ; perimeter
G1 X88.393 Y95.756 E0.02055 ; perimeter
G1 X88.557 Y95.531 E0.02078 ; perimeter
G1 X88.657 Y95.335 E0.01639 ; perimeter
G1 X89.992 Y92.111 E0.26069 ; perimeter
G1 X90.064 Y91.885 E0.01764 ; perimeter
G1 X90.103 Y91.600 E0.02152 ; perimeter
G1 X90.092 Y91.312 E0.02148 ; perimeter
G1 X90.032 Y91.031 E0.02148 ; perimeter
G1 X89.925 Y90.764 E0.02153 ; perimeter
G1 X89.801 Y90.563 E0.01763 ; perimeter
G1 X87.754 Y87.809 E0.25628 ; perimeter
G1 X89.463 Y86.000 E0.18582 ; perimeter
G1 X92.507 Y88.006 E0.27227 ; perimeter
G1 X92.699 Y88.112 E0.01639 ; perimeter
G1 X92.961 Y88.206 E0.02078 ; perimeter
G1 X93.231 Y88.255 E0.02054 ; perimeter
G1 X93.404 Y88.258 E0.01287 ; perimeter
G1 X93.782 Y88.215 E0.02840 ; perimeter
G1 X93.990 Y88.147 E0.01639 ; perimeter
G1 X94.810 Y87.808 E0.06623 ; perimeter
G1 X96.768 Y93.304 E0.43573 ; perimeter
G1 X96.184 Y93.746 E0.05468 ; perimeter
G1 X95.914 Y93.993 E0.02736 ; perimeter
G1 X95.423 Y94.536 E0.05467 ; perimeter
G1 X95.204 Y94.830 E0.02735 ; perimeter
G1 X94.823 Y95.455 E0.05468 ; perimeter
G1 X94.523 Y96.123 E0.05467 ; perimeter
G1 X94.309 Y96.823 E0.05468 ; perimeter
G1 X94.185 Y97.545 E0.05468 ; perimeter
G1 X94.156 Y97.910 E0.02735 ; perimeter
G1 X94.168 Y98.642 E0.05468 ; perimeter
G1 X94.272 Y99.367 E0.05468 ; perimeter
G1 X94.465 Y100.073 E0.05467 ; perimeter
G1 X94.745 Y100.749 E0.05468 ; perimeter
G1 X95.107 Y101.386 E0.05467 ; perimeter
G1 X95.545 Y101.972 E0.05468 ; perimeter
G1 X96.054 Y102.498 E0.05468 ; perimeter
G1 X96.624 Y102.957 E0.05467 ; perimeter
G1 X97.247 Y103.342 E0.05468 ; perimeter
G1 X97.914 Y103.645 E0.05467 ; perimeter
G1 X98.260 Y103.765 E0.02735 ; perimeter
G1 X98.971 Y103.938 E0.05467 ; perimeter
G1 X99.698 Y104.022 E0.05468 ; perimeter
G1 X100.379 Y104.016 E0.05086 ; perimeter
G1 X100.795 Y103.975 E0.03117 ; perimeter
G1 X101.156 Y103.914 E0.02735 ; perimeter
G1 X101.814 Y103.740 E0.05086 ; perimeter
G1 X102.206 Y103.598 E0.03116 ; perimeter
G1 X102.541 Y103.449 E0.02735 ; perimeter
G1 X102.866 Y103.280 E0.02736 ; perimeter
G1 X103.480 Y102.882 E0.05468 ; perimeter
G1 X103.768 Y102.655 E0.02735 ; perimeter
G1 X104.261 Y102.186 E0.05086 ; perimeter
G1 X104.537 Y101.873 E0.03117 ; perimeter
G1 X104.759 Y101.581 E0.02735 ; perimeter
G1 X105.147 Y100.960 E0.05468 ; perimeter
G1 X105.311 Y100.633 E0.02736 ; perimeter
G1 X105.559 Y99.999 E0.05086 ; perimeter
G1 X105.675 Y99.598 E0.03117 ; perimeter
G1 X105.808 Y98.878 E0.05467 ; perimeter
G1 X105.849 Y98.198 E0.05086 ; perimeter
G1 X105.836 Y97.781 E0.03117 ; perimeter
G1 X105.741 Y97.055 E0.05468 ; perimeter
G1 X105.659 Y96.698 E0.02735 ; perimeter
G1 X105.430 Y96.003 E0.05467 ; perimeter
G1 X105.116 Y95.342 E0.05468 ; perimeter
G1 X104.928 Y95.027 E0.02735 ; perimeter
G1 X104.721 Y94.725 E0.02735 ; perimeter
G1 X104.253 Y94.163 E0.05468 ; perimeter
