; generated by Slic3r 1.1.6 on 2015-05-06 at 21:59:03

; perimeters extrusion width = 0.50mm
; infill extrusion width = 0.50mm
; solid infill extrusion width = 0.50mm
; top infill extrusion width = 0.50mm

G21 ; set units to millimeters
M107 ; disable fan
M190 S57 ; wait for bed temperature to be reached
M104 S185 ; set temperature

M109 S185 ; wait for temperature to be reached
G90 ; use absolute coordinates
M83 ; use relative distances for extrusion
G1 F1800.000 E-4.00000 ; retract
G1 Z0.240 F6000.000 ; move to next layer (0)
G1 X76.521 Y81.409 F6000.000 ; move to first skirt point
G1 E4.00000 F1800.000 ; compensate retraction
G1 X78.198 Y80.336 E0.07942 F600.000 ; skirt
G1 X80.000 Y80.000 E0.07318 ; skirt
G1 X120.000 Y80.000 E1.59649 ; skirt
G1 X121.950 Y80.396 E0.07942 ; skirt
G1 X123.591 Y81.521 E0.07942 ; skirt
G1 X124.664 Y83.198 E0.07942 ; skirt
G1 X125.000 Y85.000 E0.07318 ; skirt
G1 X125.000 Y115.000 E1.19736 ; skirt
G1 X124.604 Y116.950 E0.07942 ; skirt
G1 X123.479 Y118.591 E0.07942 ; skirt
G1 X121.802 Y119.664 E0.07942 ; skirt
G1 X120.000 Y120.000 E0.07318 ; skirt
G1 X80.000 Y120.000 E1.59649 ; skirt
G1 X78.050 Y119.604 E0.07942 ; skirt
G1 X76.409 Y118.479 E0.07942 ; skirt
G1 X75.336 Y116.802 E0.07942 ; skirt
G1 X75.000 Y115.000 E0.07318 ; skirt
G1 X75.000 Y85.000 E1.19736 ; skirt
G1 X75.396 Y83.050 E0.07942 ; skirt
G1 X76.479 Y81.470 E0.07643 ; skirt
G1 X77.013 Y81.635 F6000.000 ; move to first skirt point
G1 X78.655 Y80.706 E0.07531 F600.000 ; skirt
G1 X80.000 Y80.500 E0.05431 ; skirt
G1 X120.000 Y80.500 E1.59649 ; skirt
G1 X121.845 Y80.896 E0.07531 ; skirt
G1 X123.365 Y82.013 E0.07531 ; skirt
G1 X124.294 Y83.655 E0.07531 ; skirt
G1 X124.500 Y85.000 E0.05431 ; skirt
G1 X124.500 Y115.000 E1.19736 ; skirt
G1 X124.104 Y116.845 E0.07531 ; skirt
G1 X122.987 Y118.365 E0.07531 ; skirt
G1 X121.345 Y119.294 E0.07531 ; skirt
G1 X120.000 Y119.500 E0.05431 ; skirt
G1 X80.000 Y119.500 E1.59649 ; skirt
G1 X78.155 Y119.104 E0.07531 ; skirt
G1 X76.635 Y117.987 E0.07531 ; skirt
G1 X75.706 Y116.345 E0.07531 ; skirt
G1 X75.500 Y115.000 E0.05431 ; skirt
G1 X75.500 Y85.000 E1.19736 ; skirt
G1 X75.896 Y83.155 E0.07531 ; skirt
G1 X76.968 Y81.695 E0.07231 ; skirt
G1 F1800.000 E-4.00000 ; retract
G1 X119.750 Y114.750 F6000.000 ; move to first perimeter point
G1 E4.00000 F1800.000 ; compensate retraction
G1 X80.250 Y114.750 E1.57653 F900.000 ; perimeter
G1 X80.250 Y85.250 E1.17741 ; perimeter
G1 X119.750 Y85.250 E1.57653 ; perimeter
G1 X119.750 Y114.675 E1.17442 ; perimeter
G1 X119.317 Y114.500 F6000.000 ; move inwards before travel
G1 X119.250 Y114.250 F6000.000 ; move to first perimeter point
G1 X80.750 Y114.250 E1.53662 F900.000 ; perimeter
G1 X80.750 Y85.750 E1.13750 ; perimeter
G1 X119.250 Y85.750 E1.53662 ; perimeter
G1 X119.250 Y114.175 E1.13450 ; perimeter
G1 F1800.000 E-4.00000 ; retract
G1 X110.428 Y103.533 F6000.000 ; move to first perimeter point
G1 E4.00000 F1800.000 ; compensate retraction
G1 X110.500 Y103.520 E0.00290 F900.000 ; perimeter
G1 X110.500 Y104.112 E0.02364 ; perimeter
G1 X110.466 Y104.461 E0.01399 ; perimeter
G1 X110.360 Y104.808 E0.01448 ; perimeter
G1 X110.189 Y105.128 E0.01448 ; perimeter
G1 X109.959 Y105.409 E0.01448 ; perimeter
G1 X109.678 Y105.639 E0.01448 ; perimeter
G1 X109.358 Y105.810 E0.01448 ; perimeter
G1 X109.011 Y105.916 E0.01448 ; perimeter
G1 X108.662 Y105.950 E0.01399 ; perimeter
G1 X91.336 Y105.950 E0.69152 ; perimeter
G1 X90.949 Y105.908 E0.01554 ; perimeter
G1 X90.568 Y105.778 E0.01609 ; perimeter
G1 X90.223 Y105.569 E0.01609 ; perimeter
G1 X89.932 Y105.290 E0.01609 ; perimeter
G1 X89.708 Y104.955 E0.01609 ; perimeter
G1 X89.562 Y104.579 E0.01609 ; perimeter
G1 X89.500 Y104.181 E0.01609 ; perimeter
G1 X89.526 Y103.792 E0.01554 ; perimeter
G1 X89.868 Y101.850 E0.07871 ; perimeter
G1 X87.487 Y101.850 E0.09504 ; perimeter
G1 X87.115 Y101.811 E0.01492 ; perimeter
G1 X86.747 Y101.691 E0.01545 ; perimeter
G1 X86.412 Y101.498 E0.01545 ; perimeter
G1 X86.124 Y101.239 E0.01545 ; perimeter
G1 X85.897 Y100.926 E0.01545 ; perimeter
G1 X85.578 Y100.211 E0.03123 ; perimeter
G1 X85.659 Y100.211 E0.00321 ; perimeter
G1 X85.659 Y99.806 E0.01614 ; perimeter
G1 X85.739 Y99.428 E0.01545 ; perimeter
G1 X85.897 Y99.074 E0.01545 ; perimeter
G1 X86.124 Y98.761 E0.01545 ; perimeter
G1 X86.412 Y98.502 E0.01545 ; perimeter
G1 X86.747 Y98.309 E0.01545 ; perimeter
G1 X87.115 Y98.189 E0.01545 ; perimeter
G1 X87.487 Y98.150 E0.01492 ; perimeter
G1 X90.521 Y98.150 E0.12108 ; perimeter
G1 X90.976 Y95.566 E0.10471 ; perimeter
G1 X91.073 Y95.224 E0.01421 ; perimeter
G1 X91.241 Y94.896 E0.01471 ; perimeter
G1 X91.471 Y94.607 E0.01471 ; perimeter
G1 X91.753 Y94.370 E0.01471 ; perimeter
G1 X92.077 Y94.194 E0.01471 ; perimeter
G1 X92.429 Y94.085 E0.01471 ; perimeter
G1 X92.783 Y94.050 E0.01421 ; perimeter
G1 X107.217 Y94.050 E0.57606 ; perimeter
G1 X107.571 Y94.085 E0.01421 ; perimeter
G1 X107.923 Y94.194 E0.01471 ; perimeter
G1 X108.247 Y94.370 E0.01471 ; perimeter
G1 X108.529 Y94.607 E0.01471 ; perimeter
G1 X108.759 Y94.896 E0.01471 ; perimeter
G1 X109.122 Y95.604 E0.03178 ; perimeter
G1 X109.030 Y95.604 E0.00367 ; perimeter
G1 X109.479 Y98.150 E0.10318 ; perimeter
G1 X112.513 Y98.150 E0.12108 ; perimeter
G1 X112.885 Y98.189 E0.01492 ; perimeter
G1 X113.253 Y98.309 E0.01545 ; perimeter
G1 X113.588 Y98.502 E0.01545 ; perimeter
G1 X113.876 Y98.761 E0.01545 ; perimeter
G1 X114.103 Y99.074 E0.01545 ; perimeter
G1 X114.261 Y99.428 E0.01545 ; perimeter
G1 X114.341 Y99.806 E0.01545 ; perimeter
G1 X114.352 Y100.145 E0.01351 ; perimeter
G1 X114.261 Y100.572 E0.01743 ; perimeter
G1 X114.103 Y100.926 E0.01545 ; perimeter
G1 X113.876 Y101.239 E0.01545 ; perimeter
G1 X113.588 Y101.498 E0.01545 ; perimeter
G1 X113.253 Y101.691 E0.01545 ; perimeter
G1 X112.885 Y101.811 E0.01545 ; perimeter
G1 X112.235 Y101.879 E0.02609 ; perimeter
G1 X112.235 Y101.850 E0.00117 ; perimeter
G1 X110.132 Y101.850 E0.08394 ; perimeter
G1 X110.415 Y103.459 E0.06520 ; perimeter
G1 X110.484 Y103.486 F6000.000 ; move inwards before travel
G1 X110.834 Y102.953 F6000.000 ; move to first perimeter point
G1 X111.000 Y102.924 E0.00672 F900.000 ; perimeter
G1 X111.000 Y104.137 E0.04840 ; perimeter
G1 X110.958 Y104.559 E0.01694 ; perimeter
G1 X110.824 Y105.001 E0.01842 ; perimeter
G1 X110.607 Y105.408 E0.01841 ; perimeter
G1 X110.314 Y105.764 E0.01842 ; perimeter
G1 X110.044 Y105.986 E0.01396 ; perimeter
G1 X109.958 Y106.057 E0.00445 ; perimeter
G1 X109.551 Y106.274 E0.01842 ; perimeter
G1 X109.109 Y106.408 E0.01841 ; perimeter
G1 X108.687 Y106.450 E0.01694 ; perimeter
G1 X91.309 Y106.450 E0.69359 ; perimeter
G1 X90.840 Y106.399 E0.01882 ; perimeter
G1 X90.355 Y106.234 E0.02046 ; perimeter
G1 X89.917 Y105.968 E0.02046 ; perimeter
G1 X89.546 Y105.613 E0.02046 ; perimeter
G1 X89.262 Y105.187 E0.02046 ; perimeter
G1 X89.076 Y104.709 E0.02046 ; perimeter
G1 X88.998 Y104.203 E0.02046 ; perimeter
G1 X89.029 Y103.732 E0.01882 ; perimeter
G1 X89.272 Y102.350 E0.05602 ; perimeter
G1 X87.461 Y102.350 E0.07231 ; perimeter
G1 X87.011 Y102.303 E0.01807 ; perimeter
G1 X86.542 Y102.151 E0.01964 ; perimeter
G1 X86.116 Y101.905 E0.01964 ; perimeter
G1 X85.751 Y101.575 E0.01964 ; perimeter
G1 X85.461 Y101.177 E0.01964 ; perimeter
G1 X84.808 Y99.711 E0.06406 ; perimeter
G1 X85.168 Y99.711 E0.01435 ; perimeter
G1 X85.261 Y99.273 E0.01789 ; perimeter
G1 X85.461 Y98.823 E0.01964 ; perimeter
G1 X85.751 Y98.425 E0.01964 ; perimeter
G1 X86.116 Y98.095 E0.01964 ; perimeter
G1 X86.542 Y97.849 E0.01964 ; perimeter
G1 X87.011 Y97.697 E0.01964 ; perimeter
G1 X87.461 Y97.650 E0.01806 ; perimeter
G1 X90.101 Y97.650 E0.10538 ; perimeter
G1 X90.488 Y95.455 E0.08896 ; perimeter
G1 X90.605 Y95.040 E0.01721 ; perimeter
G1 X90.819 Y94.623 E0.01871 ; perimeter
G1 X91.111 Y94.257 E0.01871 ; perimeter
G1 X91.470 Y93.955 E0.01871 ; perimeter
G1 X91.882 Y93.731 E0.01871 ; perimeter
G1 X92.329 Y93.593 E0.01871 ; perimeter
G1 X92.758 Y93.550 E0.01721 ; perimeter
G1 X107.242 Y93.550 E0.57805 ; perimeter
G1 X107.671 Y93.593 E0.01721 ; perimeter
G1 X108.118 Y93.731 E0.01871 ; perimeter
G1 X108.530 Y93.955 E0.01871 ; perimeter
G1 X108.889 Y94.257 E0.01871 ; perimeter
G1 X109.181 Y94.623 E0.01871 ; perimeter
G1 X109.941 Y96.104 E0.06643 ; perimeter
G1 X109.626 Y96.104 E0.01254 ; perimeter
G1 X109.899 Y97.650 E0.06265 ; perimeter
G1 X112.539 Y97.650 E0.10538 ; perimeter
G1 X112.989 Y97.697 E0.01806 ; perimeter
G1 X113.458 Y97.849 E0.01964 ; perimeter
G1 X113.884 Y98.095 E0.01964 ; perimeter
G1 X114.249 Y98.425 E0.01964 ; perimeter
G1 X114.539 Y98.823 E0.01964 ; perimeter
G1 X114.739 Y99.273 E0.01964 ; perimeter
G1 X114.818 Y99.645 E0.01519 ; perimeter
G1 X114.969 Y99.645 E0.00603 ; perimeter
G1 X114.739 Y100.727 E0.04417 ; perimeter
G1 X114.539 Y101.177 E0.01964 ; perimeter
G1 X114.249 Y101.575 E0.01964 ; perimeter
G1 X113.884 Y101.905 E0.01964 ; perimeter
G1 X113.458 Y102.151 E0.01964 ; perimeter
G1 X112.989 Y102.303 E0.01964 ; perimeter
G1 X111.735 Y102.435 E0.05035 ; perimeter
G1 X111.735 Y102.350 E0.00338 ; perimeter
G1 X110.728 Y102.350 E0.04020 ; perimeter
G1 X110.821 Y102.880 E0.02146 ; perimeter
G1 F1800.000 E-4.00000 ; retract
G1 X115.319 Y99.644 F6000.000 ; move to first fill point
G1 E4.00000 F1800.000 ; compensate retraction
G1 X118.908 Y103.233 E0.20253 F900.000 ; fill
G1 X118.908 Y103.945 E0.02844 ; fill
G1 X115.194 Y100.232 E0.20958 ; fill
G1 X115.069 Y100.819 E0.02398 ; fill
G1 X118.908 Y104.658 E0.21663 ; fill
G1 X118.908 Y105.370 E0.02844 ; fill
G1 X114.852 Y101.315 E0.22889 ; fill
G1 X114.558 Y101.733 E0.02041 ; fill
G1 X118.908 Y106.083 E0.24550 ; fill
G1 X118.908 Y106.795 E0.02844 ; fill
G1 X114.196 Y102.084 E0.26592 ; fill
G1 X113.767 Y102.367 E0.02052 ; fill
G1 X118.908 Y107.508 E0.29014 ; fill
G1 X118.908 Y108.220 E0.02844 ; fill
G1 X113.262 Y102.574 E0.31867 ; fill
G1 X112.657 Y102.682 E0.02452 ; fill
G1 X118.908 Y108.933 E0.35281 ; fill
G1 X118.908 Y109.645 E0.02844 ; fill
G1 X112.012 Y102.750 E0.38920 ; fill
G1 X111.368 Y102.818 E0.02587 ; fill
G1 X118.908 Y110.358 E0.42559 ; fill
G1 X118.908 Y111.070 E0.02844 ; fill
G1 X111.342 Y103.505 E0.42700 ; fill
G1 X111.337 Y104.212 E0.02821 ; fill
G1 X118.908 Y111.783 E0.42733 ; fill
G1 X118.908 Y112.495 E0.02844 ; fill
G1 X111.236 Y104.824 E0.43301 ; fill
G1 X111.034 Y105.334 E0.02192 ; fill
G1 X118.908 Y113.208 E0.44439 ; fill
G1 X118.881 Y113.894 E0.02741 ; fill
G1 X110.755 Y105.767 E0.45869 ; fill
G1 X110.407 Y106.132 E0.02011 ; fill
G1 X118.183 Y113.908 E0.43891 ; fill
G1 X117.470 Y113.908 E0.02844 ; fill
G1 X109.990 Y106.428 E0.42219 ; fill
G1 X109.498 Y106.648 E0.02152 ; fill
G1 X116.758 Y113.908 E0.40974 ; fill
G1 X116.045 Y113.908 E0.02844 ; fill
G1 X108.910 Y106.772 E0.40275 ; fill
G1 X108.217 Y106.792 E0.02764 ; fill
G1 X115.333 Y113.908 E0.40160 ; fill
G1 X114.620 Y113.908 E0.02844 ; fill
G1 X107.505 Y106.792 E0.40160 ; fill
G1 X106.792 Y106.792 E0.02844 ; fill
G1 X113.908 Y113.908 E0.40160 ; fill
G1 X113.195 Y113.908 E0.02844 ; fill
G1 X106.080 Y106.792 E0.40160 ; fill
G1 X105.367 Y106.792 E0.02844 ; fill
G1 X112.483 Y113.908 E0.40160 ; fill
G1 X111.770 Y113.908 E0.02844 ; fill
G1 X104.655 Y106.792 E0.40160 ; fill
G1 X103.942 Y106.792 E0.02844 ; fill
G1 X111.058 Y113.908 E0.40160 ; fill
G1 X110.345 Y113.908 E0.02844 ; fill
G1 X103.230 Y106.792 E0.40160 ; fill
G1 X102.517 Y106.792 E0.02844 ; fill
G1 X109.633 Y113.908 E0.40160 ; fill
G1 X108.920 Y113.908 E0.02844 ; fill
G1 X101.805 Y106.792 E0.40160 ; fill
G1 X101.092 Y106.792 E0.02844 ; fill
G1 X108.208 Y113.908 E0.40160 ; fill
G1 X107.495 Y113.908 E0.02844 ; fill
G1 X100.380 Y106.792 E0.40160 ; fill
G1 X99.667 Y106.792 E0.02844 ; fill
G1 X106.783 Y113.908 E0.40160 ; fill
G1 X106.070 Y113.908 E0.02844 ; fill
G1 X98.955 Y106.792 E0.40160 ; fill
G1 X98.242 Y106.792 E0.02844 ; fill
G1 X105.358 Y113.908 E0.40160 ; fill
G1 X104.645 Y113.908 E0.02844 ; fill
G1 X97.530 Y106.792 E0.40160 ; fill
G1 X96.817 Y106.792 E0.02844 ; fill
G1 X103.933 Y113.908 E0.40160 ; fill
G1 X103.220 Y113.908 E0.02844 ; fill
G1 X96.105 Y106.792 E0.40160 ; fill
G1 X95.392 Y106.792 E0.02844 ; fill
G1 X102.508 Y113.908 E0.40160 ; fill
G1 X101.795 Y113.908 E0.02844 ; fill
G1 X94.680 Y106.792 E0.40160 ; fill
G1 X93.967 Y106.792 E0.02844 ; fill
G1 X101.083 Y113.908 E0.40160 ; fill
G1 X100.370 Y113.908 E0.02844 ; fill
G1 X93.255 Y106.792 E0.40160 ; fill
G1 X92.542 Y106.792 E0.02844 ; fill
G1 X99.658 Y113.908 E0.40160 ; fill
G1 X98.945 Y113.908 E0.02844 ; fill
G1 X91.830 Y106.792 E0.40160 ; fill
G1 X91.096 Y106.771 E0.02930 ; fill
G1 X98.233 Y113.908 E0.40280 ; fill
G1 X97.520 Y113.908 E0.02844 ; fill
G1 X90.080 Y106.468 E0.41993 ; fill
G1 X88.954 Y105.342 F6000.000 ; move to first fill point
G1 X81.092 Y97.480 E0.44375 F900.000 ; fill
G1 X81.092 Y98.193 E0.02844 ; fill
G1 X96.807 Y113.908 E0.88702 ; fill
G1 X96.095 Y113.908 E0.02844 ; fill
G1 X81.092 Y98.905 E0.84681 ; fill
G1 X81.092 Y99.618 E0.02844 ; fill
G1 X95.382 Y113.908 E0.80659 ; fill
G1 X94.670 Y113.908 E0.02844 ; fill
G1 X81.092 Y100.330 E0.76637 ; fill
G1 X81.092 Y101.043 E0.02844 ; fill
G1 X93.957 Y113.908 E0.72616 ; fill
G1 X93.245 Y113.908 E0.02844 ; fill
G1 X81.092 Y101.755 E0.68594 ; fill
G1 X81.092 Y102.468 E0.02844 ; fill
G1 X92.532 Y113.908 E0.64572 ; fill
G1 X91.820 Y113.908 E0.02844 ; fill
G1 X81.092 Y103.180 E0.60551 ; fill
G1 X81.092 Y103.893 E0.02844 ; fill
G1 X91.107 Y113.908 E0.56529 ; fill
G1 X90.395 Y113.908 E0.02844 ; fill
G1 X81.092 Y104.605 E0.52507 ; fill
G1 X81.092 Y105.318 E0.02844 ; fill
G1 X89.682 Y113.908 E0.48486 ; fill
G1 X88.970 Y113.908 E0.02844 ; fill
G1 X81.092 Y106.030 E0.44464 ; fill
G1 X81.092 Y106.743 E0.02844 ; fill
G1 X88.257 Y113.908 E0.40442 ; fill
G1 X87.545 Y113.908 E0.02844 ; fill
G1 X81.092 Y107.455 E0.36421 ; fill
G1 X81.092 Y108.168 E0.02844 ; fill
G1 X86.832 Y113.908 E0.32399 ; fill
G1 X86.120 Y113.908 E0.02844 ; fill
G1 X81.092 Y108.880 E0.28377 ; fill
G1 X81.092 Y109.593 E0.02844 ; fill
G1 X85.407 Y113.908 E0.24356 ; fill
G1 X84.695 Y113.908 E0.02844 ; fill
G1 X81.092 Y110.305 E0.20334 ; fill
G1 X81.092 Y111.018 E0.02844 ; fill
G1 X83.982 Y113.908 E0.16312 ; fill
G1 X83.270 Y113.908 E0.02844 ; fill
G1 X81.092 Y111.730 E0.12291 ; fill
G1 X81.092 Y112.443 E0.02844 ; fill
G1 X82.557 Y113.908 E0.08269 ; fill
G1 X81.845 Y113.908 E0.02844 ; fill
G1 X81.092 Y113.155 E0.04247 ; fill
G1 X81.092 Y113.868 E0.02844 ; fill
G1 X81.132 Y113.908 E0.00226 ; fill
G1 F1800.000 E-4.00000 ; retract
G1 X86.968 Y102.643 F6000.000 ; move to first fill point
G1 E4.00000 F1800.000 ; compensate retraction
G1 X88.674 Y104.349 E0.09631 F900.000 ; fill
G1 X88.694 Y103.657 E0.02763 ; fill
G1 X87.730 Y102.692 E0.05442 ; fill
G1 X88.442 Y102.692 E0.02844 ; fill
G1 X88.801 Y103.051 E0.02024 ; fill
G1 F1800.000 E-4.00000 ; retract
G1 X84.753 Y100.428 F6000.000 ; move to first fill point
G1 E4.00000 F1800.000 ; compensate retraction
G1 X81.092 Y96.767 E0.20660 F900.000 ; fill
G1 X81.092 Y96.055 E0.02844 ; fill
G1 X84.406 Y99.368 E0.18702 ; fill
G1 X84.931 Y99.181 E0.02224 ; fill
G1 X81.092 Y95.342 E0.21664 ; fill
G1 X81.092 Y94.630 E0.02844 ; fill
G1 X85.148 Y98.685 E0.22889 ; fill
G1 X85.442 Y98.267 E0.02041 ; fill
G1 X81.092 Y93.917 E0.24550 ; fill
G1 X81.092 Y93.205 E0.02844 ; fill
G1 X85.804 Y97.916 E0.26592 ; fill
G1 X86.233 Y97.633 E0.02052 ; fill
G1 X81.092 Y92.492 E0.29014 ; fill
G1 X81.092 Y91.780 E0.02844 ; fill
G1 X86.738 Y97.426 E0.31867 ; fill
G1 X87.343 Y97.318 E0.02452 ; fill
G1 X81.092 Y91.067 E0.35281 ; fill
G1 X81.092 Y90.355 E0.02844 ; fill
G1 X88.045 Y97.308 E0.39243 ; fill
G1 X88.758 Y97.308 E0.02844 ; fill
G1 X81.092 Y89.642 E0.43265 ; fill
G1 X81.092 Y88.930 E0.02844 ; fill
G1 X89.470 Y97.308 E0.47286 ; fill
G1 X89.869 Y96.994 E0.02025 ; fill
G1 X81.092 Y88.217 E0.49538 ; fill
G1 X81.092 Y87.505 E0.02844 ; fill
G1 X89.976 Y96.388 E0.50141 ; fill
G1 X90.083 Y95.783 E0.02455 ; fill
G1 X81.092 Y86.792 E0.50744 ; fill
G1 X81.119 Y86.106 E0.02741 ; fill
G1 X90.206 Y95.193 E0.51292 ; fill
G1 X90.405 Y94.680 E0.02198 ; fill
G1 X81.817 Y86.092 E0.48470 ; fill
G1 X82.530 Y86.092 E0.02844 ; fill
