; generated by Slic3r 1.0.1 on 2014-07-06 at 13:41:47

; layer_height = 0.24
; perimeters = 2
; top_solid_layers = 3
; bottom_solid_layers = 3
; fill_density = 0.25
; perimeter_speed = 30
; infill_speed = 30
; travel_speed = 100
; nozzle_diameter = 0.5
; filament_diameter = 1.75
; extrusion_multiplier = 1
; perimeters extrusion width = 0.50mm
; infill extrusion width = 0.50mm
; solid infill extrusion width = 0.50mm
; top infill extrusion width = 0.50mm
; first layer extrusion width = 0.80mm

G21 ; set units to millimeters
M107 ; disable fan
M190 S57 ; wait for bed temperature to be reached
M104 S200 ; set temperature

M109 S200 ; wait for temperature to be reached
G90 ; use absolute coordinates
M83 ; use relative distances for extrusion
G1 F1800.000 E-2.40000 ; retract
G1 Z0.240 F6000.000 ; move to next layer (0)
G1 X67.830 Y79.720 F6000.000 ; move to first skirt point
G1 E2.40000 F1800.000 ; compensate retraction
G1 X68.190 Y79.420 E0.03500 F900.000 ; skirt
G1 X68.710 Y79.040 E0.04810 ; skirt
G1 X69.110 Y78.790 E0.03523 ; skirt
G1 X69.490 Y78.580 E0.03243 ; skirt
G1 X70.310 Y78.230 E0.06659 ; skirt
G1 X70.890 Y78.050 E0.04536 ; skirt
G1 X71.790 Y77.840 E0.06902 ; skirt
G1 X72.230 Y77.790 E0.03307 ; skirt
G1 X73.000 Y77.750 E0.05759 ; skirt
G1 X126.990 Y77.750 E4.03225 ; skirt
G1 X127.760 Y77.790 E0.05759 ; skirt
G1 X128.560 Y77.910 E0.06042 ; skirt
G1 X129.020 Y78.020 E0.03532 ; skirt
G1 X129.720 Y78.250 E0.05503 ; skirt
G1 X130.160 Y78.430 E0.03550 ; skirt
G1 X130.880 Y78.790 E0.06012 ; skirt
G1 X131.280 Y79.040 E0.03523 ; skirt
G1 X131.800 Y79.420 E0.04810 ; skirt
G1 X132.480 Y80.010 E0.06724 ; skirt
G1 X133.070 Y80.690 E0.06724 ; skirt
G1 X133.450 Y81.210 E0.04810 ; skirt
G1 X133.700 Y81.610 E0.03523 ; skirt
G1 X134.060 Y82.330 E0.06012 ; skirt
G1 X134.240 Y82.770 E0.03550 ; skirt
G1 X134.470 Y83.470 E0.05503 ; skirt
G1 X134.580 Y83.930 E0.03532 ; skirt
G1 X134.690 Y84.620 E0.05218 ; skirt
G1 X134.730 Y85.080 E0.03448 ; skirt
G1 X134.750 Y85.490 E0.03066 ; skirt
G1 X134.750 Y114.490 E2.16587 ; skirt
G1 X134.690 Y115.360 E0.06513 ; skirt
G1 X134.580 Y116.060 E0.05292 ; skirt
G1 X134.470 Y116.520 E0.03532 ; skirt
G1 X134.240 Y117.220 E0.05503 ; skirt
G1 X134.060 Y117.660 E0.03550 ; skirt
G1 X133.700 Y118.380 E0.06012 ; skirt
G1 X133.450 Y118.780 E0.03523 ; skirt
G1 X133.070 Y119.300 E0.04810 ; skirt
G1 X132.480 Y119.980 E0.06724 ; skirt
G1 X131.800 Y120.570 E0.06724 ; skirt
G1 X131.280 Y120.950 E0.04810 ; skirt
G1 X130.880 Y121.200 E0.03523 ; skirt
G1 X130.160 Y121.560 E0.06012 ; skirt
G1 X129.720 Y121.740 E0.03550 ; skirt
G1 X129.020 Y121.970 E0.05503 ; skirt
G1 X128.560 Y122.080 E0.03532 ; skirt
G1 X127.860 Y122.190 E0.05292 ; skirt
G1 X126.990 Y122.250 E0.06513 ; skirt
G1 X72.990 Y122.250 E4.03300 ; skirt
G1 X72.120 Y122.190 E0.06513 ; skirt
G1 X71.430 Y122.080 E0.05218 ; skirt
G1 X70.970 Y121.970 E0.03532 ; skirt
G1 X70.270 Y121.740 E0.05503 ; skirt
G1 X69.830 Y121.560 E0.03550 ; skirt
G1 X69.110 Y121.200 E0.06012 ; skirt
G1 X68.710 Y120.950 E0.03523 ; skirt
G1 X68.190 Y120.570 E0.04810 ; skirt
G1 X67.510 Y119.980 E0.06724 ; skirt
G1 X66.920 Y119.300 E0.06724 ; skirt
G1 X66.540 Y118.780 E0.04810 ; skirt
G1 X66.290 Y118.380 E0.03523 ; skirt
G1 X65.930 Y117.660 E0.06012 ; skirt
G1 X65.750 Y117.220 E0.03550 ; skirt
G1 X65.520 Y116.520 E0.05503 ; skirt
G1 X65.410 Y116.060 E0.03532 ; skirt
G1 X65.290 Y115.260 E0.06042 ; skirt
G1 X65.250 Y114.490 E0.05759 ; skirt
G1 X65.250 Y85.490 E2.16587 ; skirt
G1 X65.290 Y84.720 E0.05759 ; skirt
G1 X65.410 Y83.930 E0.05968 ; skirt
G1 X65.520 Y83.470 E0.03532 ; skirt
G1 X65.750 Y82.770 E0.05503 ; skirt
G1 X65.930 Y82.330 E0.03550 ; skirt
G1 X66.290 Y81.610 E0.06012 ; skirt
G1 X66.540 Y81.210 E0.03523 ; skirt
G1 X66.920 Y80.690 E0.04810 ; skirt
G1 X67.220 Y80.330 E0.03500 ; skirt
G1 X67.510 Y80.010 E0.03225 ; skirt
G1 X67.747 Y79.795 E0.02387 ; skirt
G1 F1800.000 E-2.40000 ; retract
G1 X71.162 Y83.662 F6000.000 ; move to first perimeter point
G1 E2.40000 F1800.000 ; compensate retraction
G1 X71.472 Y83.398 E0.03045 F900.000 ; perimeter
G1 X71.820 Y83.184 E0.03046 ; perimeter
G1 X72.197 Y83.028 E0.03046 ; perimeter
G1 X72.593 Y82.933 E0.03045 ; perimeter
G1 X73.714 Y82.845 E0.08395 ; perimeter
G1 X72.857 Y83.702 E0.09050 ; perimeter
G1 X72.578 Y84.101 E0.03642 ; perimeter
G1 X72.372 Y84.543 E0.03642 ; perimeter
G1 X72.245 Y85.014 E0.03641 ; perimeter
G1 X72.203 Y85.500 E0.03641 ; perimeter
G1 X72.245 Y85.986 E0.03641 ; perimeter
G1 X72.372 Y86.457 E0.03641 ; perimeter
G1 X72.578 Y86.899 E0.03642 ; perimeter
G1 X72.857 Y87.298 E0.03642 ; perimeter
G1 X73.202 Y87.643 E0.03641 ; perimeter
G1 X73.601 Y87.922 E0.03642 ; perimeter
G1 X74.043 Y88.128 E0.03642 ; perimeter
G1 X74.514 Y88.255 E0.03641 ; perimeter
G1 X75.000 Y88.297 E0.03641 ; perimeter
G1 X75.486 Y88.255 E0.03641 ; perimeter
G1 X75.957 Y88.128 E0.03641 ; perimeter
G1 X76.399 Y87.922 E0.03642 ; perimeter
G1 X76.798 Y87.643 E0.03642 ; perimeter
G1 X77.143 Y87.298 E0.03641 ; perimeter
G1 X77.422 Y86.899 E0.03642 ; perimeter
G1 X77.628 Y86.457 E0.03642 ; perimeter
G1 X77.755 Y85.986 E0.03641 ; perimeter
G1 X77.797 Y85.500 E0.03641 ; perimeter
G1 X77.755 Y85.014 E0.03641 ; perimeter
G1 X77.628 Y84.543 E0.03641 ; perimeter
G1 X77.422 Y84.101 E0.03642 ; perimeter
G1 X77.143 Y83.702 E0.03642 ; perimeter
G1 X76.341 Y82.900 E0.08470 ; perimeter
G1 X98.659 Y82.900 E1.66686 ; perimeter
G1 X97.857 Y83.702 E0.08471 ; perimeter
G1 X97.578 Y84.101 E0.03641 ; perimeter
G1 X97.371 Y84.543 E0.03643 ; perimeter
G1 X97.245 Y85.014 E0.03641 ; perimeter
G1 X97.203 Y85.500 E0.03642 ; perimeter
G1 X97.245 Y85.986 E0.03642 ; perimeter
G1 X97.371 Y86.457 E0.03641 ; perimeter
G1 X97.578 Y86.899 E0.03643 ; perimeter
G1 X97.857 Y87.298 E0.03641 ; perimeter
G1 X98.202 Y87.643 E0.03641 ; perimeter
G1 X98.601 Y87.922 E0.03642 ; perimeter
G1 X99.043 Y88.128 E0.03642 ; perimeter
G1 X99.514 Y88.255 E0.03642 ; perimeter
G1 X100.000 Y88.297 E0.03641 ; perimeter
G1 X100.486 Y88.255 E0.03642 ; perimeter
G1 X100.957 Y88.128 E0.03641 ; perimeter
G1 X101.399 Y87.922 E0.03642 ; perimeter
G1 X101.798 Y87.643 E0.03642 ; perimeter
G1 X102.143 Y87.298 E0.03641 ; perimeter
G1 X102.422 Y86.899 E0.03641 ; perimeter
G1 X102.629 Y86.457 E0.03642 ; perimeter
G1 X102.755 Y85.986 E0.03641 ; perimeter
G1 X102.792 Y85.438 E0.04100 ; perimeter
G1 X102.755 Y85.014 E0.03177 ; perimeter
G1 X102.629 Y84.543 E0.03641 ; perimeter
G1 X102.422 Y84.101 E0.03643 ; perimeter
G1 X102.143 Y83.702 E0.03641 ; perimeter
G1 X101.341 Y82.900 E0.08471 ; perimeter
G1 X123.659 Y82.900 E1.66686 ; perimeter
G1 X122.857 Y83.702 E0.08470 ; perimeter
G1 X122.578 Y84.101 E0.03642 ; perimeter
G1 X122.372 Y84.543 E0.03642 ; perimeter
G1 X122.245 Y85.014 E0.03642 ; perimeter
G1 X122.203 Y85.500 E0.03641 ; perimeter
G1 X122.245 Y85.986 E0.03641 ; perimeter
G1 X122.372 Y86.457 E0.03642 ; perimeter
G1 X122.578 Y86.899 E0.03642 ; perimeter
G1 X122.857 Y87.298 E0.03642 ; perimeter
G1 X123.202 Y87.643 E0.03641 ; perimeter
G1 X123.601 Y87.922 E0.03642 ; perimeter
G1 X124.043 Y88.128 E0.03643 ; perimeter
G1 X124.514 Y88.255 E0.03641 ; perimeter
G1 X125.000 Y88.297 E0.03641 ; perimeter
G1 X125.486 Y88.255 E0.03641 ; perimeter
G1 X125.957 Y88.128 E0.03641 ; perimeter
G1 X126.399 Y87.922 E0.03642 ; perimeter
G1 X126.798 Y87.643 E0.03642 ; perimeter
G1 X127.143 Y87.298 E0.03641 ; perimeter
G1 X127.422 Y86.899 E0.03642 ; perimeter
G1 X127.685 Y86.334 E0.04650 ; perimeter
G1 X127.724 Y86.334 E0.00289 ; perimeter
G1 X127.797 Y85.500 E0.06255 ; perimeter
G1 X127.755 Y85.014 E0.03641 ; perimeter
G1 X127.628 Y84.543 E0.03641 ; perimeter
G1 X127.422 Y84.101 E0.03642 ; perimeter
G1 X127.143 Y83.702 E0.03642 ; perimeter
G1 X126.286 Y82.845 E0.09050 ; perimeter
G1 X127.407 Y82.933 E0.08395 ; perimeter
G1 X127.803 Y83.028 E0.03045 ; perimeter
G1 X128.180 Y83.184 E0.03046 ; perimeter
G1 X128.528 Y83.398 E0.03046 ; perimeter
G1 X128.838 Y83.662 E0.03045 ; perimeter
G1 X129.102 Y83.972 E0.03045 ; perimeter
G1 X129.316 Y84.320 E0.03046 ; perimeter
G1 X129.472 Y84.697 E0.03046 ; perimeter
G1 X129.567 Y85.093 E0.03045 ; perimeter
G1 X129.600 Y85.516 E0.03163 ; perimeter
G1 X129.600 Y88.484 E0.22165 ; perimeter
G1 X129.567 Y88.815 E0.02487 ; perimeter
G1 X129.476 Y89.115 E0.02339 ; perimeter
G1 X129.329 Y89.391 E0.02340 ; perimeter
G1 X129.130 Y89.633 E0.02339 ; perimeter
G1 X128.888 Y89.832 E0.02340 ; perimeter
G1 X128.612 Y89.980 E0.02339 ; perimeter
G1 X128.312 Y90.071 E0.02340 ; perimeter
G1 X127.980 Y90.103 E0.02487 ; perimeter
G1 X80.984 Y90.103 E3.50991 ; perimeter
G1 X80.468 Y90.144 E0.03868 ; perimeter
G1 X79.949 Y90.268 E0.03986 ; perimeter
G1 X79.456 Y90.473 E0.03987 ; perimeter
G1 X78.907 Y90.809 E0.04803 ; perimeter
G1 X78.872 Y90.773 E0.00372 ; perimeter
G1 X78.248 Y91.504 E0.07175 ; perimeter
G1 X77.970 Y91.959 E0.03986 ; perimeter
G1 X77.765 Y92.452 E0.03986 ; perimeter
G1 X77.641 Y92.971 E0.03986 ; perimeter
G1 X77.600 Y93.488 E0.03868 ; perimeter
G1 X77.600 Y106.512 E0.97277 ; perimeter
G1 X77.641 Y107.029 E0.03868 ; perimeter
G1 X77.765 Y107.548 E0.03986 ; perimeter
G1 X77.970 Y108.041 E0.03986 ; perimeter
G1 X78.248 Y108.496 E0.03986 ; perimeter
G1 X78.595 Y108.902 E0.03986 ; perimeter
G1 X79.001 Y109.248 E0.03986 ; perimeter
G1 X79.456 Y109.527 E0.03986 ; perimeter
G1 X79.949 Y109.732 E0.03987 ; perimeter
G1 X80.468 Y109.856 E0.03986 ; perimeter
G1 X80.984 Y109.897 E0.03868 ; perimeter
G1 X127.980 Y109.897 E3.50991 ; perimeter
G1 X128.312 Y109.929 E0.02487 ; perimeter
G1 X128.612 Y110.020 E0.02340 ; perimeter
G1 X128.888 Y110.168 E0.02339 ; perimeter
G1 X129.130 Y110.367 E0.02340 ; perimeter
G1 X129.329 Y110.609 E0.02340 ; perimeter
G1 X129.476 Y110.885 E0.02340 ; perimeter
G1 X129.567 Y111.185 E0.02339 ; perimeter
G1 X129.600 Y111.516 E0.02487 ; perimeter
G1 X129.600 Y114.484 E0.22165 ; perimeter
G1 X129.567 Y114.907 E0.03163 ; perimeter
G1 X129.472 Y115.303 E0.03045 ; perimeter
G1 X129.316 Y115.680 E0.03046 ; perimeter
G1 X129.102 Y116.028 E0.03046 ; perimeter
G1 X128.838 Y116.338 E0.03045 ; perimeter
G1 X128.528 Y116.602 E0.03045 ; perimeter
G1 X128.180 Y116.815 E0.03046 ; perimeter
G1 X127.803 Y116.972 E0.03046 ; perimeter
G1 X127.407 Y117.067 E0.03045 ; perimeter
G1 X126.286 Y117.155 E0.08395 ; perimeter
G1 X127.143 Y116.298 E0.09050 ; perimeter
G1 X127.422 Y115.899 E0.03642 ; perimeter
G1 X127.628 Y115.457 E0.03642 ; perimeter
G1 X127.755 Y114.986 E0.03641 ; perimeter
G1 X127.797 Y114.500 E0.03641 ; perimeter
G1 X127.755 Y114.014 E0.03641 ; perimeter
G1 X127.628 Y113.543 E0.03642 ; perimeter
G1 X127.422 Y113.101 E0.03642 ; perimeter
G1 X127.143 Y112.702 E0.03642 ; perimeter
G1 X126.798 Y112.357 E0.03641 ; perimeter
G1 X126.399 Y112.078 E0.03642 ; perimeter
G1 X125.957 Y111.872 E0.03642 ; perimeter
G1 X125.486 Y111.745 E0.03641 ; perimeter
G1 X125.000 Y111.703 E0.03641 ; perimeter
G1 X124.514 Y111.745 E0.03641 ; perimeter
G1 X124.043 Y111.872 E0.03641 ; perimeter
G1 X123.601 Y112.078 E0.03643 ; perimeter
G1 X123.202 Y112.357 E0.03642 ; perimeter
G1 X122.857 Y112.702 E0.03641 ; perimeter
G1 X122.578 Y113.101 E0.03642 ; perimeter
G1 X122.372 Y113.543 E0.03642 ; perimeter
G1 X122.245 Y114.014 E0.03642 ; perimeter
G1 X122.208 Y114.562 E0.04100 ; perimeter
G1 X122.245 Y114.986 E0.03176 ; perimeter
G1 X122.372 Y115.457 E0.03641 ; perimeter
G1 X122.578 Y115.899 E0.03642 ; perimeter
G1 X122.857 Y116.298 E0.03642 ; perimeter
G1 X123.659 Y117.100 E0.08470 ; perimeter
G1 X101.341 Y117.100 E1.66686 ; perimeter
G1 X102.143 Y116.298 E0.08471 ; perimeter
G1 X102.422 Y115.899 E0.03642 ; perimeter
G1 X102.629 Y115.457 E0.03642 ; perimeter
G1 X102.755 Y114.986 E0.03641 ; perimeter
G1 X102.797 Y114.500 E0.03641 ; perimeter
G1 X102.755 Y114.014 E0.03642 ; perimeter
G1 X102.629 Y113.543 E0.03641 ; perimeter
G1 X102.422 Y113.101 E0.03642 ; perimeter
G1 X102.143 Y112.702 E0.03641 ; perimeter
G1 X101.798 Y112.357 E0.03641 ; perimeter
G1 X101.399 Y112.078 E0.03641 ; perimeter
G1 X100.957 Y111.872 E0.03642 ; perimeter
G1 X100.486 Y111.745 E0.03642 ; perimeter
G1 X100.000 Y111.703 E0.03641 ; perimeter
G1 X99.514 Y111.745 E0.03641 ; perimeter
G1 X99.043 Y111.872 E0.03642 ; perimeter
G1 X98.601 Y112.078 E0.03642 ; perimeter
G1 X98.202 Y112.357 E0.03642 ; perimeter
G1 X97.857 Y112.702 E0.03641 ; perimeter
G1 X97.578 Y113.101 E0.03642 ; perimeter
G1 X97.371 Y113.543 E0.03642 ; perimeter
G1 X97.245 Y114.014 E0.03642 ; perimeter
G1 X97.203 Y114.500 E0.03642 ; perimeter
G1 X97.245 Y114.986 E0.03642 ; perimeter
G1 X97.371 Y115.457 E0.03641 ; perimeter
G1 X97.578 Y115.899 E0.03642 ; perimeter
G1 X97.857 Y116.298 E0.03641 ; perimeter
G1 X98.659 Y117.100 E0.08471 ; perimeter
G1 X76.341 Y117.100 E1.66686 ; perimeter
G1 X77.143 Y116.298 E0.08470 ; perimeter
G1 X77.422 Y115.899 E0.03642 ; perimeter
G1 X77.628 Y115.457 E0.03642 ; perimeter
G1 X77.755 Y114.986 E0.03641 ; perimeter
G1 X77.797 Y114.500 E0.03641 ; perimeter
G1 X77.755 Y114.014 E0.03641 ; perimeter
G1 X77.628 Y113.543 E0.03642 ; perimeter
G1 X77.422 Y113.101 E0.03642 ; perimeter
G1 X77.143 Y112.702 E0.03642 ; perimeter
G1 X76.798 Y112.357 E0.03641 ; perimeter
G1 X76.399 Y112.078 E0.03641 ; perimeter
G1 X75.957 Y111.872 E0.03643 ; perimeter
G1 X75.486 Y111.745 E0.03641 ; perimeter
G1 X75.000 Y111.703 E0.03641 ; perimeter
G1 X74.514 Y111.745 E0.03641 ; perimeter
G1 X74.043 Y111.872 E0.03641 ; perimeter
G1 X73.601 Y112.078 E0.03643 ; perimeter
G1 X73.202 Y112.357 E0.03641 ; perimeter
G1 X72.857 Y112.702 E0.03641 ; perimeter
G1 X72.578 Y113.101 E0.03642 ; perimeter
G1 X72.372 Y113.543 E0.03642 ; perimeter
G1 X72.245 Y114.014 E0.03642 ; perimeter
G1 X72.203 Y114.500 E0.03641 ; perimeter
G1 X72.245 Y114.986 E0.03641 ; perimeter
G1 X72.372 Y115.457 E0.03641 ; perimeter
G1 X72.578 Y115.899 E0.03642 ; perimeter
G1 X72.857 Y116.298 E0.03642 ; perimeter
G1 X73.714 Y117.155 E0.09050 ; perimeter
G1 X72.593 Y117.067 E0.08395 ; perimeter
G1 X72.197 Y116.972 E0.03045 ; perimeter
G1 X71.820 Y116.816 E0.03046 ; perimeter
G1 X71.472 Y116.602 E0.03046 ; perimeter
G1 X71.162 Y116.338 E0.03045 ; perimeter
G1 X70.898 Y116.028 E0.03045 ; perimeter
G1 X70.684 Y115.680 E0.03046 ; perimeter
G1 X70.528 Y115.303 E0.03046 ; perimeter
G1 X70.433 Y114.907 E0.03045 ; perimeter
G1 X70.400 Y114.484 E0.03163 ; perimeter
G1 X70.400 Y85.516 E2.16353 ; perimeter
G1 X70.433 Y85.093 E0.03163 ; perimeter
G1 X70.528 Y84.697 E0.03045 ; perimeter
G1 X70.684 Y84.320 E0.03046 ; perimeter
G1 X70.898 Y83.972 E0.03046 ; perimeter
G1 X71.089 Y83.748 E0.02207 ; perimeter
G1 X71.553 Y83.778 F6000.000 ; move inwards before travel
G1 F1800.000 E-2.40000 ; retract
G1 X71.481 Y86.318 F6000.000 ; move to first perimeter point
G1 E2.40000 F1800.000 ; compensate retraction
G1 X71.927 Y87.274 E0.07878 F900.000 ; perimeter
G1 X72.282 Y87.781 E0.04619 ; perimeter
G1 X72.719 Y88.218 E0.04619 ; perimeter
G1 X73.226 Y88.573 E0.04619 ; perimeter
G1 X73.786 Y88.835 E0.04622 ; perimeter
G1 X74.384 Y88.995 E0.04619 ; perimeter
G1 X75.000 Y89.049 E0.04619 ; perimeter
G1 X75.616 Y88.995 E0.04619 ; perimeter
G1 X76.214 Y88.835 E0.04619 ; perimeter
G1 X76.673 Y88.621 E0.03784 ; perimeter
G1 X76.774 Y88.573 E0.00838 ; perimeter
G1 X77.281 Y88.218 E0.04619 ; perimeter
G1 X77.718 Y87.781 E0.04619 ; perimeter
G1 X78.002 Y87.376 E0.03696 ; perimeter
G1 X78.073 Y87.274 E0.00923 ; perimeter
G1 X78.335 Y86.714 E0.04622 ; perimeter
G1 X78.495 Y86.116 E0.04619 ; perimeter
G1 X78.549 Y85.500 E0.04619 ; perimeter
G1 X78.495 Y84.884 E0.04620 ; perimeter
G1 X78.335 Y84.286 E0.04619 ; perimeter
G1 X78.037 Y83.648 E0.05257 ; perimeter
G1 X96.963 Y83.648 E1.41346 ; perimeter
G1 X96.665 Y84.286 E0.05257 ; perimeter
G1 X96.505 Y84.884 E0.04618 ; perimeter
G1 X96.451 Y85.500 E0.04620 ; perimeter
G1 X96.463 Y85.627 E0.00954 ; perimeter
G1 X96.505 Y86.116 E0.03666 ; perimeter
G1 X96.665 Y86.714 E0.04619 ; perimeter
G1 X96.927 Y87.274 E0.04622 ; perimeter
G1 X97.282 Y87.781 E0.04618 ; perimeter
G1 X97.719 Y88.218 E0.04619 ; perimeter
G1 X98.226 Y88.573 E0.04620 ; perimeter
G1 X99.189 Y89.022 E0.07934 ; perimeter
G1 X99.115 Y89.355 E0.02545 ; perimeter
