; generated by Slic3r 1.2.5 on 2015-01-24 at 13:17:09

; external perimeters extrusion width = 0.50mm
; perimeters extrusion width = 0.50mm
; infill extrusion width = 0.50mm
; solid infill extrusion width = 0.50mm
; top infill extrusion width = 0.50mm

M107 ; disable fan
M190 S57 ; set bed temperature
M104 S200 ; set temperature

M109 S200 ; wait for temperature to be reached
G21 ; set units to millimeters
G90 ; use absolute coordinates
M83 ; use relative distances for extrusion
G1 E-4.00000 F1800.00000 ; retract
G1 Z0.240 F6000.000 ; move to next layer (0)
G1 X86.031 Y76.197 F6000.000 ; move to first skirt point
G1 E4.00000 F1800.00000 ; unretract
G1 X87.736 Y74.991 E0.12472 F600.000 ; skirt
G1 X90.000 Y74.503 E0.13840 ; skirt
G1 X110.000 Y74.503 E1.19496 ; skirt
G1 X112.050 Y74.899 E0.12472 ; skirt
G1 X113.803 Y76.031 E0.12472 F600.000 ; skirt
G1 X115.009 Y77.736 E0.12472 ; skirt
G1 X115.497 Y80.000 E0.13840 ; skirt
G1 X115.497 Y120.000 E2.38993 ; skirt
G1 X115.101 Y122.050 E0.12472 ; skirt
G1 X113.969 Y123.803 E0.12472 ; skirt
G1 X112.264 Y125.009 E0.12472 ; skirt
G1 X110.000 Y125.497 E0.13840 ; skirt
G1 X90.000 Y125.497 E1.19496 ; skirt
G1 X87.950 Y125.101 E0.12472 ; skirt
G1 X86.197 Y123.969 E0.12472 ; skirt
G1 X84.991 Y122.264 E0.12472 ; skirt
G1 X84.503 Y120.000 E0.13840 ; skirt
G1 X84.503 Y80.000 E2.38993 ; skirt
G1 X84.899 Y77.950 E0.12472 ; skirt
G1 X85.991 Y76.260 E0.12024 ; skirt
G1 X86.632 Y76.714 F6000.000 ; move to first skirt point
G1 X86.769 Y76.521 E0.01417 F600.000 ; skirt
G1 X88.429 Y75.519 E0.11584 ; skirt
G1 X90.000 Y75.252 E0.09523 ; skirt
G1 X110.000 Y75.252 E1.19496 ; skirt
G1 X111.898 Y75.647 E0.11584 ; skirt
G1 X113.479 Y76.769 E0.11584 F600.000 ; skirt
G1 X114.481 Y78.429 E0.11584 ; skirt
G1 X114.748 Y80.000 E0.09523 ; skirt
G1 X114.748 Y120.000 E2.38993 ; skirt
G1 X114.353 Y121.898 E0.11584 ; skirt
G1 X113.231 Y123.479 E0.11584 ; skirt
G1 X111.571 Y124.481 E0.11584 ; skirt
G1 X110.000 Y124.748 E0.09523 ; skirt
G1 X90.000 Y124.748 E1.19496 ; skirt
G1 X88.102 Y124.353 E0.11584 ; skirt
G1 X86.521 Y123.231 E0.11584 ; skirt
G1 X85.519 Y121.571 E0.11584 ; skirt
G1 X85.252 Y120.000 E0.09523 ; skirt
G1 X85.252 Y80.000 E2.38993 ; skirt
G1 X85.647 Y78.102 E0.11584 ; skirt
G1 X86.588 Y76.775 E0.09719 ; skirt
G1 E-4.00000 F1800.00000 ; retract
G1 X90.400 Y80.400 F6000.000 ; move to first perimeter point
G1 E4.00000 F1800.00000 ; unretract
G1 X109.600 Y80.400 E1.14716 F900.000 ; perimeter
G1 X109.600 Y119.600 E2.34213 ; perimeter
G1 X90.400 Y119.600 E1.14716 ; perimeter
G1 X90.400 Y80.475 E2.33765 ; perimeter
G1 X90.833 Y80.650 F6000.000 ; move inwards before travel
G1 X91.148 Y81.148 F6000.000 ; move to first perimeter point
G1 X108.852 Y81.148 E1.05772 F900.000 ; perimeter
G1 X108.852 Y118.852 E2.25269 ; perimeter
G1 X91.148 Y118.852 E1.05772 ; perimeter
G1 X91.148 Y81.223 E2.24820 ; perimeter
G1 E-4.00000 F1800.00000 ; retract
G1 X108.329 Y81.711 F6000.000 ; move to first infill point
G1 E4.00000 F1800.00000 ; unretract
G1 X108.289 Y81.671 E0.00340 F900.000 ; infill
G1 X107.224 Y81.671 E0.06399 ; infill
G1 X108.329 Y82.776 E0.09389 ; infill
G1 X108.329 Y83.841 E0.06399 ; infill
G1 X106.159 Y81.671 E0.18438 ; infill
G1 X105.095 Y81.671 E0.06399 ; infill
G1 X108.329 Y84.905 E0.27487 ; infill
G1 X108.329 Y85.970 E0.06399 ; infill
G1 X104.030 Y81.671 E0.36536 ; infill
G1 X102.965 Y81.671 E0.06399 ; infill
G1 X108.329 Y87.035 E0.45585 ; infill
G1 X108.329 Y88.099 E0.06399 ; infill
G1 X101.901 Y81.671 E0.54634 ; infill
G1 X100.836 Y81.671 E0.06399 ; infill
G1 X108.329 Y89.164 E0.63683 ; infill
G1 X108.329 Y90.229 E0.06399 ; infill
G1 X99.771 Y81.671 E0.72732 ; infill
G1 X98.706 Y81.671 E0.06399 ; infill
G1 X108.329 Y91.294 E0.81780 ; infill
G1 X108.329 Y92.358 E0.06399 ; infill
G1 X97.642 Y81.671 E0.90829 ; infill
G1 X96.577 Y81.671 E0.06399 ; infill
G1 X108.329 Y93.423 E0.99878 ; infill
G1 X108.329 Y94.488 E0.06399 ; infill
G1 X95.512 Y81.671 E1.08927 ; infill
G1 X94.448 Y81.671 E0.06399 ; infill
G1 X108.329 Y95.552 E1.17976 ; infill
G1 X108.329 Y96.617 E0.06399 ; infill
G1 X93.383 Y81.671 E1.27025 ; infill
G1 X92.318 Y81.671 E0.06399 ; infill
G1 X108.329 Y97.682 E1.36074 ; infill
G1 X108.329 Y98.746 E0.06399 ; infill
G1 X91.671 Y82.089 E1.41574 ; infill
G1 X91.671 Y83.153 E0.06399 ; infill
G1 X108.329 Y99.811 E1.41574 ; infill
G1 X108.329 Y100.876 E0.06399 ; infill
G1 X91.671 Y84.218 E1.41574 ; infill
G1 X91.671 Y85.283 E0.06399 ; infill
G1 X108.329 Y101.941 E1.41574 ; infill
G1 X108.329 Y103.005 E0.06399 ; infill
G1 X91.671 Y86.348 E1.41574 ; infill
G1 X91.671 Y87.412 E0.06399 ; infill
G1 X108.329 Y104.070 E1.41574 ; infill
G1 X108.329 Y105.135 E0.06399 ; infill
G1 X91.671 Y88.477 E1.41574 ; infill
G1 X91.671 Y89.542 E0.06399 ; infill
G1 X108.329 Y106.199 E1.41574 ; infill
G1 X108.329 Y107.264 E0.06399 ; infill
G1 X91.671 Y90.606 E1.41574 ; infill
G1 X91.671 Y91.671 E0.06399 ; infill
G1 X108.329 Y108.329 E1.41574 ; infill
G1 X108.329 Y109.394 E0.06399 ; infill
G1 X91.671 Y92.736 E1.41574 ; infill
G1 X91.671 Y93.801 E0.06399 ; infill
G1 X108.329 Y110.458 E1.41574 ; infill
G1 X108.329 Y111.523 E0.06399 ; infill
G1 X91.671 Y94.865 E1.41574 ; infill
G1 X91.671 Y95.930 E0.06399 ; infill
G1 X108.329 Y112.588 E1.41574 ; infill
G1 X108.329 Y113.652 E0.06399 ; infill
G1 X91.671 Y96.995 E1.41574 ; infill
G1 X91.671 Y98.059 E0.06399 ; infill
G1 X108.329 Y114.717 E1.41574 ; infill
G1 X108.329 Y115.782 E0.06399 ; infill
G1 X91.671 Y99.124 E1.41574 ; infill
G1 X91.671 Y100.189 E0.06399 ; infill
G1 X108.329 Y116.847 E1.41574 ; infill
G1 X108.329 Y117.911 E0.06399 ; infill
G1 X91.671 Y101.254 E1.41574 ; infill
G1 X91.671 Y102.318 E0.06399 ; infill
G1 X107.682 Y118.329 E1.36074 ; infill
G1 X106.617 Y118.329 E0.06399 ; infill
G1 X91.671 Y103.383 E1.27025 ; infill
G1 X91.671 Y104.448 E0.06399 ; infill
G1 X105.552 Y118.329 E1.17976 ; infill
G1 X104.488 Y118.329 E0.06399 ; infill
G1 X91.671 Y105.512 E1.08927 ; infill
G1 X91.671 Y106.577 E0.06399 ; infill
G1 X103.423 Y118.329 E0.99878 ; infill
G1 X102.358 Y118.329 E0.06399 ; infill
G1 X91.671 Y107.642 E0.90829 ; infill
G1 X91.671 Y108.707 E0.06399 ; infill
G1 X101.293 Y118.329 E0.81780 ; infill
G1 X100.229 Y118.329 E0.06399 ; infill
G1 X91.671 Y109.771 E0.72731 ; infill
G1 X91.671 Y110.836 E0.06399 ; infill
G1 X99.164 Y118.329 E0.63682 ; infill
G1 X98.099 Y118.329 E0.06399 ; infill
G1 X91.671 Y111.901 E0.54633 ; infill
G1 X91.671 Y112.965 E0.06399 ; infill
G1 X97.035 Y118.329 E0.45584 ; infill
G1 X95.970 Y118.329 E0.06399 ; infill
G1 X91.671 Y114.030 E0.36535 ; infill
G1 X91.671 Y115.095 E0.06399 ; infill
G1 X94.905 Y118.329 E0.27486 ; infill
G1 X93.841 Y118.329 E0.06399 ; infill
G1 X91.671 Y116.159 E0.18437 ; infill
G1 X91.671 Y117.224 E0.06399 ; infill
G1 X92.776 Y118.329 E0.09389 ; infill
G1 X91.711 Y118.329 E0.06399 ; infill
G1 X91.671 Y118.289 E0.00340 ; infill
M104 S190 ; set temperature
G1 E-4.00000 F1800.00000 ; retract
G1 Z0.480 F6000.000 ; move to next layer (1)
G1 X90.250 Y119.750 F6000.000 ; move to first perimeter point
G1 E4.00000 F1800.00000 ; unretract
G1 X90.250 Y80.250 E1.41413 F1800.000 ; perimeter
G1 X109.750 Y80.250 E0.69812 ; perimeter
G1 X109.750 Y119.750 E1.41413 ; perimeter
G1 X90.325 Y119.750 E0.69543 ; perimeter
G1 X90.500 Y119.317 F6000.000 ; move inwards before travel
G1 X90.698 Y119.302 F6000.000 ; move to first perimeter point
G1 X90.698 Y80.698 E1.38202 F1800.000 ; perimeter
G1 X109.302 Y80.698 E0.66600 ; perimeter
G1 X109.302 Y119.302 E1.38202 ; perimeter
G1 X90.773 Y119.302 E0.66332 ; perimeter
G1 E-4.00000 F1800.00000 ; retract
G1 X108.956 Y118.996 F6000.000 ; move to first infill point
G1 E4.00000 F1800.00000 ; unretract
G1 X108.996 Y118.956 E0.00203 F1800.000 ; infill
G1 X108.996 Y118.321 E0.02278 ; infill
G1 X108.321 Y118.996 E0.03425 ; infill
G1 X107.686 Y118.996 E0.02278 ; infill
G1 X108.996 Y117.686 E0.06646 ; infill
G1 X108.996 Y117.050 E0.02278 ; infill
G1 X107.050 Y118.996 E0.09868 ; infill
G1 X106.415 Y118.996 E0.02278 ; infill
G1 X108.996 Y116.415 E0.13089 ; infill
G1 X108.996 Y115.780 E0.02278 ; infill
G1 X105.780 Y118.996 E0.16311 ; infill
G1 X105.145 Y118.996 E0.02278 ; infill
G1 X108.996 Y115.145 E0.19533 ; infill
G1 X108.996 Y114.509 E0.02278 ; infill
G1 X104.509 Y118.996 E0.22754 ; infill
G1 X103.874 Y118.996 E0.02278 ; infill
G1 X108.996 Y113.874 E0.25976 ; infill
G1 X108.996 Y113.239 E0.02278 ; infill
G1 X103.239 Y118.996 E0.29198 ; infill
G1 X102.603 Y118.996 E0.02278 ; infill
G1 X108.996 Y112.603 E0.32419 ; infill
G1 X108.996 Y111.968 E0.02278 ; infill
G1 X101.968 Y118.996 E0.35641 ; infill
G1 X101.333 Y118.996 E0.02278 ; infill
G1 X108.996 Y111.333 E0.38863 ; infill
G1 X108.996 Y110.698 E0.02278 ; infill
G1 X100.698 Y118.996 E0.42084 ; infill
G1 X100.062 Y118.996 E0.02278 ; infill
G1 X108.996 Y110.062 E0.45306 ; infill
G1 X108.996 Y109.427 E0.02278 ; infill
G1 X99.427 Y118.996 E0.48528 ; infill
G1 X98.792 Y118.996 E0.02278 ; infill
G1 X108.996 Y108.792 E0.51749 ; infill
G1 X108.996 Y108.156 E0.02278 ; infill
G1 X98.156 Y118.996 E0.54971 ; infill
G1 X97.521 Y118.996 E0.02278 ; infill
G1 X108.996 Y107.521 E0.58193 ; infill
G1 X108.996 Y106.886 E0.02278 ; infill
G1 X96.886 Y118.996 E0.61414 ; infill
G1 X96.251 Y118.996 E0.02278 ; infill
G1 X108.996 Y106.251 E0.64636 ; infill
G1 X108.996 Y105.615 E0.02278 ; infill
G1 X95.615 Y118.996 E0.67858 ; infill
G1 X94.980 Y118.996 E0.02278 ; infill
G1 X108.996 Y104.980 E0.71079 ; infill
G1 X108.996 Y104.345 E0.02278 ; infill
G1 X94.345 Y118.996 E0.74301 ; infill
G1 X93.709 Y118.996 E0.02278 ; infill
G1 X108.996 Y103.709 E0.77523 ; infill
G1 X108.996 Y103.074 E0.02278 ; infill
G1 X93.074 Y118.996 E0.80744 ; infill
G1 X92.439 Y118.996 E0.02278 ; infill
G1 X108.996 Y102.439 E0.83966 ; infill
G1 X108.996 Y101.804 E0.02278 ; infill
G1 X91.804 Y118.996 E0.87188 ; infill
G1 X91.168 Y118.996 E0.02278 ; infill
G1 X108.996 Y101.168 E0.90409 ; infill
G1 X108.996 Y100.533 E0.02278 ; infill
G1 X91.004 Y118.526 E0.91244 ; infill
G1 X91.004 Y117.890 E0.02278 ; infill
G1 X108.996 Y99.898 E0.91244 ; infill
G1 X108.996 Y99.262 E0.02278 ; infill
G1 X91.004 Y117.255 E0.91244 ; infill
G1 X91.004 Y116.620 E0.02278 ; infill
G1 X108.996 Y98.627 E0.91244 ; infill
G1 X108.996 Y97.992 E0.02278 ; infill
G1 X91.004 Y115.985 E0.91244 ; infill
G1 X91.004 Y115.349 E0.02278 ; infill
G1 X108.996 Y97.356 E0.91244 ; infill
G1 X108.996 Y96.721 E0.02278 ; infill
G1 X91.004 Y114.714 E0.91244 ; infill
G1 X91.004 Y114.079 E0.02278 ; infill
G1 X108.996 Y96.086 E0.91244 ; infill
G1 X108.996 Y95.451 E0.02278 ; infill
G1 X91.004 Y113.443 E0.91244 ; infill
G1 X91.004 Y112.808 E0.02278 ; infill
G1 X108.996 Y94.815 E0.91244 ; infill
G1 X108.996 Y94.180 E0.02278 ; infill
G1 X91.004 Y112.173 E0.91244 ; infill
G1 X91.004 Y111.537 E0.02278 ; infill
G1 X108.996 Y93.545 E0.91244 ; infill
G1 X108.996 Y92.909 E0.02278 ; infill
G1 X91.004 Y110.902 E0.91244 ; infill
G1 X91.004 Y110.267 E0.02278 ; infill
G1 X108.996 Y92.274 E0.91244 ; infill
G1 X108.996 Y91.639 E0.02278 ; infill
G1 X91.004 Y109.632 E0.91244 ; infill
G1 X91.004 Y108.996 E0.02278 ; infill
G1 X108.996 Y91.004 E0.91244 ; infill
G1 X108.996 Y90.368 E0.02278 ; infill
G1 X91.004 Y108.361 E0.91244 ; infill
G1 X91.004 Y107.726 E0.02278 ; infill
G1 X108.996 Y89.733 E0.91244 ; infill
G1 X108.996 Y89.098 E0.02278 ; infill
G1 X91.004 Y107.090 E0.91244 ; infill
G1 X91.004 Y106.455 E0.02278 ; infill
G1 X108.996 Y88.462 E0.91244 ; infill
G1 X108.996 Y87.827 E0.02278 ; infill
G1 X91.004 Y105.820 E0.91244 ; infill
G1 X91.004 Y105.185 E0.02278 ; infill
G1 X108.996 Y87.192 E0.91244 ; infill
G1 X108.996 Y86.557 E0.02278 ; infill
G1 X91.004 Y104.549 E0.91244 ; infill
G1 X91.004 Y103.914 E0.02278 ; infill
G1 X108.996 Y85.921 E0.91244 ; infill
G1 X108.996 Y85.286 E0.02278 ; infill
G1 X91.004 Y103.279 E0.91244 ; infill
G1 X91.004 Y102.643 E0.02278 ; infill
G1 X108.996 Y84.651 E0.91244 ; infill
G1 X108.996 Y84.015 E0.02278 ; infill
G1 X91.004 Y102.008 E0.91244 ; infill
G1 X91.004 Y101.373 E0.02278 ; infill
G1 X108.996 Y83.380 E0.91244 ; infill
G1 X108.996 Y82.745 E0.02278 ; infill
G1 X91.004 Y100.738 E0.91244 ; infill
G1 X91.004 Y100.102 E0.02278 ; infill
G1 X108.996 Y82.110 E0.91244 ; infill
G1 X108.996 Y81.474 E0.02278 ; infill
G1 X91.004 Y99.467 E0.91244 ; infill
G1 X91.004 Y98.832 E0.02278 ; infill
G1 X108.832 Y81.004 E0.90409 ; infill
G1 X108.196 Y81.004 E0.02278 ; infill
G1 X91.004 Y98.196 E0.87187 ; infill
G1 X91.004 Y97.561 E0.02278 ; infill
G1 X107.561 Y81.004 E0.83966 ; infill
G1 X106.926 Y81.004 E0.02278 ; infill
G1 X91.004 Y96.926 E0.80744 ; infill
G1 X91.004 Y96.291 E0.02278 ; infill
G1 X106.291 Y81.004 E0.77522 ; infill
G1 X105.655 Y81.004 E0.02278 ; infill
G1 X91.004 Y95.655 E0.74301 ; infill
G1 X91.004 Y95.020 E0.02278 ; infill
G1 X105.020 Y81.004 E0.71079 ; infill
G1 X104.385 Y81.004 E0.02278 ; infill
G1 X91.004 Y94.385 E0.67857 ; infill
G1 X91.004 Y93.749 E0.02278 ; infill
G1 X103.749 Y81.004 E0.64636 ; infill
G1 X103.114 Y81.004 E0.02278 ; infill
G1 X91.004 Y93.114 E0.61414 ; infill
G1 X91.004 Y92.479 E0.02278 ; infill
G1 X102.479 Y81.004 E0.58192 ; infill
G1 X101.843 Y81.004 E0.02278 ; infill
G1 X91.004 Y91.843 E0.54971 ; infill
G1 X91.004 Y91.208 E0.02278 ; infill
G1 X101.208 Y81.004 E0.51749 ; infill
G1 X100.573 Y81.004 E0.02278 ; infill
G1 X91.004 Y90.573 E0.48527 ; infill
G1 X91.004 Y89.938 E0.02278 ; infill
G1 X99.938 Y81.004 E0.45306 ; infill
G1 X99.302 Y81.004 E0.02278 ; infill
G1 X91.004 Y89.302 E0.42084 ; infill
G1 X91.004 Y88.667 E0.02278 ; infill
G1 X98.667 Y81.004 E0.38862 ; infill
G1 X98.032 Y81.004 E0.02278 ; infill
G1 X91.004 Y88.032 E0.35641 ; infill
G1 X91.004 Y87.396 E0.02278 ; infill
G1 X97.396 Y81.004 E0.32419 ; infill
G1 X96.761 Y81.004 E0.02278 ; infill
G1 X91.004 Y86.761 E0.29197 ; infill
G1 X91.004 Y86.126 E0.02278 ; infill
G1 X96.126 Y81.004 E0.25976 ; infill
G1 X95.491 Y81.004 E0.02278 ; infill
G1 X91.004 Y85.491 E0.22754 ; infill
G1 X91.004 Y84.855 E0.02278 ; infill
G1 X94.855 Y81.004 E0.19532 ; infill
G1 X94.220 Y81.004 E0.02278 ; infill
G1 X91.004 Y84.220 E0.16311 ; infill
G1 X91.004 Y83.585 E0.02278 ; infill
G1 X93.585 Y81.004 E0.13089 ; infill
G1 X92.949 Y81.004 E0.02278 ; infill
G1 X91.004 Y82.949 E0.09867 ; infill
G1 X91.004 Y82.314 E0.02278 ; infill
G1 X92.314 Y81.004 E0.06646 ; infill
G1 X91.679 Y81.004 E0.02278 ; infill
G1 X91.004 Y81.679 E0.03424 ; infill
G1 X91.004 Y81.044 E0.02278 ; infill
G1 X91.044 Y81.004 E0.00202 ; infill
G1 E-4.00000 F1800.00000 ; retract
G1 Z0.720 F6000.000 ; move to next layer (2)
G1 X90.250 Y80.250 F6000.000 ; move to first perimeter point
G1 E4.00000 F1800.00000 ; unretract
G1 X109.750 Y80.250 E0.69812 F1800.000 ; perimeter
G1 X109.750 Y119.750 E1.41413 ; perimeter
G1 X90.250 Y119.750 E0.69812 ; perimeter
G1 X90.250 Y80.325 E1.41145 ; perimeter
G1 X90.683 Y80.500 F6000.000 ; move inwards before travel
G1 X90.698 Y80.698 F6000.000 ; move to first perimeter point
G1 X109.302 Y80.698 E0.66600 F1800.000 ; perimeter
G1 X109.302 Y119.302 E1.38202 ; perimeter
G1 X90.698 Y119.302 E0.66600 ; perimeter
G1 X90.698 Y80.773 E1.37934 ; perimeter
G1 E-4.00000 F1800.00000 ; retract
G1 X108.996 Y81.044 F6000.000 ; move to first infill point
G1 E4.00000 F1800.00000 ; unretract
G1 X108.956 Y81.004 E0.00203 F1800.000 ; infill
G1 X108.321 Y81.004 E0.02278 ; infill
G1 X108.996 Y81.679 E0.03425 ; infill
G1 X108.996 Y82.314 E0.02278 ; infill
G1 X107.686 Y81.004 E0.06646 ; infill
G1 X107.050 Y81.004 E0.02278 ; infill
G1 X108.996 Y82.950 E0.09868 ; infill
G1 X108.996 Y83.585 E0.02278 ; infill
G1 X106.415 Y81.004 E0.13089 ; infill
G1 X105.780 Y81.004 E0.02278 ; infill
G1 X108.996 Y84.220 E0.16311 ; infill
G1 X108.996 Y84.855 E0.02278 ; infill
G1 X105.145 Y81.004 E0.19533 ; infill
G1 X104.509 Y81.004 E0.02278 ; infill
G1 X108.996 Y85.491 E0.22754 ; infill
G1 X108.996 Y86.126 E0.02278 ; infill
G1 X103.874 Y81.004 E0.25976 ; infill
G1 X103.239 Y81.004 E0.02278 ; infill
G1 X108.996 Y86.761 E0.29198 ; infill
G1 X108.996 Y87.397 E0.02278 ; infill
G1 X102.603 Y81.004 E0.32419 ; infill
