; generated by Slic3r 1.0.1 on 2014-07-07 at 08:59:42

; layer_height = 0.24
; perimeters = 2
; top_solid_layers = 3
; bottom_solid_layers = 3
; fill_density = 0.25
; perimeter_speed = 30
; infill_speed = 30
; travel_speed = 100
; nozzle_diameter = 0.5
; filament_diameter = 1.75
; extrusion_multiplier = 1
; perimeters extrusion width = 0.50mm
; infill extrusion width = 0.50mm
; solid infill extrusion width = 0.50mm
; top infill extrusion width = 0.50mm
; first layer extrusion width = 0.80mm

G21 ; set units to millimeters
M107 ; disable fan
M190 S57 ; wait for bed temperature to be reached
M104 S200 ; set temperature

M109 S200 ; wait for temperature to be reached
G90 ; use absolute coordinates
M83 ; use relative distances for extrusion
G1 F1800.000 E-2.40000 ; retract
G1 Z0.240 F6000.000 ; move to next layer (0)
G1 X78.552 Y89.023 F6000.000 ; move to first skirt point
G1 E2.40000 F1800.000 ; compensate retraction
G1 X79.022 Y88.673 E0.04377 F900.000 ; skirt
G1 X79.652 Y88.273 E0.05573 ; skirt
G1 X80.192 Y87.983 E0.04578 ; skirt
G1 X80.762 Y87.763 E0.04563 ; skirt
G1 X81.482 Y87.533 E0.05645 ; skirt
G1 X82.032 Y87.393 E0.04239 ; skirt
G1 X82.602 Y87.313 E0.04299 ; skirt
G1 X83.352 Y87.263 E0.05614 ; skirt
G1 X108.402 Y87.253 E1.87086 ; skirt
G1 X109.472 Y87.373 E0.08041 ; skirt
G1 X110.492 Y87.733 E0.08078 ; skirt
G1 X111.392 Y88.313 E0.07997 ; skirt
G1 X122.472 Y97.313 E1.06611 ; skirt
G1 X123.422 Y98.353 E0.10520 ; skirt
G1 X124.022 Y99.613 E0.10423 ; skirt
G1 X124.232 Y101.003 E0.10499 ; skirt
G1 X124.232 Y103.003 E0.14937 ; skirt
G1 X124.082 Y104.183 E0.08884 ; skirt
G1 X123.642 Y105.293 E0.08918 ; skirt
G1 X122.942 Y106.263 E0.08934 ; skirt
G1 X122.022 Y107.013 E0.08865 ; skirt
G1 X120.932 Y107.523 E0.08988 ; skirt
G1 X105.862 Y112.373 E1.18236 ; skirt
G1 X105.292 Y112.523 E0.04402 ; skirt
G1 X104.552 Y112.663 E0.05625 ; skirt
G1 X104.112 Y112.723 E0.03317 ; skirt
G1 X103.672 Y112.743 E0.03290 ; skirt
G1 X83.672 Y112.743 E1.49370 ; skirt
G1 X82.602 Y112.683 E0.08004 ; skirt
G1 X82.032 Y112.603 E0.04299 ; skirt
G1 X81.482 Y112.463 E0.04239 ; skirt
G1 X80.762 Y112.233 E0.05645 ; skirt
G1 X80.192 Y112.013 E0.04563 ; skirt
G1 X79.652 Y111.723 E0.04578 ; skirt
G1 X79.022 Y111.323 E0.05573 ; skirt
G1 X78.552 Y110.973 E0.04377 ; skirt
G1 X78.122 Y110.573 E0.04386 ; skirt
G1 X77.602 Y110.023 E0.05653 ; skirt
G1 X77.212 Y109.553 E0.04561 ; skirt
G1 X76.882 Y109.033 E0.04600 ; skirt
G1 X76.522 Y108.373 E0.05615 ; skirt
G1 X76.262 Y107.823 E0.04544 ; skirt
G1 X76.082 Y107.243 E0.04536 ; skirt
G1 X75.902 Y106.513 E0.05615 ; skirt
G1 X75.802 Y105.943 E0.04322 ; skirt
G1 X75.762 Y105.373 E0.04268 ; skirt
G1 X75.762 Y94.623 E0.80287 ; skirt
G1 X75.802 Y94.053 E0.04268 ; skirt
G1 X75.902 Y93.483 E0.04322 ; skirt
G1 X76.082 Y92.753 E0.05615 ; skirt
G1 X76.262 Y92.173 E0.04536 ; skirt
G1 X76.522 Y91.623 E0.04544 ; skirt
G1 X76.882 Y90.963 E0.05615 ; skirt
G1 X77.212 Y90.443 E0.04600 ; skirt
G1 X77.602 Y89.973 E0.04561 ; skirt
G1 X78.122 Y89.423 E0.05653 ; skirt
G1 X78.470 Y89.099 E0.03548 ; skirt
G1 F1800.000 E-2.40000 ; retract
G1 X82.904 Y92.409 F6000.000 ; move to first perimeter point
G1 E2.40000 F1800.000 ; compensate retraction
G1 X108.033 Y92.403 E1.87672 F900.000 ; perimeter
G1 X108.082 Y93.181 E0.05824 ; perimeter
G1 X108.303 Y94.341 E0.08817 ; perimeter
G1 X108.668 Y95.464 E0.08817 ; perimeter
G1 X109.170 Y96.532 E0.08817 ; perimeter
G1 X109.803 Y97.529 E0.08817 ; perimeter
G1 X110.555 Y98.438 E0.08817 ; perimeter
G1 X111.416 Y99.246 E0.08817 ; perimeter
G1 X112.371 Y99.940 E0.08817 ; perimeter
G1 X113.406 Y100.509 E0.08817 ; perimeter
G1 X114.503 Y100.944 E0.08817 ; perimeter
G1 X115.647 Y101.237 E0.08818 ; perimeter
G1 X116.959 Y101.403 E0.09878 ; perimeter
G1 X119.088 Y101.403 E0.15903 ; perimeter
G1 X119.088 Y102.603 E0.08962 ; perimeter
G1 X106.088 Y102.603 E0.97091 ; perimeter
G1 X106.088 Y104.978 E0.17737 ; perimeter
G1 X106.004 Y105.649 E0.05050 ; perimeter
G1 X105.764 Y106.254 E0.04861 ; perimeter
G1 X105.381 Y106.781 E0.04864 ; perimeter
G1 X104.879 Y107.195 E0.04862 ; perimeter
G1 X104.291 Y107.473 E0.04859 ; perimeter
G1 X103.638 Y107.597 E0.04959 ; perimeter
G1 X82.904 Y107.597 E1.54855 ; perimeter
G1 X82.852 Y107.046 E0.04130 ; perimeter
G1 X84.076 Y106.813 E0.09308 ; perimeter
G1 X84.508 Y106.610 E0.03563 ; perimeter
G1 X84.876 Y106.306 E0.03563 ; perimeter
G1 X85.156 Y105.920 E0.03563 ; perimeter
G1 X85.332 Y105.476 E0.03563 ; perimeter
G1 X85.391 Y105.003 E0.03563 ; perimeter
G1 X85.332 Y104.530 E0.03563 ; perimeter
G1 X85.156 Y104.086 E0.03563 ; perimeter
G1 X84.876 Y103.700 E0.03563 ; perimeter
G1 X84.508 Y103.396 E0.03563 ; perimeter
G1 X84.076 Y103.193 E0.03563 ; perimeter
G1 X83.608 Y103.104 E0.03563 ; perimeter
G1 X83.132 Y103.134 E0.03563 ; perimeter
G1 X82.678 Y103.281 E0.03563 ; perimeter
G1 X82.275 Y103.536 E0.03563 ; perimeter
G1 X82.109 Y103.714 E0.01816 ; perimeter
G1 X82.042 Y103.714 E0.00496 ; perimeter
G1 X81.719 Y104.302 E0.05017 ; perimeter
G1 X81.403 Y105.533 E0.09487 ; perimeter
G1 X80.912 Y105.471 E0.03693 ; perimeter
G1 X80.912 Y94.535 E0.81672 ; perimeter
G1 X81.403 Y94.473 E0.03693 ; perimeter
G1 X81.719 Y95.704 E0.09487 ; perimeter
G1 X81.948 Y96.122 E0.03563 ; perimeter
G1 X82.275 Y96.469 E0.03563 ; perimeter
G1 X82.678 Y96.725 E0.03563 ; perimeter
G1 X83.132 Y96.872 E0.03563 ; perimeter
G1 X83.608 Y96.902 E0.03563 ; perimeter
G1 X84.076 Y96.813 E0.03563 ; perimeter
G1 X84.508 Y96.610 E0.03563 ; perimeter
G1 X84.876 Y96.306 E0.03563 ; perimeter
G1 X85.156 Y95.920 E0.03563 ; perimeter
G1 X85.332 Y95.476 E0.03563 ; perimeter
G1 X85.391 Y95.003 E0.03563 ; perimeter
G1 X85.332 Y94.530 E0.03563 ; perimeter
G1 X85.156 Y94.086 E0.03563 ; perimeter
G1 X84.876 Y93.700 E0.03563 ; perimeter
G1 X84.508 Y93.396 E0.03563 ; perimeter
G1 X84.076 Y93.193 E0.03563 ; perimeter
G1 X82.852 Y92.959 E0.09308 ; perimeter
G1 X82.894 Y92.521 E0.03291 ; perimeter
G1 X83.540 Y92.803 F6000.000 ; move inwards before travel
G1 X85.406 Y93.157 F6000.000 ; move to first perimeter point
G1 X107.314 Y93.151 E1.63616 F900.000 ; perimeter
G1 X107.576 Y94.527 E0.10461 ; perimeter
G1 X107.970 Y95.740 E0.09520 ; perimeter
G1 X108.513 Y96.893 E0.09520 ; perimeter
G1 X109.196 Y97.969 E0.09521 ; perimeter
G1 X110.009 Y98.952 E0.09521 ; perimeter
G1 X110.938 Y99.824 E0.09520 ; perimeter
G1 X111.969 Y100.574 E0.09521 ; perimeter
G1 X113.785 Y101.572 E0.15476 ; perimeter
G1 X113.713 Y101.854 E0.02179 ; perimeter
G1 X105.340 Y101.854 E0.62533 ; perimeter
G1 X105.340 Y104.931 E0.22976 ; perimeter
G1 X105.273 Y105.461 E0.03991 ; perimeter
G1 X105.103 Y105.890 E0.03449 ; perimeter
G1 X104.831 Y106.264 E0.03451 ; perimeter
G1 X104.475 Y106.558 E0.03449 ; perimeter
G1 X104.057 Y106.755 E0.03449 ; perimeter
G1 X103.568 Y106.848 E0.03724 ; perimeter
G1 X85.406 Y106.848 E1.35637 ; perimeter
G1 X85.817 Y106.283 E0.05218 ; perimeter
G1 X86.062 Y105.664 E0.04975 ; perimeter
G1 X86.146 Y105.003 E0.04975 ; perimeter
G1 X86.062 Y104.342 E0.04975 ; perimeter
G1 X85.817 Y103.723 E0.04976 ; perimeter
G1 X85.426 Y103.184 E0.04975 ; perimeter
G1 X84.912 Y102.759 E0.04975 ; perimeter
G1 X84.309 Y102.475 E0.04976 ; perimeter
G1 X83.655 Y102.351 E0.04975 ; perimeter
G1 X82.990 Y102.392 E0.04975 ; perimeter
G1 X82.357 Y102.598 E0.04975 ; perimeter
G1 X81.661 Y103.040 E0.06156 ; perimeter
G1 X81.661 Y96.966 E0.45362 ; perimeter
G1 X82.357 Y97.408 E0.06156 ; perimeter
G1 X82.990 Y97.613 E0.04975 ; perimeter
G1 X83.655 Y97.655 E0.04975 ; perimeter
G1 X84.309 Y97.530 E0.04975 ; perimeter
G1 X84.912 Y97.247 E0.04975 ; perimeter
G1 X85.425 Y96.822 E0.04976 ; perimeter
G1 X85.817 Y96.283 E0.04975 ; perimeter
G1 X86.062 Y95.664 E0.04975 ; perimeter
G1 X86.146 Y95.003 E0.04975 ; perimeter
G1 X86.062 Y94.342 E0.04976 ; perimeter
G1 X85.817 Y93.723 E0.04975 ; perimeter
G1 X85.472 Y93.248 E0.04379 ; perimeter
G1 F1800.000 E-2.40000 ; retract
G1 X93.088 Y95.603 F6000.000 ; move to first perimeter point
G1 E2.40000 F1800.000 ; compensate retraction
G1 X102.388 Y95.603 E0.69457 F780.000 ; perimeter
G1 X102.388 Y104.403 E0.65723 ; perimeter
G1 X93.088 Y104.403 E0.69457 ; perimeter
G1 X93.088 Y95.715 E0.64884 ; perimeter
G1 X93.088 Y94.854 F6000.000 ; move inwards before travel
G1 X92.340 Y94.854 F6000.000 ; move to first perimeter point
G1 X103.137 Y94.854 E0.80638 F900.000 ; perimeter
G1 X103.137 Y105.151 E0.76903 ; perimeter
G1 X92.340 Y105.151 E0.80638 ; perimeter
G1 X92.340 Y94.967 E0.76065 ; perimeter
G1 F1800.000 E-2.40000 ; retract
G1 X81.952 Y105.242 F6000.000 ; move to first perimeter point
G1 E2.40000 F1800.000 ; compensate retraction
G1 X82.047 Y106.361 E0.08390 F900.000 ; perimeter
G1 X82.990 Y106.465 E0.07087 ; perimeter
G1 F1800.000 E-2.40000 ; retract
G1 X80.780 Y94.030 F6000.000 ; move to first perimeter point
G1 E2.40000 F1800.000 ; compensate retraction
G1 X81.792 Y93.400 E0.08901 F900.000 ; perimeter
G1 X82.408 Y92.364 E0.09002 ; perimeter
G1 F1800.000 E-2.40000 ; retract
G1 X82.193 Y98.800 F6000.000 ; move to first fill point
G1 E2.40000 F1800.000 ; compensate retraction
G1 X89.709 Y106.316 E0.82677 F900.000 ; fill
G1 X90.812 Y106.316 E0.08575 ; fill
G1 X82.515 Y98.019 E0.91267 ; fill
G1 X83.773 Y98.175 E0.09863 ; fill
G1 X91.433 Y105.835 E0.84258 ; fill
G1 X91.694 Y104.993 E0.06853 ; fill
G1 X84.657 Y97.956 E0.77412 ; fill
G1 X85.366 Y97.563 E0.06308 ; fill
G1 X91.807 Y104.004 E0.70855 ; fill
G1 X91.807 Y102.901 E0.08575 ; fill
G1 X85.934 Y97.028 E0.64605 ; fill
G1 X86.362 Y96.354 E0.06214 ; fill
G1 X91.807 Y101.799 E0.59898 ; fill
G1 X91.807 Y100.697 E0.08575 ; fill
G1 X86.619 Y95.508 E0.57072 ; fill
G1 X86.606 Y94.393 E0.08679 ; fill
G1 X91.807 Y99.594 E0.57218 ; fill
G1 X91.807 Y98.492 E0.08575 ; fill
G1 X87.005 Y93.689 E0.52826 ; fill
G1 X88.107 Y93.689 E0.08572 ; fill
G1 X91.807 Y97.389 E0.40704 ; fill
G1 X91.807 Y96.287 E0.08575 ; fill
G1 X89.209 Y93.688 E0.28581 ; fill
G1 X90.311 Y93.688 E0.08572 ; fill
G1 X91.807 Y95.184 E0.16459 ; fill
G1 X91.433 Y93.708 E0.11850 ; fill
G1 X91.413 Y93.688 E0.00220 ; fill
G1 F1800.000 E-2.40000 ; retract
G1 X84.204 Y101.913 F6000.000 ; move to first fill point
G1 E2.40000 F1800.000 ; compensate retraction
G1 X82.193 Y99.902 E0.22117 F900.000 ; fill
G1 X82.193 Y101.005 E0.08575 ; fill
G1 X83.044 Y101.855 E0.09355 ; fill
G1 F1800.000 E-2.40000 ; retract
G1 X86.594 Y104.303 F6000.000 ; move to first fill point
G1 E2.40000 F1800.000 ; compensate retraction
G1 X88.607 Y106.316 E0.22137 F900.000 ; fill
G1 X87.504 Y106.316 E0.08575 ; fill
G1 X86.628 Y105.439 E0.09643 ; fill
G1 X86.384 Y106.298 E0.06945 ; fill
G1 X86.402 Y106.316 E0.00195 ; fill
G1 F1800.000 E-2.40000 ; retract
G1 X92.355 Y106.064 F6000.000 ; move to first fill point
G1 E2.40000 F1800.000 ; compensate retraction
G1 X93.300 Y105.916 E0.07372 F300.000 ; fill
G1 X93.468 Y106.084 E0.01838 F300.000 ; fill
G1 X94.393 Y105.916 E0.07246 F300.000 ; fill
G1 X94.561 Y106.084 E0.01838 F300.000 ; fill
G1 X95.486 Y105.916 E0.07246 F300.000 ; fill
G1 X95.654 Y106.084 E0.01838 F300.000 ; fill
G1 X96.579 Y105.916 E0.07246 F300.000 ; fill
G1 X96.747 Y106.084 E0.01838 F300.000 ; fill
G1 X97.672 Y105.916 E0.07246 F300.000 ; fill
G1 X97.840 Y106.084 E0.01838 F300.000 ; fill
G1 X98.765 Y105.916 E0.07246 F300.000 ; fill
G1 X98.933 Y106.084 E0.01838 F300.000 ; fill
G1 X99.857 Y105.916 E0.07246 F300.000 ; fill
G1 X100.026 Y106.084 E0.01838 F300.000 ; fill
G1 X100.950 Y105.916 E0.07246 F300.000 ; fill
G1 X101.119 Y106.084 E0.01838 F300.000 ; fill
G1 X102.043 Y105.916 E0.07246 F300.000 ; fill
G1 X102.212 Y106.084 E0.01838 F300.000 ; fill
G1 X103.136 Y105.916 E0.07246 F300.000 ; fill
G1 X103.305 Y106.084 E0.01838 F300.000 ; fill
G1 X103.901 Y105.587 E0.05984 F300.000 ; fill
G1 X104.150 Y105.836 E0.02712 F300.000 ; fill
G1 X104.543 Y105.137 E0.06188 F300.000 ; fill
G1 X103.901 Y104.494 E0.07007 F300.000 ; fill
G1 X104.575 Y104.076 E0.06121 F300.000 ; fill
G1 X103.901 Y103.402 E0.07356 F300.000 ; fill
G1 X104.575 Y102.983 E0.06121 F300.000 ; fill
G1 X103.901 Y102.309 E0.07356 F300.000 ; fill
G1 X104.555 Y101.870 E0.06075 F300.000 ; fill
G1 X104.575 Y101.890 E0.00218 F300.000 ; fill
G1 F1800.000 E-2.40000 ; retract
G1 X103.121 Y93.936 F6000.000 ; move to first fill point
G1 E2.40000 F1800.000 ; compensate retraction
G1 X103.101 Y93.916 E0.00217 F300.000 ; fill
G1 X102.185 Y94.090 E0.07167 F300.000 ; fill
G1 X102.011 Y93.916 E0.01898 F300.000 ; fill
G1 X101.095 Y94.090 E0.07167 F300.000 ; fill
G1 X100.921 Y93.916 E0.01898 F300.000 ; fill
G1 X100.005 Y94.090 E0.07167 F300.000 ; fill
G1 X99.837 Y93.922 E0.01833 F300.000 ; fill
G1 X98.915 Y94.090 E0.07204 F300.000 ; fill
G1 X98.747 Y93.922 E0.01833 F300.000 ; fill
G1 X97.825 Y94.090 E0.07204 F300.000 ; fill
G1 X97.657 Y93.922 E0.01833 F300.000 ; fill
G1 X96.735 Y94.090 E0.07204 F300.000 ; fill
G1 X96.567 Y93.922 E0.01833 F300.000 ; fill
G1 X95.645 Y94.090 E0.07204 F300.000 ; fill
G1 X95.477 Y93.922 E0.01833 F300.000 ; fill
G1 X94.555 Y94.090 E0.07204 F300.000 ; fill
G1 X94.387 Y93.922 E0.01833 F300.000 ; fill
G1 X93.465 Y94.090 E0.07204 F300.000 ; fill
G1 X93.297 Y93.922 E0.01833 F300.000 ; fill
G1 X92.355 Y94.070 E0.07330 F300.000 ; fill
G1 X92.375 Y94.090 E0.00218 F300.000 ; fill
G1 F1800.000 E-2.40000 ; retract
G1 X92.355 Y106.064 F6000.000 ; move to first fill point
G1 E2.40000 F1800.000 ; compensate retraction
G1 X92.375 Y106.084 E0.00218 F300.000 ; fill
G1 F1800.000 E-2.40000 ; retract
G1 X114.510 Y101.820 F6000.000 ; move to first fill point
G1 E2.40000 F1800.000 ; compensate retraction
G1 X114.528 Y101.839 E0.00192 F300.000 ; fill
G1 X116.067 Y102.060 F6000.000 ; move to first fill point
G1 X116.389 Y101.859 E0.01395 F300.000 ; fill
G1 X116.608 Y102.079 E0.01142 F300.000 ; fill
G1 X116.979 Y101.927 E0.01473 F300.000 ; fill
G1 X117.130 Y102.079 E0.00789 F300.000 ; fill
G1 X117.500 Y101.927 E0.01473 F300.000 ; fill
G1 X117.652 Y102.079 E0.00789 F300.000 ; fill
G1 X118.022 Y101.927 E0.01473 F300.000 ; fill
G1 X118.174 Y102.079 E0.00789 F300.000 ; fill
G1 X118.544 Y101.927 E0.01473 F300.000 ; fill
G1 X118.564 Y101.947 E0.00104 F300.000 ; fill
G1 F1800.000 E-2.40000 ; retract
G1 X116.086 Y102.079 F6000.000 ; move to first fill point
G1 E2.40000 F1800.000 ; compensate retraction
G1 X116.067 Y102.060 E0.00099 F300.000 ; fill
G1 F1800.000 E-2.40000 ; retract
G1 X108.118 Y97.264 F6000.000 ; move to first fill point
G1 E2.40000 F1800.000 ; compensate retraction
G1 X104.537 Y93.684 E0.41398 F900.000 ; fill
G1 X104.044 Y94.349 E0.06772 ; fill
G1 X111.016 Y101.322 E0.80623 ; fill
G1 X109.858 Y101.322 E0.09474 ; fill
G1 X103.669 Y95.134 E0.71551 ; fill
G1 X103.669 Y96.292 E0.09474 ; fill
G1 X108.699 Y101.322 E0.58153 ; fill
G1 X107.540 Y101.322 E0.09474 ; fill
G1 X103.669 Y97.451 E0.44754 ; fill
G1 X103.669 Y98.610 E0.09474 ; fill
G1 X106.381 Y101.322 E0.31356 ; fill
G1 X104.848 Y100.948 E0.12902 ; fill
G1 X103.669 Y99.769 E0.13630 ; fill
G1 X103.669 Y100.928 E0.09474 ; fill
G1 X103.689 Y100.948 E0.00231 ; fill
G1 F1800.000 E-2.40000 ; retract
G1 X107.246 Y95.234 F6000.000 ; move to first fill point
G1 E2.40000 F1800.000 ; compensate retraction
G1 X105.696 Y93.684 E0.17917 F900.000 ; fill
G1 X106.855 Y93.684 E0.09474 ; fill
G1 X106.878 Y93.707 E0.00261 ; fill
M104 S190 ; set temperature
G1 F1800.000 E-2.40000 ; retract
G1 Z0.480 F6000.000 ; move to next layer (1)
G1 X108.231 Y93.162 F6000.000 ; move to first perimeter point
G1 E2.40000 F1800.000 ; compensate retraction
G1 X108.448 Y94.303 E0.05796 F1800 ; perimeter
G1 X108.807 Y95.408 E0.05796 ; perimeter
G1 X109.302 Y96.459 E0.05796 ; perimeter
G1 X109.924 Y97.440 E0.05796 ; perimeter
G1 X110.665 Y98.335 E0.05796 ; perimeter
G1 X111.512 Y99.131 E0.05796 ; perimeter
G1 X112.452 Y99.813 E0.05796 ; perimeter
G1 X113.470 Y100.373 E0.05795 ; perimeter
G1 X114.550 Y100.801 E0.05795 ; perimeter
G1 X115.675 Y101.090 E0.05796 ; perimeter
G1 X116.827 Y101.235 E0.05796 ; perimeter
G1 X117.158 Y101.235 E0.01650 ; perimeter
G1 X117.158 Y101.253 E0.00089 ; perimeter
G1 X119.238 Y101.253 E0.10377 ; perimeter
G1 X119.238 Y102.753 E0.07484 ; perimeter
