; generated by Slic3r 1.1.6 on 2014-12-21 at 23:16:40

; perimeters extrusion width = 0.50mm
; infill extrusion width = 0.50mm
; solid infill extrusion width = 0.50mm
; top infill extrusion width = 0.50mm

G21 ; set units to millimeters
M107 ; disable fan
M190 S57 ; wait for bed temperature to be reached
M104 S200 ; set temperature

M109 S200 ; wait for temperature to be reached
G90 ; use absolute coordinates
M83 ; use relative distances for extrusion
G1 F1800.000 E-4.00000 ; retract
G1 Z0.240 F6000.000 ; move to next layer (0)
G1 X70.782 Y71.960 F6000.000 ; move to first skirt point
G1 E4.00000 F1800.000 ; compensate retraction
G1 X72.150 Y70.602 E0.11516 F600.000 ; skirt
G1 X73.580 Y69.310 E0.11516 ; skirt
G1 X75.070 Y68.088 E0.11516 ; skirt
G1 X76.617 Y66.938 E0.11516 ; skirt
G1 X78.217 Y65.862 E0.11516 ; skirt
G1 X79.866 Y64.865 E0.11516 ; skirt
G1 X81.560 Y63.946 E0.11516 ; skirt
G1 X83.297 Y63.110 E0.11516 ; skirt
G1 X85.071 Y62.357 E0.11516 ; skirt
G1 X86.879 Y61.689 E0.11516 ; skirt
G1 X88.717 Y61.108 E0.11516 ; skirt
G1 X90.580 Y60.615 E0.11516 ; skirt
G1 X92.465 Y60.212 E0.11516 ; skirt
G1 X94.366 Y59.898 E0.11516 ; skirt
G1 X96.281 Y59.675 E0.11516 ; skirt
G1 X98.204 Y59.544 E0.11516 ; skirt
G1 X99.803 Y59.506 E0.09555 ; skirt
G1 X102.058 Y59.557 E0.13476 ; skirt
G1 X103.980 Y59.700 E0.11516 ; skirt
G1 X105.893 Y59.935 E0.11516 ; skirt
G1 X107.792 Y60.261 E0.11516 ; skirt
G1 X109.674 Y60.677 E0.11516 ; skirt
G1 X111.534 Y61.182 E0.11516 ; skirt
G1 X113.368 Y61.775 E0.11516 ; skirt
G1 X115.172 Y62.454 E0.11516 ; skirt
G1 X116.941 Y63.218 E0.11516 ; skirt
G1 X118.672 Y64.066 E0.11516 ; skirt
G1 X120.361 Y64.995 E0.11516 ; skirt
G1 X122.004 Y66.004 E0.11516 ; skirt
G1 X123.596 Y67.089 E0.11516 ; skirt
G1 X125.135 Y68.249 E0.11516 ; skirt
G1 X126.618 Y69.481 E0.11516 ; skirt
G1 X128.040 Y70.782 E0.11516 ; skirt
G1 X129.398 Y72.150 E0.11516 ; skirt
G1 X130.690 Y73.580 E0.11516 ; skirt
G1 X131.912 Y75.070 E0.11516 ; skirt
G1 X133.062 Y76.617 E0.11516 ; skirt
G1 X134.138 Y78.217 E0.11516 ; skirt
G1 X135.135 Y79.866 E0.11516 ; skirt
G1 X136.054 Y81.560 E0.11516 ; skirt
G1 X136.890 Y83.297 E0.11516 ; skirt
G1 X137.643 Y85.071 E0.11516 ; skirt
G1 X138.311 Y86.879 E0.11516 ; skirt
G1 X138.892 Y88.717 E0.11516 ; skirt
G1 X139.385 Y90.580 E0.11516 ; skirt
G1 X139.788 Y92.465 E0.11516 ; skirt
G1 X140.102 Y94.366 E0.11516 ; skirt
G1 X140.324 Y96.281 E0.11516 ; skirt
G1 X140.456 Y98.204 E0.11516 ; skirt
G1 X140.495 Y100.131 E0.11516 ; skirt
G1 X140.443 Y102.058 E0.11516 ; skirt
G1 X140.300 Y103.980 E0.11516 ; skirt
G1 X140.065 Y105.893 E0.11516 ; skirt
G1 X139.739 Y107.792 E0.11516 ; skirt
G1 X139.323 Y109.674 E0.11516 ; skirt
G1 X138.818 Y111.534 E0.11516 ; skirt
G1 X138.225 Y113.368 E0.11516 ; skirt
G1 X137.667 Y114.867 E0.09555 ; skirt
G1 X136.782 Y116.941 E0.13476 ; skirt
G1 X135.934 Y118.672 E0.11516 ; skirt
G1 X135.005 Y120.361 E0.11516 ; skirt
G1 X133.996 Y122.004 E0.11516 ; skirt
G1 X132.911 Y123.596 E0.11516 ; skirt
G1 X131.751 Y125.135 E0.11516 ; skirt
G1 X130.519 Y126.618 E0.11516 ; skirt
G1 X129.218 Y128.040 E0.11516 ; skirt
G1 X127.850 Y129.398 E0.11516 ; skirt
G1 X126.420 Y130.690 E0.11516 ; skirt
G1 X124.930 Y131.912 E0.11516 ; skirt
G1 X123.383 Y133.062 E0.11516 ; skirt
G1 X121.783 Y134.138 E0.11516 ; skirt
G1 X120.134 Y135.135 E0.11516 ; skirt
G1 X118.440 Y136.054 E0.11516 ; skirt
G1 X116.703 Y136.890 E0.11516 ; skirt
G1 X114.929 Y137.643 E0.11516 ; skirt
G1 X113.121 Y138.311 E0.11516 ; skirt
G1 X111.283 Y138.892 E0.11516 ; skirt
G1 X109.420 Y139.385 E0.11516 ; skirt
G1 X107.535 Y139.788 E0.11516 ; skirt
G1 X105.634 Y140.102 E0.11516 ; skirt
G1 X103.719 Y140.325 E0.11516 ; skirt
G1 X101.796 Y140.456 E0.11516 ; skirt
G1 X99.869 Y140.495 E0.11516 ; skirt
G1 X97.942 Y140.443 E0.11516 ; skirt
G1 X96.020 Y140.300 E0.11516 ; skirt
G1 X94.107 Y140.065 E0.11516 ; skirt
G1 X92.208 Y139.739 E0.11516 ; skirt
G1 X90.326 Y139.323 E0.11516 ; skirt
G1 X88.466 Y138.818 E0.11516 ; skirt
G1 X86.632 Y138.225 E0.11516 ; skirt
G1 X84.828 Y137.546 E0.11516 ; skirt
G1 X83.059 Y136.782 E0.11516 ; skirt
G1 X81.328 Y135.934 E0.11516 ; skirt
G1 X79.639 Y135.005 E0.11516 ; skirt
G1 X77.996 Y133.996 E0.11516 ; skirt
G1 X76.404 Y132.911 E0.11516 ; skirt
G1 X74.865 Y131.751 E0.11516 ; skirt
G1 X73.382 Y130.519 E0.11516 ; skirt
G1 X71.960 Y129.218 E0.11516 ; skirt
G1 X70.602 Y127.850 E0.11516 ; skirt
G1 X69.310 Y126.420 E0.11516 ; skirt
G1 X68.088 Y124.930 E0.11516 ; skirt
G1 X66.938 Y123.383 E0.11516 ; skirt
G1 X65.862 Y121.783 E0.11516 ; skirt
G1 X64.865 Y120.134 E0.11516 ; skirt
G1 X63.946 Y118.440 E0.11516 ; skirt
G1 X63.110 Y116.703 E0.11516 ; skirt
G1 X62.357 Y114.929 E0.11516 ; skirt
G1 X61.689 Y113.121 E0.11516 ; skirt
G1 X61.108 Y111.283 E0.11516 ; skirt
G1 X60.615 Y109.420 E0.11516 ; skirt
G1 X60.212 Y107.535 E0.11516 ; skirt
G1 X59.898 Y105.634 E0.11516 ; skirt
G1 X59.676 Y103.719 E0.11516 ; skirt
G1 X59.544 Y101.796 E0.11516 ; skirt
G1 X59.506 Y100.197 E0.09555 ; skirt
G1 X59.557 Y97.942 E0.13476 ; skirt
G1 X59.700 Y96.020 E0.11516 ; skirt
G1 X59.935 Y94.107 E0.11516 ; skirt
G1 X60.261 Y92.208 E0.11516 ; skirt
G1 X60.677 Y90.326 E0.11516 ; skirt
G1 X61.182 Y88.466 E0.11516 ; skirt
G1 X61.775 Y86.632 E0.11516 ; skirt
G1 X62.454 Y84.828 E0.11516 ; skirt
G1 X63.218 Y83.059 E0.11516 ; skirt
G1 X64.066 Y81.328 E0.11516 ; skirt
G1 X64.995 Y79.639 E0.11516 ; skirt
G1 X66.004 Y77.996 E0.11516 ; skirt
G1 X67.089 Y76.404 E0.11516 ; skirt
G1 X68.249 Y74.865 E0.11516 ; skirt
G1 X69.481 Y73.382 E0.11516 ; skirt
G1 X70.731 Y72.015 E0.11068 ; skirt
G1 X71.312 Y72.490 F6000.000 ; move to first skirt point
G1 X72.653 Y71.156 E0.11303 F600.000 ; skirt
G1 X74.057 Y69.887 E0.11303 ; skirt
G1 X75.519 Y68.687 E0.11303 ; skirt
G1 X77.036 Y67.557 E0.11303 ; skirt
G1 X78.606 Y66.501 E0.11303 ; skirt
G1 X80.224 Y65.521 E0.11303 ; skirt
G1 X81.887 Y64.620 E0.11303 ; skirt
G1 X83.591 Y63.798 E0.11303 ; skirt
G1 X85.332 Y63.058 E0.11303 ; skirt
G1 X87.107 Y62.402 E0.11303 ; skirt
G1 X88.910 Y61.831 E0.11303 ; skirt
G1 X90.739 Y61.347 E0.11303 ; skirt
G1 X92.589 Y60.950 E0.11303 ; skirt
G1 X94.455 Y60.641 E0.11303 ; skirt
G1 X96.334 Y60.422 E0.11303 ; skirt
G1 X98.222 Y60.292 E0.11303 ; skirt
G1 X99.820 Y60.254 E0.09555 ; skirt
G1 X102.004 Y60.303 E0.13050 ; skirt
G1 X103.891 Y60.444 E0.11303 ; skirt
G1 X105.768 Y60.673 E0.11303 ; skirt
G1 X107.633 Y60.993 E0.11303 ; skirt
G1 X109.481 Y61.400 E0.11303 ; skirt
G1 X111.306 Y61.895 E0.11303 ; skirt
G1 X113.107 Y62.476 E0.11303 ; skirt
G1 X114.877 Y63.142 E0.11303 ; skirt
G1 X116.614 Y63.892 E0.11303 ; skirt
G1 X118.314 Y64.723 E0.11303 ; skirt
G1 X119.971 Y65.634 E0.11303 ; skirt
G1 X121.584 Y66.624 E0.11303 ; skirt
G1 X123.148 Y67.688 E0.11303 ; skirt
G1 X124.659 Y68.826 E0.11303 ; skirt
G1 X126.114 Y70.035 E0.11303 ; skirt
G1 X127.510 Y71.312 E0.11303 ; skirt
G1 X128.844 Y72.653 E0.11303 ; skirt
G1 X130.113 Y74.057 E0.11303 ; skirt
G1 X131.313 Y75.519 E0.11303 ; skirt
G1 X132.443 Y77.036 E0.11303 ; skirt
G1 X133.499 Y78.606 E0.11303 ; skirt
G1 X134.479 Y80.224 E0.11303 ; skirt
G1 X135.380 Y81.887 E0.11303 ; skirt
G1 X136.202 Y83.591 E0.11303 ; skirt
G1 X136.942 Y85.332 E0.11303 ; skirt
G1 X137.598 Y87.107 E0.11303 ; skirt
G1 X138.169 Y88.910 E0.11303 ; skirt
G1 X138.653 Y90.739 E0.11303 ; skirt
G1 X139.050 Y92.589 E0.11303 ; skirt
G1 X139.359 Y94.455 E0.11303 ; skirt
G1 X139.578 Y96.334 E0.11303 ; skirt
G1 X139.708 Y98.222 E0.11303 ; skirt
G1 X139.747 Y100.113 E0.11303 ; skirt
G1 X139.697 Y102.004 E0.11303 ; skirt
G1 X139.556 Y103.891 E0.11303 ; skirt
G1 X139.326 Y105.768 E0.11303 ; skirt
G1 X139.007 Y107.633 E0.11303 ; skirt
G1 X138.600 Y109.481 E0.11303 ; skirt
G1 X138.105 Y111.306 E0.11303 ; skirt
G1 X137.524 Y113.107 E0.11303 ; skirt
G1 X136.965 Y114.605 E0.09555 ; skirt
G1 X136.108 Y116.614 E0.13051 ; skirt
G1 X135.277 Y118.314 E0.11303 ; skirt
G1 X134.366 Y119.971 E0.11303 ; skirt
G1 X133.376 Y121.584 E0.11303 ; skirt
G1 X132.312 Y123.148 E0.11303 ; skirt
G1 X131.174 Y124.659 E0.11303 ; skirt
G1 X129.965 Y126.114 E0.11303 ; skirt
G1 X128.688 Y127.510 E0.11303 ; skirt
G1 X127.347 Y128.844 E0.11303 ; skirt
G1 X125.943 Y130.113 E0.11303 ; skirt
G1 X124.481 Y131.313 E0.11303 ; skirt
G1 X122.964 Y132.443 E0.11303 ; skirt
G1 X121.394 Y133.499 E0.11303 ; skirt
G1 X119.776 Y134.479 E0.11303 ; skirt
G1 X118.113 Y135.380 E0.11303 ; skirt
G1 X116.409 Y136.202 E0.11303 ; skirt
G1 X114.668 Y136.942 E0.11303 ; skirt
G1 X112.893 Y137.598 E0.11303 ; skirt
G1 X111.090 Y138.169 E0.11303 ; skirt
G1 X109.261 Y138.653 E0.11303 ; skirt
G1 X107.411 Y139.050 E0.11303 ; skirt
G1 X105.545 Y139.359 E0.11303 ; skirt
G1 X103.666 Y139.578 E0.11303 ; skirt
G1 X101.778 Y139.708 E0.11303 ; skirt
G1 X99.887 Y139.747 E0.11303 ; skirt
G1 X97.996 Y139.697 E0.11303 ; skirt
G1 X96.109 Y139.556 E0.11303 ; skirt
G1 X94.232 Y139.326 E0.11303 ; skirt
G1 X92.367 Y139.007 E0.11303 ; skirt
G1 X90.519 Y138.600 E0.11303 ; skirt
G1 X88.694 Y138.105 E0.11303 ; skirt
G1 X86.893 Y137.524 E0.11303 ; skirt
G1 X85.123 Y136.858 E0.11303 ; skirt
G1 X83.386 Y136.108 E0.11303 ; skirt
G1 X81.686 Y135.277 E0.11303 ; skirt
G1 X80.029 Y134.366 E0.11303 ; skirt
G1 X78.416 Y133.376 E0.11303 ; skirt
G1 X76.852 Y132.312 E0.11303 ; skirt
G1 X75.341 Y131.174 E0.11303 ; skirt
G1 X73.886 Y129.965 E0.11303 ; skirt
G1 X72.490 Y128.688 E0.11303 ; skirt
G1 X71.156 Y127.347 E0.11303 ; skirt
G1 X69.887 Y125.943 E0.11303 ; skirt
G1 X68.687 Y124.481 E0.11303 ; skirt
G1 X67.557 Y122.964 E0.11303 ; skirt
G1 X66.501 Y121.394 E0.11303 ; skirt
G1 X65.521 Y119.776 E0.11303 ; skirt
G1 X64.620 Y118.113 E0.11303 ; skirt
G1 X63.798 Y116.409 E0.11303 ; skirt
G1 X63.058 Y114.668 E0.11303 ; skirt
G1 X62.402 Y112.893 E0.11303 ; skirt
G1 X61.831 Y111.090 E0.11303 ; skirt
G1 X61.347 Y109.261 E0.11303 ; skirt
G1 X60.950 Y107.411 E0.11303 ; skirt
G1 X60.641 Y105.545 E0.11303 ; skirt
G1 X60.422 Y103.666 E0.11303 ; skirt
G1 X60.292 Y101.778 E0.11303 ; skirt
G1 X60.254 Y100.180 E0.09555 ; skirt
G1 X60.303 Y97.996 E0.13051 ; skirt
G1 X60.444 Y96.109 E0.11303 ; skirt
G1 X60.674 Y94.232 E0.11303 ; skirt
G1 X60.993 Y92.367 E0.11303 ; skirt
G1 X61.400 Y90.519 E0.11303 ; skirt
G1 X61.895 Y88.694 E0.11303 ; skirt
G1 X62.476 Y86.893 E0.11303 ; skirt
G1 X63.142 Y85.123 E0.11303 ; skirt
G1 X63.892 Y83.386 E0.11303 ; skirt
G1 X64.723 Y81.686 E0.11303 ; skirt
G1 X65.634 Y80.029 E0.11303 ; skirt
G1 X66.624 Y78.416 E0.11303 ; skirt
G1 X67.688 Y76.852 E0.11303 ; skirt
G1 X68.826 Y75.341 E0.11303 ; skirt
G1 X70.035 Y73.886 E0.11303 ; skirt
G1 X71.260 Y72.544 E0.10855 ; skirt
G1 F1800.000 E-4.00000 ; retract
G1 X123.877 Y125.041 F6000.000 ; move to first perimeter point
G1 E4.00000 F1800.000 ; compensate retraction
G1 X122.658 Y126.149 E0.09839 F900.000 ; perimeter
G1 X121.388 Y127.197 E0.09839 ; perimeter
G1 X120.070 Y128.184 E0.09839 ; perimeter
G1 X118.706 Y129.107 E0.09839 ; perimeter
G1 X117.300 Y129.964 E0.09839 ; perimeter
G1 X115.855 Y130.754 E0.09839 ; perimeter
G1 X114.373 Y131.473 E0.09839 ; perimeter
G1 X112.859 Y132.121 E0.09839 ; perimeter
G1 X111.317 Y132.697 E0.09839 ; perimeter
G1 X109.748 Y133.198 E0.09839 ; perimeter
G1 X108.157 Y133.625 E0.09839 ; perimeter
G1 X106.548 Y133.975 E0.09839 ; perimeter
G1 X104.924 Y134.248 E0.09839 ; perimeter
G1 X103.289 Y134.443 E0.09839 ; perimeter
G1 X101.646 Y134.561 E0.09839 ; perimeter
G1 X100.000 Y134.600 E0.09839 ; perimeter
G1 X98.411 Y134.562 E0.09498 ; perimeter
G1 X96.711 Y134.443 E0.10180 ; perimeter
G1 X95.076 Y134.248 E0.09839 ; perimeter
G1 X93.452 Y133.975 E0.09839 ; perimeter
G1 X91.843 Y133.625 E0.09839 ; perimeter
G1 X90.252 Y133.198 E0.09839 ; perimeter
G1 X88.683 Y132.697 E0.09839 ; perimeter
G1 X87.141 Y132.121 E0.09839 ; perimeter
G1 X85.627 Y131.473 E0.09839 ; perimeter
G1 X84.145 Y130.754 E0.09839 ; perimeter
G1 X82.700 Y129.964 E0.09839 ; perimeter
G1 X81.294 Y129.107 E0.09839 ; perimeter
G1 X79.930 Y128.184 E0.09839 ; perimeter
G1 X78.612 Y127.197 E0.09839 ; perimeter
G1 X77.342 Y126.149 E0.09839 ; perimeter
G1 X76.123 Y125.041 E0.09839 ; perimeter
G1 X74.959 Y123.877 E0.09839 ; perimeter
G1 X73.851 Y122.658 E0.09839 ; perimeter
G1 X72.803 Y121.388 E0.09839 ; perimeter
G1 X71.816 Y120.070 E0.09839 ; perimeter
G1 X70.893 Y118.706 E0.09839 ; perimeter
G1 X70.036 Y117.300 E0.09839 ; perimeter
G1 X69.246 Y115.855 E0.09839 ; perimeter
G1 X68.527 Y114.373 E0.09839 ; perimeter
G1 X67.879 Y112.859 E0.09839 ; perimeter
G1 X67.303 Y111.317 E0.09839 ; perimeter
G1 X66.802 Y109.748 E0.09839 ; perimeter
G1 X66.375 Y108.157 E0.09839 ; perimeter
G1 X66.025 Y106.548 E0.09839 ; perimeter
G1 X65.762 Y104.980 E0.09498 ; perimeter
G1 X65.557 Y103.289 E0.10180 ; perimeter
G1 X65.439 Y101.646 E0.09839 ; perimeter
G1 X65.400 Y100.000 E0.09839 ; perimeter
G1 X65.439 Y98.354 E0.09839 ; perimeter
G1 X65.557 Y96.711 E0.09839 ; perimeter
G1 X65.752 Y95.076 E0.09839 ; perimeter
G1 X66.025 Y93.452 E0.09839 ; perimeter
G1 X66.375 Y91.843 E0.09839 ; perimeter
G1 X66.802 Y90.252 E0.09839 ; perimeter
G1 X67.303 Y88.683 E0.09839 ; perimeter
G1 X67.879 Y87.141 E0.09839 ; perimeter
G1 X68.527 Y85.627 E0.09839 ; perimeter
G1 X69.246 Y84.145 E0.09839 ; perimeter
G1 X70.036 Y82.700 E0.09839 ; perimeter
G1 X70.893 Y81.294 E0.09839 ; perimeter
G1 X71.816 Y79.930 E0.09839 ; perimeter
G1 X72.803 Y78.612 E0.09839 ; perimeter
G1 X73.851 Y77.342 E0.09839 ; perimeter
G1 X74.959 Y76.123 E0.09839 ; perimeter
G1 X76.123 Y74.959 E0.09839 ; perimeter
G1 X77.342 Y73.851 E0.09839 ; perimeter
G1 X78.612 Y72.803 E0.09839 ; perimeter
G1 X79.930 Y71.816 E0.09839 ; perimeter
G1 X81.294 Y70.893 E0.09839 ; perimeter
G1 X82.700 Y70.036 E0.09839 ; perimeter
G1 X84.145 Y69.246 E0.09839 ; perimeter
G1 X85.627 Y68.527 E0.09839 ; perimeter
G1 X87.141 Y67.879 E0.09839 ; perimeter
G1 X88.683 Y67.303 E0.09839 ; perimeter
G1 X90.252 Y66.802 E0.09839 ; perimeter
G1 X91.843 Y66.375 E0.09839 ; perimeter
G1 X93.452 Y66.025 E0.09839 ; perimeter
G1 X95.020 Y65.762 E0.09498 ; perimeter
G1 X96.711 Y65.557 E0.10180 ; perimeter
G1 X98.354 Y65.439 E0.09839 ; perimeter
G1 X100.000 Y65.400 E0.09839 ; perimeter
G1 X101.646 Y65.439 E0.09839 ; perimeter
G1 X103.289 Y65.557 E0.09839 ; perimeter
G1 X104.924 Y65.752 E0.09839 ; perimeter
G1 X106.548 Y66.025 E0.09839 ; perimeter
G1 X108.157 Y66.375 E0.09839 ; perimeter
G1 X109.748 Y66.802 E0.09839 ; perimeter
G1 X111.317 Y67.303 E0.09839 ; perimeter
G1 X112.859 Y67.879 E0.09839 ; perimeter
G1 X114.373 Y68.527 E0.09839 ; perimeter
G1 X115.855 Y69.246 E0.09839 ; perimeter
G1 X117.300 Y70.036 E0.09839 ; perimeter
G1 X118.706 Y70.893 E0.09839 ; perimeter
G1 X120.070 Y71.816 E0.09839 ; perimeter
G1 X121.388 Y72.803 E0.09839 ; perimeter
G1 X122.658 Y73.851 E0.09839 ; perimeter
G1 X123.877 Y74.959 E0.09839 ; perimeter
G1 X125.041 Y76.123 E0.09839 ; perimeter
G1 X126.149 Y77.342 E0.09839 ; perimeter
G1 X127.197 Y78.612 E0.09839 ; perimeter
G1 X128.184 Y79.930 E0.09839 ; perimeter
G1 X129.107 Y81.294 E0.09839 ; perimeter
G1 X129.964 Y82.700 E0.09839 ; perimeter
G1 X130.754 Y84.145 E0.09839 ; perimeter
G1 X131.473 Y85.627 E0.09839 ; perimeter
G1 X132.121 Y87.141 E0.09839 ; perimeter
G1 X132.697 Y88.683 E0.09839 ; perimeter
G1 X133.198 Y90.252 E0.09839 ; perimeter
G1 X133.625 Y91.843 E0.09839 ; perimeter
G1 X133.975 Y93.452 E0.09839 ; perimeter
G1 X134.248 Y95.076 E0.09839 ; perimeter
G1 X134.443 Y96.711 E0.09839 ; perimeter
G1 X134.561 Y98.354 E0.09839 ; perimeter
G1 X134.600 Y100.000 E0.09839 ; perimeter
G1 X134.561 Y101.646 E0.09839 ; perimeter
G1 X134.443 Y103.289 E0.09839 ; perimeter
G1 X134.248 Y104.924 E0.09839 ; perimeter
G1 X133.975 Y106.548 E0.09839 ; perimeter
G1 X133.625 Y108.157 E0.09839 ; perimeter
G1 X133.198 Y109.748 E0.09839 ; perimeter
G1 X132.697 Y111.317 E0.09839 ; perimeter
G1 X132.121 Y112.859 E0.09839 ; perimeter
G1 X131.473 Y114.373 E0.09839 ; perimeter
G1 X130.754 Y115.855 E0.09839 ; perimeter
G1 X129.964 Y117.300 E0.09839 ; perimeter
G1 X129.107 Y118.706 E0.09839 ; perimeter
G1 X128.184 Y120.070 E0.09839 ; perimeter
G1 X127.197 Y121.388 E0.09839 ; perimeter
G1 X126.149 Y122.658 E0.09839 ; perimeter
