; generated by Slic3r 1.2.5 on 2015-02-02 at 23:34:14

; external perimeters extrusion width = 0.50mm
; perimeters extrusion width = 0.50mm
; infill extrusion width = 0.50mm
; solid infill extrusion width = 0.50mm
; top infill extrusion width = 0.50mm

M107 ; disable fan
M190 S57 ; set bed temperature
M104 S200 ; set temperature

M109 S200 ; wait for temperature to be reached
G21 ; set units to millimeters
G90 ; use absolute coordinates
M83 ; use relative distances for extrusion
G1 E-4.00000 F1800.00000 ; retract
G1 Z0.240 F6000.000 ; move to next layer (0)
G1 X68.040 Y71.173 F6000.000 ; move to first skirt point
G1 E4.00000 F1800.00000 ; unretract
G1 X73.328 Y66.235 E0.43231 F600.000 ; skirt
G1 X73.758 Y65.873 E0.03359 ; skirt
G1 X74.181 Y65.553 E0.03168 ; skirt
G1 X75.344 Y64.714 E0.08566 ; skirt
G1 X76.510 Y63.930 E0.08397 ; skirt
G1 X77.000 Y63.643 E0.03388 ; skirt
G1 X83.424 Y60.315 E0.43231 ; skirt
G1 X83.936 Y60.082 E0.03359 ; skirt
G1 X84.930 Y59.698 E0.06367 ; skirt
G1 X86.209 Y59.245 E0.08109 ; skirt
G1 X87.110 Y58.953 E0.05657 ; skirt
G1 X87.658 Y58.810 E0.03387 ; skirt
G1 X94.742 Y57.338 E0.43231 ; skirt
G1 X95.298 Y57.251 E0.03358 ; skirt
G1 X96.841 Y57.113 E0.09257 ; skirt
G1 X98.659 Y57.021 E0.10879 ; skirt
G1 X99.226 Y57.031 E0.03385 ; skirt
G1 X106.444 Y57.525 E0.43231 F600.000 ; skirt
G1 X107.002 Y57.592 E0.03359 ; skirt
G1 X108.051 Y57.781 E0.06367 ; skirt
G1 X109.380 Y58.058 E0.08112 ; skirt
G1 X110.301 Y58.277 E0.05652 ; skirt
G1 X110.844 Y58.439 E0.03388 ; skirt
G1 X117.662 Y60.862 E0.43231 ; skirt
G1 X118.181 Y61.077 E0.03356 ; skirt
G1 X119.572 Y61.760 E0.09259 ; skirt
G1 X121.172 Y62.627 E0.10874 ; skirt
G1 X121.652 Y62.929 E0.03389 ; skirt
G1 X127.563 Y67.102 E0.43231 ; skirt
G1 X128.005 Y67.449 E0.03359 ; skirt
G1 X129.159 Y68.482 E0.09257 ; skirt
G1 X130.468 Y69.749 E0.10878 ; skirt
G1 X130.847 Y70.169 E0.03384 ; skirt
G1 X135.413 Y75.782 E0.43231 ; skirt
G1 X135.745 Y76.235 E0.03356 ; skirt
G1 X136.540 Y77.480 E0.08824 ; skirt
G1 X137.294 Y78.756 E0.08854 ; skirt
G1 X137.748 Y79.621 E0.05842 ; skirt
G1 X140.631 Y86.258 E0.43231 ; skirt
G1 X140.828 Y86.784 E0.03359 ; skirt
G1 X141.143 Y87.802 E0.06366 ; skirt
G1 X141.508 Y89.110 E0.08113 ; skirt
G1 X141.737 Y90.028 E0.05652 ; skirt
G1 X141.843 Y90.585 E0.03388 ; skirt
G1 X142.829 Y97.753 E0.43231 ; skirt
G1 X142.877 Y98.313 E0.03359 ; skirt
G1 X142.909 Y99.860 E0.09244 ; skirt
G1 X142.877 Y101.682 E0.10886 ; skirt
G1 X142.829 Y102.247 E0.03389 ; skirt
G1 X141.843 Y109.415 E0.43231 ; skirt
G1 X141.738 Y109.967 E0.03359 ; skirt
G1 X141.352 Y111.468 E0.09257 ; skirt
G1 X140.830 Y113.211 E0.10872 ; skirt
G1 X140.631 Y113.742 E0.03390 ; skirt
G1 X137.748 Y120.379 E0.43231 ; skirt
G1 X137.498 Y120.882 E0.03359 ; skirt
G1 X136.722 Y122.223 E0.09256 ; skirt
G1 X135.748 Y123.760 E0.10874 ; skirt
G1 X135.413 Y124.218 E0.03389 ; skirt
G1 X130.847 Y129.831 E0.43231 ; skirt
G1 X130.471 Y130.248 E0.03356 ; skirt
G1 X129.414 Y131.279 E0.08824 ; skirt
G1 X128.318 Y132.277 E0.08855 ; skirt
G1 X127.563 Y132.898 E0.05841 ; skirt
G1 X121.652 Y137.071 E0.43231 ; skirt
G1 X121.177 Y137.371 E0.03355 ; skirt
G1 X120.244 Y137.886 E0.06371 ; skirt
G1 X119.038 Y138.509 E0.08109 ; skirt
G1 X118.185 Y138.921 E0.05657 ; skirt
G1 X117.662 Y139.138 E0.03387 ; skirt
G1 X110.844 Y141.561 E0.43231 ; skirt
G1 X110.305 Y141.722 E0.03359 ; skirt
G1 X108.796 Y142.069 E0.09256 ; skirt
G1 X107.006 Y142.408 E0.10884 ; skirt
G1 X106.444 Y142.475 E0.03378 ; skirt
G1 X99.226 Y142.969 E0.43231 ; skirt
G1 X98.664 Y142.979 E0.03355 ; skirt
G1 X97.116 Y142.906 E0.09260 ; skirt
G1 X95.303 Y142.749 E0.10873 ; skirt
G1 X94.742 Y142.662 E0.03389 ; skirt
G1 X87.658 Y141.190 E0.43231 ; skirt
G1 X87.114 Y141.048 E0.03359 ; skirt
G1 X85.644 Y140.560 E0.09256 ; skirt
G1 X83.940 Y139.920 E0.10873 ; skirt
G1 X83.424 Y139.685 E0.03389 ; skirt
G1 X77.000 Y136.357 E0.43231 ; skirt
G1 X76.515 Y136.073 E0.03356 ; skirt
G1 X75.289 Y135.248 E0.08826 ; skirt
G1 X74.090 Y134.378 E0.08853 ; skirt
G1 X73.328 Y133.765 E0.05842 ; skirt
G1 X68.040 Y128.827 E0.43231 ; skirt
G1 X67.650 Y128.423 E0.03355 ; skirt
G1 X66.956 Y127.614 E0.06371 ; skirt
G1 X66.100 Y126.560 E0.08113 ; skirt
G1 X65.523 Y125.809 E0.05655 ; skirt
G1 X65.204 Y125.341 E0.03385 ; skirt
G1 X61.445 Y119.159 E0.43231 ; skirt
G1 X61.178 Y118.664 E0.03359 ; skirt
G1 X60.531 Y117.256 E0.09257 ; skirt
G1 X59.836 Y115.574 E0.10874 ; skirt
G1 X59.655 Y115.037 E0.03389 ; skirt
G1 X57.703 Y108.070 E0.43231 ; skirt
G1 X57.579 Y107.521 E0.03359 ; skirt
G1 X57.335 Y105.991 E0.09256 ; skirt
G1 X57.120 Y104.184 E0.10877 ; skirt
G1 X57.091 Y103.618 E0.03386 ; skirt
G1 X57.091 Y96.382 E0.43231 ; skirt
G1 X57.119 Y95.821 E0.03358 ; skirt
G1 X57.298 Y94.282 E0.09258 ; skirt
G1 X57.578 Y92.484 E0.10873 ; skirt
G1 X57.703 Y91.930 E0.03389 ; skirt
G1 X59.655 Y84.963 E0.43231 ; skirt
G1 X59.834 Y84.430 E0.03359 ; skirt
G1 X60.421 Y82.996 E0.09257 ; skirt
G1 X61.176 Y81.341 E0.10873 ; skirt
G1 X61.445 Y80.841 E0.03389 ; skirt
G1 X65.204 Y74.659 E0.43231 ; skirt
G1 X65.520 Y74.195 E0.03356 ; skirt
G1 X66.473 Y72.972 E0.09260 ; skirt
G1 X67.377 Y71.891 E0.08419 ; skirt
G1 X67.988 Y71.227 E0.05393 ; skirt
G1 X68.526 Y71.747 F6000.000 ; move to first skirt point
G1 X73.839 Y66.782 E0.43448 F600.000 ; skirt
G1 X74.211 Y66.469 E0.02901 ; skirt
G1 X75.435 Y65.565 E0.09092 ; skirt
G1 X76.578 Y64.781 E0.08282 ; skirt
G1 X77.344 Y64.308 E0.05380 ; skirt
G1 X83.768 Y60.979 E0.43231 ; skirt
G1 X84.210 Y60.778 E0.02901 ; skirt
G1 X85.633 Y60.238 E0.09092 ; skirt
G1 X86.945 Y59.791 E0.08281 ; skirt
G1 X87.811 Y59.542 E0.05380 ; skirt
G1 X94.895 Y58.070 E0.43231 ; skirt
G1 X95.374 Y57.996 E0.02901 ; skirt
G1 X96.890 Y57.860 E0.09092 ; skirt
G1 X98.274 Y57.784 E0.08283 ; skirt
G1 X99.175 Y57.778 E0.05380 ; skirt
G1 X106.393 Y58.271 E0.43231 F600.000 ; skirt
G1 X106.875 Y58.329 E0.02901 ; skirt
G1 X108.371 Y58.607 E0.09092 ; skirt
G1 X109.725 Y58.907 E0.08281 ; skirt
G1 X110.593 Y59.144 E0.05381 ; skirt
G1 X117.411 Y61.567 E0.43231 ; skirt
G1 X117.859 Y61.753 E0.02899 ; skirt
G1 X119.225 Y62.424 E0.09094 ; skirt
G1 X120.447 Y63.078 E0.08282 ; skirt
G1 X121.220 Y63.541 E0.05380 ; skirt
G1 X127.131 Y67.713 E0.43231 ; skirt
G1 X127.513 Y68.013 E0.02901 ; skirt
G1 X128.647 Y69.028 E0.09092 ; skirt
G1 X129.647 Y69.988 E0.08282 ; skirt
G1 X130.267 Y70.642 E0.05380 ; skirt
G1 X134.833 Y76.254 E0.43231 ; skirt
G1 X135.119 Y76.646 E0.02899 ; skirt
G1 X135.905 Y77.875 E0.08718 ; skirt
G1 X136.642 Y79.123 E0.08657 ; skirt
G1 X137.062 Y79.920 E0.05380 ; skirt
G1 X139.944 Y86.556 E0.43231 ; skirt
G1 X140.115 Y87.011 E0.02902 ; skirt
G1 X140.424 Y88.012 E0.06261 ; skirt
G1 X140.785 Y89.304 E0.08014 ; skirt
G1 X141.010 Y90.206 E0.05554 ; skirt
G1 X141.102 Y90.687 E0.02927 ; skirt
G1 X142.087 Y97.855 E0.43231 ; skirt
G1 X142.128 Y98.339 E0.02901 ; skirt
G1 X142.161 Y99.858 E0.09081 ; skirt
G1 X142.142 Y101.246 E0.08293 ; skirt
G1 X142.087 Y102.145 E0.05380 ; skirt
G1 X141.102 Y109.313 E0.43231 ; skirt
G1 X141.011 Y109.790 E0.02901 ; skirt
G1 X140.632 Y111.264 E0.09092 ; skirt
G1 X140.240 Y112.593 E0.08280 ; skirt
G1 X139.944 Y113.444 E0.05381 ; skirt
G1 X137.062 Y120.080 E0.43231 ; skirt
G1 X136.846 Y120.515 E0.02902 ; skirt
G1 X136.083 Y121.832 E0.09091 ; skirt
G1 X135.347 Y123.007 E0.08282 ; skirt
G1 X134.833 Y123.746 E0.05380 ; skirt
G1 X130.267 Y129.358 E0.43231 ; skirt
G1 X129.941 Y129.719 E0.02899 ; skirt
G1 X128.897 Y130.738 E0.08718 ; skirt
G1 X127.826 Y131.714 E0.08658 ; skirt
G1 X127.131 Y132.287 E0.05380 ; skirt
G1 X121.220 Y136.459 E0.43231 ; skirt
G1 X120.810 Y136.718 E0.02898 ; skirt
G1 X119.892 Y137.225 E0.06265 ; skirt
G1 X118.701 Y137.841 E0.08010 ; skirt
G1 X117.863 Y138.245 E0.05559 ; skirt
G1 X117.411 Y138.433 E0.02925 ; skirt
G1 X110.593 Y140.856 E0.43231 ; skirt
G1 X110.128 Y140.995 E0.02902 ; skirt
G1 X108.645 Y141.336 E0.09091 ; skirt
G1 X107.284 Y141.600 E0.08282 ; skirt
G1 X106.393 Y141.729 E0.05380 ; skirt
G1 X99.175 Y142.222 E0.43231 ; skirt
G1 X98.690 Y142.231 E0.02898 ; skirt
G1 X97.169 Y142.159 E0.09095 ; skirt
G1 X95.788 Y142.046 E0.08281 ; skirt
G1 X94.895 Y141.930 E0.05381 ; skirt
G1 X87.811 Y140.458 E0.43231 ; skirt
G1 X87.341 Y140.335 E0.02902 ; skirt
G1 X85.896 Y139.856 E0.09092 ; skirt
G1 X84.597 Y139.374 E0.08281 ; skirt
G1 X83.768 Y139.021 E0.05381 ; skirt
G1 X77.344 Y135.692 E0.43231 ; skirt
G1 X76.925 Y135.447 E0.02899 ; skirt
G1 X75.715 Y134.632 E0.08719 ; skirt
G1 X74.542 Y133.782 E0.08656 ; skirt
G1 X73.839 Y133.218 E0.05380 ; skirt
G1 X68.551 Y128.280 E0.43231 ; skirt
G1 X68.214 Y127.931 E0.02898 ; skirt
G1 X67.531 Y127.135 E0.06264 ; skirt
G1 X66.686 Y126.094 E0.08014 ; skirt
G1 X66.119 Y125.356 E0.05556 ; skirt
G1 X65.844 Y124.952 E0.02924 ; skirt
G1 X62.084 Y118.770 E0.43231 ; skirt
G1 X61.854 Y118.342 E0.02901 ; skirt
G1 X61.218 Y116.960 E0.09092 ; skirt
G1 X60.683 Y115.681 E0.08282 ; skirt
G1 X60.375 Y114.835 E0.05380 ; skirt
G1 X58.423 Y107.868 E0.43231 ; skirt
G1 X58.316 Y107.394 E0.02902 ; skirt
G1 X58.077 Y105.891 E0.09091 ; skirt
G1 X57.907 Y104.516 E0.08281 ; skirt
G1 X57.839 Y103.618 E0.05381 ; skirt
G1 X57.839 Y96.382 E0.43231 ; skirt
G1 X57.864 Y95.897 E0.02901 ; skirt
G1 X58.039 Y94.386 E0.09093 ; skirt
G1 X58.246 Y93.015 E0.08281 ; skirt
G1 X58.423 Y92.132 E0.05381 ; skirt
G1 X60.375 Y85.165 E0.43231 ; skirt
G1 X60.530 Y84.705 E0.02901 ; skirt
G1 X61.107 Y83.296 E0.09092 ; skirt
G1 X61.676 Y82.033 E0.08281 ; skirt
G1 X62.084 Y81.230 E0.05381 ; skirt
G1 X65.844 Y75.048 E0.43231 ; skirt
G1 X66.117 Y74.647 E0.02899 ; skirt
G1 X67.052 Y73.446 E0.09095 ; skirt
G1 X67.941 Y72.383 E0.08281 ; skirt
G1 X68.474 Y71.801 E0.04715 ; skirt
G1 E-4.00000 F1800.00000 ; retract
G1 X77.479 Y79.121 F6000.000 ; move to first perimeter point
G1 E4.00000 F1800.00000 ; unretract
G1 X77.915 Y79.036 E0.02655 F900.000 ; perimeter
G1 X78.317 Y78.690 E0.03173 ; perimeter
G1 X80.476 Y76.650 E0.17745 ; perimeter
G1 X80.579 Y76.404 E0.01595 ; perimeter
G1 X80.595 Y75.901 E0.03002 ; perimeter
G1 X80.463 Y75.442 E0.02853 ; perimeter
G1 X80.272 Y75.044 E0.02640 ; perimeter
G1 X80.045 Y74.682 E0.02552 ; perimeter
G1 X79.761 Y74.342 E0.02648 ; perimeter
G1 X78.600 Y73.228 E0.09614 ; perimeter
G1 X78.448 Y72.967 E0.01807 ; perimeter
G1 X78.287 Y72.648 E0.02129 ; perimeter
G1 X78.004 Y71.979 E0.04342 ; perimeter
G1 X77.758 Y71.261 E0.04534 ; perimeter
G1 X77.526 Y70.416 E0.05237 ; perimeter
G1 X78.395 Y69.777 E0.06442 ; perimeter
G1 X79.531 Y69.001 E0.08220 ; perimeter
G1 X80.004 Y69.321 E0.03412 ; perimeter
G1 X80.598 Y69.768 E0.04441 ; perimeter
G1 X81.145 Y70.237 E0.04307 ; perimeter
G1 X81.652 Y70.748 E0.04304 ; perimeter
G1 X81.864 Y71.002 E0.01973 ; perimeter
G1 X82.026 Y71.279 E0.01916 ; perimeter
G1 X82.711 Y72.805 E0.09995 ; perimeter
G1 X82.994 Y73.157 E0.02700 ; perimeter
G1 X83.310 Y73.470 E0.02657 ; perimeter
G1 X83.712 Y73.748 E0.02921 ; perimeter
G1 X84.222 Y73.883 E0.03151 ; perimeter
G1 X84.422 Y73.862 E0.01202 ; perimeter
G1 X84.868 Y73.653 E0.02940 ; perimeter
G1 X87.497 Y72.272 E0.17745 ; perimeter
G1 X87.662 Y72.062 E0.01595 ; perimeter
G1 X87.813 Y71.583 E0.03002 ; perimeter
G1 X87.810 Y71.106 E0.02853 ; perimeter
G1 X87.733 Y70.671 E0.02640 ; perimeter
G1 X87.612 Y70.261 E0.02552 ; perimeter
G1 X87.431 Y69.857 E0.02648 ; perimeter
G1 X86.613 Y68.471 E0.09614 ; perimeter
G1 X86.469 Y67.828 E0.03934 ; perimeter
G1 X86.376 Y67.108 E0.04342 ; perimeter
G1 X86.333 Y66.350 E0.04534 ; perimeter
G1 X86.338 Y65.473 E0.05237 ; perimeter
G1 X87.347 Y65.093 E0.06442 ; perimeter
G1 X88.650 Y64.652 E0.08220 ; perimeter
G1 X89.064 Y65.142 E0.03832 ; perimeter
G1 X89.506 Y65.726 E0.04377 ; perimeter
G1 X89.912 Y66.344 E0.04420 ; perimeter
G1 X90.252 Y66.969 E0.04246 ; perimeter
G1 X90.381 Y67.268 E0.01950 ; perimeter
G1 X90.450 Y67.585 E0.01934 ; perimeter
G1 X90.715 Y69.248 E0.10065 ; perimeter
G1 X90.902 Y69.665 E0.02731 ; perimeter
G1 X91.138 Y70.054 E0.02717 ; perimeter
G1 X91.489 Y70.431 E0.03078 ; perimeter
G1 X91.995 Y70.661 E0.03321 ; perimeter
G1 X92.534 Y70.571 E0.03265 ; perimeter
G1 X95.438 Y69.950 E0.17745 ; perimeter
G1 X95.654 Y69.793 E0.01595 ; perimeter
G1 X95.928 Y69.372 E0.03002 ; perimeter
G1 X96.055 Y68.912 E0.02853 ; perimeter
G1 X96.143 Y68.010 E0.05417 ; perimeter
G1 X96.087 Y68.010 E0.00339 ; perimeter
G1 X96.026 Y67.607 E0.02434 ; perimeter
G1 X95.613 Y66.052 E0.09614 ; perimeter
G1 X95.647 Y65.394 E0.03934 ; perimeter
G1 X95.752 Y64.675 E0.04342 ; perimeter
G1 X95.916 Y63.934 E0.04534 ; perimeter
G1 X96.157 Y63.091 E0.05237 ; perimeter
G1 X97.231 Y62.997 E0.06442 ; perimeter
G1 X98.605 Y62.924 E0.08220 ; perimeter
G1 X98.871 Y63.507 E0.03832 ; perimeter
G1 X99.139 Y64.189 E0.04377 ; perimeter
G1 X99.363 Y64.894 E0.04421 ; perimeter
G1 X99.522 Y65.587 E0.04246 ; perimeter
G1 X99.565 Y65.910 E0.01949 ; perimeter
G1 X99.547 Y66.234 E0.01935 ; perimeter
G1 X99.352 Y67.907 E0.10065 ; perimeter
G1 X99.420 Y68.359 E0.02731 ; perimeter
G1 X99.543 Y68.797 E0.02717 ; perimeter
G1 X99.779 Y69.255 E0.03078 ; perimeter
G1 X100.200 Y69.609 E0.03288 ; perimeter
G1 X100.606 Y69.664 E0.02448 ; perimeter
G1 X103.514 Y69.863 E0.17418 ; perimeter
G1 X103.736 Y69.848 E0.01326 ; perimeter
G1 X103.961 Y69.764 E0.01438 ; perimeter
G1 X104.339 Y69.433 E0.03002 ; perimeter
G1 X104.585 Y69.024 E0.02853 ; perimeter
G1 X104.746 Y68.612 E0.02640 ; perimeter
G1 X104.855 Y68.199 E0.02552 ; perimeter
G1 X104.910 Y67.760 E0.02648 ; perimeter
G1 X104.931 Y66.151 E0.09614 ; perimeter
G1 X105.142 Y65.527 E0.03934 ; perimeter
G1 X105.437 Y64.863 E0.04342 ; perimeter
G1 X105.794 Y64.193 E0.04534 ; perimeter
G1 X106.254 Y63.447 E0.05237 ; perimeter
G1 X107.314 Y63.646 E0.06442 ; perimeter
G1 X108.656 Y63.946 E0.08220 ; perimeter
G1 X108.755 Y64.580 E0.03832 ; perimeter
G1 X108.829 Y65.309 E0.04377 ; perimeter
G1 X108.855 Y66.048 E0.04421 ; perimeter
G1 X108.821 Y66.758 E0.04245 ; perimeter
G1 X108.775 Y67.081 E0.01950 ; perimeter
G1 X108.670 Y67.387 E0.01934 ; perimeter
G1 X108.032 Y68.946 E0.10066 ; perimeter
G1 X107.975 Y69.400 E0.02731 ; perimeter
G1 X107.975 Y69.854 E0.02718 ; perimeter
G1 X108.079 Y70.359 E0.03078 ; perimeter
G1 X108.391 Y70.818 E0.03321 ; perimeter
G1 X108.899 Y71.022 E0.03265 ; perimeter
G1 X111.703 Y72.000 E0.17744 ; perimeter
G1 X111.969 Y71.978 E0.01595 ; perimeter
G1 X112.422 Y71.761 E0.03002 ; perimeter
G1 X112.769 Y71.433 E0.02853 ; perimeter
G1 X113.035 Y71.080 E0.02640 ; perimeter
G1 X113.251 Y70.712 E0.02552 ; perimeter
G1 X113.423 Y70.303 E0.02648 ; perimeter
G1 X113.878 Y68.760 E0.09614 ; perimeter
G1 X114.249 Y68.216 E0.03934 ; perimeter
G1 X114.712 Y67.656 E0.04342 ; perimeter
G1 X115.237 Y67.108 E0.04534 ; perimeter
G1 X115.881 Y66.513 E0.05237 ; perimeter
G1 X116.847 Y66.991 E0.06442 ; perimeter
G1 X118.059 Y67.642 E0.08220 ; perimeter
G1 X117.983 Y68.279 E0.03833 ; perimeter
G1 X117.858 Y69.001 E0.04377 ; perimeter
G1 X117.684 Y69.720 E0.04420 ; perimeter
G1 X117.459 Y70.394 E0.04246 ; perimeter
G1 X117.328 Y70.692 E0.01949 ; perimeter
G1 X117.144 Y70.959 E0.01934 ; perimeter
G1 X116.109 Y72.288 E0.10066 ; perimeter
G1 X115.932 Y72.709 E0.02731 ; perimeter
G1 X115.809 Y73.147 E0.02718 ; perimeter
G1 X115.773 Y73.661 E0.03078 ; perimeter
G1 X115.950 Y74.188 E0.03320 ; perimeter
G1 X116.384 Y74.521 E0.03265 ; perimeter
G1 X118.827 Y76.224 E0.17796 ; perimeter
G1 X119.139 Y76.271 E0.01882 ; perimeter
G1 X119.582 Y76.180 E0.02704 ; perimeter
G1 X120.000 Y75.961 E0.02819 ; perimeter
G1 X120.351 Y75.693 E0.02640 ; perimeter
G1 X120.659 Y75.397 E0.02552 ; perimeter
G1 X120.934 Y75.050 E0.02648 ; perimeter
G1 X121.788 Y73.686 E0.09614 ; perimeter
G1 X122.292 Y73.262 E0.03934 ; perimeter
G1 X122.890 Y72.848 E0.04342 ; perimeter
G1 X123.543 Y72.462 E0.04534 ; perimeter
G1 X124.323 Y72.063 E0.05237 ; perimeter
G1 X125.718 Y73.345 E0.11320 ; perimeter
G1 X126.116 Y73.738 E0.03342 ; perimeter
G1 X125.722 Y74.657 E0.05980 ; perimeter
G1 X125.378 Y75.322 E0.04470 ; perimeter
G1 X125.004 Y75.934 E0.04290 ; perimeter
G1 X124.589 Y76.478 E0.04083 ; perimeter
G1 X124.340 Y76.685 E0.01934 ; perimeter
