; generated by Slic3r 1.2.5 on 2015-01-25 at 22:04:32

; external perimeters extrusion width = 0.50mm
; perimeters extrusion width = 0.58mm
; infill extrusion width = 0.58mm
; solid infill extrusion width = 0.58mm
; top infill extrusion width = 0.58mm

M107
M190 S65 ; set bed temperature
G28 ; home all axes
G1 Z5 F5000 ; lift nozzle
G21 ; set units to millimeters
G90 ; use absolute coordinates
M82 ; use absolute distances for extrusion
G92 E0
G1 E-1.00000 F1800.00000
G92 E0
G1 Z0.500 F7800.000
G1 X84.650 Y89.654 F7800.000
G1 E1.00000 F1800.00000
G1 X86.412 Y88.115 E1.14774 F1080.000
G1 X88.587 Y87.254 E1.29548
G1 X90.000 Y87.107 E1.38516
G1 X110.000 Y87.107 E2.64807
G1 X112.306 Y87.504 E2.79581
G1 X114.346 Y88.650 E2.94356 F1080.000
G1 X115.885 Y90.412 E3.09130
G1 X116.746 Y92.587 E3.23904
G1 X116.893 Y94.000 E3.32872
G1 X116.893 Y106.000 E4.08646
G1 X116.496 Y108.306 E4.23421
G1 X115.350 Y110.346 E4.38195
G1 X113.588 Y111.885 E4.52969
G1 X111.413 Y112.746 E4.67743
G1 X110.000 Y112.893 E4.76711
G1 X90.000 Y112.893 E6.03002
G1 X87.694 Y112.496 E6.17776
G1 X85.654 Y111.350 E6.32550
G1 X84.115 Y109.588 E6.47324
G1 X83.254 Y107.413 E6.62098
G1 X83.107 Y106.000 E6.71066
G1 X83.107 Y94.000 E7.46841
G1 X83.504 Y91.694 E7.61615
G1 X84.613 Y89.720 E7.75916
G1 E6.75916 F1800.00000
G92 E0
G1 X92.285 Y96.285 F7800.000
G1 E1.00000 F1800.00000
G1 X107.715 Y96.285 E1.97429 F540.000
G1 X107.715 Y103.715 E2.44341
G1 X92.285 Y103.715 E3.41769
G1 X92.285 Y96.360 E3.88208
G1 X91.393 Y95.393 F7800.000
G1 X108.607 Y95.393 E4.96910 F540.000
G1 X108.607 Y104.607 E5.55096
G1 X91.393 Y104.607 E6.63799
G1 X91.393 Y95.468 E7.21511
G1 X90.500 Y94.500 F7800.000
G1 X109.500 Y94.500 E8.41488 F378.000
G1 X109.500 Y105.500 E9.10948
G1 X90.500 Y105.500 E10.30924
G1 X90.500 Y94.575 E10.99911
G1 X90.933 Y94.750 F7800.000
G1 X92.913 Y103.047 F7800.000
G1 X92.953 Y103.087 E11.00269 F1080.000
G1 X94.219 Y103.087 E11.08297
G1 X92.913 Y101.781 E11.20008
G1 X92.913 Y100.514 E11.28035
G1 X95.486 Y103.087 E11.51098
G1 X96.753 Y103.087 E11.59126
G1 X92.913 Y99.247 E11.93542
G1 X92.913 Y97.980 E12.01569
G1 X98.020 Y103.087 E12.47337
G1 X99.287 Y103.087 E12.55365
G1 X93.112 Y96.913 E13.10698
G1 X94.379 Y96.913 E13.18726
G1 X100.554 Y103.087 E13.74059
G1 X101.821 Y103.087 E13.82087
G1 X95.646 Y96.913 E14.37420
G1 X96.913 Y96.913 E14.45448
G1 X103.087 Y103.087 E15.00781
G1 X104.354 Y103.087 E15.08809
G1 X98.179 Y96.913 E15.64142
G1 X99.446 Y96.913 E15.72170
G1 X105.621 Y103.087 E16.27503
G1 X106.888 Y103.087 E16.35531
G1 X100.713 Y96.913 E16.90864
G1 X101.980 Y96.913 E16.98892
G1 X107.087 Y102.020 E17.44660
G1 X107.087 Y100.753 E17.52687
G1 X103.247 Y96.913 E17.87103
G1 X104.514 Y96.913 E17.95131
G1 X107.087 Y99.486 E18.18194
G1 X107.087 Y98.219 E18.26222
G1 X105.781 Y96.913 E18.37932
G1 X107.047 Y96.913 E18.45960
G1 X107.087 Y96.953 E18.46318
M106 S255
M140 S60 ; wait for bed temperature to be reached
G1 E17.46318 F1800.00000
G92 E0
G1 Z0.900 F7800.000
G1 X108.807 Y95.193 F7800.000
G1 E1.00000 F1800.00000
G1 X108.807 Y104.807 E1.26703 F735.024
G1 X91.193 Y104.807 E1.75629
G1 X91.193 Y95.193 E2.02332
G1 X108.732 Y95.193 E2.51050
G1 X109.297 Y94.703 F7800.000
G1 X109.297 Y105.297 E2.80480 F735.024
G1 X90.703 Y105.297 E3.32133
G1 X90.703 Y94.703 E3.61563
G1 X109.222 Y94.703 E4.13008
G1 X109.750 Y94.250 F7800.000
G1 X109.750 Y105.750 E4.39960 F600.000
G1 X90.250 Y105.750 E4.85661
G1 X90.250 Y94.250 E5.12613
G1 X109.675 Y94.250 E5.58139
G1 X109.500 Y94.683 F7800.000
G1 X108.431 Y104.471 F7800.000
G1 X108.471 Y104.431 E5.58297 F1470.047
G1 X108.471 Y103.733 E5.60243
G1 X107.733 Y104.471 E5.63153
G1 X107.036 Y104.471 E5.65099
G1 X108.471 Y103.036 E5.70761
G1 X108.471 Y102.339 E5.72707
G1 X106.339 Y104.471 E5.81121
G1 X105.641 Y104.471 E5.83067
G1 X108.471 Y101.641 E5.94233
G1 X108.471 Y100.944 E5.96179
G1 X104.944 Y104.471 E6.10098
G1 X104.246 Y104.471 E6.12044
G1 X108.471 Y100.246 E6.28714
G1 X108.471 Y99.549 E6.30660
G1 X103.549 Y104.471 E6.50083
G1 X102.852 Y104.471 E6.52029
G1 X108.471 Y98.852 E6.74204
G1 X108.471 Y98.154 E6.76150
G1 X102.154 Y104.471 E7.01077
G1 X101.457 Y104.471 E7.03023
G1 X108.471 Y97.457 E7.30702
G1 X108.471 Y96.760 E7.32648
G1 X100.760 Y104.471 E7.63079
G1 X100.062 Y104.471 E7.65025
G1 X108.471 Y96.062 E7.98208
G1 X108.306 Y95.529 E7.99764
G1 X99.365 Y104.471 E8.35051
G1 X98.667 Y104.471 E8.36997
G1 X107.609 Y95.529 E8.72283
G1 X106.912 Y95.529 E8.74229
G1 X97.970 Y104.471 E9.09516
G1 X97.273 Y104.471 E9.11462
G1 X106.214 Y95.529 E9.46748
G1 X105.517 Y95.529 E9.48694
G1 X96.575 Y104.471 E9.83980
G1 X95.878 Y104.471 E9.85926
G1 X104.819 Y95.529 E10.21213
G1 X104.122 Y95.529 E10.23159
G1 X95.181 Y104.471 E10.58445
G1 X94.483 Y104.471 E10.60391
G1 X103.425 Y95.529 E10.95677
G1 X102.727 Y95.529 E10.97624
G1 X93.786 Y104.471 E11.32910
G1 X93.088 Y104.471 E11.34856
G1 X102.030 Y95.529 E11.70142
G1 X101.333 Y95.529 E11.72088
G1 X92.391 Y104.471 E12.07375
G1 X91.694 Y104.471 E12.09321
G1 X100.635 Y95.529 E12.44607
G1 X99.938 Y95.529 E12.46553
G1 X91.529 Y103.938 E12.79736
G1 X91.529 Y103.240 E12.81682
G1 X99.240 Y95.529 E13.12113
G1 X98.543 Y95.529 E13.14059
G1 X91.529 Y102.543 E13.41738
G1 X91.529 Y101.846 E13.43684
G1 X97.846 Y95.529 E13.68611
G1 X97.148 Y95.529 E13.70557
G1 X91.529 Y101.148 E13.92731
G1 X91.529 Y100.451 E13.94677
G1 X96.451 Y95.529 E14.14100
G1 X95.753 Y95.529 E14.16046
G1 X91.529 Y99.753 E14.32716
G1 X91.529 Y99.056 E14.34662
G1 X95.056 Y95.529 E14.48580
G1 X94.359 Y95.529 E14.50526
G1 X91.529 Y98.359 E14.61692
G1 X91.529 Y97.661 E14.63638
G1 X93.661 Y95.529 E14.72052
G1 X92.964 Y95.529 E14.73998
G1 X91.529 Y96.964 E14.79660
G1 X91.529 Y96.267 E14.81606
G1 X92.267 Y95.529 E14.84516
G1 X91.569 Y95.529 E14.86462
G1 X91.529 Y95.569 E14.86620
G1 E13.86620 F1800.00000
G92 E0
G1 Z1.300 F7800.000
G1 X97.195 Y99.316 F7800.000
G1 E1.00000 F1800.00000
G1 X102.805 Y99.316 E1.15585 F836.078
G1 X102.805 Y103.684 E1.27719
G1 X97.195 Y103.684 E1.43304
G1 X97.195 Y99.391 E1.55230
G1 X97.686 Y99.807 F7800.000
G1 X102.314 Y99.807 E1.68088 F836.078
G1 X102.314 Y103.193 E1.77496
G1 X97.686 Y103.193 E1.90353
G1 X97.686 Y99.882 E1.99552
G1 X98.177 Y100.297 F7800.000
G1 X101.823 Y100.297 E2.09683 F836.078
G1 X101.823 Y102.703 E2.16364
G1 X98.177 Y102.703 E2.26494
G1 X98.177 Y100.372 E2.32966
G1 X98.629 Y100.750 F7800.000
G1 X101.371 Y100.750 E2.39392 F836.078
G1 X101.371 Y102.250 E2.42908
G1 X98.629 Y102.250 E2.49334
G1 X98.629 Y100.825 E2.52674
G1 X98.629 Y100.250 F7800.000
G1 E1.52674 F1800.00000
G92 E0
G1 X91.684 Y104.316 F7800.000
G1 E1.00000 F1800.00000
G1 X91.684 Y95.684 E1.23976 F836.078
G1 X108.316 Y95.684 E1.70175
G1 X108.316 Y104.316 E1.94151
G1 X91.759 Y104.316 E2.40141
G1 X91.193 Y104.807 F7800.000
G1 X91.193 Y95.193 E2.66845 F836.078
G1 X108.807 Y95.193 E3.15770
G1 X108.807 Y104.807 E3.42474
G1 X91.268 Y104.807 E3.91191
G1 X90.703 Y105.297 F7800.000
G1 X90.703 Y94.703 E4.20622 F836.078
G1 X109.297 Y94.703 E4.72274
G1 X109.297 Y105.297 E5.01705
G1 X90.778 Y105.297 E5.53149
G1 X90.250 Y105.750 F7800.000
G1 X90.250 Y94.250 E5.80101 F600.000
G1 X109.750 Y94.250 E6.25803
G1 X109.750 Y105.750 E6.52755
G1 X90.325 Y105.750 E6.98280
G1 X90.500 Y105.317 F7800.000
G1 X92.020 Y103.940 F7800.000
G1 X92.060 Y103.980 E6.98439 F1672.157
G1 X92.761 Y103.980 E7.00406
G1 X92.020 Y103.239 E7.03347
G1 X92.020 Y102.538 E7.05314
G1 X93.462 Y103.980 E7.11037
G1 X94.164 Y103.980 E7.13004
G1 X92.020 Y101.836 E7.21508
G1 X92.020 Y101.135 E7.23476
G1 X94.865 Y103.980 E7.34762
G1 X95.566 Y103.980 E7.36730
G1 X92.020 Y100.434 E7.50798
G1 X92.020 Y99.733 E7.52766
G1 X96.267 Y103.980 E7.69617
G1 X96.859 Y103.871 E7.71305
G1 X92.020 Y99.032 E7.90504
G1 X92.020 Y98.331 E7.92472
G1 X96.859 Y103.169 E8.11671
G1 X96.859 Y102.468 E8.13638
G1 X92.020 Y97.629 E8.32837
G1 X92.020 Y96.928 E8.34804
G1 X96.859 Y101.767 E8.54004
G1 X96.859 Y101.066 E8.55971
G1 X92.020 Y96.227 E8.75170
G1 X92.514 Y96.020 E8.76673
G1 X96.859 Y100.365 E8.93912
G1 X96.859 Y99.664 E8.95879
G1 X93.215 Y96.020 E9.10335
G1 X93.917 Y96.020 E9.12303
G1 X96.876 Y98.980 E9.24046
G1 X97.578 Y98.980 E9.26013
G1 X94.618 Y96.020 E9.37757
G1 X95.319 Y96.020 E9.39724
G1 X98.279 Y98.980 E9.51468
G1 X98.980 Y98.980 E9.53435
G1 X96.020 Y96.020 E9.65179
G1 X96.721 Y96.020 E9.67146
G1 X99.681 Y98.980 E9.78890
G1 X100.382 Y98.980 E9.80857
G1 X97.422 Y96.020 E9.92600
G1 X98.124 Y96.020 E9.94568
G1 X101.083 Y98.980 E10.06311
G1 X101.785 Y98.980 E10.08278
G1 X98.825 Y96.020 E10.20022
G1 X99.526 Y96.020 E10.21989
G1 X102.486 Y98.980 E10.33733
G1 X103.141 Y103.842 F7800.000
G1 X103.279 Y103.980 E10.34279 F1672.157
G1 X103.980 Y103.980 E10.36246
G1 X103.141 Y103.141 E10.39574
G1 X103.141 Y102.440 E10.41541
G1 X104.681 Y103.980 E10.47651
G1 X105.382 Y103.980 E10.49619
G1 X103.141 Y101.739 E10.58511
G1 X103.141 Y101.038 E10.60478
G1 X106.083 Y103.980 E10.72152
G1 X106.785 Y103.980 E10.74119
G1 X103.141 Y100.336 E10.88576
G1 X103.141 Y99.635 E10.90543
G1 X107.486 Y103.980 E11.07781
G1 X107.980 Y103.773 E11.09284
G1 X100.227 Y96.020 E11.40046
G1 X100.928 Y96.020 E11.42013
G1 X107.980 Y103.072 E11.69992
G1 X107.980 Y102.371 E11.71959
G1 X101.629 Y96.020 E11.97157
G1 X102.331 Y96.020 E11.99124
G1 X107.980 Y101.669 E12.21539
G1 X107.980 Y100.968 E12.23506
G1 X103.032 Y96.020 E12.43139
G1 X103.733 Y96.020 E12.45106
G1 X107.980 Y100.267 E12.61958
G1 X107.980 Y99.566 E12.63925
G1 X104.434 Y96.020 E12.77994
G1 X105.135 Y96.020 E12.79961
G1 X107.980 Y98.865 E12.91248
G1 X107.980 Y98.164 E12.93215
G1 X105.836 Y96.020 E13.01720
G1 X106.538 Y96.020 E13.03687
G1 X107.980 Y97.462 E13.09410
G1 X107.980 Y96.761 E13.11377
G1 X107.239 Y96.020 E13.14318
G1 X107.940 Y96.020 E13.16285
G1 X107.980 Y96.060 E13.16444
G1 E12.16444 F1800.00000
G92 E0
G1 Z1.700 F7800.000
G1 X103.767 Y99.807 F7800.000
G1 E1.00000 F1800.00000
G1 X103.767 Y103.193 E1.09408 F678.521
G1 X96.233 Y103.193 E1.30333
G1 X96.233 Y99.807 E1.39741
G1 X103.692 Y99.807 E1.60458
G1 X103.276 Y100.297 F7800.000
G1 X103.276 Y102.703 E1.67138 F678.521
G1 X96.724 Y102.703 E1.85336
G1 X96.724 Y100.297 E1.92017
G1 X103.201 Y100.297 E2.10007
G1 X102.823 Y100.750 F7800.000
G1 X102.823 Y102.250 E2.13522 F678.521
G1 X97.177 Y102.250 E2.26755
G1 X97.177 Y100.750 E2.30271
G1 X102.748 Y100.750 E2.43328
G1 X103.323 Y100.750 F7800.000
G1 E1.43328 F1800.00000
G92 E0
G1 X108.807 Y104.807 F7800.000
G1 E1.00000 F1800.00000
G1 X91.193 Y104.807 E1.48926 F678.521
G1 X91.193 Y95.193 E1.75629
G1 X108.807 Y95.193 E2.24555
G1 X108.807 Y104.732 E2.51050
G1 X109.297 Y105.297 F7800.000
G1 X90.703 Y105.297 E3.02702 F678.521
G1 X90.703 Y94.703 E3.32133
G1 X109.297 Y94.703 E3.83786
G1 X109.297 Y105.222 E4.13008
G1 X109.750 Y105.750 F7800.000
G1 X90.250 Y105.750 E4.58709 F600.000
G1 X90.250 Y94.250 E4.85661
G1 X109.750 Y94.250 E5.31363
G1 X109.750 Y105.675 E5.58139
G1 X109.317 Y105.500 F7800.000
G1 X105.657 Y103.640 F7800.000
G1 X105.697 Y103.600 E5.58309 F1357.042
G1 X105.697 Y102.847 E5.60575
G1 X104.905 Y103.640 E5.63949
G1 X104.152 Y103.640 E5.66215
G1 X105.697 Y102.095 E5.72793
G1 X105.697 Y101.342 E5.75058
G1 X104.102 Y102.937 E5.81850
G1 X104.102 Y102.185 E5.84115
G1 X105.697 Y100.590 E5.90907
G1 X105.697 Y99.837 E5.93172
G1 X104.102 Y101.432 E5.99964
G1 X104.102 Y100.680 E6.02229
G1 X105.422 Y99.360 E6.07848
G1 X104.670 Y99.360 E6.10114
G1 X104.102 Y99.928 E6.12529
G1 X103.807 Y99.471 E6.14167
G1 X103.917 Y99.360 E6.14637
G1 X103.165 Y99.360 E6.16903
G1 X103.054 Y99.471 E6.17373
G1 X102.412 Y99.360 E6.19334
G1 X102.372 Y99.400 E6.19505
G1 X106.287 Y100.000 F7800.000
G1 X103.573 Y104.000 F7800.000
G1 X102.758 Y103.529 F7800.000
G1 X102.648 Y103.640 E6.19975 F1357.042
G1 X103.400 Y103.640 E6.22240
G1 X103.510 Y103.529 E6.22711
G1 X105.898 Y101.225 F7800.000
G1 X106.577 Y100.546 E6.25376 F1357.042
G1 X106.357 Y99.725 E6.27737
G1 X107.559 Y98.523 E6.32461
G1 X108.380 Y98.743 E6.34823
G1 X108.451 Y98.672 E6.35099
G1 X108.451 Y100.408 E6.39920
G1 X107.745 Y101.113 E6.42692
G1 X106.924 Y100.893 E6.45053
G1 X105.898 Y101.919 E6.49082
G1 X105.898 Y102.756 E6.51406
G1 X105.942 Y102.917 E6.51870
G1 X105.898 Y102.960 E6.52040
G1 X105.898 Y103.655 E6.53969
G1 X106.289 Y103.264 E6.55502
G1 X107.110 Y103.484 E6.57864
G1 X108.312 Y102.282 E6.62587
G1 X108.092 Y101.461 E6.64949
G1 X108.451 Y101.102 E6.66357
G1 X108.451 Y102.838 E6.71178
G1 X107.457 Y103.831 E6.75082
G1 X107.623 Y104.451 E6.76863
G1 X105.712 Y103.841 E6.82435
G1 X105.102 Y104.451 E6.84832
G1 X105.018 Y103.841 E6.86543
G1 X104.739 Y104.119 E6.87638
G1 X103.918 Y103.899 E6.90000
G1 X103.367 Y104.451 E6.92166
G1 X103.283 Y103.841 E6.93877
G1 X102.672 Y104.451 E6.96273
G1 X100.937 Y104.451 E7.01094
G1 X101.200 Y104.188 E7.02128
G1 X101.029 Y103.549 E7.03964
G1 X99.062 Y103.549 E7.09429
G1 X98.609 Y104.002 E7.11206
G1 X98.730 Y104.451 E7.12497
G1 X98.367 Y103.549 E7.15196
G1 X98.262 Y103.654 E7.15609
G1 X97.870 Y103.549 E7.16738
G1 X97.829 Y103.564 E7.16859
G1 X97.035 Y103.840 F7800.000
G1 X96.425 Y104.451 E7.19257 F1357.042
G1 X96.341 Y103.841 E7.20968
G1 X95.891 Y104.290 E7.22732
G1 X95.070 Y104.070 E7.25094
G1 X94.689 Y104.451 E7.26591
G1 X94.605 Y103.841 E7.28302
G1 X93.995 Y104.451 E7.30699
G1 X92.259 Y104.451 E7.35519
G1 X92.352 Y104.358 E7.35885
G1 X92.132 Y103.537 E7.38246
G1 X93.335 Y102.334 E7.42970
G1 X94.102 Y102.540 E7.45176
G1 X94.102 Y99.999 F7800.000
G1 X93.970 Y99.963 E7.45555 F1357.042
G1 X92.768 Y101.166 E7.50278
G1 X92.988 Y101.987 E7.52640
G1 X91.785 Y103.189 E7.57363
G1 X91.549 Y103.126 E7.58042
G1 X95.815 Y99.160 F7800.000
G1 X95.994 Y98.981 E7.58743 F1357.042
G1 X95.774 Y98.160 E7.61105
G1 X96.976 Y96.957 E7.65828
G1 X97.797 Y97.177 E7.68190
G1 X99.000 Y95.975 E7.72913
G1 X98.885 Y95.549 E7.74138
G1 X96.649 Y95.549 E7.80352
G1 X96.409 Y95.789 E7.81294
G1 X96.629 Y96.610 E7.83655
G1 X95.426 Y97.813 E7.88379
G1 X94.605 Y97.593 E7.90740
G1 X93.403 Y98.795 E7.95464
G1 X93.623 Y99.616 E7.97826
G1 X92.420 Y100.819 E8.02549
G1 X91.599 Y100.599 E8.04911
G1 X91.549 Y100.649 E8.05107
G1 X91.549 Y98.913 E8.09928
G1 X92.234 Y98.228 E8.12619
G1 X93.056 Y98.448 E8.14981
G1 X94.258 Y97.246 E8.19705
G1 X94.038 Y96.424 E8.22066
G1 X94.913 Y95.549 E8.25504
G1 X94.219 Y95.549 E8.27432
G1 X93.691 Y96.077 E8.29506
G1 X92.870 Y95.857 E8.31868
G1 X91.667 Y97.060 E8.36591
G1 X91.887 Y97.881 E8.38953
G1 X91.549 Y98.219 E8.40281
G1 X91.549 Y96.483 E8.45102
G1 X92.483 Y95.549 E8.48771
G1 X97.551 Y99.159 F7800.000
G1 X98.364 Y98.346 E8.51967 F1357.042
G1 X98.144 Y97.525 E8.54329
G1 X99.347 Y96.322 E8.59053
G1 X100.168 Y96.542 E8.61414
G1 X101.161 Y95.549 E8.65315
G1 X102.896 Y95.549 E8.70136
G1 X102.539 Y95.907 E8.71541
G1 X101.717 Y95.687 E8.73903
G1 X100.515 Y96.889 E8.78626
G1 X100.735 Y97.711 E8.80988
G1 X99.533 Y98.913 E8.85711
G1 X98.711 Y98.693 E8.88073
G1 X97.954 Y99.451 E8.91050
G1 X99.931 Y99.451 E8.96543
G1 X99.880 Y99.260 E8.97091
G1 X101.082 Y98.058 E9.01814
G1 X101.903 Y98.278 E9.04176
G1 X103.106 Y97.075 E9.08900
G1 X102.886 Y96.254 E9.11261
G1 X103.591 Y95.549 E9.14030
G1 X105.326 Y95.549 E9.18851
G1 X105.256 Y95.619 E9.19124
G1 X105.477 Y96.440 E9.21486
G1 X104.274 Y97.642 E9.26209
G1 X103.453 Y97.422 E9.28571
G1 X102.251 Y98.625 E9.33295
G1 X102.394 Y99.159 E9.34832
G1 X104.493 Y99.159 E9.40662
G1 X104.841 Y98.811 E9.42032
G1 X104.621 Y97.990 E9.44393
G1 X105.824 Y96.787 E9.49117
G1 X106.645 Y97.007 E9.51479
G1 X107.847 Y95.805 E9.56202
G1 X107.779 Y95.549 E9.56937
G1 X108.451 Y96.221 E9.59576
G1 X108.194 Y96.152 E9.60313
G1 X106.992 Y97.354 E9.65036
G1 X107.212 Y98.176 E9.67398
G1 X106.010 Y99.378 E9.72121
G1 X105.898 Y99.348 E9.72442
G1 X105.194 Y99.160 F7800.000
G1 X105.187 Y99.160 E9.72462 F1357.042
G1 X97.352 Y99.360 F7800.000
G1 X97.242 Y99.471 E9.72933 F1357.042
G1 X96.600 Y99.360 E9.74894
G1 X96.490 Y99.471 E9.75364
G1 X95.847 Y99.360 E9.77326
G1 X94.303 Y100.905 E9.83904
G1 X94.303 Y101.658 E9.86169
G1 X95.898 Y100.063 E9.92961
G1 X95.898 Y100.815 E9.95226
G1 X94.303 Y102.410 E10.02018
G1 X94.303 Y103.163 E10.04283
G1 X95.898 Y101.568 E10.11075
G1 X95.898 Y102.320 E10.13340
G1 X94.578 Y103.640 E10.18959
