; generated by Slic3r 1.0.1 on 2014-10-04 at 15:32:25

; layer_height = 0.24
; perimeters = 2
; top_solid_layers = 4
; bottom_solid_layers = 4
; fill_density = 0.25
; perimeter_speed = 30
; infill_speed = 30
; travel_speed = 100
; nozzle_diameter = 0.5
; filament_diameter = 1.75
; extrusion_multiplier = 1
; perimeters extrusion width = 0.50mm
; infill extrusion width = 0.50mm
; solid infill extrusion width = 0.50mm
; top infill extrusion width = 0.50mm
; support material extrusion width = 0.50mm
; first layer extrusion width = 0.80mm

G21 ; set units to millimeters
M107 ; disable fan
M190 S57 ; wait for bed temperature to be reached
M104 S200 ; set temperature

M109 S200 ; wait for temperature to be reached
G90 ; use absolute coordinates
M83 ; use relative distances for extrusion
G1 F1800.000 E-2.40000 ; retract
G1 Z0.240 F6000.000 ; move to next layer (0)
G1 X84.801 Y84.795 F6000.000 ; move to first skirt point
G1 E2.40000 F1800.000 ; compensate retraction
G1 X86.211 Y83.505 E0.14273 F900.000 ; skirt
G1 X87.381 Y82.595 E0.11070 ; skirt
G1 X88.311 Y81.955 E0.08431 ; skirt
G1 X89.981 Y80.975 E0.14461 ; skirt
G1 X91.321 Y80.335 E0.11091 ; skirt
G1 X92.361 Y79.905 E0.08405 ; skirt
G1 X92.751 Y79.765 E0.03095 ; skirt
G1 X94.171 Y79.305 E0.11148 ; skirt
G1 X95.271 Y79.025 E0.08477 ; skirt
G1 X97.151 Y78.685 E0.14269 ; skirt
G1 X98.271 Y78.565 E0.08413 ; skirt
G1 X99.921 Y78.505 E0.12331 ; skirt
G1 X101.271 Y78.535 E0.10085 ; skirt
G1 X101.711 Y78.565 E0.03294 ; skirt
G1 X102.831 Y78.685 E0.08413 ; skirt
G1 X104.331 Y78.945 E0.11370 ; skirt
G1 X105.821 Y79.315 E0.11466 ; skirt
G1 X107.601 Y79.895 E0.13982 ; skirt
G1 X109.011 Y80.485 E0.11415 ; skirt
G1 X110.021 Y80.985 E0.08417 ; skirt
G1 X111.681 Y81.955 E0.14359 ; skirt
G1 X112.611 Y82.595 E0.08431 ; skirt
G1 X112.911 Y82.825 E0.02823 ; skirt
G1 X114.061 Y83.745 E0.10999 ; skirt
G1 X114.901 Y84.505 E0.08460 ; skirt
G1 X115.991 Y85.645 E0.11780 ; skirt
G1 X116.931 Y86.775 E0.10978 ; skirt
G1 X117.191 Y87.105 E0.03138 ; skirt
G1 X118.051 Y88.335 E0.11209 ; skirt
G1 X118.641 Y89.305 E0.08479 ; skirt
G1 X119.341 Y90.625 E0.11159 ; skirt
G1 X119.951 Y92.025 E0.11405 ; skirt
G1 X120.111 Y92.405 E0.03079 ; skirt
G1 X120.481 Y93.475 E0.08456 ; skirt
G1 X120.961 Y95.285 E0.13985 ; skirt
G1 X121.181 Y96.385 E0.08378 ; skirt
G1 X121.421 Y98.295 E0.14377 ; skirt
G1 X121.491 Y99.815 E0.11364 ; skirt
G1 X121.451 Y101.325 E0.11281 ; skirt
G1 X121.351 Y102.455 E0.08472 ; skirt
G1 X121.121 Y103.965 E0.11408 ; skirt
G1 X120.801 Y105.405 E0.11017 ; skirt
G1 X120.681 Y105.835 E0.03334 ; skirt
G1 X120.221 Y107.265 E0.11219 ; skirt
G1 X119.811 Y108.315 E0.08419 ; skirt
G1 X119.021 Y110.005 E0.13933 ; skirt
G1 X118.471 Y110.995 E0.08458 ; skirt
G1 X118.251 Y111.355 E0.03151 ; skirt
G1 X117.631 Y112.295 E0.08410 ; skirt
G1 X116.711 Y113.505 E0.11352 ; skirt
G1 X116.471 Y113.805 E0.02869 ; skirt
G1 X115.461 Y114.925 E0.11264 ; skirt
G1 X114.361 Y115.995 E0.11461 ; skirt
G1 X113.201 Y116.965 E0.11293 ; skirt
G1 X112.291 Y117.635 E0.08440 ; skirt
G1 X110.701 Y118.635 E0.14028 ; skirt
G1 X109.711 Y119.175 E0.08422 ; skirt
G1 X108.291 Y119.825 E0.11664 ; skirt
G1 X106.891 Y120.355 E0.11180 ; skirt
G1 X106.551 Y120.465 E0.02669 ; skirt
G1 X105.471 Y120.785 E0.08413 ; skirt
G1 X103.961 Y121.125 E0.11560 ; skirt
G1 X102.461 Y121.355 E0.11334 ; skirt
G1 X100.561 Y121.495 E0.14229 ; skirt
G1 X99.431 Y121.495 E0.08439 ; skirt
G1 X97.911 Y121.395 E0.11377 ; skirt
G1 X96.401 Y121.195 E0.11376 ; skirt
G1 X94.911 Y120.885 E0.11366 ; skirt
G1 X94.531 Y120.785 E0.02935 ; skirt
G1 X93.091 Y120.355 E0.11224 ; skirt
G1 X92.031 Y119.965 E0.08435 ; skirt
G1 X90.301 Y119.185 E0.14173 ; skirt
G1 X88.971 Y118.455 E0.11331 ; skirt
G1 X88.021 Y117.855 E0.08392 ; skirt
G1 X86.791 Y116.965 E0.11339 ; skirt
G1 X86.491 Y116.725 E0.02869 ; skirt
G1 X85.351 Y115.745 E0.11228 ; skirt
G1 X84.541 Y114.955 E0.08450 ; skirt
G1 X83.491 Y113.775 E0.11797 ; skirt
G1 X82.361 Y112.295 E0.13907 ; skirt
G1 X81.521 Y110.995 E0.11560 ; skirt
G1 X80.971 Y110.005 E0.08458 ; skirt
G1 X80.361 Y108.755 E0.10388 ; skirt
G1 X80.211 Y108.405 E0.02844 ; skirt
G1 X79.621 Y106.875 E0.12247 ; skirt
G1 X79.291 Y105.795 E0.08434 ; skirt
G1 X78.941 Y104.345 E0.11140 ; skirt
G1 X78.661 Y102.585 E0.13310 ; skirt
G1 X78.541 Y101.395 E0.08933 ; skirt
G1 X78.511 Y100.895 E0.03741 ; skirt
G1 X78.501 Y99.765 E0.08440 ; skirt
G1 X78.561 Y98.345 E0.10615 ; skirt
G1 X78.601 Y97.905 E0.03300 ; skirt
G1 X78.801 Y96.385 E0.11450 ; skirt
G1 X79.111 Y94.905 E0.11293 ; skirt
G1 X79.411 Y93.815 E0.08443 ; skirt
G1 X79.991 Y92.145 E0.13203 ; skirt
G1 X80.641 Y90.625 E0.12347 ; skirt
G1 X81.341 Y89.305 E0.11159 ; skirt
G1 X81.931 Y88.335 E0.08479 ; skirt
G1 X82.971 Y86.885 E0.13327 ; skirt
G1 X83.721 Y85.955 E0.08923 ; skirt
G1 X84.724 Y84.876 E0.10999 ; skirt
G1 X85.341 Y85.315 F6000.000 ; move to first skirt point
G1 X85.571 Y85.085 E0.02429 F900.000 ; skirt
G1 X86.671 Y84.095 E0.11053 ; skirt
G1 X87.561 Y83.395 E0.08457 ; skirt
G1 X88.741 Y82.575 E0.10732 ; skirt
G1 X89.991 Y81.825 E0.10887 ; skirt
G1 X91.611 Y81.025 E0.13494 ; skirt
G1 X92.981 Y80.475 E0.11026 ; skirt
G1 X94.051 Y80.125 E0.08408 ; skirt
G1 X95.461 Y79.755 E0.10887 ; skirt
G1 X97.231 Y79.435 E0.13434 ; skirt
G1 X98.731 Y79.285 E0.11259 ; skirt
G1 X99.791 Y79.255 E0.07920 ; skirt
G1 X101.251 Y79.285 E0.10906 ; skirt
G1 X102.751 Y79.435 E0.11259 ; skirt
G1 X103.071 Y79.485 E0.02419 ; skirt
G1 X104.541 Y79.755 E0.11162 ; skirt
G1 X105.631 Y80.035 E0.08405 ; skirt
G1 X107.001 Y80.475 E0.10747 ; skirt
G1 X107.321 Y80.595 E0.02552 ; skirt
G1 X108.681 Y81.155 E0.10985 ; skirt
G1 X109.691 Y81.655 E0.08417 ; skirt
G1 X110.951 Y82.385 E0.10876 ; skirt
G1 X112.451 Y83.405 E0.13547 ; skirt
G1 X113.331 Y84.105 E0.08398 ; skirt
G1 X114.401 Y85.065 E0.10736 ; skirt
G1 X115.641 Y86.375 E0.13472 ; skirt
G1 X116.361 Y87.245 E0.08434 ; skirt
G1 X117.231 Y88.455 E0.11130 ; skirt
G1 X118.001 Y89.695 E0.10901 ; skirt
G1 X118.151 Y89.975 E0.02372 ; skirt
G1 X118.821 Y91.275 E0.10923 ; skirt
G1 X119.271 Y92.315 E0.08463 ; skirt
G1 X119.771 Y93.725 E0.11173 ; skirt
G1 X119.871 Y94.055 E0.02575 ; skirt
G1 X120.231 Y95.435 E0.10651 ; skirt
G1 X120.451 Y96.535 E0.08378 ; skirt
G1 X120.641 Y97.995 E0.10996 ; skirt
G1 X120.741 Y99.795 E0.13464 ; skirt
G1 X120.721 Y100.925 E0.08441 ; skirt
G1 X120.601 Y102.395 E0.11015 ; skirt
G1 X120.381 Y103.845 E0.10953 ; skirt
G1 X119.971 Y105.615 E0.13569 ; skirt
G1 X119.631 Y106.695 E0.08456 ; skirt
G1 X119.111 Y108.045 E0.10805 ; skirt
G1 X118.511 Y109.355 E0.10761 ; skirt
G1 X117.811 Y110.635 E0.10896 ; skirt
G1 X117.621 Y110.935 E0.02652 ; skirt
G1 X116.811 Y112.155 E0.10937 ; skirt
G1 X116.121 Y113.055 E0.08470 ; skirt
G1 X114.941 Y114.395 E0.13335 ; skirt
G1 X114.141 Y115.185 E0.08397 ; skirt
G1 X113.011 Y116.155 E0.11122 ; skirt
G1 X111.551 Y117.235 E0.13563 ; skirt
G1 X110.591 Y117.835 E0.08455 ; skirt
G1 X109.351 Y118.515 E0.10562 ; skirt
G1 X109.021 Y118.685 E0.02772 ; skirt
G1 X107.991 Y119.145 E0.08425 ; skirt
G1 X106.631 Y119.655 E0.10848 ; skirt
G1 X106.341 Y119.745 E0.02268 ; skirt
G1 X104.911 Y120.155 E0.11110 ; skirt
G1 X103.801 Y120.395 E0.08482 ; skirt
G1 X102.021 Y120.655 E0.13435 ; skirt
G1 X100.561 Y120.745 E0.10925 ; skirt
G1 X99.091 Y120.735 E0.10979 ; skirt
G1 X97.961 Y120.655 E0.08461 ; skirt
G1 X96.171 Y120.395 E0.13509 ; skirt
G1 X94.741 Y120.075 E0.10944 ; skirt
G1 X93.651 Y119.755 E0.08484 ; skirt
G1 X92.291 Y119.265 E0.10796 ; skirt
G1 X90.651 Y118.525 E0.13438 ; skirt
G1 X89.651 Y117.985 E0.08488 ; skirt
G1 X88.421 Y117.215 E0.10838 ; skirt
G1 X88.141 Y117.025 E0.02527 ; skirt
G1 X86.981 Y116.155 E0.10829 ; skirt
G1 X85.871 Y115.205 E0.10912 ; skirt
G1 X85.061 Y114.415 E0.08450 ; skirt
G1 X84.061 Y113.285 E0.11270 ; skirt
G1 X83.181 Y112.155 E0.10697 ; skirt
G1 X82.181 Y110.635 E0.13589 ; skirt
G1 X81.631 Y109.645 E0.08458 ; skirt
G1 X81.041 Y108.425 E0.10121 ; skirt
G1 X80.471 Y107.015 E0.11359 ; skirt
G1 X80.341 Y106.655 E0.02859 ; skirt
G1 X80.011 Y105.575 E0.08434 ; skirt
G1 X79.671 Y104.175 E0.10760 ; skirt
G1 X79.601 Y103.805 E0.02812 ; skirt
G1 X79.441 Y102.755 E0.07932 ; skirt
G1 X79.291 Y101.325 E0.10739 ; skirt
G1 X79.261 Y100.885 E0.03294 ; skirt
G1 X79.251 Y99.755 E0.08440 ; skirt
G1 X79.341 Y97.995 E0.13162 ; skirt
G1 X79.531 Y96.535 E0.10996 ; skirt
G1 X79.751 Y95.435 E0.08378 ; skirt
G1 X80.221 Y93.725 E0.13245 ; skirt
G1 X80.571 Y92.715 E0.07983 ; skirt
G1 X81.141 Y91.335 E0.11151 ; skirt
G1 X81.311 Y90.975 E0.02973 ; skirt
G1 X81.981 Y89.695 E0.10790 ; skirt
G1 X82.571 Y88.725 E0.08479 ; skirt
G1 X82.781 Y88.415 E0.02796 ; skirt
G1 X83.551 Y87.355 E0.09785 ; skirt
G1 X84.301 Y86.425 E0.08923 ; skirt
G1 X85.264 Y85.396 E0.10522 ; skirt
G1 F1800.000 E-2.40000 ; retract
G1 X89.029 Y88.916 F6000.000 ; move to first perimeter point
G1 E2.40000 F1800.000 ; compensate retraction
G1 X89.878 Y88.134 E0.08623 F900.000 ; perimeter
G1 X90.741 Y87.450 E0.08223 ; perimeter
G1 X91.649 Y86.828 E0.08223 ; perimeter
G1 X92.600 Y86.272 E0.08223 ; perimeter
G1 X93.587 Y85.784 E0.08223 ; perimeter
G1 X94.606 Y85.367 E0.08223 ; perimeter
G1 X95.652 Y85.023 E0.08223 ; perimeter
G1 X96.719 Y84.754 E0.08223 ; perimeter
G1 X97.803 Y84.560 E0.08223 ; perimeter
G1 X98.898 Y84.444 E0.08223 ; perimeter
G1 X99.999 Y84.405 E0.08223 ; perimeter
G1 X101.099 Y84.444 E0.08223 ; perimeter
G1 X102.194 Y84.560 E0.08223 ; perimeter
G1 X103.278 Y84.754 E0.08223 ; perimeter
G1 X104.346 Y85.023 E0.08223 ; perimeter
G1 X105.392 Y85.367 E0.08223 ; perimeter
G1 X106.361 Y85.764 E0.07823 ; perimeter
G1 X107.398 Y86.272 E0.08623 ; perimeter
G1 X108.348 Y86.828 E0.08223 ; perimeter
G1 X109.257 Y87.450 E0.08223 ; perimeter
G1 X110.120 Y88.134 E0.08223 ; perimeter
G1 X110.932 Y88.877 E0.08223 ; perimeter
G1 X111.689 Y89.676 E0.08223 ; perimeter
G1 X112.389 Y90.527 E0.08223 ; perimeter
G1 X113.027 Y91.424 E0.08223 ; perimeter
G1 X113.599 Y92.365 E0.08223 ; perimeter
G1 X114.104 Y93.343 E0.08223 ; perimeter
G1 X114.539 Y94.355 E0.08223 ; perimeter
G1 X114.902 Y95.394 E0.08223 ; perimeter
G1 X115.190 Y96.457 E0.08223 ; perimeter
G1 X115.402 Y97.537 E0.08223 ; perimeter
G1 X115.538 Y98.630 E0.08223 ; perimeter
G1 X115.596 Y99.735 E0.08263 ; perimeter
G1 X115.577 Y100.829 E0.08171 ; perimeter
G1 X115.480 Y101.927 E0.08237 ; perimeter
G1 X115.305 Y103.015 E0.08223 ; perimeter
G1 X115.055 Y104.087 E0.08223 ; perimeter
G1 X114.730 Y105.139 E0.08223 ; perimeter
G1 X114.331 Y106.165 E0.08223 ; perimeter
G1 X113.861 Y107.161 E0.08223 ; perimeter
G1 X113.321 Y108.121 E0.08223 ; perimeter
G1 X112.716 Y109.040 E0.08223 ; perimeter
G1 X112.047 Y109.915 E0.08223 ; perimeter
G1 X111.318 Y110.740 E0.08223 ; perimeter
G1 X110.532 Y111.511 E0.08223 ; perimeter
G1 X109.694 Y112.226 E0.08223 ; perimeter
G1 X108.808 Y112.879 E0.08223 ; perimeter
G1 X107.878 Y113.469 E0.08223 ; perimeter
G1 X106.909 Y113.991 E0.08223 ; perimeter
G1 X105.905 Y114.443 E0.08223 ; perimeter
G1 X104.872 Y114.824 E0.08223 ; perimeter
G1 X103.814 Y115.131 E0.08223 ; perimeter
G1 X102.738 Y115.362 E0.08223 ; perimeter
G1 X101.648 Y115.517 E0.08223 ; perimeter
G1 X100.549 Y115.595 E0.08223 ; perimeter
G1 X99.448 Y115.595 E0.08223 ; perimeter
G1 X98.350 Y115.517 E0.08223 ; perimeter
G1 X97.260 Y115.362 E0.08223 ; perimeter
G1 X96.183 Y115.131 E0.08223 ; perimeter
G1 X94.907 Y114.761 E0.09922 ; perimeter
G1 X94.907 Y114.744 E0.00128 ; perimeter
G1 X94.093 Y114.443 E0.06485 ; perimeter
G1 X93.089 Y113.991 E0.08223 ; perimeter
G1 X92.120 Y113.469 E0.08223 ; perimeter
G1 X91.189 Y112.879 E0.08223 ; perimeter
G1 X90.346 Y112.258 E0.07823 ; perimeter
G1 X89.465 Y111.511 E0.08623 ; perimeter
G1 X88.680 Y110.740 E0.08223 ; perimeter
G1 X87.951 Y109.915 E0.08223 ; perimeter
G1 X87.282 Y109.040 E0.08223 ; perimeter
G1 X86.676 Y108.121 E0.08223 ; perimeter
G1 X86.137 Y107.161 E0.08223 ; perimeter
G1 X85.690 Y106.213 E0.07823 ; perimeter
G1 X85.268 Y105.139 E0.08623 ; perimeter
G1 X84.942 Y104.087 E0.08223 ; perimeter
G1 X84.692 Y103.015 E0.08223 ; perimeter
G1 X84.526 Y101.980 E0.07823 ; perimeter
G1 X84.421 Y100.831 E0.08623 ; perimeter
G1 X84.401 Y99.730 E0.08223 ; perimeter
G1 X84.460 Y98.630 E0.08223 ; perimeter
G1 X84.595 Y97.537 E0.08223 ; perimeter
G1 X84.808 Y96.457 E0.08223 ; perimeter
G1 X85.096 Y95.394 E0.08223 ; perimeter
G1 X85.458 Y94.355 E0.08223 ; perimeter
G1 X85.893 Y93.343 E0.08223 ; perimeter
G1 X86.398 Y92.365 E0.08223 ; perimeter
G1 X86.971 Y91.424 E0.08223 ; perimeter
G1 X87.609 Y90.527 E0.08223 ; perimeter
G1 X88.308 Y89.676 E0.08223 ; perimeter
G1 X88.952 Y88.998 E0.06984 ; perimeter
G1 X89.748 Y89.123 F6000.000 ; move inwards before travel
G1 X89.591 Y89.412 F6000.000 ; move to first perimeter point
G1 X90.364 Y88.704 E0.07829 F900.000 ; perimeter
G1 X91.185 Y88.052 E0.07829 ; perimeter
G1 X92.050 Y87.460 E0.07829 ; perimeter
G1 X92.955 Y86.931 E0.07828 ; perimeter
G1 X93.895 Y86.467 E0.07829 ; perimeter
G1 X94.865 Y86.070 E0.07829 ; perimeter
G1 X95.861 Y85.742 E0.07829 ; perimeter
G1 X96.877 Y85.486 E0.07829 ; perimeter
G1 X97.909 Y85.302 E0.07829 ; perimeter
G1 X98.951 Y85.191 E0.07829 ; perimeter
G1 X99.999 Y85.154 E0.07829 ; perimeter
G1 X101.046 Y85.191 E0.07829 ; perimeter
G1 X102.089 Y85.302 E0.07829 ; perimeter
G1 X103.121 Y85.486 E0.07829 ; perimeter
G1 X104.137 Y85.742 E0.07829 ; perimeter
G1 X105.133 Y86.070 E0.07829 ; perimeter
G1 X106.103 Y86.467 E0.07829 ; perimeter
G1 X107.043 Y86.931 E0.07829 ; perimeter
G1 X107.947 Y87.460 E0.07829 ; perimeter
G1 X108.812 Y88.052 E0.07829 ; perimeter
G1 X109.634 Y88.704 E0.07829 ; perimeter
G1 X110.407 Y89.412 E0.07829 ; perimeter
G1 X111.128 Y90.172 E0.07829 ; perimeter
G1 X111.777 Y90.961 E0.07625 ; perimeter
G1 X112.401 Y91.836 E0.08031 ; perimeter
G1 X112.946 Y92.731 E0.07829 ; perimeter
G1 X113.427 Y93.663 E0.07829 ; perimeter
G1 X113.841 Y94.626 E0.07829 ; perimeter
G1 X114.186 Y95.616 E0.07829 ; perimeter
G1 X114.460 Y96.627 E0.07829 ; perimeter
G1 X114.663 Y97.656 E0.07829 ; perimeter
G1 X114.792 Y98.696 E0.07829 ; perimeter
G1 X114.848 Y99.758 E0.07942 ; perimeter
G1 X114.829 Y100.786 E0.07677 ; perimeter
G1 X114.736 Y101.835 E0.07866 ; perimeter
G1 X114.571 Y102.870 E0.07829 ; perimeter
G1 X114.332 Y103.891 E0.07829 ; perimeter
G1 X114.022 Y104.892 E0.07829 ; perimeter
G1 X113.643 Y105.869 E0.07829 ; perimeter
G1 X113.195 Y106.817 E0.07829 ; perimeter
G1 X112.682 Y107.731 E0.07829 ; perimeter
G1 X112.105 Y108.606 E0.07829 ; perimeter
G1 X111.468 Y109.439 E0.07829 ; perimeter
G1 X110.774 Y110.224 E0.07829 ; perimeter
G1 X110.026 Y110.959 E0.07829 ; perimeter
G1 X109.249 Y111.621 E0.07625 ; perimeter
G1 X108.385 Y112.261 E0.08031 ; perimeter
G1 X107.500 Y112.822 E0.07829 ; perimeter
G1 X106.577 Y113.319 E0.07829 ; perimeter
G1 X105.621 Y113.750 E0.07829 ; perimeter
G1 X104.638 Y114.113 E0.07829 ; perimeter
G1 X103.631 Y114.405 E0.07829 ; perimeter
G1 X102.633 Y114.619 E0.07625 ; perimeter
G1 X101.568 Y114.773 E0.08031 ; perimeter
G1 X100.523 Y114.847 E0.07829 ; perimeter
G1 X99.475 Y114.847 E0.07829 ; perimeter
G1 X98.429 Y114.773 E0.07829 ; perimeter
G1 X97.391 Y114.625 E0.07828 ; perimeter
G1 X96.366 Y114.405 E0.07829 ; perimeter
G1 X95.360 Y114.113 E0.07829 ; perimeter
G1 X94.376 Y113.750 E0.07829 ; perimeter
G1 X93.421 Y113.319 E0.07829 ; perimeter
G1 X92.498 Y112.822 E0.07829 ; perimeter
G1 X91.612 Y112.261 E0.07829 ; perimeter
G1 X90.769 Y111.639 E0.07829 ; perimeter
G1 X89.971 Y110.959 E0.07829 ; perimeter
G1 X89.223 Y110.224 E0.07829 ; perimeter
G1 X88.529 Y109.439 E0.07829 ; perimeter
G1 X87.892 Y108.606 E0.07829 ; perimeter
G1 X87.316 Y107.731 E0.07829 ; perimeter
G1 X86.802 Y106.817 E0.07829 ; perimeter
G1 X86.366 Y105.894 E0.07625 ; perimeter
G1 X85.975 Y104.892 E0.08031 ; perimeter
G1 X85.665 Y103.891 E0.07829 ; perimeter
G1 X85.427 Y102.870 E0.07829 ; perimeter
G1 X85.265 Y101.862 E0.07625 ; perimeter
G1 X85.169 Y100.791 E0.08031 ; perimeter
G1 X85.150 Y99.743 E0.07829 ; perimeter
G1 X85.204 Y98.723 E0.07626 ; perimeter
G1 X85.335 Y97.656 E0.08031 ; perimeter
G1 X85.537 Y96.627 E0.07829 ; perimeter
