; generated by Slic3r 1.0.1 on 2014-09-28 at 20:17:31

; layer_height = 0.24
; perimeters = 2
; top_solid_layers = 4
; bottom_solid_layers = 4
; fill_density = 0.25
; perimeter_speed = 30
; infill_speed = 30
; travel_speed = 100
; nozzle_diameter = 0.5
; filament_diameter = 1.75
; extrusion_multiplier = 1
; perimeters extrusion width = 0.50mm
; infill extrusion width = 0.50mm
; solid infill extrusion width = 0.50mm
; top infill extrusion width = 0.50mm
; first layer extrusion width = 0.80mm

G21 ; set units to millimeters
M107 ; disable fan
M190 S57 ; wait for bed temperature to be reached
M104 S200 ; set temperature

M109 S200 ; wait for temperature to be reached
G90 ; use absolute coordinates
M83 ; use relative distances for extrusion
G1 F1800.000 E-2.40000 ; retract
G1 Z0.240 F6000.000 ; move to next layer (0)
G1 X57.520 Y88.235 F6000.000 ; move to first skirt point
G1 E2.40000 F1800.000 ; compensate retraction
G1 X88.350 Y69.105 E2.70979 F900.000 ; skirt
G1 X89.740 Y68.485 E0.11367 ; skirt
G1 X91.250 Y68.275 E0.11386 ; skirt
G1 X108.750 Y68.275 E1.30699 ; skirt
G1 X110.260 Y68.485 E0.11386 ; skirt
G1 X111.650 Y69.105 E0.11367 ; skirt
G1 X142.470 Y88.235 E2.70916 ; skirt
G1 X142.990 Y88.595 E0.04724 ; skirt
G1 X143.460 Y89.015 E0.04708 ; skirt
G1 X144.500 Y90.055 E0.10985 ; skirt
G1 X145.360 Y91.185 E0.10606 ; skirt
G1 X145.910 Y92.485 E0.10542 ; skirt
G1 X146.300 Y93.905 E0.10998 ; skirt
G1 X146.450 Y94.635 E0.05566 ; skirt
G1 X146.500 Y95.365 E0.05465 ; skirt
G1 X146.500 Y123.365 E2.09119 ; skirt
G1 X146.450 Y124.095 E0.05465 ; skirt
G1 X146.300 Y124.815 E0.05493 ; skirt
G1 X145.910 Y126.245 E0.11070 ; skirt
G1 X145.360 Y127.555 E0.10611 ; skirt
G1 X144.500 Y128.685 E0.10606 ; skirt
G1 X143.460 Y129.725 E0.10985 ; skirt
G1 X142.330 Y130.585 E0.10606 ; skirt
G1 X141.020 Y131.135 E0.10611 ; skirt
G1 X139.590 Y131.525 E0.11070 ; skirt
G1 X138.870 Y131.675 E0.05493 ; skirt
G1 X138.140 Y131.725 E0.05465 ; skirt
G1 X61.840 Y131.725 E5.69848 ; skirt
G1 X61.110 Y131.675 E0.05465 ; skirt
G1 X60.380 Y131.525 E0.05566 ; skirt
G1 X58.960 Y131.135 E0.10998 ; skirt
G1 X57.660 Y130.585 E0.10542 ; skirt
G1 X56.530 Y129.725 E0.10606 ; skirt
G1 X55.490 Y128.685 E0.10985 ; skirt
G1 X54.620 Y127.535 E0.10770 ; skirt
G1 X54.070 Y126.205 E0.10749 ; skirt
G1 X53.690 Y124.775 E0.11051 ; skirt
G1 X53.550 Y124.075 E0.05331 ; skirt
G1 X53.500 Y123.365 E0.05316 ; skirt
G1 X53.500 Y95.365 E2.09119 ; skirt
G1 X53.550 Y94.645 E0.05390 ; skirt
G1 X53.690 Y93.945 E0.05331 ; skirt
G1 X54.070 Y92.525 E0.10978 ; skirt
G1 X54.620 Y91.195 E0.10749 ; skirt
G1 X55.490 Y90.055 E0.10710 ; skirt
G1 X56.530 Y89.015 E0.10985 ; skirt
G1 X57.000 Y88.595 E0.04708 ; skirt
G1 X57.428 Y88.299 E0.03885 ; skirt
G1 X57.920 Y88.875 F6000.000 ; move to first skirt point
G1 X88.750 Y69.745 E2.70979 F900.000 ; skirt
G1 X89.950 Y69.205 E0.09828 ; skirt
G1 X91.250 Y69.025 E0.09802 ; skirt
G1 X108.750 Y69.025 E1.30699 ; skirt
G1 X110.050 Y69.205 E0.09802 ; skirt
G1 X111.250 Y69.745 E0.09828 ; skirt
G1 X142.070 Y88.875 E2.70916 ; skirt
G1 X142.520 Y89.185 E0.04081 ; skirt
G1 X142.930 Y89.545 E0.04075 ; skirt
G1 X143.970 Y90.585 E0.10985 ; skirt
G1 X144.710 Y91.555 E0.09112 ; skirt
G1 X145.190 Y92.685 E0.09169 ; skirt
G1 X145.580 Y94.105 E0.10998 ; skirt
G1 X145.710 Y94.735 E0.04804 ; skirt
G1 X145.750 Y95.365 E0.04715 ; skirt
G1 X145.750 Y123.365 E2.09119 ; skirt
G1 X145.710 Y123.995 E0.04715 ; skirt
G1 X145.580 Y124.615 E0.04731 ; skirt
G1 X145.190 Y126.045 E0.11070 ; skirt
G1 X144.720 Y127.175 E0.09140 ; skirt
G1 X143.970 Y128.155 E0.09217 ; skirt
G1 X142.930 Y129.195 E0.10985 ; skirt
G1 X141.950 Y129.945 E0.09217 ; skirt
G1 X140.820 Y130.415 E0.09140 ; skirt
G1 X139.390 Y130.805 E0.11070 ; skirt
G1 X138.770 Y130.935 E0.04731 ; skirt
G1 X138.140 Y130.975 E0.04715 ; skirt
G1 X61.840 Y130.975 E5.69848 ; skirt
G1 X61.210 Y130.935 E0.04715 ; skirt
G1 X60.580 Y130.805 E0.04804 ; skirt
G1 X59.160 Y130.415 E0.10998 ; skirt
G1 X58.030 Y129.935 E0.09169 ; skirt
G1 X57.060 Y129.195 E0.09112 ; skirt
G1 X56.020 Y128.155 E0.10985 ; skirt
G1 X55.270 Y127.165 E0.09276 ; skirt
G1 X54.790 Y126.015 E0.09307 ; skirt
G1 X54.410 Y124.585 E0.11051 ; skirt
G1 X54.290 Y123.975 E0.04643 ; skirt
G1 X54.250 Y123.365 E0.04566 ; skirt
G1 X54.250 Y95.365 E2.09119 ; skirt
G1 X54.290 Y94.745 E0.04640 ; skirt
G1 X54.410 Y94.135 E0.04643 ; skirt
G1 X54.790 Y92.715 E0.10978 ; skirt
G1 X55.270 Y91.575 E0.09238 ; skirt
G1 X56.020 Y90.585 E0.09276 ; skirt
G1 X57.060 Y89.545 E0.10985 ; skirt
G1 X57.470 Y89.185 E0.04075 ; skirt
G1 X57.828 Y88.939 E0.03243 ; skirt
G1 F1800.000 E-2.40000 ; retract
G1 X60.632 Y93.265 F6000.000 ; move to first perimeter point
G1 E2.40000 F1800.000 ; compensate retraction
G1 X61.746 Y92.967 E0.08610 F900.000 ; perimeter
G1 X61.884 Y93.207 E0.02069 ; perimeter
G1 X61.013 Y94.078 E0.09199 ; perimeter
G1 X60.706 Y95.225 E0.08869 ; perimeter
G1 X61.013 Y96.372 E0.08869 ; perimeter
G1 X61.853 Y97.212 E0.08869 ; perimeter
G1 X63.000 Y97.519 E0.08869 ; perimeter
G1 X64.147 Y97.212 E0.08869 ; perimeter
G1 X64.472 Y96.887 E0.03429 ; perimeter
G1 X64.987 Y96.372 E0.05440 ; perimeter
G1 X65.294 Y95.225 E0.08869 ; perimeter
G1 X64.987 Y94.078 E0.08869 ; perimeter
G1 X63.834 Y92.925 E0.12177 ; perimeter
G1 X85.268 Y92.925 E1.60084 ; perimeter
G1 X87.677 Y92.450 E0.18337 ; perimeter
G1 X87.774 Y92.401 E0.00812 ; perimeter
G1 X89.752 Y91.075 E0.17784 ; perimeter
G1 X89.851 Y90.956 E0.01158 ; perimeter
G1 X91.149 Y89.010 E0.17473 ; perimeter
G1 X91.183 Y88.922 E0.00702 ; perimeter
G1 X91.650 Y86.532 E0.18186 ; perimeter
G1 X91.650 Y74.175 E0.92288 ; perimeter
G1 X108.350 Y74.175 E1.24724 ; perimeter
G1 X108.350 Y86.535 E0.92313 ; perimeter
G1 X108.827 Y88.962 E0.18468 ; perimeter
G1 X110.165 Y90.979 E0.18079 ; perimeter
G1 X110.249 Y91.076 E0.00961 ; perimeter
G1 X112.219 Y92.396 E0.17709 ; perimeter
G1 X112.314 Y92.448 E0.00808 ; perimeter
G1 X114.723 Y92.925 E0.18340 ; perimeter
G1 X136.166 Y92.925 E1.60150 ; perimeter
G1 X135.013 Y94.078 E0.12177 ; perimeter
G1 X134.706 Y95.225 E0.08869 ; perimeter
G1 X135.013 Y96.372 E0.08869 ; perimeter
G1 X135.853 Y97.212 E0.08869 ; perimeter
G1 X137.000 Y97.519 E0.08869 ; perimeter
G1 X138.147 Y97.212 E0.08869 ; perimeter
G1 X138.987 Y96.372 E0.08869 ; perimeter
G1 X139.294 Y95.225 E0.08869 ; perimeter
G1 X138.987 Y94.078 E0.08869 ; perimeter
G1 X138.116 Y93.207 E0.09199 ; perimeter
G1 X138.254 Y92.967 E0.02069 ; perimeter
G1 X139.368 Y93.265 E0.08611 ; perimeter
G1 X140.260 Y94.157 E0.09417 ; perimeter
G1 X140.600 Y95.428 E0.09824 ; perimeter
G1 X140.600 Y123.322 E2.08332 ; perimeter
G1 X140.260 Y124.593 E0.09824 ; perimeter
G1 X139.368 Y125.485 E0.09417 ; perimeter
G1 X138.309 Y125.768 E0.08188 ; perimeter
G1 X138.170 Y125.528 E0.02069 ; perimeter
G1 X138.987 Y124.712 E0.08622 ; perimeter
G1 X139.294 Y123.565 E0.08869 ; perimeter
G1 X138.987 Y122.418 E0.08869 ; perimeter
G1 X138.147 Y121.578 E0.08869 ; perimeter
G1 X137.000 Y121.271 E0.08869 ; perimeter
G1 X135.853 Y121.578 E0.08869 ; perimeter
G1 X135.013 Y122.418 E0.08869 ; perimeter
G1 X134.706 Y123.565 E0.08869 ; perimeter
G1 X135.013 Y124.712 E0.08869 ; perimeter
G1 X136.126 Y125.825 E0.11755 ; perimeter
G1 X63.874 Y125.825 E5.39618 ; perimeter
G1 X64.987 Y124.712 E0.11755 ; perimeter
G1 X65.294 Y123.565 E0.08869 ; perimeter
G1 X64.987 Y122.418 E0.08869 ; perimeter
G1 X64.147 Y121.578 E0.08869 ; perimeter
G1 X63.000 Y121.271 E0.08869 ; perimeter
G1 X61.853 Y121.578 E0.08869 ; perimeter
G1 X61.013 Y122.418 E0.08869 ; perimeter
G1 X60.706 Y123.565 E0.08869 ; perimeter
G1 X61.013 Y124.712 E0.08869 ; perimeter
G1 X61.830 Y125.528 E0.08622 ; perimeter
G1 X61.691 Y125.768 E0.02069 ; perimeter
G1 X60.632 Y125.485 E0.08188 ; perimeter
G1 X59.740 Y124.593 E0.09417 ; perimeter
G1 X59.400 Y123.322 E0.09824 ; perimeter
G1 X59.400 Y95.428 E2.08332 ; perimeter
G1 X59.740 Y94.157 E0.09824 ; perimeter
G1 X60.553 Y93.345 E0.08579 ; perimeter
G1 X61.245 Y93.695 F6000.000 ; move inwards before travel
G1 F1800.000 E-2.40000 ; retract
G1 X60.148 Y96.566 F6000.000 ; move to first perimeter point
G1 E2.40000 F1800.000 ; compensate retraction
G1 X61.465 Y97.883 E0.13910 F900.000 ; perimeter
G1 X63.000 Y98.294 E0.11865 ; perimeter
G1 X64.535 Y97.883 E0.11865 ; perimeter
G1 X65.658 Y96.759 E0.11865 ; perimeter
G1 X66.069 Y95.225 E0.11865 ; perimeter
G1 X65.653 Y93.673 E0.11996 ; perimeter
G1 X85.302 Y93.673 E1.46748 ; perimeter
G1 X85.478 Y93.658 E0.01315 ; perimeter
G1 X87.922 Y93.164 E0.18627 ; perimeter
G1 X88.173 Y93.038 E0.02096 ; perimeter
G1 X90.239 Y91.650 E0.18592 ; perimeter
G1 X90.393 Y91.486 E0.01674 ; perimeter
G1 X90.489 Y91.349 E0.01251 ; perimeter
G1 X91.819 Y89.355 E0.17902 ; perimeter
G1 X91.905 Y89.129 E0.01804 ; perimeter
G1 X92.370 Y86.795 E0.17773 ; perimeter
G1 X92.398 Y86.545 E0.01883 ; perimeter
G1 X92.398 Y74.923 E0.86795 ; perimeter
G1 X107.602 Y74.923 E1.13544 ; perimeter
G1 X107.602 Y86.554 E0.86866 ; perimeter
G1 X107.618 Y86.732 E0.01331 ; perimeter
G1 X108.115 Y89.222 E0.18962 ; perimeter
G1 X108.234 Y89.437 E0.01839 ; perimeter
G1 X109.552 Y91.409 E0.17708 ; perimeter
G1 X109.765 Y91.653 E0.02418 ; perimeter
G1 X111.811 Y93.026 E0.18409 ; perimeter
G1 X112.054 Y93.160 E0.02071 ; perimeter
G1 X114.485 Y93.650 E0.18515 ; perimeter
G1 X114.676 Y93.673 E0.01444 ; perimeter
G1 X134.347 Y93.673 E1.46909 ; perimeter
G1 X133.931 Y95.225 E0.11996 ; perimeter
G1 X134.342 Y96.760 E0.11865 ; perimeter
G1 X135.465 Y97.883 E0.11865 ; perimeter
G1 X137.000 Y98.294 E0.11865 ; perimeter
G1 X138.535 Y97.883 E0.11865 ; perimeter
G1 X139.852 Y96.566 E0.13910 ; perimeter
G1 X139.852 Y122.224 E1.91630 ; perimeter
G1 X138.535 Y120.907 E0.13910 ; perimeter
G1 X137.000 Y120.496 E0.11865 ; perimeter
G1 X135.465 Y120.907 E0.11865 ; perimeter
G1 X134.342 Y122.030 E0.11865 ; perimeter
G1 X133.931 Y123.565 E0.11865 ; perimeter
G1 X134.336 Y125.077 E0.11687 ; perimeter
G1 X65.664 Y125.077 E5.12878 ; perimeter
G1 X66.069 Y123.565 E0.11687 ; perimeter
G1 X65.658 Y122.030 E0.11865 ; perimeter
G1 X64.535 Y120.907 E0.11865 ; perimeter
G1 X63.000 Y120.496 E0.11865 ; perimeter
G1 X61.465 Y120.907 E0.11865 ; perimeter
G1 X60.148 Y122.224 E0.13910 ; perimeter
G1 X60.148 Y96.678 E1.90791 ; perimeter
G1 F1800.000 E-2.40000 ; retract
G1 X64.308 Y120.295 F6000.000 ; move to first fill point
G1 E2.40000 F1800.000 ; compensate retraction
G1 X60.681 Y116.668 E0.38317 F900.000 ; fill
G1 X60.681 Y117.727 E0.07911 ; fill
G1 X62.920 Y119.966 E0.23654 ; fill
G1 X62.085 Y120.190 E0.06460 ; fill
G1 X60.681 Y118.786 E0.14830 ; fill
G1 X60.681 Y119.845 E0.07911 ; fill
G1 X61.250 Y120.414 E0.06006 ; fill
G1 X60.681 Y120.904 E0.05609 ; fill
G1 X60.698 Y120.921 E0.00180 ; fill
G1 F1800.000 E-2.40000 ; retract
G1 X66.270 Y122.257 F6000.000 ; move to first fill point
G1 E2.40000 F1800.000 ; compensate retraction
G1 X68.557 Y124.544 E0.24159 F900.000 ; fill
G1 X67.498 Y124.544 E0.07911 ; fill
G1 X66.599 Y123.645 E0.09496 ; fill
G1 X66.375 Y124.480 E0.06460 ; fill
G1 X66.439 Y124.544 E0.00671 ; fill
G1 F1800.000 E-2.40000 ; retract
G1 X69.615 Y124.544 F6000.000 ; move to first fill point
G1 E2.40000 F1800.000 ; compensate retraction
G1 X60.681 Y115.610 E0.94400 F900.000 ; fill
G1 X60.681 Y114.551 E0.07911 ; fill
G1 X70.674 Y124.544 E1.05588 ; fill
G1 X71.733 Y124.544 E0.07911 ; fill
G1 X60.681 Y113.492 E1.16776 ; fill
G1 X60.681 Y112.433 E0.07911 ; fill
G1 X72.792 Y124.544 E1.27965 ; fill
G1 X73.851 Y124.544 E0.07911 ; fill
G1 X60.681 Y111.374 E1.39153 ; fill
G1 X60.681 Y110.315 E0.07911 ; fill
G1 X74.910 Y124.544 E1.50342 ; fill
G1 X75.969 Y124.544 E0.07911 ; fill
G1 X60.681 Y109.256 E1.61530 ; fill
G1 X60.681 Y108.197 E0.07911 ; fill
G1 X77.028 Y124.544 E1.72719 ; fill
G1 X78.087 Y124.544 E0.07911 ; fill
G1 X60.681 Y107.138 E1.83907 ; fill
G1 X60.681 Y106.079 E0.07911 ; fill
G1 X79.146 Y124.544 E1.95095 ; fill
G1 X80.205 Y124.544 E0.07911 ; fill
G1 X60.681 Y105.020 E2.06284 ; fill
G1 X60.681 Y103.961 E0.07911 ; fill
G1 X81.264 Y124.544 E2.17472 ; fill
G1 X82.322 Y124.544 E0.07911 ; fill
G1 X60.681 Y102.903 E2.28661 ; fill
G1 X60.681 Y101.844 E0.07911 ; fill
G1 X83.381 Y124.544 E2.39849 ; fill
G1 X84.440 Y124.544 E0.07911 ; fill
G1 X60.681 Y100.785 E2.51038 ; fill
G1 X60.681 Y99.726 E0.07911 ; fill
G1 X85.499 Y124.544 E2.62226 ; fill
G1 X86.558 Y124.544 E0.07911 ; fill
G1 X60.681 Y98.667 E2.73414 ; fill
G1 X61.523 Y98.450 E0.06495 ; fill
G1 X87.617 Y124.544 E2.75709 ; fill
G1 X88.676 Y124.544 E0.07911 ; fill
G1 X62.969 Y98.837 E2.71614 ; fill
G1 X63.817 Y98.626 E0.06529 ; fill
G1 X89.735 Y124.544 E2.73842 ; fill
G1 X90.794 Y124.544 E0.07911 ; fill
G1 X64.653 Y98.403 E2.76206 ; fill
G1 X65.240 Y97.931 E0.05627 ; fill
G1 X91.853 Y124.544 E2.81191 ; fill
G1 X92.912 Y124.544 E0.07911 ; fill
G1 X65.769 Y97.401 E2.86785 ; fill
G1 X66.204 Y96.778 E0.05682 ; fill
G1 X93.971 Y124.544 E2.93375 ; fill
G1 X95.029 Y124.544 E0.07911 ; fill
G1 X66.428 Y95.943 E3.02199 ; fill
G1 X66.566 Y95.021 E0.06959 ; fill
G1 X96.088 Y124.544 E3.11933 ; fill
G1 X97.147 Y124.544 E0.07911 ; fill
G1 X66.810 Y94.206 E3.20546 ; fill
G1 X67.869 Y94.206 E0.07911 ; fill
G1 X98.206 Y124.544 E3.20546 ; fill
G1 X99.265 Y124.544 E0.07911 ; fill
G1 X68.927 Y94.206 E3.20546 ; fill
G1 X69.986 Y94.206 E0.07911 ; fill
G1 X100.324 Y124.544 E3.20546 ; fill
G1 X101.383 Y124.544 E0.07911 ; fill
G1 X71.045 Y94.206 E3.20546 ; fill
G1 X72.104 Y94.206 E0.07911 ; fill
G1 X102.442 Y124.544 E3.20546 ; fill
G1 X103.501 Y124.544 E0.07911 ; fill
G1 X73.163 Y94.206 E3.20546 ; fill
G1 X74.222 Y94.206 E0.07911 ; fill
G1 X104.560 Y124.544 E3.20546 ; fill
G1 X105.619 Y124.544 E0.07911 ; fill
G1 X75.281 Y94.206 E3.20546 ; fill
G1 X76.340 Y94.206 E0.07911 ; fill
G1 X106.678 Y124.544 E3.20546 ; fill
G1 X107.736 Y124.544 E0.07911 ; fill
G1 X77.399 Y94.206 E3.20546 ; fill
G1 X78.458 Y94.206 E0.07911 ; fill
G1 X108.795 Y124.544 E3.20546 ; fill
G1 X109.854 Y124.544 E0.07911 ; fill
G1 X79.517 Y94.206 E3.20546 ; fill
G1 X80.576 Y94.206 E0.07911 ; fill
G1 X110.913 Y124.544 E3.20546 ; fill
G1 X111.972 Y124.544 E0.07911 ; fill
G1 X81.634 Y94.206 E3.20546 ; fill
G1 X82.693 Y94.206 E0.07911 ; fill
G1 X113.031 Y124.544 E3.20546 ; fill
G1 X114.090 Y124.544 E0.07911 ; fill
G1 X83.752 Y94.206 E3.20546 ; fill
G1 X84.811 Y94.206 E0.07911 ; fill
G1 X115.149 Y124.544 E3.20546 ; fill
G1 X116.208 Y124.544 E0.07911 ; fill
G1 X85.800 Y94.136 E3.21288 ; fill
G1 X86.681 Y93.958 E0.06716 ; fill
G1 X117.267 Y124.544 E3.23166 ; fill
G1 X118.326 Y124.544 E0.07911 ; fill
G1 X87.562 Y93.780 E3.25044 ; fill
G1 X88.374 Y93.534 E0.06341 ; fill
G1 X119.385 Y124.544 E3.27653 ; fill
G1 X120.443 Y124.544 E0.07911 ; fill
G1 X89.014 Y93.115 E3.32076 ; fill
G1 X89.648 Y92.689 E0.05701 ; fill
G1 X121.502 Y124.544 E3.36573 ; fill
G1 X122.561 Y124.544 E0.07911 ; fill
G1 X90.281 Y92.264 E3.41070 ; fill
G1 X90.845 Y91.769 E0.05606 ; fill
G1 X123.620 Y124.544 E3.46297 ; fill
G1 X124.679 Y124.544 E0.07911 ; fill
G1 X91.272 Y91.136 E3.52982 ; fill
G1 X91.695 Y90.501 E0.05705 ; fill
G1 X125.738 Y124.544 E3.59696 ; fill
G1 X126.797 Y124.544 E0.07911 ; fill
G1 X92.119 Y89.865 E3.66409 ; fill
G1 X92.447 Y89.135 E0.05985 ; fill
G1 X127.856 Y124.544 E3.74131 ; fill
G1 X128.915 Y124.544 E0.07911 ; fill
G1 X92.623 Y88.252 E3.83459 ; fill
G1 X92.799 Y87.369 E0.06726 ; fill
G1 X129.974 Y124.544 E3.92787 ; fill
G1 X131.033 Y124.544 E0.07911 ; fill
G1 X92.931 Y86.442 E4.02578 ; fill
G1 X92.931 Y85.383 E0.07911 ; fill
G1 X132.092 Y124.544 E4.13766 ; fill
G1 X133.150 Y124.544 E0.07911 ; fill
G1 X92.931 Y84.324 E4.24954 ; fill
G1 X92.931 Y83.266 E0.07911 ; fill
G1 X133.434 Y123.769 E4.27951 ; fill
G1 X133.572 Y122.847 E0.06959 ; fill
G1 X92.931 Y82.207 E4.29406 ; fill
G1 X92.931 Y81.148 E0.07911 ; fill
G1 X133.796 Y122.012 E4.31771 ; fill
G1 X134.231 Y121.389 E0.05682 ; fill
G1 X92.931 Y80.089 E4.36369 ; fill
G1 X92.931 Y79.030 E0.07911 ; fill
G1 X134.760 Y120.859 E4.41963 ; fill
G1 X135.347 Y120.387 E0.05627 ; fill
G1 X92.931 Y77.971 E4.48168 ; fill
G1 X92.931 Y76.912 E0.07911 ; fill
G1 X136.183 Y120.164 E4.56992 ; fill
G1 X137.031 Y119.953 E0.06529 ; fill
