; generated by Slic3r 1.0.1 on 2014-07-03 at 21:11:38

; layer_height = 0.24
; perimeters = 2
; top_solid_layers = 3
; bottom_solid_layers = 3
; fill_density = 0.25
; perimeter_speed = 30
; infill_speed = 30
; travel_speed = 100
; nozzle_diameter = 0.5
; filament_diameter = 1.75
; extrusion_multiplier = 1
; perimeters extrusion width = 0.50mm
; infill extrusion width = 0.50mm
; solid infill extrusion width = 0.50mm
; top infill extrusion width = 0.50mm
; first layer extrusion width = 0.80mm

G21 ; set units to millimeters
M107 ; disable fan
M190 S57 ; wait for bed temperature to be reached
M104 S200 ; set temperature

M109 S200 ; wait for temperature to be reached
G90 ; use absolute coordinates
M83 ; use relative distances for extrusion
G1 F1800.000 E-2.40000 ; retract
G1 Z0.240 F6000.000 ; move to next layer (0)
G1 X88.640 Y79.630 F6000.000 ; move to first skirt point
G1 E2.40000 F1800.000 ; compensate retraction
G1 X89.260 Y79.010 E0.06548 F900.000 ; skirt
G1 X90.250 Y78.260 E0.09276 ; skirt
G1 X91.390 Y77.780 E0.09238 ; skirt
G1 X92.620 Y77.620 E0.09264 ; skirt
G1 X117.620 Y77.620 E1.86713 ; skirt
G1 X118.850 Y77.780 E0.09264 ; skirt
G1 X119.990 Y78.260 E0.09238 ; skirt
G1 X120.980 Y79.010 E0.09276 ; skirt
G1 X121.730 Y80.000 E0.09276 ; skirt
G1 X122.210 Y81.140 E0.09238 ; skirt
G1 X122.370 Y82.370 E0.09264 ; skirt
G1 X122.370 Y101.110 E1.39960 ; skirt
G1 X122.270 Y102.070 E0.07209 ; skirt
G1 X121.980 Y102.990 E0.07204 ; skirt
G1 X115.760 Y117.400 E1.17219 ; skirt
G1 X115.210 Y118.360 E0.08263 ; skirt
G1 X114.450 Y119.160 E0.08241 ; skirt
G1 X113.530 Y119.760 E0.08203 ; skirt
G1 X112.490 Y120.140 E0.08270 ; skirt
G1 X111.400 Y120.270 E0.08198 ; skirt
G1 X98.620 Y120.270 E0.95448 ; skirt
G1 X97.730 Y120.180 E0.06681 ; skirt
G1 X96.870 Y119.940 E0.06668 ; skirt
G1 X90.250 Y117.320 E0.53173 ; skirt
G1 X89.260 Y116.780 E0.08422 ; skirt
G1 X88.420 Y116.020 E0.08460 ; skirt
G1 X87.780 Y115.080 E0.08493 ; skirt
G1 X87.390 Y114.020 E0.08435 ; skirt
G1 X87.250 Y112.900 E0.08430 ; skirt
G1 X87.250 Y82.990 E2.23383 ; skirt
G1 X87.410 Y81.760 E0.09264 ; skirt
G1 X87.890 Y80.620 E0.09238 ; skirt
G1 X88.572 Y79.719 E0.08437 ; skirt
G1 F1800.000 E-2.40000 ; retract
G1 X92.400 Y83.166 F6000.000 ; move to first perimeter point
G1 E2.40000 F1800.000 ; compensate retraction
G1 X92.786 Y82.780 E0.04074 F900.000 ; perimeter
G1 X117.220 Y82.780 E1.82488 ; perimeter
G1 X117.220 Y100.720 E1.33985 ; perimeter
G1 X115.080 Y100.720 E0.15983 ; perimeter
G1 X115.080 Y93.720 E0.52280 ; perimeter
G1 X111.520 Y93.720 E0.26588 ; perimeter
G1 X111.520 Y101.100 E0.55118 ; perimeter
G1 X111.000 Y101.100 E0.03884 ; perimeter
G1 X111.000 Y108.166 E0.52770 ; perimeter
G1 X111.120 Y108.286 E0.01267 ; perimeter
G1 X111.120 Y114.492 E0.46350 ; perimeter
G1 X111.094 Y115.120 E0.04699 ; perimeter
G1 X98.699 Y115.127 E0.92573 ; perimeter
G1 X92.400 Y112.634 E0.50593 ; perimeter
G1 X92.400 Y106.933 E0.42575 ; perimeter
G1 X93.377 Y107.399 E0.08078 ; perimeter
G1 X93.927 Y107.626 E0.04449 ; perimeter
G1 X94.489 Y107.825 E0.04448 ; perimeter
G1 X95.060 Y107.994 E0.04449 ; perimeter
G1 X95.639 Y108.133 E0.04449 ; perimeter
G1 X96.225 Y108.241 E0.04449 ; perimeter
G1 X96.815 Y108.318 E0.04448 ; perimeter
G1 X97.409 Y108.365 E0.04449 ; perimeter
G1 X98.005 Y108.380 E0.04449 ; perimeter
G1 X98.600 Y108.364 E0.04449 ; perimeter
G1 X99.157 Y108.320 E0.04170 ; perimeter
G1 X99.784 Y108.239 E0.04727 ; perimeter
G1 X100.370 Y108.131 E0.04448 ; perimeter
G1 X100.949 Y107.991 E0.04449 ; perimeter
G1 X101.520 Y107.822 E0.04449 ; perimeter
G1 X102.082 Y107.623 E0.04449 ; perimeter
G1 X102.614 Y107.402 E0.04307 ; perimeter
G1 X103.169 Y107.138 E0.04589 ; perimeter
G1 X103.693 Y106.854 E0.04448 ; perimeter
G1 X104.201 Y106.543 E0.04449 ; perimeter
G1 X104.703 Y106.196 E0.04555 ; perimeter
G1 X105.164 Y105.842 E0.04342 ; perimeter
G1 X105.617 Y105.455 E0.04449 ; perimeter
G1 X106.049 Y105.045 E0.04449 ; perimeter
G1 X106.459 Y104.613 E0.04448 ; perimeter
G1 X106.845 Y104.160 E0.04448 ; perimeter
G1 X107.208 Y103.688 E0.04449 ; perimeter
G1 X107.545 Y103.197 E0.04449 ; perimeter
G1 X107.856 Y102.689 E0.04449 ; perimeter
G1 X108.140 Y102.165 E0.04449 ; perimeter
G1 X108.397 Y101.628 E0.04449 ; perimeter
G1 X108.583 Y101.178 E0.03635 ; perimeter
G1 X108.823 Y100.516 E0.05261 ; perimeter
G1 X108.993 Y99.945 E0.04449 ; perimeter
G1 X109.142 Y99.309 E0.04877 ; perimeter
G1 X109.240 Y98.780 E0.04020 ; perimeter
G1 X109.318 Y98.189 E0.04448 ; perimeter
G1 X109.365 Y97.595 E0.04449 ; perimeter
G1 X109.380 Y97.000 E0.04449 ; perimeter
G1 X109.365 Y96.405 E0.04449 ; perimeter
G1 X109.318 Y95.811 E0.04449 ; perimeter
G1 X109.240 Y95.220 E0.04449 ; perimeter
G1 X109.112 Y94.555 E0.05061 ; perimeter
G1 X108.993 Y94.055 E0.03836 ; perimeter
G1 X108.823 Y93.484 E0.04448 ; perimeter
G1 X108.625 Y92.923 E0.04449 ; perimeter
G1 X108.397 Y92.372 E0.04448 ; perimeter
G1 X108.140 Y91.835 E0.04448 ; perimeter
G1 X107.856 Y91.311 E0.04449 ; perimeter
G1 X107.545 Y90.803 E0.04449 ; perimeter
G1 X107.208 Y90.312 E0.04449 ; perimeter
G1 X106.845 Y89.840 E0.04449 ; perimeter
G1 X106.458 Y89.387 E0.04449 ; perimeter
G1 X106.049 Y88.955 E0.04448 ; perimeter
G1 X105.617 Y88.545 E0.04449 ; perimeter
G1 X105.164 Y88.158 E0.04448 ; perimeter
G1 X104.691 Y87.795 E0.04449 ; perimeter
G1 X104.091 Y87.390 E0.05405 ; perimeter
G1 X103.693 Y87.146 E0.03492 ; perimeter
G1 X103.169 Y86.862 E0.04448 ; perimeter
G1 X102.632 Y86.605 E0.04448 ; perimeter
G1 X102.082 Y86.377 E0.04449 ; perimeter
G1 X101.533 Y86.182 E0.04349 ; perimeter
G1 X100.949 Y86.009 E0.04549 ; perimeter
G1 X100.370 Y85.869 E0.04448 ; perimeter
G1 X99.784 Y85.761 E0.04449 ; perimeter
G1 X99.194 Y85.683 E0.04448 ; perimeter
G1 X98.577 Y85.635 E0.04618 ; perimeter
G1 X98.005 Y85.620 E0.04279 ; perimeter
G1 X97.409 Y85.635 E0.04449 ; perimeter
G1 X96.815 Y85.682 E0.04449 ; perimeter
G1 X96.225 Y85.759 E0.04449 ; perimeter
G1 X95.639 Y85.867 E0.04449 ; perimeter
G1 X95.060 Y86.006 E0.04449 ; perimeter
G1 X94.489 Y86.175 E0.04448 ; perimeter
G1 X93.927 Y86.374 E0.04449 ; perimeter
G1 X93.377 Y86.601 E0.04449 ; perimeter
G1 X92.400 Y87.067 E0.08078 ; perimeter
G1 X92.400 Y83.278 E0.28295 ; perimeter
G1 X92.945 Y83.166 F6000.000 ; move inwards before travel
G1 X93.149 Y83.528 F6000.000 ; move to first perimeter point
G1 X116.472 Y83.528 E1.74188 F900.000 ; perimeter
G1 X116.472 Y92.971 E0.70525 ; perimeter
G1 X110.772 Y92.971 E0.42571 ; perimeter
G1 X110.772 Y96.460 E0.26052 ; perimeter
G1 X110.163 Y96.500 E0.04551 ; perimeter
G1 X109.980 Y95.103 E0.10519 ; perimeter
G1 X109.864 Y94.479 E0.04741 ; perimeter
G1 X109.716 Y93.862 E0.04741 ; perimeter
G1 X109.536 Y93.253 E0.04741 ; perimeter
G1 X109.324 Y92.654 E0.04742 ; perimeter
G1 X109.081 Y92.068 E0.04741 ; perimeter
G1 X108.808 Y91.495 E0.04741 ; perimeter
G1 X108.505 Y90.937 E0.04742 ; perimeter
G1 X108.173 Y90.396 E0.04741 ; perimeter
G1 X107.814 Y89.872 E0.04741 ; perimeter
G1 X107.427 Y89.369 E0.04741 ; perimeter
G1 X107.057 Y88.934 E0.04264 ; perimeter
G1 X106.578 Y88.425 E0.05218 ; perimeter
G1 X106.118 Y87.988 E0.04741 ; perimeter
G1 X105.635 Y87.576 E0.04741 ; perimeter
G1 X105.132 Y87.189 E0.04741 ; perimeter
G1 X104.608 Y86.829 E0.04742 ; perimeter
G1 X103.935 Y86.426 E0.05866 ; perimeter
G1 X103.509 Y86.195 E0.03615 ; perimeter
G1 X102.937 Y85.921 E0.04740 ; perimeter
G1 X102.350 Y85.678 E0.04741 ; perimeter
G1 X101.751 Y85.466 E0.04747 ; perimeter
G1 X101.143 Y85.285 E0.04737 ; perimeter
G1 X100.526 Y85.137 E0.04741 ; perimeter
G1 X100.059 Y85.050 E0.03545 ; perimeter
G1 X99.272 Y84.938 E0.05936 ; perimeter
G1 X98.639 Y84.888 E0.04742 ; perimeter
G1 X98.005 Y84.871 E0.04742 ; perimeter
G1 X97.370 Y84.887 E0.04741 ; perimeter
G1 X96.882 Y84.926 E0.03660 ; perimeter
G1 X96.108 Y85.020 E0.05822 ; perimeter
G1 X95.484 Y85.135 E0.04741 ; perimeter
G1 X94.866 Y85.283 E0.04742 ; perimeter
G1 X94.258 Y85.463 E0.04741 ; perimeter
G1 X93.659 Y85.675 E0.04741 ; perimeter
G1 X93.149 Y85.886 E0.04126 ; perimeter
G1 X93.149 Y83.641 E0.16766 ; perimeter
G1 F1800.000 E-2.40000 ; retract
G1 X110.163 Y97.500 F6000.000 ; move to first perimeter point
G1 E2.40000 F1800.000 ; compensate retraction
G1 X110.772 Y97.540 E0.04551 F900.000 ; perimeter
G1 X110.772 Y100.351 E0.20996 ; perimeter
G1 X110.252 Y100.351 E0.03884 ; perimeter
G1 X110.252 Y108.476 E0.60676 ; perimeter
G1 X110.372 Y108.596 E0.01267 ; perimeter
G1 X110.372 Y114.372 E0.43139 ; perimeter
G1 X98.841 Y114.378 E0.86116 ; perimeter
G1 X93.149 Y112.125 E0.45722 ; perimeter
G1 X93.149 Y108.114 E0.29956 ; perimeter
G1 X93.659 Y108.325 E0.04126 ; perimeter
G1 X94.257 Y108.537 E0.04741 ; perimeter
G1 X94.866 Y108.717 E0.04741 ; perimeter
G1 X95.484 Y108.865 E0.04742 ; perimeter
G1 X96.108 Y108.980 E0.04741 ; perimeter
G1 X96.737 Y109.063 E0.04741 ; perimeter
G1 X97.370 Y109.113 E0.04742 ; perimeter
G1 X98.138 Y109.125 E0.05736 ; perimeter
G1 X98.639 Y109.112 E0.03746 ; perimeter
G1 X99.272 Y109.062 E0.04742 ; perimeter
G1 X99.902 Y108.979 E0.04741 ; perimeter
G1 X100.526 Y108.863 E0.04741 ; perimeter
G1 X101.143 Y108.715 E0.04742 ; perimeter
G1 X101.709 Y108.547 E0.04408 ; perimeter
G1 X102.350 Y108.322 E0.05075 ; perimeter
G1 X102.937 Y108.079 E0.04741 ; perimeter
G1 X103.651 Y107.729 E0.05942 ; perimeter
G1 X104.067 Y107.502 E0.03539 ; perimeter
G1 X104.608 Y107.170 E0.04741 ; perimeter
G1 X105.131 Y106.811 E0.04739 ; perimeter
G1 X105.635 Y106.424 E0.04742 ; perimeter
G1 X106.118 Y106.012 E0.04742 ; perimeter
G1 X106.578 Y105.575 E0.04741 ; perimeter
G1 X107.015 Y105.114 E0.04741 ; perimeter
G1 X107.427 Y104.631 E0.04741 ; perimeter
G1 X107.814 Y104.128 E0.04742 ; perimeter
G1 X108.173 Y103.604 E0.04741 ; perimeter
G1 X108.505 Y103.063 E0.04741 ; perimeter
G1 X108.808 Y102.505 E0.04741 ; perimeter
G1 X109.081 Y101.932 E0.04741 ; perimeter
G1 X109.324 Y101.346 E0.04742 ; perimeter
G1 X109.676 Y100.351 E0.07875 ; perimeter
G1 X109.864 Y99.521 E0.06359 ; perimeter
G1 X109.980 Y98.897 E0.04742 ; perimeter
G1 X110.149 Y97.612 E0.09681 ; perimeter
G1 F1800.000 E-2.40000 ; retract
G1 X109.694 Y103.562 F6000.000 ; move to first fill point
G1 E2.40000 F1800.000 ; compensate retraction
G1 X109.719 Y103.587 E0.00268 F900.000 ; fill
G1 X109.719 Y104.687 E0.08535 ; fill
G1 X109.009 Y103.976 E0.07794 ; fill
G1 X108.591 Y104.658 E0.06207 ; fill
G1 X109.719 Y105.786 E0.12379 ; fill
G1 X109.719 Y106.886 E0.08535 ; fill
G1 X107.822 Y104.989 E0.20819 ; fill
G1 X107.310 Y105.577 E0.06050 ; fill
G1 X109.719 Y107.986 E0.26438 ; fill
G1 X109.839 Y109.206 E0.09512 ; fill
G1 X106.765 Y106.132 E0.33738 ; fill
G1 X106.187 Y106.654 E0.06043 ; fill
G1 X109.839 Y110.306 E0.40084 ; fill
G1 X109.839 Y111.406 E0.08535 ; fill
G1 X105.575 Y107.142 E0.46796 ; fill
G1 X104.929 Y107.596 E0.06126 ; fill
G1 X109.839 Y112.506 E0.53881 ; fill
G1 X109.839 Y113.606 E0.08535 ; fill
G1 X104.245 Y108.012 E0.61390 ; fill
G1 X103.520 Y108.386 E0.06336 ; fill
G1 X108.973 Y113.840 E0.59854 ; fill
G1 X107.874 Y113.841 E0.08531 ; fill
G1 X102.761 Y108.728 E0.56109 ; fill
G1 X101.958 Y109.024 E0.06648 ; fill
G1 X106.775 Y113.841 E0.52866 ; fill
G1 X105.675 Y113.842 E0.08531 ; fill
G1 X101.105 Y109.271 E0.50157 ; fill
G1 X100.199 Y109.465 E0.07190 ; fill
G1 X104.576 Y113.842 E0.48035 ; fill
G1 X103.477 Y113.843 E0.08531 ; fill
G1 X99.233 Y109.599 E0.46571 ; fill
G1 X98.191 Y109.657 E0.08102 ; fill
G1 X102.377 Y113.843 E0.45947 ; fill
G1 X101.278 Y113.844 E0.08531 ; fill
G1 X97.056 Y109.622 E0.46333 ; fill
G1 X95.799 Y109.465 E0.09832 ; fill
G1 X100.179 Y113.845 E0.48064 ; fill
G1 X99.079 Y113.845 E0.08531 ; fill
G1 X94.356 Y109.122 E0.51839 ; fill
G1 X93.681 Y109.547 E0.06189 ; fill
G1 X97.349 Y113.215 E0.40256 ; fill
G1 X95.529 Y112.495 F6000.000 ; move to first fill point
G1 X93.681 Y110.647 E0.20281 F900.000 ; fill
G1 X93.681 Y111.746 E0.08535 ; fill
G1 X93.709 Y111.774 E0.00305 ; fill
G1 F1800.000 E-2.40000 ; retract
G1 X109.285 Y102.722 F6000.000 ; move to first fill point
G1 E2.40000 F1800.000 ; compensate retraction
G1 X109.727 Y102.483 E0.02416 F300.000 ; fill
G1 X109.505 Y102.260 E0.01511 F300.000 ; fill
G1 X109.727 Y101.802 E0.02451 F300.000 ; fill
G1 X109.717 Y101.792 E0.00068 F300.000 ; fill
G1 X109.285 Y102.722 F6000.000 ; move to first fill point
G1 X109.307 Y102.744 E0.00149 F300.000 ; fill
G1 F1800.000 E-2.40000 ; retract
G1 X115.844 Y99.936 F6000.000 ; move to first fill point
G1 E2.40000 F1800.000 ; compensate retraction
G1 X116.456 Y99.415 E0.06413 F300.000 ; fill
G1 X115.844 Y98.804 E0.06907 F300.000 ; fill
G1 X116.456 Y98.283 E0.06413 F300.000 ; fill
G1 X115.844 Y97.672 E0.06907 F300.000 ; fill
G1 X116.456 Y97.152 E0.06413 F300.000 ; fill
G1 X115.844 Y96.540 E0.06907 F300.000 ; fill
G1 X116.456 Y96.020 E0.06413 F300.000 ; fill
G1 X115.844 Y95.408 E0.06907 F300.000 ; fill
G1 X116.456 Y94.888 E0.06413 F300.000 ; fill
G1 X115.844 Y94.276 E0.06907 F300.000 ; fill
G1 X116.436 Y93.736 E0.06399 F300.000 ; fill
G1 X116.456 Y93.756 E0.00226 F300.000 ; fill
G1 F1800.000 E-2.40000 ; retract
G1 X115.844 Y99.936 F6000.000 ; move to first fill point
G1 E2.40000 F1800.000 ; compensate retraction
G1 X115.864 Y99.956 E0.00226 F300.000 ; fill
G1 F1800.000 E-2.40000 ; retract
G1 X110.237 Y93.745 F6000.000 ; move to first fill point
G1 E2.40000 F1800.000 ; compensate retraction
G1 X110.224 Y93.732 E0.00133 F300.000 ; fill
G1 X110.247 Y92.767 E0.06722 F300.000 ; fill
G1 X110.227 Y92.747 E0.00197 F300.000 ; fill
G1 F1800.000 E-2.40000 ; retract
G1 X100.286 Y84.315 F6000.000 ; move to first fill point
G1 E2.40000 F1800.000 ; compensate retraction
G1 X100.274 Y84.303 E0.00132 F300.000 ; fill
G1 X99.013 Y84.072 F6000.000 ; move to first fill point
G1 X98.994 Y84.053 E0.00110 F300.000 ; fill
G1 X99.013 Y84.072 F6000.000 ; move to first fill point
G1 X98.737 Y84.370 E0.01642 F300.000 ; fill
G1 X98.420 Y84.053 E0.01814 F300.000 ; fill
G1 X98.145 Y84.350 E0.01642 F300.000 ; fill
G1 X97.847 Y84.053 E0.01703 F300.000 ; fill
G1 X97.578 Y84.358 E0.01644 F300.000 ; fill
G1 X97.273 Y84.053 E0.01745 F300.000 ; fill
G1 X97.015 Y84.367 E0.01648 F300.000 ; fill
G1 X97.035 Y84.388 E0.00116 F300.000 ; fill
G1 X95.727 Y84.303 F6000.000 ; move to first fill point
G1 X95.717 Y84.293 E0.00113 F300.000 ; fill
G1 X94.805 Y84.512 E0.07478 F300.000 ; fill
G1 X94.586 Y84.293 E0.02470 F300.000 ; fill
G1 X93.913 Y84.750 E0.06492 F300.000 ; fill
G1 X93.931 Y84.768 E0.00201 F300.000 ; fill
G1 F1800.000 E-2.40000 ; retract
G1 X102.021 Y84.560 F6000.000 ; move to first fill point
G1 E2.40000 F1800.000 ; compensate retraction
G1 X101.994 Y84.533 E0.00298 F900.000 ; fill
G1 X102.630 Y84.061 E0.06185 ; fill
G1 X105.068 Y86.499 E0.26940 ; fill
G1 F1800.000 E-2.40000 ; retract
G1 X104.845 Y84.061 F6000.000 ; move to first fill point
G1 E2.40000 F1800.000 ; compensate retraction
G1 X113.223 Y92.439 E0.92572 F900.000 ; fill
G1 X114.330 Y92.439 E0.08653 ; fill
G1 X105.952 Y84.061 E0.92572 ; fill
G1 X107.060 Y84.061 E0.08653 ; fill
G1 X115.437 Y92.439 E0.92572 ; fill
G1 X115.939 Y91.833 E0.06145 ; fill
G1 X108.167 Y84.061 E0.85876 ; fill
G1 X109.274 Y84.061 E0.08653 ; fill
G1 X115.939 Y90.726 E0.73640 ; fill
G1 X115.939 Y89.618 E0.08653 ; fill
G1 X110.382 Y84.061 E0.61403 ; fill
G1 X111.489 Y84.061 E0.08653 ; fill
G1 X115.939 Y88.511 E0.49167 ; fill
G1 X115.939 Y87.403 E0.08653 ; fill
G1 X112.597 Y84.061 E0.36930 ; fill
G1 X113.704 Y84.061 E0.08653 ; fill
G1 X115.939 Y86.296 E0.24694 ; fill
G1 X115.939 Y85.189 E0.08653 ; fill
G1 X114.811 Y84.061 E0.12457 ; fill
G1 X115.919 Y84.061 E0.08653 ; fill
G1 X115.939 Y84.081 E0.00221 ; fill
G1 F1800.000 E-2.40000 ; retract
G1 X112.115 Y92.439 F6000.000 ; move to first fill point
G1 E2.40000 F1800.000 ; compensate retraction
G1 X103.737 Y84.061 E0.92572 F900.000 ; fill
G1 F1800.000 E-2.40000 ; retract
G1 X108.501 Y89.932 F6000.000 ; move to first fill point
G1 E2.40000 F1800.000 ; compensate retraction
G1 X111.008 Y92.439 E0.27703 F900.000 ; fill
M104 S190 ; set temperature
G1 F1800.000 E-2.40000 ; retract
G1 Z0.480 F6000.000 ; move to next layer (1)
