; generated by Slic3r 1.0.1 on 2014-06-28 at 18:48:48

; layer_height = 0.24
; perimeters = 2
; top_solid_layers = 3
; bottom_solid_layers = 3
; fill_density = 0.25
; perimeter_speed = 30
; infill_speed = 30
; travel_speed = 100
; nozzle_diameter = 0.5
; filament_diameter = 1.75
; extrusion_multiplier = 1
; perimeters extrusion width = 0.50mm
; infill extrusion width = 0.50mm
; solid infill extrusion width = 0.50mm
; top infill extrusion width = 0.50mm
; first layer extrusion width = 0.80mm

G21 ; set units to millimeters
M107 ; disable fan
M190 S57 ; wait for bed temperature to be reached
M104 S200 ; set temperature

M109 S200 ; wait for temperature to be reached
G90 ; use absolute coordinates
M83 ; use relative distances for extrusion
G1 F1800.000 E-2.40000 ; retract
G1 Z0.240 F6000.000 ; move to next layer (0)
G1 X81.265 Y95.357 F6000.000 ; move to first skirt point
G1 E2.40000 F1800.000 ; compensate retraction
G1 X81.645 Y95.037 E0.03710 F900.000 ; skirt
G1 X82.925 Y94.107 E0.11817 ; skirt
G1 X108.925 Y77.227 E2.31516 ; skirt
G1 X109.245 Y77.037 E0.02779 ; skirt
G1 X109.795 Y76.737 E0.04679 ; skirt
G1 X110.195 Y76.547 E0.03307 ; skirt
G1 X110.605 Y76.387 E0.03287 ; skirt
G1 X111.195 Y76.197 E0.04629 ; skirt
G1 X111.685 Y76.067 E0.03786 ; skirt
G1 X112.645 Y75.927 E0.07246 ; skirt
G1 X113.425 Y75.887 E0.05833 ; skirt
G1 X114.045 Y75.907 E0.04633 ; skirt
G1 X114.465 Y75.947 E0.03151 ; skirt
G1 X114.885 Y76.017 E0.03180 ; skirt
G1 X115.495 Y76.147 E0.04658 ; skirt
G1 X116.255 Y76.377 E0.05930 ; skirt
G1 X117.245 Y76.787 E0.08003 ; skirt
G1 X118.145 Y77.337 E0.07877 ; skirt
G1 X118.765 Y77.807 E0.05811 ; skirt
G1 X119.235 Y78.227 E0.04708 ; skirt
G1 X119.545 Y78.527 E0.03222 ; skirt
G1 X119.825 Y78.857 E0.03232 ; skirt
G1 X120.435 Y79.667 E0.07573 ; skirt
G1 X122.105 Y82.237 E0.22890 ; skirt
G1 X122.615 Y83.277 E0.08651 ; skirt
G1 X122.855 Y84.407 E0.08628 ; skirt
G1 X124.465 Y102.397 E1.34896 ; skirt
G1 X124.485 Y102.997 E0.04484 ; skirt
G1 X124.455 Y103.487 E0.03666 ; skirt
G1 X124.385 Y103.977 E0.03697 ; skirt
G1 X124.235 Y104.587 E0.04692 ; skirt
G1 X124.085 Y104.997 E0.03261 ; skirt
G1 X123.655 Y105.877 E0.07315 ; skirt
G1 X123.555 Y106.037 E0.01409 ; skirt
G1 X123.015 Y106.747 E0.06662 ; skirt
G1 X122.635 Y107.137 E0.04067 ; skirt
G1 X122.065 Y107.597 E0.05470 ; skirt
G1 X100.705 Y121.477 E1.90250 ; skirt
G1 X99.355 Y122.257 E0.11644 ; skirt
G1 X98.865 Y122.497 E0.04075 ; skirt
G1 X97.675 Y123.007 E0.09669 ; skirt
G1 X97.195 Y123.187 E0.03829 ; skirt
G1 X95.955 Y123.567 E0.09686 ; skirt
G1 X95.445 Y123.697 E0.03931 ; skirt
G1 X94.165 Y123.937 E0.09726 ; skirt
G1 X93.615 Y124.007 E0.04141 ; skirt
G1 X92.325 Y124.097 E0.09658 ; skirt
G1 X91.815 Y124.097 E0.03809 ; skirt
G1 X90.515 Y124.047 E0.09716 ; skirt
G1 X89.915 Y123.987 E0.04503 ; skirt
G1 X88.685 Y123.797 E0.09295 ; skirt
G1 X88.165 Y123.687 E0.03970 ; skirt
G1 X86.915 Y123.347 E0.09675 ; skirt
G1 X86.415 Y123.177 E0.03944 ; skirt
G1 X85.205 Y122.697 E0.09722 ; skirt
G1 X84.715 Y122.477 E0.04012 ; skirt
G1 X83.575 Y121.867 E0.09656 ; skirt
G1 X83.115 Y121.587 E0.04022 ; skirt
G1 X82.045 Y120.847 E0.09716 ; skirt
G1 X81.635 Y120.527 E0.03884 ; skirt
G1 X80.655 Y119.677 E0.09689 ; skirt
G1 X80.285 Y119.317 E0.03856 ; skirt
G1 X79.405 Y118.367 E0.09671 ; skirt
G1 X79.055 Y117.947 E0.04083 ; skirt
G1 X78.285 Y116.897 E0.09725 ; skirt
G1 X77.995 Y116.447 E0.03998 ; skirt
G1 X77.355 Y115.327 E0.09634 ; skirt
G1 X77.125 Y114.867 E0.03841 ; skirt
G1 X76.605 Y113.677 E0.09699 ; skirt
G1 X76.415 Y113.167 E0.04065 ; skirt
G1 X76.035 Y111.927 E0.09686 ; skirt
G1 X75.905 Y111.377 E0.04221 ; skirt
G1 X75.675 Y110.097 E0.09713 ; skirt
G1 X75.605 Y109.587 E0.03845 ; skirt
G1 X75.515 Y108.297 E0.09658 ; skirt
G1 X75.515 Y107.787 E0.03809 ; skirt
G1 X75.565 Y106.487 E0.09716 ; skirt
G1 X75.615 Y105.937 E0.04125 ; skirt
G1 X75.815 Y104.657 E0.09676 ; skirt
G1 X75.925 Y104.117 E0.04116 ; skirt
G1 X76.265 Y102.897 E0.09459 ; skirt
G1 X76.435 Y102.387 E0.04015 ; skirt
G1 X76.915 Y101.177 E0.09722 ; skirt
G1 X77.135 Y100.697 E0.03943 ; skirt
G1 X77.745 Y99.547 E0.09722 ; skirt
G1 X78.025 Y99.087 E0.04022 ; skirt
G1 X78.755 Y98.027 E0.09612 ; skirt
G1 X79.075 Y97.607 E0.03943 ; skirt
G1 X79.925 Y96.627 E0.09689 ; skirt
G1 X80.305 Y96.237 E0.04067 ; skirt
G1 X81.182 Y95.433 E0.08888 ; skirt
G1 F1800.000 E-2.40000 ; retract
G1 X84.730 Y99.168 F6000.000 ; move to first perimeter point
G1 E2.40000 F1800.000 ; compensate retraction
G1 X85.750 Y98.421 E0.09438 F900.000 ; perimeter
G1 X111.725 Y81.553 E2.31310 ; perimeter
G1 X112.228 Y81.285 E0.04255 ; perimeter
G1 X112.814 Y81.106 E0.04578 ; perimeter
G1 X113.300 Y81.038 E0.03664 ; perimeter
G1 X113.851 Y81.057 E0.04124 ; perimeter
G1 X114.392 Y81.172 E0.04124 ; perimeter
G1 X114.904 Y81.379 E0.04124 ; perimeter
G1 X115.372 Y81.671 E0.04124 ; perimeter
G1 X115.782 Y82.041 E0.04124 ; perimeter
G1 X116.133 Y82.490 E0.04255 ; perimeter
G1 X117.577 Y84.714 E0.19805 ; perimeter
G1 X94.346 Y99.800 E2.06879 ; perimeter
G1 X94.127 Y99.635 E0.02053 ; perimeter
G1 X93.245 Y99.112 E0.07653 ; perimeter
G1 X92.288 Y98.724 E0.07710 ; perimeter
G1 X91.284 Y98.484 E0.07710 ; perimeter
G1 X90.256 Y98.397 E0.07710 ; perimeter
G1 X89.226 Y98.465 E0.07710 ; perimeter
G1 X88.217 Y98.685 E0.07710 ; perimeter
G1 X87.253 Y99.055 E0.07710 ; perimeter
G1 X86.355 Y99.564 E0.07710 ; perimeter
G1 X85.544 Y100.202 E0.07710 ; perimeter
G1 X85.474 Y100.276 E0.00759 ; perimeter
G1 X84.837 Y100.954 E0.06950 ; perimeter
G1 X84.250 Y101.803 E0.07710 ; perimeter
G1 X83.797 Y102.731 E0.07710 ; perimeter
G1 X83.761 Y102.844 E0.00890 ; perimeter
G1 X83.488 Y103.716 E0.06820 ; perimeter
G1 X83.329 Y104.736 E0.07710 ; perimeter
G1 X83.325 Y105.768 E0.07709 ; perimeter
G1 X83.514 Y107.046 E0.09646 ; perimeter
G1 X83.131 Y107.294 E0.03405 ; perimeter
G1 X82.849 Y107.514 E0.02675 ; perimeter
G1 X82.598 Y107.794 E0.02806 ; perimeter
G1 X82.373 Y108.174 E0.03300 ; perimeter
G1 X82.258 Y108.461 E0.02306 ; perimeter
G1 X82.180 Y108.828 E0.02806 ; perimeter
G1 X82.167 Y109.204 E0.02806 ; perimeter
G1 X82.219 Y109.576 E0.02806 ; perimeter
G1 X82.335 Y109.933 E0.02807 ; perimeter
G1 X82.511 Y110.265 E0.02806 ; perimeter
G1 X82.743 Y110.561 E0.02806 ; perimeter
G1 X83.022 Y110.813 E0.02806 ; perimeter
G1 X83.341 Y111.012 E0.02806 ; perimeter
G1 X83.689 Y111.152 E0.02806 ; perimeter
G1 X84.123 Y111.233 E0.03300 ; perimeter
G1 X84.432 Y111.244 E0.02306 ; perimeter
G1 X84.804 Y111.191 E0.02806 ; perimeter
G1 X85.161 Y111.075 E0.02806 ; perimeter
G1 X85.478 Y110.907 E0.02676 ; perimeter
G1 X85.886 Y110.642 E0.03638 ; perimeter
G1 X86.085 Y110.802 E0.01909 ; perimeter
G1 X86.951 Y111.350 E0.07652 ; perimeter
G1 X87.895 Y111.767 E0.07710 ; perimeter
G1 X88.892 Y112.037 E0.07710 ; perimeter
G1 X89.917 Y112.155 E0.07710 ; perimeter
G1 X90.949 Y112.118 E0.07710 ; perimeter
G1 X91.963 Y111.928 E0.07710 ; perimeter
G1 X92.938 Y111.588 E0.07710 ; perimeter
G1 X93.851 Y111.106 E0.07710 ; perimeter
G1 X94.681 Y110.493 E0.07710 ; perimeter
G1 X95.411 Y109.762 E0.07710 ; perimeter
G1 X96.023 Y108.931 E0.07710 ; perimeter
G1 X96.503 Y108.017 E0.07710 ; perimeter
G1 X96.842 Y107.042 E0.07710 ; perimeter
G1 X97.031 Y106.027 E0.07709 ; perimeter
G1 X97.066 Y104.995 E0.07710 ; perimeter
G1 X96.990 Y104.350 E0.04856 ; perimeter
G1 X102.786 Y105.243 E0.43794 ; perimeter
G1 X115.606 Y96.918 E1.14165 ; perimeter
G1 X119.229 Y102.497 E0.49679 ; perimeter
G1 X119.292 Y102.615 E0.01000 ; perimeter
G1 X119.344 Y102.841 E0.01732 ; perimeter
G1 X119.316 Y103.071 E0.01732 ; perimeter
G1 X119.210 Y103.278 E0.01732 ; perimeter
G1 X119.027 Y103.446 E0.01862 ; perimeter
G1 X97.916 Y117.156 E1.87993 ; perimeter
G1 X96.820 Y117.784 E0.09438 ; perimeter
G1 X95.670 Y118.280 E0.09354 ; perimeter
G1 X94.472 Y118.645 E0.09354 ; perimeter
G1 X93.240 Y118.873 E0.09354 ; perimeter
G1 X91.991 Y118.962 E0.09354 ; perimeter
G1 X90.739 Y118.910 E0.09354 ; perimeter
G1 X89.502 Y118.719 E0.09354 ; perimeter
G1 X88.293 Y118.390 E0.09354 ; perimeter
G1 X87.129 Y117.928 E0.09354 ; perimeter
G1 X86.024 Y117.339 E0.09354 ; perimeter
G1 X84.992 Y116.630 E0.09354 ; perimeter
G1 X84.045 Y115.809 E0.09354 ; perimeter
G1 X83.197 Y114.888 E0.09354 ; perimeter
G1 X82.457 Y113.877 E0.09354 ; perimeter
G1 X81.835 Y112.790 E0.09354 ; perimeter
G1 X81.338 Y111.641 E0.09354 ; perimeter
G1 X80.974 Y110.442 E0.09354 ; perimeter
G1 X80.745 Y109.211 E0.09354 ; perimeter
G1 X80.734 Y109.047 E0.01225 ; perimeter
G1 X80.656 Y107.962 E0.08129 ; perimeter
G1 X80.708 Y106.710 E0.09354 ; perimeter
G1 X80.899 Y105.472 E0.09354 ; perimeter
G1 X80.942 Y105.314 E0.01225 ; perimeter
G1 X81.228 Y104.264 E0.08129 ; perimeter
G1 X81.690 Y103.100 E0.09354 ; perimeter
G1 X82.279 Y101.995 E0.09354 ; perimeter
G1 X82.989 Y100.962 E0.09354 ; perimeter
G1 X83.809 Y100.016 E0.09354 ; perimeter
G1 X84.648 Y99.244 E0.08515 ; perimeter
G1 X85.426 Y99.444 F6000.000 ; move inwards before travel
G1 F1800.000 E-2.40000 ; retract
G1 X82.584 Y103.963 F6000.000 ; move to first perimeter point
G1 E2.40000 F1800.000 ; compensate retraction
G1 X82.577 Y105.821 E0.13880 F780.000 ; perimeter
G1 X82.703 Y106.679 E0.06473 ; perimeter
G1 X82.337 Y106.965 E0.03472 ; perimeter
G1 X81.404 Y108.001 E0.10411 ; perimeter
G1 X81.454 Y106.783 E0.09103 ; perimeter
G1 X81.632 Y105.628 E0.08726 ; perimeter
G1 X82.103 Y103.898 E0.13395 ; perimeter
G1 X82.473 Y103.948 E0.02785 ; perimeter
G1 F1800.000 E-2.40000 ; retract
G1 X88.664 Y97.751 F6000.000 ; move to first perimeter point
G1 E2.40000 F1800.000 ; compensate retraction
G1 X88.574 Y97.480 E0.02138 F900.000 ; perimeter
G1 X112.105 Y82.198 E2.09548 ; perimeter
G1 X112.521 Y81.977 E0.03522 ; perimeter
G1 X112.922 Y81.847 E0.03146 ; perimeter
G1 X113.339 Y81.788 E0.03145 ; perimeter
G1 X113.760 Y81.803 E0.03146 ; perimeter
G1 X114.172 Y81.891 E0.03146 ; perimeter
G1 X114.562 Y82.048 E0.03146 ; perimeter
G1 X114.920 Y82.272 E0.03146 ; perimeter
G1 X115.233 Y82.553 E0.03146 ; perimeter
G1 X115.523 Y82.925 E0.03522 ; perimeter
G1 X116.542 Y84.494 E0.13971 ; perimeter
G1 X94.357 Y98.901 E1.97562 ; perimeter
G1 X93.578 Y98.440 E0.06758 ; perimeter
G1 X92.517 Y98.010 E0.08550 ; perimeter
G1 X91.404 Y97.743 E0.08550 ; perimeter
G1 X90.263 Y97.646 E0.08551 ; perimeter
G1 X88.776 Y97.744 E0.11129 ; perimeter
G1 F1800.000 E-2.40000 ; retract
G1 X97.807 Y105.233 F6000.000 ; move to first perimeter point
G1 E2.40000 F1800.000 ; compensate retraction
G1 X102.954 Y106.027 E0.38897 F900.000 ; perimeter
G1 X115.386 Y97.953 E1.10708 ; perimeter
G1 X118.567 Y102.852 E0.43628 ; perimeter
G1 X97.526 Y116.517 E1.87374 ; perimeter
G1 X96.484 Y117.113 E0.08967 ; perimeter
G1 X95.412 Y117.576 E0.08726 ; perimeter
G1 X94.294 Y117.916 E0.08726 ; perimeter
G1 X93.145 Y118.129 E0.08726 ; perimeter
G1 X91.980 Y118.212 E0.08726 ; perimeter
G1 X90.692 Y118.146 E0.09632 ; perimeter
G1 X89.658 Y117.986 E0.07815 ; perimeter
G1 X88.530 Y117.679 E0.08726 ; perimeter
G1 X87.444 Y117.248 E0.08726 ; perimeter
G1 X86.413 Y116.698 E0.08726 ; perimeter
G1 X85.450 Y116.037 E0.08726 ; perimeter
G1 X84.567 Y115.271 E0.08726 ; perimeter
G1 X83.776 Y114.412 E0.08726 ; perimeter
G1 X83.086 Y113.469 E0.08726 ; perimeter
G1 X82.505 Y112.455 E0.08726 ; perimeter
G1 X82.013 Y111.316 E0.09270 ; perimeter
G1 X82.182 Y111.170 E0.01664 ; perimeter
G1 X82.999 Y111.681 E0.07198 ; perimeter
G1 X83.469 Y111.871 E0.03784 ; perimeter
G1 X83.965 Y111.976 E0.03784 ; perimeter
G1 X84.471 Y111.994 E0.03785 ; perimeter
G1 X84.973 Y111.923 E0.03784 ; perimeter
G1 X85.455 Y111.767 E0.03784 ; perimeter
G1 X85.866 Y111.549 E0.03473 ; perimeter
G1 X86.597 Y112.013 E0.06473 ; perimeter
G1 X87.645 Y112.474 E0.08550 ; perimeter
G1 X88.750 Y112.774 E0.08551 ; perimeter
G1 X89.887 Y112.905 E0.08550 ; perimeter
G1 X91.032 Y112.864 E0.08551 ; perimeter
G1 X92.157 Y112.653 E0.08550 ; perimeter
G1 X93.238 Y112.276 E0.08551 ; perimeter
G1 X94.250 Y111.741 E0.08551 ; perimeter
G1 X95.171 Y111.061 E0.08550 ; perimeter
G1 X95.980 Y110.251 E0.08551 ; perimeter
G1 X96.659 Y109.329 E0.08551 ; perimeter
G1 X97.192 Y108.316 E0.08551 ; perimeter
G1 X97.567 Y107.234 E0.08551 ; perimeter
G1 X97.777 Y106.109 E0.08550 ; perimeter
G1 X97.803 Y105.345 E0.05708 ; perimeter
G1 F1800.000 E-2.40000 ; retract
G1 X87.283 Y112.897 F6000.000 ; move to first fill point
G1 E2.40000 F1800.000 ; compensate retraction
G1 X92.059 Y117.673 E0.51485 F900.000 ; fill
G1 X93.068 Y117.601 E0.07708 ; fill
G1 X88.780 Y113.314 E0.46219 ; fill
G1 X89.982 Y113.435 E0.09205 ; fill
G1 X93.980 Y117.433 E0.43103 ; fill
G1 X94.826 Y117.198 E0.06689 ; fill
G1 X91.025 Y113.398 E0.40968 ; fill
G1 X91.943 Y113.235 E0.07107 ; fill
G1 X95.616 Y116.908 E0.39593 ; fill
G1 X96.359 Y116.571 E0.06222 ; fill
G1 X92.786 Y112.998 E0.38520 ; fill
G1 X93.571 Y112.702 E0.06394 ; fill
G1 X97.046 Y116.178 E0.37465 ; fill
G1 X97.711 Y115.762 E0.05976 ; fill
G1 X94.278 Y112.329 E0.37006 ; fill
G1 X94.931 Y111.901 E0.05948 ; fill
G1 X98.366 Y115.336 E0.37034 ; fill
G1 X99.021 Y114.911 E0.05954 ; fill
G1 X95.548 Y111.438 E0.37441 ; fill
G1 X96.088 Y110.897 E0.05824 ; fill
G1 X99.676 Y114.485 E0.38683 ; fill
G1 X100.331 Y114.060 E0.05954 ; fill
G1 X96.591 Y110.320 E0.40321 ; fill
G1 X97.049 Y109.698 E0.05891 ; fill
G1 X100.986 Y113.635 E0.42444 ; fill
G1 X101.641 Y113.209 E0.05954 ; fill
G1 X97.433 Y109.001 E0.45364 ; fill
G1 X97.774 Y108.262 E0.06206 ; fill
G1 X102.296 Y112.784 E0.48746 ; fill
G1 X102.951 Y112.359 E0.05954 ; fill
G1 X98.053 Y107.460 E0.52806 ; fill
G1 X98.235 Y106.562 E0.06990 ; fill
G1 X103.606 Y111.933 E0.57909 ; fill
G1 X104.261 Y111.508 E0.05954 ; fill
G1 X98.656 Y105.903 E0.60425 ; fill
G1 X99.934 Y106.100 E0.09853 ; fill
G1 X104.916 Y111.082 E0.53716 ; fill
G1 X105.571 Y110.657 E0.05954 ; fill
G1 X101.211 Y106.297 E0.47006 ; fill
G1 X102.488 Y106.494 E0.09853 ; fill
G1 X106.226 Y110.232 E0.40297 ; fill
G1 X106.881 Y109.806 E0.05954 ; fill
G1 X103.429 Y106.353 E0.37223 ; fill
G1 X104.084 Y105.928 E0.05954 ; fill
G1 X107.536 Y109.381 E0.37223 ; fill
G1 X108.191 Y108.956 E0.05954 ; fill
G1 X104.739 Y105.503 E0.37223 ; fill
G1 X105.394 Y105.077 E0.05954 ; fill
G1 X108.846 Y108.530 E0.37223 ; fill
G1 X109.501 Y108.105 E0.05954 ; fill
G1 X106.049 Y104.652 E0.37223 ; fill
G1 X106.704 Y104.227 E0.05954 ; fill
G1 X110.156 Y107.679 E0.37223 ; fill
G1 X110.812 Y107.254 E0.05954 ; fill
G1 X107.359 Y103.801 E0.37223 ; fill
G1 X108.014 Y103.376 E0.05954 ; fill
G1 X111.467 Y106.829 E0.37223 ; fill
G1 X112.122 Y106.403 E0.05954 ; fill
G1 X108.669 Y102.950 E0.37223 ; fill
G1 X109.324 Y102.525 E0.05954 ; fill
G1 X112.777 Y105.978 E0.37223 ; fill
G1 X113.432 Y105.552 E0.05954 ; fill
G1 X109.979 Y102.100 E0.37223 ; fill
G1 X110.634 Y101.674 E0.05954 ; fill
G1 X114.087 Y105.127 E0.37223 ; fill
G1 X114.742 Y104.702 E0.05954 ; fill
G1 X111.289 Y101.249 E0.37223 ; fill
G1 X111.944 Y100.824 E0.05954 ; fill
G1 X115.397 Y104.276 E0.37223 ; fill
G1 X116.052 Y103.851 E0.05954 ; fill
G1 X112.599 Y100.398 E0.37223 ; fill
G1 X113.254 Y99.973 E0.05954 ; fill
G1 X116.707 Y103.426 E0.37223 ; fill
G1 X117.362 Y103.000 E0.05954 ; fill
G1 X113.909 Y99.547 E0.37223 ; fill
G1 X114.564 Y99.122 E0.05954 ; fill
G1 X117.261 Y101.819 E0.29080 ; fill
G1 F1800.000 E-2.40000 ; retract
G1 X115.260 Y98.738 F6000.000 ; move to first fill point
G1 E2.40000 F1800.000 ; compensate retraction
G1 X115.219 Y98.697 E0.00444 F900.000 ; fill
G1 F1800.000 E-2.40000 ; retract
G1 X85.589 Y112.283 F6000.000 ; move to first fill point
G1 E2.40000 F1800.000 ; compensate retraction
G1 X90.943 Y117.637 E0.57711 F900.000 ; fill
G1 X89.660 Y117.435 E0.09896 ; fill
G1 X84.722 Y112.497 E0.53233 ; fill
G1 X83.585 Y112.440 F6000.000 ; move to first fill point
G1 X88.068 Y116.923 E0.48325 F900.000 ; fill
G1 F1800.000 E-2.40000 ; retract
G1 X85.046 Y114.981 F6000.000 ; move to first fill point
G1 E2.40000 F1800.000 ; compensate retraction
G1 X84.774 Y114.709 E0.02927 F900.000 ; fill
G1 F1800.000 E-2.40000 ; retract
G1 X81.680 Y110.911 F6000.000 ; move to first fill point
G1 E2.40000 F1800.000 ; compensate retraction
