; generated by Slic3r 1.0.1 on 2014-06-29 at 11:16:11

; layer_height = 0.24
; perimeters = 2
; top_solid_layers = 3
; bottom_solid_layers = 3
; fill_density = 0.25
; perimeter_speed = 30
; infill_speed = 30
; travel_speed = 100
; nozzle_diameter = 0.5
; filament_diameter = 1.75
; extrusion_multiplier = 1
; perimeters extrusion width = 0.50mm
; infill extrusion width = 0.50mm
; solid infill extrusion width = 0.50mm
; top infill extrusion width = 0.50mm
; support material extrusion width = 0.50mm
; first layer extrusion width = 0.80mm

G21 ; set units to millimeters
M107 ; disable fan
M190 S57 ; wait for bed temperature to be reached
M104 S200 ; set temperature

M109 S200 ; wait for temperature to be reached
G90 ; use absolute coordinates
M83 ; use relative distances for extrusion
G1 F1800.000 E-2.40000 ; retract
G1 Z0.240 F6000.000 ; move to next layer (0)
G1 X72.000 Y43.240 F6000.000 ; move to first skirt point
G1 E2.40000 F1800.000 ; compensate retraction
G1 X72.760 Y42.380 E0.08572 F900.000 ; skirt
G1 X73.700 Y41.720 E0.08578 ; skirt
G1 X74.780 Y41.310 E0.08628 ; skirt
G1 X75.920 Y41.170 E0.08578 ; skirt
G1 X106.560 Y41.170 E2.28835 ; skirt
G1 X107.750 Y41.320 E0.08958 ; skirt
G1 X108.870 Y41.770 E0.09015 ; skirt
G1 X109.840 Y42.490 E0.09022 ; skirt
G1 X110.600 Y43.420 E0.08970 ; skirt
G1 X134.100 Y81.460 E3.33943 ; skirt
G1 X134.630 Y82.660 E0.09797 ; skirt
G1 X134.810 Y83.960 E0.09802 ; skirt
G1 X134.810 Y94.530 E0.78942 ; skirt
G1 X134.720 Y95.420 E0.06681 ; skirt
G1 X134.480 Y96.270 E0.06596 ; skirt
G1 X110.980 Y155.810 E4.78059 ; skirt
G1 X110.440 Y156.810 E0.08488 ; skirt
G1 X109.680 Y157.650 E0.08460 ; skirt
G1 X108.740 Y158.290 E0.08493 ; skirt
G1 X107.680 Y158.680 E0.08435 ; skirt
G1 X106.560 Y158.820 E0.08430 ; skirt
G1 X75.920 Y158.820 E2.28835 ; skirt
G1 X74.750 Y158.670 E0.08810 ; skirt
G1 X73.650 Y158.240 E0.08821 ; skirt
G1 X72.690 Y157.550 E0.08830 ; skirt
G1 X71.930 Y156.650 E0.08798 ; skirt
G1 X71.420 Y155.590 E0.08785 ; skirt
G1 X71.190 Y154.430 E0.08832 ; skirt
G1 X66.380 Y91.990 E4.67716 ; skirt
G1 X66.360 Y91.500 E0.03663 ; skirt
G1 X66.480 Y87.010 E0.33546 ; skirt
G1 X66.510 Y86.600 E0.03070 ; skirt
G1 X71.200 Y45.380 E3.09839 ; skirt
G1 X71.470 Y44.260 E0.08604 ; skirt
G1 X71.948 Y43.340 E0.07746 ; skirt
G1 F1800.000 E-2.40000 ; retract
G1 X76.330 Y46.330 F6000.000 ; move to first perimeter point
G1 E2.40000 F1800.000 ; compensate retraction
G1 X106.170 Y46.330 E2.22861 F900.000 ; perimeter
G1 X106.170 Y60.635 E1.06836 ; perimeter
G1 X129.670 Y84.135 E2.48209 ; perimeter
G1 X129.670 Y88.754 E0.34499 ; perimeter
G1 X129.461 Y88.820 E0.01634 ; perimeter
G1 X128.803 Y87.880 E0.08571 ; perimeter
G1 X128.540 Y87.617 E0.02775 ; perimeter
G1 X128.236 Y87.404 E0.02775 ; perimeter
G1 X127.899 Y87.247 E0.02775 ; perimeter
G1 X127.540 Y87.151 E0.02775 ; perimeter
G1 X127.188 Y87.120 E0.02644 ; perimeter
G1 X122.153 Y87.120 E0.37603 ; perimeter
G1 X121.800 Y87.151 E0.02644 ; perimeter
G1 X121.441 Y87.247 E0.02775 ; perimeter
G1 X121.105 Y87.404 E0.02775 ; perimeter
G1 X120.800 Y87.617 E0.02775 ; perimeter
G1 X120.537 Y87.880 E0.02775 ; perimeter
G1 X120.324 Y88.184 E0.02775 ; perimeter
G1 X120.167 Y88.521 E0.02775 ; perimeter
G1 X120.071 Y88.880 E0.02775 ; perimeter
G1 X120.039 Y89.250 E0.02775 ; perimeter
G1 X120.071 Y89.620 E0.02775 ; perimeter
G1 X120.108 Y89.758 E0.01069 ; perimeter
G1 X120.167 Y89.979 E0.01706 ; perimeter
G1 X120.324 Y90.316 E0.02775 ; perimeter
G1 X120.537 Y90.620 E0.02775 ; perimeter
G1 X120.800 Y90.883 E0.02775 ; perimeter
G1 X121.105 Y91.096 E0.02775 ; perimeter
G1 X121.441 Y91.253 E0.02775 ; perimeter
G1 X121.800 Y91.349 E0.02775 ; perimeter
G1 X122.153 Y91.380 E0.02644 ; perimeter
G1 X127.188 Y91.380 E0.37603 ; perimeter
G1 X127.540 Y91.349 E0.02644 ; perimeter
G1 X127.899 Y91.253 E0.02775 ; perimeter
G1 X128.236 Y91.096 E0.02775 ; perimeter
G1 X128.540 Y90.883 E0.02775 ; perimeter
G1 X128.803 Y90.620 E0.02775 ; perimeter
G1 X129.461 Y89.680 E0.08571 ; perimeter
G1 X129.670 Y89.746 E0.01634 ; perimeter
G1 X129.670 Y94.365 E0.34499 ; perimeter
G1 X114.830 Y109.205 E1.56741 ; perimeter
G1 X114.830 Y105.713 E0.26082 ; perimeter
G1 X82.330 Y105.713 E2.42727 ; perimeter
G1 X82.330 Y95.930 E0.73063 ; perimeter
G1 X94.879 Y95.930 E0.93719 ; perimeter
G1 X95.647 Y96.492 E0.07107 ; perimeter
G1 X96.714 Y97.069 E0.09062 ; perimeter
G1 X97.853 Y97.489 E0.09065 ; perimeter
G1 X99.039 Y97.745 E0.09065 ; perimeter
G1 X100.236 Y97.830 E0.08959 ; perimeter
G1 X105.267 Y97.830 E0.37579 ; perimeter
G1 X106.740 Y97.701 E0.11041 ; perimeter
G1 X108.185 Y97.314 E0.11172 ; perimeter
G1 X109.541 Y96.682 E0.11172 ; perimeter
G1 X110.766 Y95.824 E0.11172 ; perimeter
G1 X111.824 Y94.766 E0.11172 ; perimeter
G1 X112.164 Y94.281 E0.04427 ; perimeter
G1 X112.682 Y93.541 E0.06745 ; perimeter
G1 X113.314 Y92.185 E0.11172 ; perimeter
G1 X113.701 Y90.740 E0.11172 ; perimeter
G1 X113.832 Y89.250 E0.11172 ; perimeter
G1 X113.701 Y87.760 E0.11172 ; perimeter
G1 X113.314 Y86.315 E0.11172 ; perimeter
G1 X112.682 Y84.959 E0.11172 ; perimeter
G1 X111.824 Y83.734 E0.11172 ; perimeter
G1 X110.766 Y82.676 E0.11172 ; perimeter
G1 X109.541 Y81.818 E0.11172 ; perimeter
G1 X108.185 Y81.186 E0.11172 ; perimeter
G1 X106.740 Y80.799 E0.11172 ; perimeter
G1 X105.267 Y80.670 E0.11041 ; perimeter
G1 X100.236 Y80.670 E0.37579 ; perimeter
G1 X99.039 Y80.755 E0.08959 ; perimeter
G1 X97.853 Y81.011 E0.09065 ; perimeter
G1 X96.714 Y81.431 E0.09065 ; perimeter
G1 X95.647 Y82.008 E0.09062 ; perimeter
G1 X94.879 Y82.570 E0.07107 ; perimeter
G1 X76.330 Y82.570 E1.38530 ; perimeter
G1 X76.330 Y79.650 E0.21808 ; perimeter
G1 X82.030 Y79.650 E0.42571 ; perimeter
G1 X82.030 Y73.850 E0.43317 ; perimeter
G1 X76.330 Y73.850 E0.42571 ; perimeter
G1 X76.330 Y70.533 E0.24775 ; perimeter
G1 X77.134 Y71.096 E0.07333 ; perimeter
G1 X77.471 Y71.253 E0.02775 ; perimeter
G1 X77.830 Y71.349 E0.02775 ; perimeter
G1 X78.200 Y71.382 E0.02775 ; perimeter
G1 X78.570 Y71.349 E0.02775 ; perimeter
G1 X78.929 Y71.253 E0.02775 ; perimeter
G1 X79.266 Y71.096 E0.02775 ; perimeter
G1 X79.570 Y70.883 E0.02775 ; perimeter
G1 X79.833 Y70.620 E0.02775 ; perimeter
G1 X80.046 Y70.316 E0.02775 ; perimeter
G1 X80.203 Y69.979 E0.02775 ; perimeter
G1 X80.299 Y69.620 E0.02775 ; perimeter
G1 X80.332 Y69.250 E0.02775 ; perimeter
G1 X80.299 Y68.880 E0.02775 ; perimeter
G1 X80.203 Y68.521 E0.02775 ; perimeter
G1 X80.046 Y68.184 E0.02775 ; perimeter
G1 X79.833 Y67.880 E0.02775 ; perimeter
G1 X79.570 Y67.617 E0.02775 ; perimeter
G1 X79.266 Y67.404 E0.02775 ; perimeter
G1 X78.929 Y67.247 E0.02775 ; perimeter
G1 X78.570 Y67.151 E0.02775 ; perimeter
G1 X78.200 Y67.118 E0.02775 ; perimeter
G1 X77.830 Y67.151 E0.02775 ; perimeter
G1 X77.471 Y67.247 E0.02775 ; perimeter
G1 X77.134 Y67.404 E0.02775 ; perimeter
G1 X76.330 Y67.967 E0.07333 ; perimeter
G1 X76.330 Y46.442 E1.60759 ; perimeter
G1 X76.978 Y46.704 F6000.000 ; move inwards before travel
G1 X77.078 Y47.078 F6000.000 ; move to first perimeter point
G1 X105.422 Y47.078 E2.11680 F900.000 ; perimeter
G1 X105.422 Y50.230 E0.23534 ; perimeter
G1 X104.741 Y49.753 E0.06200 ; perimeter
G1 X104.286 Y49.541 E0.03753 ; perimeter
G1 X103.801 Y49.411 E0.03753 ; perimeter
G1 X103.300 Y49.367 E0.03753 ; perimeter
G1 X102.799 Y49.411 E0.03753 ; perimeter
G1 X102.314 Y49.541 E0.03753 ; perimeter
G1 X101.859 Y49.753 E0.03753 ; perimeter
G1 X101.447 Y50.042 E0.03753 ; perimeter
G1 X101.092 Y50.397 E0.03753 ; perimeter
G1 X100.803 Y50.809 E0.03753 ; perimeter
G1 X100.591 Y51.264 E0.03753 ; perimeter
G1 X100.461 Y51.749 E0.03753 ; perimeter
G1 X100.417 Y52.250 E0.03753 ; perimeter
G1 X100.461 Y52.751 E0.03753 ; perimeter
G1 X100.591 Y53.236 E0.03753 ; perimeter
G1 X100.803 Y53.691 E0.03753 ; perimeter
G1 X101.092 Y54.103 E0.03753 ; perimeter
G1 X101.447 Y54.458 E0.03753 ; perimeter
G1 X101.859 Y54.747 E0.03753 ; perimeter
G1 X102.119 Y54.868 E0.02143 ; perimeter
G1 X102.314 Y54.959 E0.01611 ; perimeter
G1 X102.799 Y55.089 E0.03753 ; perimeter
G1 X103.300 Y55.133 E0.03753 ; perimeter
G1 X103.801 Y55.089 E0.03753 ; perimeter
G1 X104.286 Y54.959 E0.03753 ; perimeter
G1 X104.741 Y54.747 E0.03753 ; perimeter
G1 X105.422 Y54.270 E0.06200 ; perimeter
G1 X105.422 Y60.945 E0.49848 ; perimeter
G1 X128.922 Y84.445 E2.48209 ; perimeter
G1 X128.922 Y86.898 E0.18319 ; perimeter
G1 X128.156 Y86.541 E0.06306 ; perimeter
G1 X127.671 Y86.411 E0.03753 ; perimeter
G1 X127.220 Y86.372 E0.03377 ; perimeter
G1 X122.120 Y86.372 E0.38092 ; perimeter
G1 X121.670 Y86.411 E0.03377 ; perimeter
G1 X121.184 Y86.541 E0.03753 ; perimeter
G1 X120.729 Y86.753 E0.03753 ; perimeter
G1 X120.317 Y87.042 E0.03753 ; perimeter
G1 X119.962 Y87.397 E0.03753 ; perimeter
G1 X119.674 Y87.809 E0.03753 ; perimeter
G1 X119.461 Y88.264 E0.03753 ; perimeter
G1 X119.331 Y88.749 E0.03753 ; perimeter
G1 X119.287 Y89.250 E0.03753 ; perimeter
G1 X119.331 Y89.751 E0.03753 ; perimeter
G1 X119.385 Y89.952 E0.01558 ; perimeter
G1 X119.461 Y90.236 E0.02196 ; perimeter
G1 X119.674 Y90.691 E0.03753 ; perimeter
G1 X119.962 Y91.103 E0.03753 ; perimeter
G1 X120.317 Y91.458 E0.03753 ; perimeter
G1 X120.729 Y91.747 E0.03753 ; perimeter
G1 X121.184 Y91.959 E0.03753 ; perimeter
G1 X121.670 Y92.089 E0.03753 ; perimeter
G1 X122.120 Y92.128 E0.03377 ; perimeter
G1 X127.220 Y92.128 E0.38092 ; perimeter
G1 X127.671 Y92.089 E0.03377 ; perimeter
G1 X128.156 Y91.959 E0.03753 ; perimeter
G1 X128.922 Y91.602 E0.06306 ; perimeter
G1 X128.922 Y94.055 E0.18319 ; perimeter
G1 X115.578 Y107.398 E1.40930 ; perimeter
G1 X115.578 Y104.964 E0.18176 ; perimeter
G1 X83.078 Y104.964 E2.42727 ; perimeter
G1 X83.078 Y96.678 E0.61883 ; perimeter
G1 X94.635 Y96.678 E0.86313 ; perimeter
G1 X95.245 Y97.125 E0.05644 ; perimeter
G1 X96.405 Y97.752 E0.09849 ; perimeter
G1 X97.643 Y98.210 E0.09858 ; perimeter
G1 X98.933 Y98.488 E0.09858 ; perimeter
G1 X100.209 Y98.578 E0.09554 ; perimeter
G1 X105.300 Y98.578 E0.38021 ; perimeter
G1 X106.871 Y98.441 E0.11774 ; perimeter
G1 X108.442 Y98.020 E0.12150 ; perimeter
G1 X109.916 Y97.333 E0.12150 ; perimeter
G1 X111.249 Y96.399 E0.12150 ; perimeter
G1 X112.399 Y95.249 E0.12150 ; perimeter
G1 X113.333 Y93.916 E0.12150 ; perimeter
G1 X114.020 Y92.442 E0.12150 ; perimeter
G1 X114.441 Y90.871 E0.12150 ; perimeter
G1 X114.583 Y89.250 E0.12150 ; perimeter
G1 X114.441 Y87.629 E0.12150 ; perimeter
G1 X114.020 Y86.058 E0.12150 ; perimeter
G1 X113.333 Y84.584 E0.12150 ; perimeter
G1 X112.399 Y83.251 E0.12150 ; perimeter
G1 X111.249 Y82.101 E0.12150 ; perimeter
G1 X109.916 Y81.167 E0.12150 ; perimeter
G1 X108.442 Y80.480 E0.12150 ; perimeter
G1 X106.871 Y80.059 E0.12150 ; perimeter
G1 X105.300 Y79.922 E0.11774 ; perimeter
G1 X100.209 Y79.922 E0.38021 ; perimeter
G1 X98.933 Y80.012 E0.09553 ; perimeter
G1 X97.643 Y80.290 E0.09858 ; perimeter
G1 X96.405 Y80.748 E0.09858 ; perimeter
G1 X95.245 Y81.375 E0.09849 ; perimeter
G1 X94.635 Y81.822 E0.05644 ; perimeter
G1 X77.078 Y81.822 E1.31124 ; perimeter
G1 X77.078 Y80.398 E0.10628 ; perimeter
G1 X82.778 Y80.398 E0.42571 ; perimeter
G1 X82.778 Y73.102 E0.54498 ; perimeter
G1 X77.078 Y73.102 E0.42571 ; perimeter
G1 X77.078 Y71.923 E0.08804 ; perimeter
G1 X77.699 Y72.089 E0.04801 ; perimeter
G1 X78.200 Y72.133 E0.03753 ; perimeter
G1 X78.701 Y72.089 E0.03753 ; perimeter
G1 X79.186 Y71.959 E0.03753 ; perimeter
G1 X79.375 Y71.871 E0.01558 ; perimeter
G1 X79.641 Y71.747 E0.02196 ; perimeter
G1 X80.053 Y71.458 E0.03753 ; perimeter
G1 X80.408 Y71.103 E0.03753 ; perimeter
G1 X80.697 Y70.691 E0.03753 ; perimeter
G1 X80.909 Y70.236 E0.03753 ; perimeter
G1 X81.039 Y69.751 E0.03753 ; perimeter
G1 X81.083 Y69.250 E0.03753 ; perimeter
G1 X81.039 Y68.749 E0.03753 ; perimeter
G1 X80.985 Y68.548 E0.01558 ; perimeter
G1 X80.909 Y68.264 E0.02196 ; perimeter
G1 X80.697 Y67.809 E0.03753 ; perimeter
G1 X80.408 Y67.397 E0.03753 ; perimeter
G1 X80.053 Y67.042 E0.03753 ; perimeter
G1 X79.641 Y66.753 E0.03753 ; perimeter
G1 X79.186 Y66.541 E0.03753 ; perimeter
G1 X78.701 Y66.411 E0.03753 ; perimeter
G1 X78.200 Y66.367 E0.03753 ; perimeter
G1 X77.699 Y66.411 E0.03753 ; perimeter
G1 X77.078 Y66.577 E0.04801 ; perimeter
G1 X77.078 Y47.191 E1.44789 ; perimeter
G1 F1800.000 E-2.40000 ; retract
G1 X101.201 Y51.880 F6000.000 ; move to first perimeter point
G1 E2.40000 F1800.000 ; compensate retraction
G1 X101.297 Y51.521 E0.02775 F780.000 ; perimeter
G1 X101.454 Y51.184 E0.02775 ; perimeter
G1 X101.667 Y50.880 E0.02775 ; perimeter
G1 X101.930 Y50.617 E0.02775 ; perimeter
G1 X102.234 Y50.404 E0.02775 ; perimeter
G1 X102.571 Y50.247 E0.02775 ; perimeter
G1 X102.930 Y50.151 E0.02775 ; perimeter
G1 X103.300 Y50.118 E0.02775 ; perimeter
G1 X103.670 Y50.151 E0.02775 ; perimeter
G1 X104.029 Y50.247 E0.02775 ; perimeter
G1 X104.366 Y50.404 E0.02775 ; perimeter
G1 X104.670 Y50.617 E0.02775 ; perimeter
G1 X104.933 Y50.880 E0.02775 ; perimeter
G1 X105.146 Y51.184 E0.02775 ; perimeter
G1 X105.303 Y51.521 E0.02775 ; perimeter
G1 X105.362 Y51.742 E0.01706 ; perimeter
G1 X105.399 Y51.880 E0.01069 ; perimeter
G1 X105.432 Y52.250 E0.02775 ; perimeter
G1 X105.399 Y52.620 E0.02775 ; perimeter
G1 X105.303 Y52.979 E0.02775 ; perimeter
G1 X105.206 Y53.186 E0.01707 ; perimeter
G1 X105.146 Y53.316 E0.01069 ; perimeter
G1 X104.933 Y53.620 E0.02775 ; perimeter
G1 X104.670 Y53.883 E0.02775 ; perimeter
G1 X104.366 Y54.096 E0.02775 ; perimeter
G1 X104.029 Y54.253 E0.02775 ; perimeter
G1 X103.670 Y54.349 E0.02775 ; perimeter
G1 X103.300 Y54.382 E0.02775 ; perimeter
G1 X102.930 Y54.349 E0.02775 ; perimeter
G1 X102.571 Y54.253 E0.02775 ; perimeter
G1 X102.234 Y54.096 E0.02775 ; perimeter
G1 X101.930 Y53.883 E0.02775 ; perimeter
G1 X101.667 Y53.620 E0.02775 ; perimeter
G1 X101.454 Y53.316 E0.02775 ; perimeter
G1 X101.297 Y52.979 E0.02775 ; perimeter
G1 X101.201 Y52.620 E0.02775 ; perimeter
G1 X101.168 Y52.250 E0.02775 ; perimeter
G1 X101.191 Y51.992 E0.01937 ; perimeter
G1 X100.923 Y51.633 F6000.000 ; move inwards before travel
G1 F1800.000 E-2.40000 ; retract
G1 X77.863 Y86.730 F6000.000 ; move to first perimeter point
G1 E2.40000 F1800.000 ; compensate retraction
G1 X77.929 Y86.939 E0.01634 F780.000 ; perimeter
G1 X76.960 Y87.617 E0.08835 ; perimeter
G1 X76.697 Y87.880 E0.02775 ; perimeter
G1 X76.484 Y88.184 E0.02775 ; perimeter
G1 X76.327 Y88.521 E0.02775 ; perimeter
G1 X76.231 Y88.880 E0.02775 ; perimeter
G1 X76.198 Y89.250 E0.02775 ; perimeter
G1 X76.231 Y89.620 E0.02775 ; perimeter
G1 X76.327 Y89.979 E0.02775 ; perimeter
G1 X76.484 Y90.316 E0.02775 ; perimeter
G1 X76.697 Y90.620 E0.02775 ; perimeter
G1 X76.960 Y90.883 E0.02775 ; perimeter
G1 X77.929 Y91.561 E0.08835 ; perimeter
G1 X77.863 Y91.770 E0.01634 ; perimeter
G1 X74.710 Y91.770 E0.23550 ; perimeter
G1 X74.469 Y91.398 E0.03308 ; perimeter
G1 X74.162 Y90.717 E0.05583 ; perimeter
G1 X73.974 Y89.994 E0.05577 ; perimeter
G1 X73.911 Y89.250 E0.05577 ; perimeter
G1 X73.974 Y88.506 E0.05577 ; perimeter
G1 X74.162 Y87.783 E0.05577 ; perimeter
G1 X74.469 Y87.102 E0.05583 ; perimeter
G1 X74.712 Y86.730 E0.03316 ; perimeter
G1 X77.751 Y86.730 E0.22696 ; perimeter
G1 X77.794 Y86.938 F6000.000 ; move inwards before travel
G1 X75.987 Y87.478 F6000.000 ; move to first perimeter point
G1 X75.621 Y88.264 E0.06473 F780.000 ; perimeter
G1 X75.491 Y88.749 E0.03753 ; perimeter
G1 X75.447 Y89.250 E0.03753 ; perimeter
G1 X75.491 Y89.751 E0.03753 ; perimeter
G1 X75.621 Y90.236 E0.03753 ; perimeter
G1 X75.987 Y91.022 E0.06473 ; perimeter
G1 X75.120 Y91.022 E0.06477 ; perimeter
G1 X74.870 Y90.467 E0.04538 ; perimeter
G1 X74.715 Y89.868 E0.04629 ; perimeter
G1 X74.662 Y89.250 E0.04628 ; perimeter
G1 X74.715 Y88.632 E0.04629 ; perimeter
G1 X74.870 Y88.033 E0.04629 ; perimeter
G1 X75.120 Y87.478 E0.04538 ; perimeter
G1 X75.875 Y87.478 E0.05639 ; perimeter
G1 F1800.000 E-2.40000 ; retract
G1 X83.731 Y86.939 F6000.000 ; move to first perimeter point
G1 E2.40000 F1800.000 ; compensate retraction
G1 X83.797 Y86.730 E0.01634 F780.000 ; perimeter
G1 X92.073 Y86.730 E0.61810 ; perimeter
G1 X91.918 Y87.197 E0.03676 ; perimeter
G1 X91.697 Y88.560 E0.10309 ; perimeter
