; generated by Slic3r 1.1.6 on 2014-12-14 at 20:27:54

; perimeters extrusion width = 0.50mm
; infill extrusion width = 0.50mm
; solid infill extrusion width = 0.50mm
; top infill extrusion width = 0.50mm

G21 ; set units to millimeters
M107 ; disable fan
M190 S57 ; wait for bed temperature to be reached
M104 S200 ; set temperature

M109 S200 ; wait for temperature to be reached
G90 ; use absolute coordinates
M83 ; use relative distances for extrusion
G1 F1800.000 E-2.40000 ; retract
G1 Z0.240 F6000.000 ; move to next layer (0)
G1 X84.031 Y79.197 F6000.000 ; move to first skirt point
G1 E2.40000 F1800.000 ; compensate retraction
G1 X85.736 Y77.991 E0.15590 F600.000 ; skirt
G1 X88.000 Y77.503 E0.17300 ; skirt
G1 X112.000 Y77.503 E1.79244 ; skirt
G1 X114.050 Y77.899 E0.15590 ; skirt
G1 X115.803 Y79.031 E0.15590 ; skirt
G1 X117.009 Y80.736 E0.15590 ; skirt
G1 X117.497 Y83.000 E0.17300 ; skirt
G1 X117.497 Y117.000 E2.53930 ; skirt
G1 X117.101 Y119.050 E0.15590 ; skirt
G1 X115.969 Y120.803 E0.15590 ; skirt
G1 X114.264 Y122.009 E0.15590 ; skirt
G1 X112.000 Y122.497 E0.17300 ; skirt
G1 X88.000 Y122.497 E1.79244 ; skirt
G1 X85.950 Y122.101 E0.15590 ; skirt
G1 X84.197 Y120.969 E0.15590 ; skirt
G1 X82.991 Y119.264 E0.15590 ; skirt
G1 X82.503 Y117.000 E0.17300 ; skirt
G1 X82.503 Y83.000 E2.53930 ; skirt
G1 X82.899 Y80.950 E0.15590 ; skirt
G1 X83.991 Y79.260 E0.15030 ; skirt
G1 X84.769 Y79.521 F6000.000 ; move to first skirt point
G1 X86.429 Y78.519 E0.14480 F600.000 ; skirt
G1 X88.000 Y78.252 E0.11904 ; skirt
G1 X112.000 Y78.252 E1.79244 ; skirt
G1 X113.898 Y78.647 E0.14480 ; skirt
G1 X115.479 Y79.769 E0.14480 ; skirt
G1 X116.481 Y81.429 E0.14480 ; skirt
G1 X116.748 Y83.000 E0.11904 ; skirt
G1 X116.748 Y117.000 E2.53930 ; skirt
G1 X116.353 Y118.898 E0.14480 ; skirt
G1 X115.231 Y120.479 E0.14480 ; skirt
G1 X113.571 Y121.481 E0.14480 ; skirt
G1 X112.000 Y121.748 E0.11904 ; skirt
G1 X88.000 Y121.748 E1.79244 ; skirt
G1 X86.102 Y121.353 E0.14480 ; skirt
G1 X84.521 Y120.231 E0.14480 ; skirt
G1 X83.519 Y118.571 E0.14480 ; skirt
G1 X83.252 Y117.000 E0.11904 ; skirt
G1 X83.252 Y83.000 E2.53930 ; skirt
G1 X83.647 Y81.102 E0.14480 ; skirt
G1 X84.725 Y79.582 E0.13920 ; skirt
G1 F1800.000 E-2.40000 ; retract
G1 X111.600 Y116.600 F6000.000 ; move to first perimeter point
G1 E2.40000 F1800.000 ; compensate retraction
G1 X88.400 Y116.600 E1.73270 F900.000 ; perimeter
G1 X88.400 Y102.400 E1.06053 ; perimeter
G1 X111.600 Y102.400 E1.73270 ; perimeter
G1 X111.600 Y116.525 E1.05493 ; perimeter
G1 X111.167 Y116.350 F6000.000 ; move inwards before travel
G1 X110.852 Y115.852 F6000.000 ; move to first perimeter point
G1 X89.148 Y115.852 E1.62089 F900.000 ; perimeter
G1 X89.148 Y103.148 E0.94873 ; perimeter
G1 X110.852 Y103.148 E1.62089 ; perimeter
G1 X110.852 Y115.777 E0.94313 ; perimeter
G1 F1800.000 E-2.40000 ; retract
G1 X110.289 Y103.671 F6000.000 ; move to first fill point
G1 E2.40000 F1800.000 ; compensate retraction
G1 X110.329 Y103.711 E0.00422 F900.000 ; fill
G1 X110.329 Y104.786 E0.08025 ; fill
G1 X109.214 Y103.671 E0.11772 ; fill
G1 X108.140 Y103.671 E0.08025 ; fill
G1 X110.329 Y105.860 E0.23121 ; fill
G1 X110.329 Y106.935 E0.08025 ; fill
G1 X107.065 Y103.671 E0.34470 ; fill
G1 X105.991 Y103.671 E0.08025 ; fill
G1 X110.329 Y108.009 E0.45819 ; fill
G1 X110.329 Y109.084 E0.08025 ; fill
G1 X104.916 Y103.671 E0.57168 ; fill
G1 X103.842 Y103.671 E0.08025 ; fill
G1 X110.329 Y110.158 E0.68517 ; fill
G1 X110.329 Y111.233 E0.08025 ; fill
G1 X102.767 Y103.671 E0.79866 ; fill
G1 X101.693 Y103.671 E0.08025 ; fill
G1 X110.329 Y112.307 E0.91215 ; fill
G1 X110.329 Y113.382 E0.08025 ; fill
G1 X100.618 Y103.671 E1.02565 ; fill
G1 X99.544 Y103.671 E0.08025 ; fill
G1 X110.329 Y114.456 E1.13914 ; fill
G1 X110.127 Y115.329 E0.06689 ; fill
G1 X98.469 Y103.671 E1.23130 ; fill
G1 X97.395 Y103.671 E0.08025 ; fill
G1 X109.052 Y115.329 E1.23130 ; fill
G1 X107.978 Y115.329 E0.08025 ; fill
G1 X96.320 Y103.671 E1.23130 ; fill
G1 X95.246 Y103.671 E0.08025 ; fill
G1 X106.903 Y115.329 E1.23130 ; fill
G1 X105.829 Y115.329 E0.08025 ; fill
G1 X94.171 Y103.671 E1.23130 ; fill
G1 X93.097 Y103.671 E0.08025 ; fill
G1 X104.754 Y115.329 E1.23130 ; fill
G1 X103.680 Y115.329 E0.08025 ; fill
G1 X92.022 Y103.671 E1.23130 ; fill
G1 X90.948 Y103.671 E0.08025 ; fill
G1 X102.605 Y115.329 E1.23130 ; fill
G1 X101.531 Y115.329 E0.08025 ; fill
G1 X89.873 Y103.671 E1.23130 ; fill
G1 X89.671 Y104.544 E0.06689 ; fill
G1 X100.456 Y115.329 E1.13914 ; fill
G1 X99.382 Y115.329 E0.08025 ; fill
G1 X89.671 Y105.618 E1.02565 ; fill
G1 X89.671 Y106.693 E0.08025 ; fill
G1 X98.307 Y115.329 E0.91215 ; fill
G1 X97.233 Y115.329 E0.08025 ; fill
G1 X89.671 Y107.767 E0.79866 ; fill
G1 X89.671 Y108.842 E0.08025 ; fill
G1 X96.158 Y115.329 E0.68517 ; fill
G1 X95.084 Y115.329 E0.08025 ; fill
G1 X89.671 Y109.916 E0.57168 ; fill
G1 X89.671 Y110.991 E0.08025 ; fill
G1 X94.009 Y115.329 E0.45819 ; fill
G1 X92.935 Y115.329 E0.08025 ; fill
G1 X89.671 Y112.065 E0.34470 ; fill
G1 X89.671 Y113.140 E0.08025 ; fill
G1 X91.860 Y115.329 E0.23121 ; fill
G1 X90.786 Y115.329 E0.08025 ; fill
G1 X89.671 Y114.214 E0.11772 ; fill
G1 X89.671 Y115.289 E0.08025 ; fill
G1 X89.711 Y115.329 E0.00422 ; fill
G1 F1800.000 E-2.40000 ; retract
G1 X111.600 Y97.600 F6000.000 ; move to first perimeter point
G1 E2.40000 F1800.000 ; compensate retraction
G1 X88.400 Y97.600 E1.73270 F900.000 ; perimeter
G1 X88.400 Y83.400 E1.06053 ; perimeter
G1 X111.600 Y83.400 E1.73270 ; perimeter
G1 X111.600 Y97.525 E1.05493 ; perimeter
G1 X111.167 Y97.350 F6000.000 ; move inwards before travel
G1 X110.852 Y96.852 F6000.000 ; move to first perimeter point
G1 X89.148 Y96.852 E1.62089 F900.000 ; perimeter
G1 X89.148 Y84.148 E0.94873 ; perimeter
G1 X110.852 Y84.148 E1.62089 ; perimeter
G1 X110.852 Y96.777 E0.94313 ; perimeter
G1 F1800.000 E-2.40000 ; retract
G1 X110.289 Y84.671 F6000.000 ; move to first fill point
G1 E2.40000 F1800.000 ; compensate retraction
G1 X110.329 Y84.711 E0.00422 F900.000 ; fill
G1 X110.329 Y85.786 E0.08025 ; fill
G1 X109.214 Y84.671 E0.11772 ; fill
G1 X108.140 Y84.671 E0.08025 ; fill
G1 X110.329 Y86.860 E0.23121 ; fill
G1 X110.329 Y87.935 E0.08025 ; fill
G1 X107.065 Y84.671 E0.34470 ; fill
G1 X105.991 Y84.671 E0.08025 ; fill
G1 X110.329 Y89.009 E0.45819 ; fill
G1 X110.329 Y90.084 E0.08025 ; fill
G1 X104.916 Y84.671 E0.57168 ; fill
G1 X103.842 Y84.671 E0.08025 ; fill
G1 X110.329 Y91.158 E0.68517 ; fill
G1 X110.329 Y92.233 E0.08025 ; fill
G1 X102.767 Y84.671 E0.79866 ; fill
G1 X101.693 Y84.671 E0.08025 ; fill
G1 X110.329 Y93.307 E0.91215 ; fill
G1 X110.329 Y94.382 E0.08025 ; fill
G1 X100.618 Y84.671 E1.02565 ; fill
G1 X99.544 Y84.671 E0.08025 ; fill
G1 X110.329 Y95.456 E1.13914 ; fill
G1 X110.127 Y96.329 E0.06689 ; fill
G1 X98.469 Y84.671 E1.23130 ; fill
G1 X97.395 Y84.671 E0.08025 ; fill
G1 X109.052 Y96.329 E1.23130 ; fill
G1 X107.978 Y96.329 E0.08025 ; fill
G1 X96.320 Y84.671 E1.23130 ; fill
G1 X95.246 Y84.671 E0.08025 ; fill
G1 X106.903 Y96.329 E1.23130 ; fill
G1 X105.829 Y96.329 E0.08025 ; fill
G1 X94.171 Y84.671 E1.23130 ; fill
G1 X93.097 Y84.671 E0.08025 ; fill
G1 X104.754 Y96.329 E1.23130 ; fill
G1 X103.680 Y96.329 E0.08025 ; fill
G1 X92.022 Y84.671 E1.23130 ; fill
G1 X90.948 Y84.671 E0.08025 ; fill
G1 X102.605 Y96.329 E1.23130 ; fill
G1 X101.531 Y96.329 E0.08025 ; fill
G1 X89.873 Y84.671 E1.23130 ; fill
G1 X89.671 Y85.544 E0.06689 ; fill
G1 X100.456 Y96.329 E1.13914 ; fill
G1 X99.382 Y96.329 E0.08025 ; fill
G1 X89.671 Y86.618 E1.02565 ; fill
G1 X89.671 Y87.693 E0.08025 ; fill
G1 X98.307 Y96.329 E0.91215 ; fill
G1 X97.233 Y96.329 E0.08025 ; fill
G1 X89.671 Y88.767 E0.79866 ; fill
G1 X89.671 Y89.842 E0.08025 ; fill
G1 X96.158 Y96.329 E0.68517 ; fill
G1 X95.084 Y96.329 E0.08025 ; fill
G1 X89.671 Y90.916 E0.57168 ; fill
G1 X89.671 Y91.991 E0.08025 ; fill
G1 X94.009 Y96.329 E0.45819 ; fill
G1 X92.935 Y96.329 E0.08025 ; fill
G1 X89.671 Y93.065 E0.34470 ; fill
G1 X89.671 Y94.140 E0.08025 ; fill
G1 X91.860 Y96.329 E0.23121 ; fill
G1 X90.786 Y96.329 E0.08025 ; fill
G1 X89.671 Y95.214 E0.11772 ; fill
G1 X89.671 Y96.289 E0.08025 ; fill
G1 X89.711 Y96.329 E0.00422 ; fill
M104 S190 ; set temperature
G1 F1800.000 E-2.40000 ; retract
G1 Z0.480 F6000.000 ; move to next layer (1)
G1 X111.750 Y116.750 F6000.000 ; move to first perimeter point
G1 E2.40000 F1800.000 ; compensate retraction
G1 X88.250 Y116.750 E1.17242 F1800.000 ; perimeter
G1 X88.250 Y102.250 E0.72341 ; perimeter
G1 X111.750 Y102.250 E1.17242 ; perimeter
G1 X111.750 Y116.675 E0.71967 ; perimeter
G1 X111.317 Y116.500 F6000.000 ; move inwards before travel
G1 X111.250 Y116.250 F6000.000 ; move to first perimeter point
G1 X88.750 Y116.250 E1.12253 F1800.000 ; perimeter
G1 X88.750 Y102.750 E0.67352 ; perimeter
G1 X111.250 Y102.750 E1.12253 ; perimeter
G1 X111.250 Y116.175 E0.66978 ; perimeter
G1 X110.908 Y115.868 F6000.000 ; move to first fill point
G1 X110.868 Y115.908 E0.00282 F1800.000 ; fill
G1 X110.148 Y115.908 E0.03591 ; fill
G1 X110.908 Y115.148 E0.05361 ; fill
G1 X110.908 Y114.428 E0.03591 ; fill
G1 X109.428 Y115.908 E0.10439 ; fill
G1 X108.708 Y115.908 E0.03591 ; fill
G1 X110.908 Y113.708 E0.15518 ; fill
G1 X110.908 Y112.988 E0.03591 ; fill
G1 X107.988 Y115.908 E0.20596 ; fill
G1 X107.269 Y115.908 E0.03591 ; fill
G1 X110.908 Y112.269 E0.25675 ; fill
G1 X110.908 Y111.549 E0.03591 ; fill
G1 X106.549 Y115.908 E0.30753 ; fill
G1 X105.829 Y115.908 E0.03591 ; fill
G1 X110.908 Y110.829 E0.35832 ; fill
G1 X110.908 Y110.109 E0.03591 ; fill
G1 X105.109 Y115.908 E0.40910 ; fill
G1 X104.389 Y115.908 E0.03591 ; fill
G1 X110.908 Y109.389 E0.45989 ; fill
G1 X110.908 Y108.670 E0.03591 ; fill
G1 X103.670 Y115.908 E0.51068 ; fill
G1 X102.950 Y115.908 E0.03591 ; fill
G1 X110.908 Y107.950 E0.56146 ; fill
G1 X110.908 Y107.230 E0.03591 ; fill
G1 X102.230 Y115.908 E0.61225 ; fill
G1 X101.510 Y115.908 E0.03591 ; fill
G1 X110.908 Y106.510 E0.66303 ; fill
G1 X110.908 Y105.790 E0.03591 ; fill
G1 X100.790 Y115.908 E0.71382 ; fill
G1 X100.071 Y115.908 E0.03591 ; fill
G1 X110.908 Y105.071 E0.76460 ; fill
G1 X110.908 Y104.351 E0.03591 ; fill
G1 X99.351 Y115.908 E0.81539 ; fill
G1 X98.631 Y115.908 E0.03591 ; fill
G1 X110.908 Y103.631 E0.86617 ; fill
G1 X110.726 Y103.092 E0.02835 ; fill
G1 X97.911 Y115.908 E0.90417 ; fill
G1 X97.191 Y115.908 E0.03591 ; fill
G1 X110.006 Y103.092 E0.90417 ; fill
G1 X109.287 Y103.092 E0.03591 ; fill
G1 X96.472 Y115.908 E0.90417 ; fill
G1 X95.752 Y115.908 E0.03591 ; fill
G1 X108.567 Y103.092 E0.90417 ; fill
G1 X107.847 Y103.092 E0.03591 ; fill
G1 X95.032 Y115.908 E0.90417 ; fill
G1 X94.312 Y115.908 E0.03591 ; fill
G1 X107.127 Y103.092 E0.90417 ; fill
G1 X106.408 Y103.092 E0.03591 ; fill
G1 X93.592 Y115.908 E0.90417 ; fill
G1 X92.873 Y115.908 E0.03591 ; fill
G1 X105.688 Y103.092 E0.90417 ; fill
G1 X104.968 Y103.092 E0.03591 ; fill
G1 X92.153 Y115.908 E0.90417 ; fill
G1 X91.433 Y115.908 E0.03591 ; fill
G1 X104.248 Y103.092 E0.90417 ; fill
G1 X103.528 Y103.092 E0.03591 ; fill
G1 X90.713 Y115.908 E0.90417 ; fill
G1 X89.994 Y115.908 E0.03591 ; fill
G1 X102.809 Y103.092 E0.90417 ; fill
G1 X102.089 Y103.092 E0.03591 ; fill
G1 X89.274 Y115.908 E0.90417 ; fill
G1 X89.092 Y115.369 E0.02835 ; fill
G1 X101.369 Y103.092 E0.86617 ; fill
G1 X100.649 Y103.092 E0.03591 ; fill
G1 X89.092 Y114.649 E0.81539 ; fill
G1 X89.092 Y113.929 E0.03591 ; fill
G1 X99.929 Y103.092 E0.76460 ; fill
G1 X99.210 Y103.092 E0.03591 ; fill
G1 X89.092 Y113.210 E0.71382 ; fill
G1 X89.092 Y112.490 E0.03591 ; fill
G1 X98.490 Y103.092 E0.66303 ; fill
G1 X97.770 Y103.092 E0.03591 ; fill
G1 X89.092 Y111.770 E0.61225 ; fill
G1 X89.092 Y111.050 E0.03591 ; fill
G1 X97.050 Y103.092 E0.56146 ; fill
G1 X96.330 Y103.092 E0.03591 ; fill
G1 X89.092 Y110.330 E0.51068 ; fill
G1 X89.092 Y109.611 E0.03591 ; fill
G1 X95.611 Y103.092 E0.45989 ; fill
G1 X94.891 Y103.092 E0.03591 ; fill
G1 X89.092 Y108.891 E0.40910 ; fill
G1 X89.092 Y108.171 E0.03591 ; fill
G1 X94.171 Y103.092 E0.35832 ; fill
G1 X93.451 Y103.092 E0.03591 ; fill
G1 X89.092 Y107.451 E0.30753 ; fill
G1 X89.092 Y106.731 E0.03591 ; fill
G1 X92.731 Y103.092 E0.25675 ; fill
G1 X92.012 Y103.092 E0.03591 ; fill
G1 X89.092 Y106.012 E0.20596 ; fill
G1 X89.092 Y105.292 E0.03591 ; fill
G1 X91.292 Y103.092 E0.15518 ; fill
G1 X90.572 Y103.092 E0.03591 ; fill
G1 X89.092 Y104.572 E0.10439 ; fill
G1 X89.092 Y103.852 E0.03591 ; fill
G1 X89.852 Y103.092 E0.05361 ; fill
G1 X89.132 Y103.092 E0.03591 ; fill
G1 X89.092 Y103.132 E0.00282 ; fill
G1 F1800.000 E-2.40000 ; retract
G1 X111.750 Y97.750 F6000.000 ; move to first perimeter point
G1 E2.40000 F1800.000 ; compensate retraction
G1 X88.250 Y97.750 E1.17242 F1800.000 ; perimeter
G1 X88.250 Y83.250 E0.72341 ; perimeter
G1 X111.750 Y83.250 E1.17242 ; perimeter
G1 X111.750 Y97.675 E0.71967 ; perimeter
G1 X111.317 Y97.500 F6000.000 ; move inwards before travel
G1 X111.250 Y97.250 F6000.000 ; move to first perimeter point
G1 X88.750 Y97.250 E1.12253 F1800.000 ; perimeter
G1 X88.750 Y83.750 E0.67352 ; perimeter
G1 X111.250 Y83.750 E1.12253 ; perimeter
G1 X111.250 Y97.175 E0.66978 ; perimeter
G1 X110.908 Y96.868 F6000.000 ; move to first fill point
G1 X110.868 Y96.908 E0.00282 F1800.000 ; fill
G1 X110.148 Y96.908 E0.03591 ; fill
G1 X110.908 Y96.148 E0.05361 ; fill
G1 X110.908 Y95.428 E0.03591 ; fill
G1 X109.428 Y96.908 E0.10439 ; fill
G1 X108.708 Y96.908 E0.03591 ; fill
G1 X110.908 Y94.708 E0.15518 ; fill
G1 X110.908 Y93.988 E0.03591 ; fill
G1 X107.988 Y96.908 E0.20596 ; fill
G1 X107.269 Y96.908 E0.03591 ; fill
G1 X110.908 Y93.269 E0.25675 ; fill
G1 X110.908 Y92.549 E0.03591 ; fill
G1 X106.549 Y96.908 E0.30753 ; fill
G1 X105.829 Y96.908 E0.03591 ; fill
G1 X110.908 Y91.829 E0.35832 ; fill
G1 X110.908 Y91.109 E0.03591 ; fill
G1 X105.109 Y96.908 E0.40910 ; fill
G1 X104.389 Y96.908 E0.03591 ; fill
G1 X110.908 Y90.389 E0.45989 ; fill
G1 X110.908 Y89.670 E0.03591 ; fill
G1 X103.670 Y96.908 E0.51068 ; fill
G1 X102.950 Y96.908 E0.03591 ; fill
G1 X110.908 Y88.950 E0.56146 ; fill
G1 X110.908 Y88.230 E0.03591 ; fill
G1 X102.230 Y96.908 E0.61225 ; fill
G1 X101.510 Y96.908 E0.03591 ; fill
G1 X110.908 Y87.510 E0.66303 ; fill
G1 X110.908 Y86.790 E0.03591 ; fill
G1 X100.790 Y96.908 E0.71382 ; fill
G1 X100.071 Y96.908 E0.03591 ; fill
G1 X110.908 Y86.071 E0.76460 ; fill
G1 X110.908 Y85.351 E0.03591 ; fill
G1 X99.351 Y96.908 E0.81539 ; fill
G1 X98.631 Y96.908 E0.03591 ; fill
G1 X110.908 Y84.631 E0.86617 ; fill
G1 X110.726 Y84.092 E0.02835 ; fill
G1 X97.911 Y96.908 E0.90417 ; fill
G1 X97.191 Y96.908 E0.03591 ; fill
G1 X110.006 Y84.092 E0.90417 ; fill
G1 X109.287 Y84.092 E0.03591 ; fill
G1 X96.472 Y96.908 E0.90417 ; fill
G1 X95.752 Y96.908 E0.03591 ; fill
G1 X108.567 Y84.092 E0.90417 ; fill
G1 X107.847 Y84.092 E0.03591 ; fill
G1 X95.032 Y96.908 E0.90417 ; fill
G1 X94.312 Y96.908 E0.03591 ; fill
G1 X107.127 Y84.092 E0.90417 ; fill
G1 X106.408 Y84.092 E0.03591 ; fill
G1 X93.592 Y96.908 E0.90417 ; fill
G1 X92.873 Y96.908 E0.03591 ; fill
G1 X105.688 Y84.092 E0.90417 ; fill
G1 X104.968 Y84.092 E0.03591 ; fill
G1 X92.153 Y96.908 E0.90417 ; fill
G1 X91.433 Y96.908 E0.03591 ; fill
G1 X104.248 Y84.092 E0.90417 ; fill
G1 X103.528 Y84.092 E0.03591 ; fill
G1 X90.713 Y96.908 E0.90417 ; fill
G1 X89.994 Y96.908 E0.03591 ; fill
G1 X102.809 Y84.092 E0.90417 ; fill
G1 X102.089 Y84.092 E0.03591 ; fill
G1 X89.274 Y96.908 E0.90417 ; fill
G1 X89.092 Y96.369 E0.02835 ; fill
G1 X101.369 Y84.092 E0.86617 ; fill
G1 X100.649 Y84.092 E0.03591 ; fill
G1 X89.092 Y95.649 E0.81539 ; fill
G1 X89.092 Y94.929 E0.03591 ; fill
G1 X99.929 Y84.092 E0.76460 ; fill
G1 X99.210 Y84.092 E0.03591 ; fill
G1 X89.092 Y94.210 E0.71382 ; fill
G1 X89.092 Y93.490 E0.03591 ; fill
G1 X98.490 Y84.092 E0.66303 ; fill
G1 X97.770 Y84.092 E0.03591 ; fill
G1 X89.092 Y92.770 E0.61225 ; fill
G1 X89.092 Y92.050 E0.03591 ; fill
G1 X97.050 Y84.092 E0.56146 ; fill
G1 X96.330 Y84.092 E0.03591 ; fill
G1 X89.092 Y91.330 E0.51068 ; fill
G1 X89.092 Y90.611 E0.03591 ; fill
G1 X95.611 Y84.092 E0.45989 ; fill
G1 X94.891 Y84.092 E0.03591 ; fill
G1 X89.092 Y89.891 E0.40910 ; fill
G1 X89.092 Y89.171 E0.03591 ; fill
