; generated by Slic3r 1.1.6 on 2014-11-29 at 22:12:35

; perimeters extrusion width = 0.50mm
; infill extrusion width = 0.50mm
; solid infill extrusion width = 0.50mm
; top infill extrusion width = 0.50mm

G21 ; set units to millimeters
M107 ; disable fan
M190 S57 ; wait for bed temperature to be reached
M104 S200 ; set temperature

M109 S200 ; wait for temperature to be reached
G90 ; use absolute coordinates
M83 ; use relative distances for extrusion
G1 F1800.000 E-2.40000 ; retract
G1 Z0.240 F6000.000 ; move to next layer (0)
G1 X82.477 Y79.859 F6000.000 ; move to first skirt point
G1 E2.40000 F1800.000 ; compensate retraction
G1 X84.267 Y78.784 E0.15590 F600.000 ; skirt
G1 X86.150 Y78.452 E0.14284 ; skirt
G1 X95.150 Y78.452 E0.67217 ; skirt
G1 X97.250 Y78.869 E0.15992 ; skirt
G1 X135.950 Y94.869 E3.12760 ; skirt
G1 X137.693 Y96.018 E0.15590 ; skirt
G1 X138.881 Y97.734 E0.15590 ; skirt
G1 X139.347 Y99.949 E0.16900 ; skirt
G1 X139.347 Y104.532 E0.34227 ; skirt
G1 X138.951 Y106.581 E0.15590 ; skirt
G1 X137.819 Y108.335 E0.15590 ; skirt
G1 X136.114 Y109.540 E0.15590 ; skirt
G1 X133.850 Y110.028 E0.17300 ; skirt
G1 X119.841 Y110.028 E1.04625 ; skirt
G1 X68.326 Y109.946 E3.84743 ; skirt
G1 X66.277 Y109.546 E0.15590 ; skirt
G1 X64.525 Y108.411 E0.15590 ; skirt
G1 X63.322 Y106.705 E0.15590 ; skirt
G1 X62.838 Y104.449 E0.17236 ; skirt
G1 X62.838 Y99.949 E0.33608 ; skirt
G1 X63.234 Y97.899 E0.15590 ; skirt
G1 X64.662 Y95.859 E0.18597 ; skirt
G1 X82.421 Y79.909 E1.78277 ; skirt
G1 X82.977 Y80.416 F6000.000 ; move to first skirt point
G1 X84.654 Y79.442 E0.14480 F600.000 ; skirt
G1 X86.150 Y79.200 E0.11321 ; skirt
G1 X95.150 Y79.200 E0.67217 ; skirt
G1 X96.964 Y79.560 E0.13814 ; skirt
G1 X135.664 Y95.560 E3.12760 ; skirt
G1 X137.267 Y96.651 E0.14480 ; skirt
G1 X138.300 Y98.292 E0.14480 ; skirt
G1 X138.598 Y99.949 E0.12573 ; skirt
G1 X138.598 Y104.532 E0.34227 ; skirt
G1 X138.203 Y106.429 E0.14480 ; skirt
G1 X137.081 Y108.011 E0.14480 ; skirt
G1 X135.421 Y109.012 E0.14480 ; skirt
G1 X133.850 Y109.280 E0.11904 ; skirt
G1 X119.842 Y109.280 E1.04616 ; skirt
G1 X68.327 Y109.197 E3.84743 ; skirt
G1 X66.430 Y108.798 E0.14480 ; skirt
G1 X64.850 Y107.674 E0.14480 ; skirt
G1 X63.851 Y106.013 E0.14480 ; skirt
G1 X63.586 Y104.449 E0.11848 ; skirt
G1 X63.586 Y99.949 E0.33608 ; skirt
G1 X63.982 Y98.051 E0.14480 ; skirt
G1 X65.162 Y96.416 E0.15058 ; skirt
G1 X82.921 Y80.466 E1.78277 ; skirt
G1 F1800.000 E-2.40000 ; retract
G1 X120.250 Y104.049 F6000.000 ; move to first perimeter point
G1 E2.40000 F1800.000 ; compensate retraction
G1 X68.735 Y104.049 E3.84743 F900.000 ; perimeter
G1 X68.735 Y100.349 E0.27634 ; perimeter
G1 X86.550 Y100.349 E1.33054 ; perimeter
G1 X86.550 Y84.349 E1.19496 ; perimeter
G1 X95.071 Y84.349 E0.63636 ; perimeter
G1 X133.450 Y100.216 E3.10169 ; perimeter
G1 X133.450 Y104.132 E0.29242 ; perimeter
G1 X120.250 Y104.124 E0.98584 ; perimeter
G1 X120.001 Y103.615 F6000.000 ; move inwards before travel
G1 X120.998 Y103.300 F6000.000 ; move to first perimeter point
G1 X69.483 Y103.300 E3.84743 F900.000 ; perimeter
G1 X69.483 Y101.097 E0.16453 ; perimeter
G1 X87.298 Y101.097 E1.33054 ; perimeter
G1 X87.298 Y85.097 E1.19496 ; perimeter
G1 X94.922 Y85.097 E0.56936 ; perimeter
G1 X132.701 Y100.717 E3.05321 ; perimeter
G1 X132.701 Y103.383 E0.19914 ; perimeter
G1 X120.998 Y103.375 E0.87404 ; perimeter
G1 F1800.000 E-2.40000 ; retract
G1 X123.056 Y97.295 F6000.000 ; move to first fill point
G1 E2.40000 F1800.000 ; compensate retraction
G1 X128.622 Y102.860 E0.58787 F900.000 ; fill
G1 X129.686 Y102.860 E0.07943 ; fill
G1 X124.869 Y98.044 E0.50869 ; fill
G1 X126.683 Y98.794 F6000.000 ; move to first fill point
G1 X130.749 Y102.860 E0.42952 F900.000 ; fill
G1 X131.813 Y102.860 E0.07943 ; fill
G1 X128.496 Y99.543 E0.35034 ; fill
G1 X130.309 Y100.293 F6000.000 ; move to first fill point
G1 X132.179 Y102.163 E0.19751 F900.000 ; fill
G1 X132.179 Y101.100 E0.07943 ; fill
G1 X132.122 Y101.043 E0.00601 ; fill
G1 F1800.000 E-2.40000 ; retract
G1 X121.243 Y96.545 F6000.000 ; move to first fill point
G1 E2.40000 F1800.000 ; compensate retraction
G1 X127.559 Y102.860 E0.66704 F900.000 ; fill
G1 X126.495 Y102.860 E0.07943 ; fill
G1 X119.430 Y95.795 E0.74622 ; fill
G1 X117.617 Y95.046 F6000.000 ; move to first fill point
G1 X125.432 Y102.860 E0.82539 F900.000 ; fill
G1 X124.368 Y102.860 E0.07943 ; fill
G1 X115.804 Y94.296 E0.90457 ; fill
G1 X113.991 Y93.546 F6000.000 ; move to first fill point
G1 X123.305 Y102.860 E0.98374 F900.000 ; fill
G1 X122.241 Y102.860 E0.07943 ; fill
G1 X112.177 Y92.797 E1.06292 ; fill
G1 X110.364 Y92.047 F6000.000 ; move to first fill point
G1 X121.095 Y102.778 E1.13335 F900.000 ; fill
G1 X120.031 Y102.778 E0.07943 ; fill
G1 X108.551 Y91.298 E1.21253 ; fill
G1 X106.738 Y90.548 F6000.000 ; move to first fill point
G1 X118.968 Y102.778 E1.29170 F900.000 ; fill
G1 X117.904 Y102.778 E0.07943 ; fill
G1 X104.925 Y89.798 E1.37088 ; fill
G1 X103.112 Y89.049 F6000.000 ; move to first fill point
G1 X116.841 Y102.778 E1.45005 F900.000 ; fill
G1 X115.777 Y102.778 E0.07943 ; fill
G1 X101.299 Y88.299 E1.52923 ; fill
G1 X99.486 Y87.550 F6000.000 ; move to first fill point
G1 X114.714 Y102.778 E1.60840 F900.000 ; fill
G1 X113.650 Y102.778 E0.07943 ; fill
G1 X97.672 Y86.800 E1.68758 ; fill
G1 X95.859 Y86.050 F6000.000 ; move to first fill point
G1 X112.587 Y102.778 E1.76675 F900.000 ; fill
G1 X111.523 Y102.778 E0.07943 ; fill
G1 X94.365 Y85.620 E1.81221 ; fill
G1 X93.302 Y85.620 E0.07943 ; fill
G1 X110.460 Y102.778 E1.81221 ; fill
G1 X109.396 Y102.778 E0.07943 ; fill
G1 X92.238 Y85.620 E1.81221 ; fill
G1 X91.175 Y85.620 E0.07943 ; fill
G1 X108.332 Y102.778 E1.81221 ; fill
G1 X107.269 Y102.778 E0.07943 ; fill
G1 X90.111 Y85.620 E1.81221 ; fill
G1 X89.048 Y85.620 E0.07943 ; fill
G1 X106.205 Y102.778 E1.81221 ; fill
G1 X105.142 Y102.778 E0.07943 ; fill
G1 X87.984 Y85.620 E1.81221 ; fill
G1 X87.821 Y86.520 E0.06834 ; fill
G1 X104.078 Y102.778 E1.71711 ; fill
G1 X103.015 Y102.778 E0.07943 ; fill
G1 X87.821 Y87.584 E1.60478 ; fill
G1 X87.821 Y88.647 E0.07943 ; fill
G1 X101.951 Y102.778 E1.49245 ; fill
G1 X100.888 Y102.778 E0.07943 ; fill
G1 X87.821 Y89.711 E1.38012 ; fill
G1 X87.821 Y90.774 E0.07943 ; fill
G1 X99.824 Y102.778 E1.26779 ; fill
G1 X98.761 Y102.778 E0.07943 ; fill
G1 X87.821 Y91.838 E1.15546 ; fill
G1 X87.821 Y92.901 E0.07943 ; fill
G1 X97.697 Y102.778 E1.04313 ; fill
G1 X96.634 Y102.778 E0.07943 ; fill
G1 X87.821 Y93.965 E0.93080 ; fill
G1 X87.821 Y95.028 E0.07943 ; fill
G1 X95.570 Y102.778 E0.81847 ; fill
G1 X94.507 Y102.778 E0.07943 ; fill
G1 X87.821 Y96.092 E0.70614 ; fill
G1 X87.821 Y97.155 E0.07943 ; fill
G1 X93.443 Y102.778 E0.59381 ; fill
G1 X92.380 Y102.778 E0.07943 ; fill
G1 X87.821 Y98.219 E0.48148 ; fill
G1 X87.821 Y99.283 E0.07943 ; fill
G1 X91.316 Y102.778 E0.36915 ; fill
G1 X90.253 Y102.778 E0.07943 ; fill
G1 X87.821 Y100.346 E0.25682 ; fill
G1 X87.821 Y101.410 E0.07943 ; fill
G1 X89.189 Y102.778 E0.14449 ; fill
G1 X88.126 Y102.778 E0.07943 ; fill
G1 X86.968 Y101.620 E0.12228 ; fill
G1 X85.904 Y101.620 E0.07943 ; fill
G1 X87.062 Y102.778 E0.12228 ; fill
G1 X85.999 Y102.778 E0.07943 ; fill
G1 X84.841 Y101.620 E0.12228 ; fill
G1 X83.777 Y101.620 E0.07943 ; fill
G1 X84.935 Y102.778 E0.12228 ; fill
G1 X83.872 Y102.778 E0.07943 ; fill
G1 X82.714 Y101.620 E0.12228 ; fill
G1 X81.650 Y101.620 E0.07943 ; fill
G1 X82.808 Y102.778 E0.12228 ; fill
G1 X81.745 Y102.778 E0.07943 ; fill
G1 X80.587 Y101.620 E0.12228 ; fill
G1 X79.523 Y101.620 E0.07943 ; fill
G1 X80.681 Y102.778 E0.12228 ; fill
G1 X79.617 Y102.778 E0.07943 ; fill
G1 X78.460 Y101.620 E0.12228 ; fill
G1 X77.396 Y101.620 E0.07943 ; fill
G1 X78.554 Y102.778 E0.12228 ; fill
G1 X77.490 Y102.778 E0.07943 ; fill
G1 X76.333 Y101.620 E0.12228 ; fill
G1 X75.269 Y101.620 E0.07943 ; fill
G1 X76.427 Y102.778 E0.12228 ; fill
G1 X75.363 Y102.778 E0.07943 ; fill
G1 X74.206 Y101.620 E0.12228 ; fill
G1 X73.142 Y101.620 E0.07943 ; fill
G1 X74.300 Y102.778 E0.12228 ; fill
G1 X73.236 Y102.778 E0.07943 ; fill
G1 X72.079 Y101.620 E0.12228 ; fill
G1 X71.015 Y101.620 E0.07943 ; fill
G1 X72.173 Y102.778 E0.12228 ; fill
G1 X71.109 Y102.778 E0.07943 ; fill
G1 X70.006 Y101.674 E0.11655 ; fill
G1 X70.006 Y102.738 E0.07943 ; fill
G1 X70.046 Y102.778 E0.00422 ; fill
M104 S190 ; set temperature
G1 F1800.000 E-2.40000 ; retract
G1 Z0.480 F6000.000 ; move to next layer (1)
G1 X120.100 Y104.199 F6000.000 ; move to first perimeter point
G1 E2.40000 F1800.000 ; compensate retraction
G1 X68.085 Y104.199 E2.59505 F1800.000 ; perimeter
G1 X67.984 Y104.199 E0.00821 F1800.000 ; perimeter
G1 X67.984 Y100.199 E0.32653 ; perimeter
G1 X68.085 Y100.199 E0.00821 ; perimeter
G1 X86.400 Y100.199 E0.91375 F1800.000 ; perimeter
G1 X86.400 Y84.199 E0.79824 ; perimeter
G1 X95.100 Y84.199 E0.43406 ; perimeter
G1 X133.600 Y100.116 E2.07844 ; perimeter
G1 X133.600 Y104.447 E0.21608 ; perimeter
G1 X120.100 Y104.447 E0.67352 ; perimeter
G1 X120.100 Y104.274 E0.00865 ; perimeter
G1 F1800.000 E-2.40000 ; retract
G1 X68.585 Y100.212 F6000.000 ; move inwards before travel
G1 X120.600 Y103.699 F6000.000 ; move to first perimeter point
G1 E2.40000 F1800.000 ; compensate retraction
G1 X68.484 Y103.699 E2.60007 F1800.000 ; perimeter
G1 X68.484 Y100.699 E0.14967 ; perimeter
G1 X86.900 Y100.699 E0.91877 ; perimeter
G1 X86.900 Y84.699 E0.79824 ; perimeter
G1 X95.001 Y84.699 E0.40416 ; perimeter
G1 X133.100 Y100.450 E2.05681 ; perimeter
G1 X133.100 Y103.947 E0.17446 ; perimeter
G1 X120.600 Y103.947 E0.62363 ; perimeter
G1 X120.600 Y103.774 E0.00865 ; perimeter
G1 F1800.000 E-2.40000 ; retract
G1 X132.758 Y103.565 F6000.000 ; move to first fill point
G1 E2.40000 F1800.000 ; compensate retraction
G1 X132.718 Y103.605 E0.00282 F1800.000 ; fill
G1 X132.003 Y103.605 E0.03563 ; fill
G1 X132.758 Y102.850 E0.05321 ; fill
G1 X132.758 Y102.136 E0.03563 ; fill
G1 X131.289 Y103.605 E0.10359 ; fill
G1 X130.575 Y103.605 E0.03563 ; fill
G1 X132.758 Y101.422 E0.15398 ; fill
G1 X132.755 Y100.710 E0.03552 ; fill
G1 X129.861 Y103.605 E0.20421 ; fill
G1 X129.147 Y103.605 E0.03563 ; fill
G1 X132.273 Y100.479 E0.22054 ; fill
G1 X131.767 Y100.270 E0.02728 ; fill
G1 X128.433 Y103.605 E0.23528 ; fill
G1 X127.719 Y103.605 E0.03563 ; fill
G1 X131.262 Y100.061 E0.25002 ; fill
G1 X130.757 Y99.852 E0.02728 ; fill
G1 X127.004 Y103.605 E0.26476 ; fill
G1 X126.290 Y103.605 E0.03563 ; fill
G1 X130.252 Y99.643 E0.27950 ; fill
G1 X129.746 Y99.434 E0.02728 ; fill
G1 X125.576 Y103.605 E0.29423 ; fill
G1 X124.862 Y103.605 E0.03563 ; fill
G1 X129.241 Y99.225 E0.30897 ; fill
G1 X128.736 Y99.017 E0.02728 ; fill
G1 X124.148 Y103.605 E0.32371 ; fill
G1 X123.434 Y103.605 E0.03563 ; fill
G1 X128.231 Y98.808 E0.33845 ; fill
G1 X127.725 Y98.599 E0.02728 ; fill
G1 X122.720 Y103.605 E0.35319 ; fill
G1 X122.006 Y103.605 E0.03563 ; fill
G1 X127.220 Y98.390 E0.36792 ; fill
G1 X126.715 Y98.181 E0.02728 ; fill
G1 X121.291 Y103.605 E0.38266 ; fill
G1 X120.826 Y103.356 E0.02633 ; fill
G1 X126.210 Y97.972 E0.37988 ; fill
G1 X125.704 Y97.763 E0.02728 ; fill
G1 X120.111 Y103.356 E0.39462 ; fill
G1 X119.397 Y103.356 E0.03563 ; fill
G1 X125.199 Y97.554 E0.40935 ; fill
G1 X124.694 Y97.345 E0.02728 ; fill
G1 X118.683 Y103.356 E0.42409 ; fill
G1 X117.969 Y103.356 E0.03563 ; fill
G1 X124.189 Y97.137 E0.43883 ; fill
G1 X123.684 Y96.928 E0.02728 ; fill
G1 X117.255 Y103.356 E0.45357 ; fill
G1 X116.541 Y103.356 E0.03563 ; fill
G1 X123.178 Y96.719 E0.46831 ; fill
G1 X122.673 Y96.510 E0.02728 ; fill
G1 X115.827 Y103.356 E0.48304 ; fill
G1 X115.113 Y103.356 E0.03563 ; fill
G1 X122.168 Y96.301 E0.49778 ; fill
G1 X121.663 Y96.092 E0.02728 ; fill
G1 X114.398 Y103.356 E0.51252 ; fill
G1 X113.684 Y103.356 E0.03563 ; fill
G1 X121.157 Y95.883 E0.52726 ; fill
G1 X120.652 Y95.674 E0.02728 ; fill
G1 X112.970 Y103.356 E0.54200 ; fill
G1 X112.256 Y103.356 E0.03563 ; fill
G1 X120.147 Y95.465 E0.55674 ; fill
G1 X119.642 Y95.257 E0.02728 ; fill
G1 X111.542 Y103.356 E0.57147 ; fill
G1 X110.828 Y103.356 E0.03563 ; fill
G1 X119.136 Y95.048 E0.58621 ; fill
G1 X118.631 Y94.839 E0.02728 ; fill
G1 X110.114 Y103.356 E0.60095 ; fill
G1 X109.400 Y103.356 E0.03563 ; fill
G1 X118.126 Y94.630 E0.61569 ; fill
G1 X117.621 Y94.421 E0.02728 ; fill
G1 X108.685 Y103.356 E0.63043 ; fill
G1 X107.971 Y103.356 E0.03563 ; fill
G1 X117.115 Y94.212 E0.64516 ; fill
G1 X116.610 Y94.003 E0.02728 ; fill
G1 X107.257 Y103.356 E0.65990 ; fill
G1 X106.543 Y103.356 E0.03563 ; fill
G1 X116.105 Y93.794 E0.67464 ; fill
G1 X115.600 Y93.585 E0.02728 ; fill
G1 X105.829 Y103.356 E0.68938 ; fill
G1 X105.115 Y103.356 E0.03563 ; fill
G1 X115.094 Y93.377 E0.70412 ; fill
G1 X114.589 Y93.168 E0.02728 ; fill
G1 X104.401 Y103.356 E0.71885 ; fill
G1 X103.686 Y103.356 E0.03563 ; fill
G1 X114.084 Y92.959 E0.73359 ; fill
G1 X113.579 Y92.750 E0.02728 ; fill
G1 X102.972 Y103.356 E0.74833 ; fill
G1 X102.258 Y103.356 E0.03563 ; fill
G1 X113.073 Y92.541 E0.76307 ; fill
G1 X112.568 Y92.332 E0.02728 ; fill
G1 X101.544 Y103.356 E0.77781 ; fill
G1 X100.830 Y103.356 E0.03563 ; fill
G1 X112.063 Y92.123 E0.79255 ; fill
G1 X111.558 Y91.914 E0.02728 ; fill
G1 X100.116 Y103.356 E0.80728 ; fill
G1 X99.402 Y103.356 E0.03563 ; fill
G1 X111.052 Y91.706 E0.82202 ; fill
G1 X110.547 Y91.497 E0.02728 ; fill
G1 X98.688 Y103.356 E0.83676 ; fill
G1 X97.973 Y103.356 E0.03563 ; fill
G1 X110.042 Y91.288 E0.85150 ; fill
G1 X109.537 Y91.079 E0.02728 ; fill
G1 X97.259 Y103.356 E0.86624 ; fill
G1 X96.545 Y103.356 E0.03563 ; fill
G1 X109.031 Y90.870 E0.88097 ; fill
G1 X108.526 Y90.661 E0.02728 ; fill
G1 X95.831 Y103.356 E0.89571 ; fill
G1 X95.117 Y103.356 E0.03563 ; fill
G1 X108.021 Y90.452 E0.91045 ; fill
G1 X107.516 Y90.243 E0.02728 ; fill
G1 X94.403 Y103.356 E0.92519 ; fill
G1 X93.689 Y103.356 E0.03563 ; fill
G1 X107.010 Y90.034 E0.93993 ; fill
G1 X106.505 Y89.826 E0.02728 ; fill
G1 X92.974 Y103.356 E0.95466 ; fill
G1 X92.260 Y103.356 E0.03563 ; fill
G1 X106.000 Y89.617 E0.96940 ; fill
G1 X105.495 Y89.408 E0.02728 ; fill
G1 X91.546 Y103.356 E0.98414 ; fill
G1 X90.832 Y103.356 E0.03563 ; fill
G1 X104.989 Y89.199 E0.99888 ; fill
G1 X104.484 Y88.990 E0.02728 ; fill
G1 X90.118 Y103.356 E1.01362 ; fill
G1 X89.404 Y103.356 E0.03563 ; fill
G1 X103.979 Y88.781 E1.02835 ; fill
G1 X103.474 Y88.572 E0.02728 ; fill
G1 X88.690 Y103.356 E1.04309 ; fill
G1 X87.976 Y103.356 E0.03563 ; fill
G1 X102.968 Y88.363 E1.05783 ; fill
G1 X102.463 Y88.154 E0.02728 ; fill
G1 X87.261 Y103.356 E1.07257 ; fill
G1 X86.547 Y103.356 E0.03563 ; fill
G1 X101.958 Y87.946 E1.08731 ; fill
G1 X101.453 Y87.737 E0.02728 ; fill
G1 X85.833 Y103.356 E1.10205 ; fill
G1 X85.119 Y103.356 E0.03563 ; fill
G1 X100.947 Y87.528 E1.11678 ; fill
G1 X100.442 Y87.319 E0.02728 ; fill
G1 X87.242 Y100.519 E0.93131 ; fill
G1 X87.242 Y99.805 E0.03563 ; fill
G1 X99.937 Y87.110 E0.89567 ; fill
G1 X99.432 Y86.901 E0.02728 ; fill
G1 X87.242 Y99.090 E0.86002 ; fill
G1 X87.242 Y98.376 E0.03563 ; fill
G1 X98.926 Y86.692 E0.82437 ; fill
G1 X98.421 Y86.483 E0.02728 ; fill
G1 X87.242 Y97.662 E0.78872 ; fill
G1 X87.242 Y96.948 E0.03563 ; fill
G1 X97.916 Y86.274 E0.75308 ; fill
G1 X97.411 Y86.066 E0.02728 ; fill
G1 X87.242 Y96.234 E0.71743 ; fill
G1 X87.242 Y95.520 E0.03563 ; fill
G1 X96.906 Y85.857 E0.68178 ; fill
G1 X96.400 Y85.648 E0.02728 ; fill
G1 X87.242 Y94.806 E0.64613 ; fill
G1 X87.242 Y94.091 E0.03563 ; fill
G1 X95.895 Y85.439 E0.61048 ; fill
G1 X95.390 Y85.230 E0.02728 ; fill
G1 X87.242 Y93.377 E0.57484 ; fill
G1 X87.242 Y92.663 E0.03563 ; fill
G1 X94.864 Y85.041 E0.53777 ; fill
G1 X94.150 Y85.041 E0.03563 ; fill
G1 X87.242 Y91.949 E0.48739 ; fill
G1 X87.242 Y91.235 E0.03563 ; fill
G1 X93.436 Y85.041 E0.43700 ; fill
G1 X92.722 Y85.041 E0.03563 ; fill
G1 X87.242 Y90.521 E0.38662 ; fill
G1 X87.242 Y89.807 E0.03563 ; fill
G1 X92.008 Y85.041 E0.33623 ; fill
G1 X91.294 Y85.041 E0.03563 ; fill
G1 X87.242 Y89.093 E0.28584 ; fill
G1 X87.242 Y88.378 E0.03563 ; fill
G1 X90.580 Y85.041 E0.23546 ; fill
G1 X89.866 Y85.041 E0.03563 ; fill
G1 X87.242 Y87.664 E0.18507 ; fill
G1 X87.242 Y86.950 E0.03563 ; fill
G1 X89.151 Y85.041 E0.13469 ; fill
