; generated by Slic3r 1.1.6 on 2014-11-30 at 22:01:00

; perimeters extrusion width = 0.50mm
; infill extrusion width = 0.50mm
; solid infill extrusion width = 0.50mm
; top infill extrusion width = 0.50mm

G21 ; set units to millimeters
M107 ; disable fan
M190 S57 ; wait for bed temperature to be reached
M104 S200 ; set temperature

M109 S200 ; wait for temperature to be reached
G90 ; use absolute coordinates
M83 ; use relative distances for extrusion
G1 F1800.000 E-2.40000 ; retract
G1 Z0.240 F6000.000 ; move to next layer (0)
G1 X74.411 Y99.637 F6000.000 ; move to first skirt point
G1 E2.40000 F1800.000 ; compensate retraction
G1 X115.672 Y68.255 E3.87162 F600.000 ; skirt
G1 X117.544 Y67.329 E0.15590 ; skirt
G1 X119.000 Y67.133 E0.10976 ; skirt
G1 X124.000 Y67.133 E0.37343 ; skirt
G1 X126.050 Y67.529 E0.15590 ; skirt
G1 X127.803 Y68.661 E0.15590 ; skirt
G1 X129.009 Y70.366 E0.15590 ; skirt
G1 X129.497 Y72.630 E0.17300 ; skirt
G1 X129.497 Y115.250 E3.18308 ; skirt
G1 X129.101 Y117.300 E0.15590 ; skirt
G1 X128.137 Y118.870 E0.13760 ; skirt
G1 X114.137 Y134.870 E1.58783 ; skirt
G1 X112.489 Y136.151 E0.15590 ; skirt
G1 X110.000 Y136.747 E0.19114 ; skirt
G1 X96.000 Y136.747 E1.04559 ; skirt
G1 X93.950 Y136.351 E0.15590 ; skirt
G1 X92.422 Y135.423 E0.13355 ; skirt
G1 X73.763 Y119.423 E1.83574 ; skirt
G1 X72.465 Y117.788 E0.15590 ; skirt
G1 X71.844 Y115.266 E0.19398 ; skirt
G1 X71.833 Y111.339 E0.29326 ; skirt
G1 X71.875 Y104.368 E0.52067 ; skirt
G1 X71.932 Y103.910 E0.03444 ; skirt
G1 X72.239 Y102.666 E0.09572 ; skirt
G1 X72.334 Y102.410 E0.02035 ; skirt
G1 X72.850 Y101.378 E0.08619 ; skirt
G1 X72.983 Y101.169 E0.01852 ; skirt
G1 X73.843 Y100.131 E0.10068 ; skirt
G1 X74.355 Y99.686 E0.05064 ; skirt
G1 X74.864 Y100.232 F6000.000 ; move to first skirt point
G1 X116.125 Y68.850 E3.87162 F600.000 ; skirt
G1 X117.876 Y68.017 E0.14480 ; skirt
G1 X119.000 Y67.882 E0.08458 ; skirt
G1 X124.000 Y67.882 E0.37343 ; skirt
G1 X125.898 Y68.277 E0.14480 ; skirt
G1 X127.479 Y69.399 E0.14480 ; skirt
G1 X128.481 Y71.059 E0.14480 ; skirt
G1 X128.748 Y72.630 E0.11904 ; skirt
G1 X128.748 Y115.250 E3.18308 ; skirt
G1 X128.353 Y117.148 E0.14480 ; skirt
G1 X127.574 Y118.377 E0.10868 ; skirt
G1 X113.574 Y134.377 E1.58783 ; skirt
G1 X112.026 Y135.545 E0.14480 ; skirt
G1 X110.000 Y135.998 E0.15506 ; skirt
G1 X96.000 Y135.998 E1.04559 ; skirt
G1 X94.102 Y135.603 E0.14480 ; skirt
G1 X92.909 Y134.855 E0.10517 ; skirt
G1 X74.250 Y118.855 E1.83574 ; skirt
G1 X73.067 Y117.319 E0.14480 ; skirt
G1 X72.592 Y115.264 E0.15752 ; skirt
G1 X72.581 Y111.339 E0.29310 ; skirt
G1 X72.618 Y104.461 E0.51373 ; skirt
G1 X72.675 Y104.003 E0.03444 ; skirt
G1 X72.940 Y102.928 E0.08269 ; skirt
G1 X73.035 Y102.673 E0.02035 ; skirt
G1 X73.481 Y101.781 E0.07445 ; skirt
G1 X73.614 Y101.572 E0.01852 ; skirt
G1 X74.357 Y100.675 E0.08697 ; skirt
G1 X74.808 Y100.282 E0.04470 ; skirt
G1 F1800.000 E-2.40000 ; retract
G1 X119.400 Y111.150 F6000.000 ; move to first perimeter point
G1 E2.40000 F1800.000 ; compensate retraction
G1 X119.400 Y73.030 E2.84700 F900.000 ; perimeter
G1 X123.600 Y73.030 E0.31368 ; perimeter
G1 X123.600 Y115.100 E3.14198 ; perimeter
G1 X109.818 Y130.850 E1.56305 ; perimeter
G1 X96.400 Y130.850 E1.00216 ; perimeter
G1 X96.400 Y114.850 E1.19496 ; perimeter
G1 X77.740 Y114.850 E1.39364 ; perimeter
G1 X77.730 Y105.075 E0.73005 ; perimeter
G1 X77.778 Y104.689 E0.02907 ; perimeter
G1 X77.842 Y104.517 E0.01369 ; perimeter
G1 X77.961 Y104.331 E0.01649 ; perimeter
G1 X81.801 Y104.323 E0.28677 ; perimeter
G1 X84.600 Y104.344 E0.20907 ; perimeter
G1 X84.600 Y111.150 E0.50830 ; perimeter
G1 X119.325 Y111.150 E2.59344 ; perimeter
G1 X119.900 Y111.150 F6000.000 ; move inwards before travel
G1 X120.148 Y111.898 F6000.000 ; move to first perimeter point
G1 X120.148 Y73.778 E2.84700 F900.000 ; perimeter
G1 X122.852 Y73.778 E0.20187 ; perimeter
G1 X122.852 Y114.818 E3.06508 ; perimeter
G1 X109.479 Y130.102 E1.51668 ; perimeter
G1 X97.148 Y130.102 E0.92090 ; perimeter
G1 X97.148 Y114.102 E1.19496 ; perimeter
G1 X78.486 Y114.102 E1.39380 ; perimeter
G1 X78.478 Y105.078 E0.67390 ; perimeter
G1 X83.852 Y105.087 E0.40131 ; perimeter
G1 X83.852 Y111.898 E0.50873 ; perimeter
G1 X120.073 Y111.898 E2.70525 ; perimeter
G1 F1800.000 E-2.40000 ; retract
G1 X96.194 Y113.579 F6000.000 ; move to first fill point
G1 E2.40000 F1800.000 ; compensate retraction
G1 X95.036 Y112.421 E0.12228 F900.000 ; fill
G1 X93.965 Y112.421 E0.08004 ; fill
G1 X95.122 Y113.579 E0.12228 ; fill
G1 X94.051 Y113.579 E0.08004 ; fill
G1 X92.893 Y112.421 E0.12228 ; fill
G1 X91.821 Y112.421 E0.08004 ; fill
G1 X92.979 Y113.579 E0.12228 ; fill
G1 X91.907 Y113.579 E0.08004 ; fill
G1 X90.750 Y112.421 E0.12228 ; fill
G1 X89.678 Y112.421 E0.08004 ; fill
G1 X90.836 Y113.579 E0.12228 ; fill
G1 X89.764 Y113.579 E0.08004 ; fill
G1 X88.606 Y112.421 E0.12228 ; fill
G1 X87.535 Y112.421 E0.08004 ; fill
G1 X88.692 Y113.579 E0.12228 ; fill
G1 X87.621 Y113.579 E0.08004 ; fill
G1 X86.463 Y112.421 E0.12228 ; fill
G1 X85.391 Y112.421 E0.08004 ; fill
G1 X86.549 Y113.579 E0.12228 ; fill
G1 X85.477 Y113.579 E0.08004 ; fill
G1 X84.320 Y112.421 E0.12228 ; fill
G1 X84.406 Y113.579 E0.08670 ; fill
G1 X79.001 Y108.174 E0.57086 ; fill
G1 X79.001 Y107.102 E0.08004 ; fill
G1 X83.329 Y111.430 E0.45714 ; fill
G1 X83.329 Y110.359 E0.08004 ; fill
G1 X79.001 Y106.031 E0.45714 ; fill
G1 X79.645 Y105.603 E0.05773 ; fill
G1 X83.329 Y109.287 E0.38915 ; fill
G1 X83.329 Y108.215 E0.08004 ; fill
G1 X80.718 Y105.604 E0.27577 ; fill
G1 X81.791 Y105.606 E0.08017 ; fill
G1 X83.329 Y107.144 E0.16240 ; fill
G1 X83.329 Y106.072 E0.08004 ; fill
G1 X82.865 Y105.608 E0.04903 ; fill
G1 F1800.000 E-2.40000 ; retract
G1 X79.001 Y109.246 F6000.000 ; move to first fill point
G1 E2.40000 F1800.000 ; compensate retraction
G1 X83.334 Y113.579 E0.45767 F900.000 ; fill
G1 X82.262 Y113.579 E0.08004 ; fill
G1 X79.001 Y110.317 E0.34448 ; fill
G1 X79.001 Y111.389 E0.08005 ; fill
G1 X81.191 Y113.579 E0.23127 ; fill
G1 X80.119 Y113.579 E0.08004 ; fill
G1 X79.004 Y112.464 E0.11775 ; fill
G1 X79.007 Y113.539 E0.08027 ; fill
G1 X79.047 Y113.579 E0.00423 ; fill
G1 F1800.000 E-2.40000 ; retract
G1 X98.262 Y129.579 F6000.000 ; move to first fill point
G1 E2.40000 F1800.000 ; compensate retraction
G1 X97.671 Y128.988 E0.06243 F900.000 ; fill
G1 X97.671 Y127.916 E0.08004 ; fill
G1 X99.334 Y129.579 E0.17562 ; fill
G1 X100.406 Y129.579 E0.08004 ; fill
G1 X97.671 Y126.844 E0.28881 ; fill
G1 X97.671 Y125.773 E0.08004 ; fill
G1 X101.477 Y129.579 E0.40201 ; fill
G1 X102.549 Y129.579 E0.08004 ; fill
G1 X97.671 Y124.701 E0.51520 ; fill
G1 X97.671 Y123.629 E0.08004 ; fill
G1 X103.621 Y129.579 E0.62839 ; fill
G1 X104.692 Y129.579 E0.08004 ; fill
G1 X97.671 Y122.558 E0.74158 ; fill
G1 X97.671 Y121.486 E0.08004 ; fill
G1 X105.764 Y129.579 E0.85477 ; fill
G1 X106.836 Y129.579 E0.08004 ; fill
G1 X97.671 Y120.414 E0.96796 ; fill
G1 X97.671 Y119.343 E0.08004 ; fill
G1 X107.907 Y129.579 E1.08116 ; fill
G1 X108.979 Y129.579 E0.08004 ; fill
G1 X97.671 Y118.271 E1.19435 ; fill
G1 X97.671 Y117.199 E0.08004 ; fill
G1 X109.619 Y129.147 E1.26197 ; fill
G1 X110.119 Y128.576 E0.05672 ; fill
G1 X97.671 Y116.128 E1.31479 ; fill
G1 X97.671 Y115.056 E0.08004 ; fill
G1 X110.619 Y128.004 E1.36761 ; fill
G1 X111.120 Y127.433 E0.05672 ; fill
G1 X96.108 Y112.421 E1.58553 ; fill
G1 X97.180 Y112.421 E0.08004 ; fill
G1 X111.620 Y126.861 E1.52517 ; fill
G1 X112.120 Y126.290 E0.05672 ; fill
G1 X98.251 Y112.421 E1.46480 ; fill
G1 X99.323 Y112.421 E0.08004 ; fill
G1 X112.620 Y125.718 E1.40443 ; fill
G1 X113.120 Y125.146 E0.05672 ; fill
G1 X100.395 Y112.421 E1.34406 ; fill
G1 X101.466 Y112.421 E0.08004 ; fill
G1 X113.620 Y124.575 E1.28369 ; fill
G1 X114.120 Y124.003 E0.05672 ; fill
G1 X102.538 Y112.421 E1.22332 ; fill
G1 X103.610 Y112.421 E0.08004 ; fill
G1 X114.620 Y123.432 E1.16295 ; fill
G1 X115.121 Y122.860 E0.05672 ; fill
G1 X104.681 Y112.421 E1.10258 ; fill
G1 X105.753 Y112.421 E0.08004 ; fill
G1 X115.621 Y122.289 E1.04221 ; fill
G1 X116.121 Y121.717 E0.05672 ; fill
G1 X106.825 Y112.421 E0.98184 ; fill
G1 X107.897 Y112.421 E0.08004 ; fill
G1 X116.621 Y121.146 E0.92148 ; fill
G1 X117.121 Y120.574 E0.05672 ; fill
G1 X108.968 Y112.421 E0.86111 ; fill
G1 X110.040 Y112.421 E0.08004 ; fill
G1 X117.621 Y120.002 E0.80074 ; fill
G1 X118.121 Y119.431 E0.05672 ; fill
G1 X111.112 Y112.421 E0.74037 ; fill
G1 X112.183 Y112.421 E0.08004 ; fill
G1 X118.621 Y118.859 E0.68000 ; fill
G1 X119.121 Y118.288 E0.05672 ; fill
G1 X113.255 Y112.421 E0.61963 ; fill
G1 X114.327 Y112.421 E0.08004 ; fill
G1 X119.622 Y117.716 E0.55926 ; fill
G1 X120.122 Y117.145 E0.05672 ; fill
G1 X115.398 Y112.421 E0.49889 ; fill
G1 X116.470 Y112.421 E0.08004 ; fill
G1 X120.622 Y116.573 E0.43852 ; fill
G1 X121.122 Y116.001 E0.05672 ; fill
G1 X117.542 Y112.421 E0.37816 ; fill
G1 X118.613 Y112.421 E0.08004 ; fill
G1 X121.622 Y115.430 E0.31779 ; fill
G1 X122.122 Y114.858 E0.05672 ; fill
G1 X119.685 Y112.421 E0.25742 ; fill
G1 X120.671 Y112.336 E0.07393 ; fill
G1 X122.329 Y113.993 E0.17509 ; fill
G1 X122.329 Y112.922 E0.08004 ; fill
G1 X120.671 Y111.264 E0.17509 ; fill
G1 X120.671 Y110.192 E0.08004 ; fill
G1 X122.329 Y111.850 E0.17509 ; fill
G1 X122.329 Y110.778 E0.08004 ; fill
G1 X120.671 Y109.121 E0.17509 ; fill
G1 X120.671 Y108.049 E0.08004 ; fill
G1 X122.329 Y109.707 E0.17509 ; fill
G1 X122.329 Y108.635 E0.08004 ; fill
G1 X120.671 Y106.977 E0.17509 ; fill
G1 X120.671 Y105.906 E0.08004 ; fill
G1 X122.329 Y107.563 E0.17509 ; fill
G1 X122.329 Y106.492 E0.08004 ; fill
G1 X120.671 Y104.834 E0.17509 ; fill
G1 X120.671 Y103.762 E0.08004 ; fill
G1 X122.329 Y105.420 E0.17509 ; fill
G1 X122.329 Y104.348 E0.08004 ; fill
G1 X120.671 Y102.690 E0.17509 ; fill
G1 X120.671 Y101.619 E0.08004 ; fill
G1 X122.329 Y103.277 E0.17509 ; fill
G1 X122.329 Y102.205 E0.08004 ; fill
G1 X120.671 Y100.547 E0.17509 ; fill
G1 X120.671 Y99.475 E0.08004 ; fill
G1 X122.329 Y101.133 E0.17509 ; fill
G1 X122.329 Y100.061 E0.08004 ; fill
G1 X120.671 Y98.404 E0.17509 ; fill
G1 X120.671 Y97.332 E0.08004 ; fill
G1 X122.329 Y98.990 E0.17509 ; fill
G1 X122.329 Y97.918 E0.08004 ; fill
G1 X120.671 Y96.260 E0.17509 ; fill
G1 X120.671 Y95.189 E0.08004 ; fill
G1 X122.329 Y96.846 E0.17509 ; fill
G1 X122.329 Y95.775 E0.08004 ; fill
G1 X120.671 Y94.117 E0.17509 ; fill
G1 X120.671 Y93.045 E0.08004 ; fill
G1 X122.329 Y94.703 E0.17509 ; fill
G1 X122.329 Y93.631 E0.08004 ; fill
G1 X120.671 Y91.974 E0.17509 ; fill
G1 X120.671 Y90.902 E0.08004 ; fill
G1 X122.329 Y92.560 E0.17509 ; fill
G1 X122.329 Y91.488 E0.08004 ; fill
G1 X120.671 Y89.830 E0.17509 ; fill
G1 X120.671 Y88.759 E0.08004 ; fill
G1 X122.329 Y90.416 E0.17509 ; fill
G1 X122.329 Y89.345 E0.08004 ; fill
G1 X120.671 Y87.687 E0.17509 ; fill
G1 X120.671 Y86.615 E0.08004 ; fill
G1 X122.329 Y88.273 E0.17509 ; fill
G1 X122.329 Y87.201 E0.08004 ; fill
G1 X120.671 Y85.544 E0.17509 ; fill
G1 X120.671 Y84.472 E0.08004 ; fill
G1 X122.329 Y86.130 E0.17509 ; fill
G1 X122.329 Y85.058 E0.08004 ; fill
G1 X120.671 Y83.400 E0.17509 ; fill
G1 X120.671 Y82.329 E0.08004 ; fill
G1 X122.329 Y83.986 E0.17509 ; fill
G1 X122.329 Y82.915 E0.08004 ; fill
G1 X120.671 Y81.257 E0.17509 ; fill
G1 X120.671 Y80.185 E0.08004 ; fill
G1 X122.329 Y81.843 E0.17509 ; fill
G1 X122.329 Y80.771 E0.08004 ; fill
G1 X120.671 Y79.113 E0.17509 ; fill
G1 X120.671 Y78.042 E0.08004 ; fill
G1 X122.329 Y79.700 E0.17509 ; fill
G1 X122.329 Y78.628 E0.08004 ; fill
G1 X120.671 Y76.970 E0.17509 ; fill
G1 X120.671 Y75.898 E0.08004 ; fill
G1 X122.329 Y77.556 E0.17509 ; fill
G1 X122.329 Y76.484 E0.08004 ; fill
G1 X120.671 Y74.827 E0.17509 ; fill
G1 X121.217 Y74.301 E0.05661 ; fill
G1 X122.329 Y75.413 E0.11742 ; fill
G1 X122.329 Y74.341 E0.08004 ; fill
G1 X122.289 Y74.301 E0.00422 ; fill
M104 S190 ; set temperature
G1 F1800.000 E-2.40000 ; retract
G1 Z0.480 F6000.000 ; move to next layer (1)
G1 X119.250 Y111.000 F6000.000 ; move to first perimeter point
G1 E2.40000 F1800.000 ; compensate retraction
G1 X119.250 Y72.640 E1.91379 F1800.000 ; perimeter
G1 X123.750 Y72.640 E0.22451 ; perimeter
G1 X123.750 Y115.156 E2.12114 ; perimeter
G1 X109.887 Y131.000 E1.05033 ; perimeter
G1 X96.250 Y131.000 E0.68033 ; perimeter
G1 X96.250 Y115.000 E0.79824 ; perimeter
G1 X77.111 Y115.000 E0.95487 ; perimeter
G1 X77.112 Y105.058 E0.49601 ; perimeter
G1 X77.139 Y104.644 E0.02069 ; perimeter
G1 X77.178 Y104.438 E0.01048 ; perimeter
G1 X77.235 Y104.175 E0.02196 F1800.000 ; perimeter
G1 X77.438 Y103.734 E0.03962 ; perimeter
G1 X77.650 Y103.489 E0.02646 ; perimeter
G1 X77.708 Y103.450 E0.00569 ; perimeter
G1 X77.821 Y103.389 E0.01052 ; perimeter
G1 X78.022 Y103.354 E0.01662 ; perimeter
G1 X84.750 Y103.348 E0.54923 ; perimeter
G1 X84.750 Y103.695 E0.02837 ; perimeter
G1 X84.750 Y111.000 E0.36444 F1800.000 ; perimeter
G1 X119.175 Y111.000 E1.71747 ; perimeter
G1 F1800.000 E-2.40000 ; retract
G1 X84.317 Y103.445 F6000.000 ; move inwards before travel
G1 X119.750 Y111.500 F6000.000 ; move to first perimeter point
G1 E2.40000 F1800.000 ; compensate retraction
G1 X119.750 Y73.140 E1.91379 F1800.000 ; perimeter
G1 X123.250 Y73.140 E0.17462 ; perimeter
G1 X123.250 Y114.968 E2.08682 ; perimeter
G1 X109.660 Y130.500 E1.02964 ; perimeter
G1 X96.750 Y130.500 E0.64407 ; perimeter
G1 X96.750 Y114.500 E0.79824 ; perimeter
G1 X77.610 Y114.500 E0.95490 ; perimeter
G1 X77.612 Y105.074 E0.47026 ; perimeter
G1 X77.636 Y104.707 E0.01835 ; perimeter
G1 X77.703 Y104.351 E0.01809 ; perimeter
G1 X77.837 Y104.037 E0.01701 ; perimeter
G1 X77.996 Y103.854 E0.01209 ; perimeter
G1 X84.250 Y103.846 E0.31204 ; perimeter
G1 X84.250 Y111.500 E0.38185 ; perimeter
G1 X119.675 Y111.500 E1.76736 ; perimeter
G1 X119.201 Y111.842 F6000.000 ; move to first fill point
G1 X100.886 Y130.158 E1.29223 F1800.000 ; fill
G1 X100.170 Y130.158 E0.03571 ; fill
G1 X118.485 Y111.842 E1.29223 ; fill
G1 X117.769 Y111.842 E0.03571 ; fill
G1 X99.454 Y130.158 E1.29223 ; fill
G1 X98.739 Y130.158 E0.03571 ; fill
G1 X117.054 Y111.842 E1.29223 ; fill
G1 X116.338 Y111.842 E0.03571 ; fill
G1 X98.023 Y130.158 E1.29223 ; fill
G1 X97.307 Y130.158 E0.03571 ; fill
G1 X115.622 Y111.842 E1.29223 ; fill
G1 X114.906 Y111.842 E0.03571 ; fill
G1 X97.092 Y129.656 E1.25687 ; fill
G1 X97.092 Y128.941 E0.03571 ; fill
G1 X114.191 Y111.842 E1.20636 ; fill
G1 X113.475 Y111.842 E0.03571 ; fill
G1 X97.092 Y128.225 E1.15586 ; fill
G1 X97.092 Y127.509 E0.03571 ; fill
G1 X112.759 Y111.842 E1.10536 ; fill
G1 X112.043 Y111.842 E0.03571 ; fill
G1 X97.092 Y126.793 E1.05486 ; fill
G1 X97.092 Y126.078 E0.03571 ; fill
G1 X111.328 Y111.842 E1.00436 ; fill
G1 X110.612 Y111.842 E0.03571 ; fill
G1 X97.092 Y125.362 E0.95386 ; fill
G1 X97.092 Y124.646 E0.03571 ; fill
G1 X109.896 Y111.842 E0.90336 ; fill
G1 X109.180 Y111.842 E0.03571 ; fill
G1 X97.092 Y123.930 E0.85285 ; fill
G1 X97.092 Y123.214 E0.03571 ; fill
G1 X108.464 Y111.842 E0.80235 ; fill
G1 X107.749 Y111.842 E0.03571 ; fill
G1 X97.092 Y122.499 E0.75185 ; fill
G1 X97.092 Y121.783 E0.03571 ; fill
G1 X107.033 Y111.842 E0.70135 ; fill
G1 X106.317 Y111.842 E0.03571 ; fill
G1 X97.092 Y121.067 E0.65085 ; fill
G1 X97.092 Y120.351 E0.03571 ; fill
G1 X105.601 Y111.842 E0.60035 ; fill
G1 X104.886 Y111.842 E0.03571 ; fill
G1 X97.092 Y119.636 E0.54985 ; fill
G1 X97.092 Y118.920 E0.03571 ; fill
G1 X104.170 Y111.842 E0.49934 ; fill
G1 X103.454 Y111.842 E0.03571 ; fill
G1 X97.092 Y118.204 E0.44884 ; fill
G1 X97.092 Y117.488 E0.03571 ; fill
G1 X102.738 Y111.842 E0.39834 ; fill
G1 X102.023 Y111.842 E0.03571 ; fill
G1 X97.092 Y116.773 E0.34784 ; fill
G1 X97.092 Y116.057 E0.03571 ; fill
G1 X101.307 Y111.842 E0.29734 ; fill
G1 X100.591 Y111.842 E0.03571 ; fill
G1 X97.092 Y115.341 E0.24684 ; fill
G1 X97.092 Y114.625 E0.03571 ; fill
G1 X99.875 Y111.842 E0.19634 ; fill
G1 X99.159 Y111.842 E0.03571 ; fill
G1 X96.844 Y114.158 E0.16334 ; fill
G1 X96.129 Y114.158 E0.03571 ; fill
G1 X98.444 Y111.842 E0.16334 ; fill
G1 X97.728 Y111.842 E0.03571 ; fill
G1 X95.413 Y114.158 E0.16334 ; fill
G1 X94.697 Y114.158 E0.03571 ; fill
G1 X97.012 Y111.842 E0.16334 ; fill
G1 X96.296 Y111.842 E0.03571 ; fill
