; generated by Slic3r 1.2.5 on 2015-01-28 at 00:07:55

; external perimeters extrusion width = 0.50mm
; perimeters extrusion width = 0.50mm
; infill extrusion width = 0.50mm
; solid infill extrusion width = 0.50mm
; top infill extrusion width = 0.50mm

M107 ; disable fan
M190 S57 ; set bed temperature
M104 S200 ; set temperature

M109 S200 ; wait for temperature to be reached
G21 ; set units to millimeters
G90 ; use absolute coordinates
M83 ; use relative distances for extrusion
G1 E-4.00000 F1800.00000 ; retract
G1 Z0.240 F6000.000 ; move to next layer (0)
G1 X30.084 Y45.813 F6000.000 ; move to first skirt point
G1 E4.00000 F1800.00000 ; unretract
G1 X31.422 Y44.993 E0.09376 F600.000 ; skirt
G1 X32.191 Y44.602 E0.05154 ; skirt
G1 X33.640 Y44.001 E0.09376 ; skirt
G1 X34.070 Y43.844 E0.02736 ; skirt
G1 X34.465 Y43.733 E0.02448 ; skirt
G1 X36.012 Y43.362 E0.09504 ; skirt
G1 X36.838 Y43.233 E0.04999 ; skirt
G1 X38.471 Y43.105 E0.09787 ; skirt
G1 X132.781 Y36.870 E5.64711 ; skirt
G1 X133.456 Y36.867 E0.04035 ; skirt
G1 X134.672 Y36.936 E0.07278 ; skirt
G1 X135.339 Y37.016 E0.04012 F600.000 ; skirt
G1 X169.678 Y43.234 E2.08503 ; skirt
G1 X171.624 Y43.989 E0.12472 ; skirt
G1 X172.484 Y44.657 E0.06506 ; skirt
G1 X173.665 Y45.779 E0.09736 ; skirt
G1 X174.585 Y46.923 E0.08772 ; skirt
G1 X175.428 Y48.319 E0.09744 ; skirt
G1 X176.012 Y49.665 E0.08762 ; skirt
G1 X176.455 Y51.233 E0.09736 ; skirt
G1 X176.639 Y53.245 E0.12073 ; skirt
G1 X168.076 Y144.004 E5.44677 ; skirt
G1 X167.949 Y144.771 E0.04645 ; skirt
G1 X167.582 Y146.297 E0.09376 ; skirt
G1 X167.316 Y147.117 E0.05154 ; skirt
G1 X166.715 Y148.567 E0.09376 ; skirt
G1 X166.324 Y149.335 E0.05154 ; skirt
G1 X165.504 Y150.673 E0.09376 ; skirt
G1 X164.997 Y151.371 E0.05154 ; skirt
G1 X163.978 Y152.564 E0.09376 ; skirt
G1 X163.368 Y153.174 E0.05154 ; skirt
G1 X162.232 Y154.145 E0.08926 ; skirt
G1 X161.477 Y154.700 E0.05603 ; skirt
G1 X160.139 Y155.520 E0.09376 ; skirt
G1 X159.370 Y155.912 E0.05153 ; skirt
G1 X157.920 Y156.512 E0.09376 ; skirt
G1 X157.492 Y156.669 E0.02725 ; skirt
G1 X155.549 Y157.151 E0.11963 ; skirt
G1 X155.024 Y157.248 E0.03191 ; skirt
G1 X111.568 Y163.093 E2.61979 ; skirt
G1 X110.835 Y163.142 E0.04388 ; skirt
G1 X108.906 Y163.142 E0.11523 ; skirt
G1 X107.591 Y162.982 E0.07919 ; skirt
G1 X105.486 Y162.458 E0.12957 ; skirt
G1 X36.346 Y142.173 E4.30516 ; skirt
G1 X34.108 Y140.884 E0.15430 ; skirt
G1 X32.926 Y139.762 E0.09736 ; skirt
G1 X32.006 Y138.618 E0.08773 ; skirt
G1 X31.163 Y137.222 E0.09743 ; skirt
G1 X30.579 Y135.876 E0.08763 ; skirt
G1 X30.136 Y134.309 E0.09734 ; skirt
G1 X29.957 Y133.368 E0.05719 ; skirt
G1 X23.488 Y69.710 E3.82303 ; skirt
G1 X23.354 Y68.021 E0.10122 ; skirt
G1 X23.337 Y67.590 E0.02579 ; skirt
G1 X23.337 Y58.590 E0.53773 ; skirt
G1 X23.354 Y58.159 E0.02579 ; skirt
G1 X23.477 Y56.594 E0.09376 ; skirt
G1 X23.612 Y55.743 E0.05153 ; skirt
G1 X23.978 Y54.217 E0.09376 ; skirt
G1 X24.245 Y53.396 E0.05153 ; skirt
G1 X24.845 Y51.947 E0.09376 ; skirt
G1 X25.237 Y51.178 E0.05154 ; skirt
G1 X26.057 Y49.840 E0.09376 ; skirt
G1 X26.564 Y49.142 E0.05154 ; skirt
G1 X27.583 Y47.949 E0.09376 ; skirt
G1 X28.193 Y47.339 E0.05154 ; skirt
G1 X29.386 Y46.320 E0.09376 ; skirt
G1 X30.023 Y45.857 E0.04706 ; skirt
G1 X30.462 Y46.461 F6000.000 ; move to first skirt point
G1 X31.813 Y45.631 E0.09473 F600.000 ; skirt
G1 X32.477 Y45.293 E0.04452 ; skirt
G1 X33.927 Y44.693 E0.09376 ; skirt
G1 X34.298 Y44.557 E0.02364 ; skirt
G1 X34.640 Y44.461 E0.02119 ; skirt
G1 X36.183 Y44.091 E0.09483 ; skirt
G1 X36.897 Y43.979 E0.04318 ; skirt
G1 X38.521 Y43.852 E0.09731 ; skirt
G1 X132.830 Y37.617 E5.64711 ; skirt
G1 X133.414 Y37.614 E0.03486 ; skirt
G1 X134.630 Y37.684 E0.07278 ; skirt
G1 X135.206 Y37.752 E0.03466 F600.000 ; skirt
G1 X169.544 Y43.970 E2.08503 ; skirt
G1 X171.968 Y45.200 E0.16239 ; skirt
G1 X173.150 Y46.322 E0.09736 ; skirt
G1 X173.945 Y47.310 E0.07577 ; skirt
G1 X174.788 Y48.706 E0.09744 ; skirt
G1 X175.292 Y49.868 E0.07569 ; skirt
G1 X175.735 Y51.436 E0.09735 ; skirt
G1 X175.893 Y53.175 E0.10429 ; skirt
G1 X167.331 Y143.934 E5.44677 ; skirt
G1 X167.221 Y144.596 E0.04013 ; skirt
G1 X166.855 Y146.122 E0.09376 ; skirt
G1 X166.624 Y146.831 E0.04452 ; skirt
G1 X166.024 Y148.280 E0.09376 ; skirt
G1 X165.685 Y148.944 E0.04452 ; skirt
G1 X164.866 Y150.282 E0.09376 ; skirt
G1 X164.428 Y150.885 E0.04452 ; skirt
G1 X163.408 Y152.078 E0.09376 ; skirt
G1 X162.882 Y152.605 E0.04452 ; skirt
G1 X161.746 Y153.575 E0.08926 ; skirt
G1 X161.086 Y154.062 E0.04901 ; skirt
G1 X159.748 Y154.882 E0.09376 ; skirt
G1 X159.084 Y155.220 E0.04452 ; skirt
G1 X157.634 Y155.821 E0.09376 ; skirt
G1 X157.260 Y155.958 E0.02381 ; skirt
G1 X155.378 Y156.423 E0.11583 ; skirt
G1 X154.924 Y156.506 E0.02756 ; skirt
G1 X111.468 Y162.351 E2.61979 ; skirt
G1 X110.835 Y162.393 E0.03790 ; skirt
G1 X108.906 Y162.393 E0.11523 ; skirt
G1 X107.770 Y162.255 E0.06841 ; skirt
G1 X105.697 Y161.740 E0.12762 ; skirt
G1 X36.556 Y141.455 E4.30516 ; skirt
G1 X34.623 Y140.341 E0.13329 ; skirt
G1 X33.442 Y139.219 E0.09736 ; skirt
G1 X32.647 Y138.231 E0.07578 ; skirt
G1 X31.804 Y136.835 E0.09743 ; skirt
G1 X31.299 Y135.673 E0.07570 ; skirt
G1 X30.856 Y134.105 E0.09734 ; skirt
G1 X30.701 Y133.293 E0.04940 ; skirt
G1 X24.233 Y69.635 E3.82303 ; skirt
G1 X24.086 Y67.590 E0.12246 ; skirt
G1 X24.086 Y58.590 E0.53773 ; skirt
G1 X24.100 Y58.218 E0.02228 ; skirt
G1 X24.223 Y56.653 E0.09376 ; skirt
G1 X24.340 Y55.917 E0.04451 ; skirt
G1 X24.706 Y54.391 E0.09376 ; skirt
G1 X24.936 Y53.683 E0.04451 ; skirt
G1 X25.537 Y52.233 E0.09376 ; skirt
G1 X25.875 Y51.569 E0.04452 ; skirt
G1 X26.695 Y50.231 E0.09376 ; skirt
G1 X27.133 Y49.628 E0.04452 ; skirt
G1 X28.152 Y48.435 E0.09376 ; skirt
G1 X28.679 Y47.908 E0.04452 ; skirt
G1 X29.872 Y46.889 E0.09376 ; skirt
G1 X30.401 Y46.505 E0.03907 ; skirt
G1 E-4.00000 F1800.00000 ; retract
G1 X89.940 Y60.456 F6000.000 ; move to first perimeter point
G1 E4.00000 F1800.00000 ; unretract
G1 X82.539 Y62.438 E0.45778 F900.000 ; perimeter
G1 X80.858 Y63.266 E0.11199 ; perimeter
G1 X79.595 Y64.705 E0.11441 ; perimeter
G1 X78.978 Y66.518 E0.11441 ; perimeter
G1 X79.102 Y68.429 E0.11442 ; perimeter
G1 X79.949 Y70.147 E0.11445 ; perimeter
G1 X81.388 Y71.411 E0.11441 ; perimeter
G1 X83.201 Y72.027 E0.11441 ; perimeter
G1 X85.071 Y71.905 E0.11198 ; perimeter
G1 X93.747 Y69.581 E0.53664 ; perimeter
G1 X95.391 Y75.554 E0.37015 ; perimeter
G1 X92.446 Y77.578 E0.21351 ; perimeter
G1 X89.752 Y80.398 E0.23300 ; perimeter
G1 X87.693 Y83.710 E0.23299 ; perimeter
G1 X86.356 Y87.373 E0.23301 ; perimeter
G1 X85.797 Y91.232 E0.23294 ; perimeter
G1 X86.040 Y95.124 E0.23302 ; perimeter
G1 X87.075 Y98.884 E0.23298 ; perimeter
G1 X88.858 Y102.352 E0.23303 ; perimeter
G1 X91.313 Y105.382 E0.23299 ; perimeter
G1 X94.337 Y107.845 E0.23299 ; perimeter
G1 X97.800 Y109.637 E0.23298 ; perimeter
G1 X101.557 Y110.681 E0.23297 ; perimeter
G1 X105.122 Y110.913 E0.21349 ; perimeter
G1 X106.778 Y116.926 E0.37263 ; perimeter
G1 X97.853 Y119.371 E0.55285 ; perimeter
G1 X95.982 Y120.360 E0.12644 ; perimeter
G1 X94.697 Y122.101 E0.12934 ; perimeter
G1 X94.295 Y124.228 E0.12932 ; perimeter
G1 X94.855 Y126.317 E0.12922 ; perimeter
G1 X96.267 Y127.957 E0.12930 ; perimeter
G1 X98.250 Y128.824 E0.12931 ; perimeter
G1 X100.365 Y128.744 E0.12647 ; perimeter
G1 X109.027 Y126.475 E0.53501 ; perimeter
G1 X108.663 Y127.767 E0.08020 ; perimeter
G1 X107.753 Y129.551 E0.11968 ; perimeter
G1 X106.515 Y131.123 E0.11959 ; perimeter
G1 X104.991 Y132.423 E0.11965 ; perimeter
G1 X103.246 Y133.401 E0.11952 ; perimeter
G1 X74.546 Y142.571 E1.80017 ; perimeter
G1 X73.422 Y142.784 E0.06836 ; perimeter
G1 X72.279 Y142.719 E0.06839 ; perimeter
G1 X38.082 Y136.526 E2.07643 ; perimeter
G1 X37.026 Y135.523 E0.08700 ; perimeter
G1 X36.239 Y134.220 E0.09098 ; perimeter
G1 X35.835 Y132.793 E0.08859 ; perimeter
G1 X42.244 Y97.403 E2.14889 ; perimeter
G1 X42.699 Y96.072 E0.08402 ; perimeter
G1 X43.527 Y94.935 E0.08403 ; perimeter
G1 X77.353 Y60.767 E2.87265 ; perimeter
G1 X78.777 Y59.592 E0.11032 ; perimeter
G1 X80.389 Y58.733 E0.10912 ; perimeter
G1 X82.139 Y58.214 E0.10910 ; perimeter
G1 X83.958 Y58.054 E0.10910 ; perimeter
G1 X85.772 Y58.261 E0.10910 ; perimeter
G1 X87.510 Y58.825 E0.10913 ; perimeter
G1 X89.099 Y59.723 E0.10909 ; perimeter
G1 X89.884 Y60.406 E0.06215 ; perimeter
G1 X89.441 Y60.423 F6000.000 ; move inwards before travel
G1 X88.286 Y60.124 F6000.000 ; move to first perimeter point
G1 X82.274 Y61.734 E0.37184 F900.000 ; perimeter
G1 X80.393 Y62.660 E0.12528 ; perimeter
G1 X78.934 Y64.323 E0.13220 ; perimeter
G1 X78.222 Y66.418 E0.13219 ; perimeter
G1 X78.364 Y68.626 E0.13221 ; perimeter
G1 X79.343 Y70.612 E0.13225 ; perimeter
G1 X81.006 Y72.071 E0.13220 ; perimeter
G1 X83.101 Y72.783 E0.13220 ; perimeter
G1 X84.914 Y72.665 E0.10856 ; perimeter
G1 X84.914 Y72.722 E0.00339 ; perimeter
G1 X93.222 Y70.496 E0.51391 ; perimeter
G1 X94.528 Y75.239 E0.29390 ; perimeter
G1 X91.958 Y77.005 E0.18630 ; perimeter
G1 X89.157 Y79.937 E0.24225 ; perimeter
G1 X87.017 Y83.380 E0.24225 ; perimeter
G1 X85.626 Y87.189 E0.24227 ; perimeter
G1 X85.046 Y91.201 E0.24219 ; perimeter
G1 X85.298 Y95.248 E0.24227 ; perimeter
G1 X86.374 Y99.157 E0.24224 ; perimeter
G1 X88.228 Y102.763 E0.24228 ; perimeter
G1 X90.780 Y105.914 E0.24224 ; perimeter
G1 X93.924 Y108.474 E0.24225 ; perimeter
G1 X97.525 Y110.337 E0.24223 ; perimeter
G1 X101.431 Y111.423 E0.24223 ; perimeter
G1 X104.542 Y111.625 E0.18629 ; perimeter
G1 X105.857 Y116.402 E0.29602 ; perimeter
G1 X97.576 Y118.671 E0.51299 ; perimeter
G1 X95.482 Y119.778 E0.14155 ; perimeter
G1 X93.993 Y121.794 E0.14977 ; perimeter
G1 X93.528 Y124.257 E0.14974 ; perimeter
G1 X94.176 Y126.676 E0.14963 ; perimeter
G1 X95.811 Y128.575 E0.14970 ; perimeter
G1 X98.107 Y129.578 E0.14974 ; perimeter
G1 X100.475 Y129.489 E0.14160 ; perimeter
G1 X107.942 Y127.532 E0.46119 ; perimeter
G1 X107.120 Y129.146 E0.10818 ; perimeter
G1 X105.972 Y130.602 E0.11078 ; perimeter
G1 X104.561 Y131.806 E0.11083 ; perimeter
G1 X102.946 Y132.711 E0.11061 ; perimeter
G1 X74.362 Y141.844 E1.79292 ; perimeter
G1 X73.373 Y142.031 E0.06014 ; perimeter
G1 X72.367 Y141.974 E0.06018 ; perimeter
G1 X38.435 Y135.829 E2.06034 ; perimeter
G1 X37.615 Y135.050 E0.06762 ; perimeter
G1 X36.932 Y133.919 E0.07894 ; perimeter
G1 X36.603 Y132.756 E0.07222 ; perimeter
G1 X42.971 Y97.591 E2.13517 ; perimeter
G1 X43.371 Y96.421 E0.07388 ; perimeter
G1 X44.099 Y95.422 E0.07389 ; perimeter
G1 X77.858 Y61.320 E2.86702 ; perimeter
G1 X79.195 Y60.217 E0.10357 ; perimeter
G1 X80.674 Y59.429 E0.10011 ; perimeter
G1 X82.280 Y58.953 E0.10008 ; perimeter
G1 X83.948 Y58.806 E0.10008 ; perimeter
G1 X85.613 Y58.996 E0.10009 ; perimeter
G1 X87.207 Y59.513 E0.10013 ; perimeter
G1 X88.221 Y60.087 E0.06960 ; perimeter
G1 E-4.00000 F1800.00000 ; retract
G1 X45.717 Y127.841 F6000.000 ; move to first perimeter point
G1 E4.00000 F1800.00000 ; unretract
G1 X46.800 Y129.533 E0.12001 F780.000 ; perimeter
G1 X45.978 Y131.233 E0.11283 ; perimeter
G1 X42.550 Y133.634 E0.25002 ; perimeter
G1 X41.114 Y133.952 E0.08788 ; perimeter
G1 X39.803 Y133.114 E0.09298 ; perimeter
G1 X39.466 Y131.594 E0.09302 ; perimeter
G1 X40.258 Y130.356 E0.08783 ; perimeter
G1 X43.810 Y127.875 E0.25883 ; perimeter
G1 X43.979 Y127.872 E0.01009 ; perimeter
G1 X45.642 Y127.843 E0.09942 F780.000 ; perimeter
G1 X46.181 Y127.654 F6000.000 ; move inwards before travel
G1 X45.629 Y127.094 F6000.000 ; move to first perimeter point
G1 X46.122 Y127.086 E0.02948 F780.000 ; perimeter
G1 X47.285 Y128.902 E0.12884 ; perimeter
G1 X47.656 Y129.483 E0.04117 F780.000 ; perimeter
G1 X46.567 Y131.735 E0.14948 ; perimeter
G1 X42.858 Y134.333 E0.27057 ; perimeter
G1 X40.973 Y134.750 E0.11532 ; perimeter
G1 X39.139 Y133.579 E0.13003 ; perimeter
G1 X38.669 Y131.453 E0.13009 ; perimeter
G1 X39.708 Y129.827 E0.11526 ; perimeter
G1 X43.568 Y127.131 E0.28136 ; perimeter
G1 X45.554 Y127.096 E0.11866 ; perimeter
G1 E-4.00000 F1800.00000 ; retract
G1 X47.800 Y125.606 F6000.000 ; move to first perimeter point
G1 E4.00000 F1800.00000 ; unretract
G1 X47.662 Y125.399 E0.01488 F900.000 ; perimeter
G1 X46.649 Y122.831 E0.16491 ; perimeter
G1 X46.191 Y120.109 E0.16491 ; perimeter
G1 X46.309 Y117.352 E0.16491 ; perimeter
G1 X46.998 Y114.680 E0.16487 ; perimeter
G1 X48.228 Y112.209 E0.16490 ; perimeter
G1 X49.944 Y110.046 E0.16495 ; perimeter
G1 X52.056 Y108.303 E0.16360 ; perimeter
G1 X55.425 Y106.069 E0.24153 ; perimeter
G1 X57.852 Y104.803 E0.16359 ; perimeter
G1 X60.512 Y104.062 E0.16496 ; perimeter
G1 X60.634 Y104.055 E0.00731 ; perimeter
G1 X63.267 Y103.892 E0.15758 F900.000 ; perimeter
G1 X65.996 Y104.297 E0.16489 ; perimeter
G1 X68.582 Y105.262 E0.16489 ; perimeter
G1 X70.911 Y106.743 E0.16491 ; perimeter
G1 X72.881 Y108.676 E0.16492 ; perimeter
G1 X74.407 Y110.976 E0.16492 ; perimeter
G1 X75.421 Y113.544 E0.16491 ; perimeter
G1 X75.879 Y116.265 E0.16491 ; perimeter
G1 X75.761 Y119.022 E0.16487 ; perimeter
G1 X75.071 Y121.695 E0.16493 ; perimeter
G1 X73.842 Y124.166 E0.16490 ; perimeter
G1 X72.126 Y126.327 E0.16488 ; perimeter
G1 X70.014 Y128.071 E0.16365 ; perimeter
G1 X66.645 Y130.306 E0.24154 ; perimeter
G1 X64.217 Y131.572 E0.16361 ; perimeter
G1 X61.558 Y132.312 E0.16488 ; perimeter
G1 X58.803 Y132.483 E0.16495 ; perimeter
G1 X56.073 Y132.076 E0.16490 ; perimeter
G1 X53.487 Y131.112 E0.16490 ; perimeter
G1 X51.157 Y129.632 E0.16492 ; perimeter
G1 X49.188 Y127.699 E0.16486 ; perimeter
G1 X47.841 Y125.669 E0.14556 ; perimeter
G1 X47.551 Y125.622 F6000.000 ; move inwards before travel
G1 X47.218 Y126.082 F6000.000 ; move to first perimeter point
G1 X46.995 Y125.747 E0.02406 F900.000 ; perimeter
G1 X45.924 Y123.033 E0.17432 ; perimeter
G1 X45.439 Y120.156 E0.17432 ; perimeter
G1 X45.565 Y117.241 E0.17431 ; perimeter
G1 X46.293 Y114.417 E0.17427 ; perimeter
G1 X47.592 Y111.805 E0.17430 ; perimeter
G1 X49.406 Y109.519 E0.17435 ; perimeter
G1 X51.609 Y107.701 E0.17065 ; perimeter
G1 X55.043 Y105.424 E0.24620 ; perimeter
G1 X57.576 Y104.103 E0.17064 ; perimeter
G1 X60.387 Y103.320 E0.17437 ; perimeter
G1 X63.299 Y103.141 E0.17429 ; perimeter
G1 X63.497 Y103.170 E0.01199 ; perimeter
G1 X66.184 Y103.568 E0.16230 F900.000 ; perimeter
G1 X68.917 Y104.588 E0.17429 ; perimeter
G1 X71.379 Y106.153 E0.17431 ; perimeter
G1 X73.462 Y108.197 E0.17432 ; perimeter
G1 X75.074 Y110.628 E0.17432 ; perimeter
G1 X76.146 Y113.342 E0.17431 ; perimeter
G1 X76.630 Y116.219 E0.17432 ; perimeter
G1 X76.505 Y119.133 E0.17428 ; perimeter
G1 X75.777 Y121.958 E0.17433 ; perimeter
G1 X74.477 Y124.570 E0.17430 ; perimeter
G1 X72.663 Y126.854 E0.17427 ; perimeter
G1 X70.460 Y128.674 E0.17070 ; perimeter
G1 X67.026 Y130.951 E0.24623 ; perimeter
G1 X64.493 Y132.272 E0.17065 ; perimeter
G1 X61.683 Y133.054 E0.17427 ; perimeter
G1 X58.770 Y133.234 E0.17436 ; perimeter
G1 X55.885 Y132.805 E0.17429 ; perimeter
G1 X53.152 Y131.786 E0.17429 ; perimeter
G1 X50.689 Y130.221 E0.17433 ; perimeter
G1 X48.608 Y128.178 E0.17426 ; perimeter
G1 X47.259 Y126.145 E0.14577 ; perimeter
G1 E-4.00000 F1800.00000 ; retract
G1 X75.327 Y106.983 F6000.000 ; move to first perimeter point
G1 E4.00000 F1800.00000 ; unretract
G1 X76.147 Y105.226 E0.11582 F780.000 ; perimeter
G1 X79.599 Y102.809 E0.25178 ; perimeter
G1 X81.529 Y102.640 E0.11580 ; perimeter
G1 X82.712 Y104.329 E0.12322 ; perimeter
G1 X81.893 Y106.086 E0.11582 ; perimeter
G1 X78.441 Y108.503 E0.25178 ; perimeter
G1 X76.510 Y108.672 E0.11584 ; perimeter
G1 X75.370 Y107.044 E0.11873 ; perimeter
G1 X74.917 Y106.696 F6000.000 ; move inwards before travel
G1 X74.466 Y107.058 F6000.000 ; move to first perimeter point
G1 X75.553 Y104.728 E0.15363 F780.000 ; perimeter
G1 X79.334 Y102.081 E0.27573 ; perimeter
G1 X81.895 Y101.856 E0.15360 ; perimeter
G1 X83.573 Y104.254 E0.17488 ; perimeter
G1 X82.486 Y106.584 E0.15362 ; perimeter
G1 X78.706 Y109.231 E0.27574 ; perimeter
G1 X76.144 Y109.455 E0.15364 ; perimeter
G1 X74.509 Y107.119 E0.17038 ; perimeter
G1 X73.860 Y107.471 F6000.000 ; move to first infill point
G1 X75.506 Y109.887 E0.08132 F300.000 ; infill
