; generated by Slic3r 1.1.6 on 2015-04-10 at 22:52:03

; perimeters extrusion width = 0.50mm
; infill extrusion width = 0.50mm
; solid infill extrusion width = 0.50mm
; top infill extrusion width = 0.50mm

G21 ; set units to millimeters
M107 ; disable fan
M190 S57 ; wait for bed temperature to be reached
M104 S185 ; set temperature

M109 S185 ; wait for temperature to be reached
G90 ; use absolute coordinates
M83 ; use relative distances for extrusion
G1 F1800.000 E-4.00000 ; retract
G1 Z0.240 F6000.000 ; move to next layer (0)
G1 X82.074 Y88.288 F6000.000 ; move to first skirt point
G1 E4.00000 F1800.000 ; compensate retraction
G1 X83.109 Y87.404 E0.05430 F600.000 ; skirt
G1 X84.215 Y86.612 E0.05430 ; skirt
G1 X85.227 Y85.999 E0.04722 ; skirt
G1 X110.621 Y72.113 E1.15518 ; skirt
G1 X113.020 Y71.500 E0.09882 ; skirt
G1 X118.020 Y71.500 E0.19956 ; skirt
G1 X119.970 Y71.896 E0.07942 ; skirt
G1 X121.612 Y73.021 E0.07942 ; skirt
G1 X122.684 Y74.698 E0.07942 ; skirt
G1 X123.020 Y76.500 E0.07318 ; skirt
G1 X123.020 Y123.500 E1.87587 ; skirt
G1 X122.624 Y125.450 E0.07942 ; skirt
G1 X121.499 Y127.091 E0.07942 ; skirt
G1 X119.823 Y128.164 E0.07942 ; skirt
G1 X118.020 Y128.500 E0.07318 ; skirt
G1 X113.020 Y128.500 E0.19956 ; skirt
G1 X110.621 Y127.887 E0.09882 ; skirt
G1 X85.012 Y113.877 E1.16506 ; skirt
G1 X83.862 Y113.151 E0.05430 ; skirt
G1 X83.114 Y112.600 E0.03708 ; skirt
G1 X82.777 Y112.329 E0.01723 ; skirt
G1 X81.767 Y111.419 E0.05430 ; skirt
G1 X80.837 Y110.425 E0.05430 ; skirt
G1 X79.995 Y109.357 E0.05430 ; skirt
G1 X79.247 Y108.220 E0.05430 ; skirt
G1 X78.598 Y107.025 E0.05430 ; skirt
G1 X78.053 Y105.778 E0.05430 ; skirt
G1 X77.616 Y104.490 E0.05430 ; skirt
G1 X77.290 Y103.169 E0.05430 ; skirt
G1 X77.077 Y101.825 E0.05430 ; skirt
G1 X76.980 Y100.468 E0.05430 ; skirt
G1 X76.998 Y99.107 E0.05430 ; skirt
G1 X77.132 Y97.753 E0.05430 ; skirt
G1 X77.380 Y96.416 E0.05430 ; skirt
G1 X77.741 Y95.104 E0.05430 ; skirt
G1 X78.212 Y93.828 E0.05430 ; skirt
G1 X78.790 Y92.596 E0.05430 ; skirt
G1 X79.470 Y91.418 E0.05430 ; skirt
G1 X79.992 Y90.647 E0.03714 ; skirt
G1 X80.248 Y90.302 E0.01717 ; skirt
G1 X80.833 Y89.579 E0.03710 ; skirt
G1 X81.118 Y89.256 E0.01721 ; skirt
G1 X82.020 Y88.339 E0.05131 ; skirt
G1 X82.404 Y88.663 F6000.000 ; move to first skirt point
G1 X83.405 Y87.807 E0.05261 F600.000 ; skirt
G1 X84.476 Y87.038 E0.05260 ; skirt
G1 X85.466 Y86.437 E0.04623 ; skirt
G1 X110.861 Y72.552 E1.15518 ; skirt
G1 X113.020 Y72.000 E0.08894 ; skirt
G1 X118.020 Y72.000 E0.19956 ; skirt
G1 X119.865 Y72.396 E0.07531 ; skirt
G1 X121.386 Y73.513 E0.07531 ; skirt
G1 X122.314 Y75.155 E0.07531 ; skirt
G1 X122.520 Y76.500 E0.05431 ; skirt
G1 X122.520 Y123.500 E1.87587 ; skirt
G1 X122.125 Y125.345 E0.07531 ; skirt
G1 X121.007 Y126.865 E0.07531 ; skirt
G1 X119.365 Y127.794 E0.07531 ; skirt
G1 X118.020 Y128.000 E0.05431 ; skirt
G1 X113.020 Y128.000 E0.19956 ; skirt
G1 X110.861 Y127.448 E0.08894 ; skirt
G1 X85.274 Y113.451 E1.16407 ; skirt
G1 X84.159 Y112.748 E0.05260 ; skirt
G1 X83.411 Y112.197 E0.03708 ; skirt
G1 X83.107 Y111.954 E0.01554 ; skirt
G1 X82.127 Y111.072 E0.05261 ; skirt
G1 X81.226 Y110.111 E0.05260 ; skirt
G1 X80.409 Y109.076 E0.05260 ; skirt
G1 X79.683 Y107.976 E0.05261 ; skirt
G1 X79.053 Y106.818 E0.05260 ; skirt
G1 X78.524 Y105.611 E0.05261 ; skirt
G1 X78.100 Y104.363 E0.05260 ; skirt
G1 X77.783 Y103.084 E0.05260 ; skirt
G1 X77.576 Y101.782 E0.05260 ; skirt
G1 X77.480 Y100.468 E0.05261 ; skirt
G1 X77.496 Y99.150 E0.05261 ; skirt
G1 X77.624 Y97.838 E0.05261 ; skirt
G1 X77.864 Y96.542 E0.05261 ; skirt
G1 X78.212 Y95.271 E0.05260 ; skirt
G1 X78.667 Y94.034 E0.05261 ; skirt
G1 X79.226 Y92.840 E0.05260 ; skirt
G1 X79.884 Y91.698 E0.05261 ; skirt
G1 X80.406 Y90.928 E0.03713 ; skirt
G1 X81.222 Y89.894 E0.05257 ; skirt
G1 X81.479 Y89.602 E0.01552 ; skirt
G1 X82.350 Y88.715 E0.04961 ; skirt
G1 F1800.000 E-4.00000 ; retract
G1 X113.270 Y104.650 F6000.000 ; move to first perimeter point
G1 E4.00000 F1800.000 ; compensate retraction
G1 X102.670 Y104.650 E0.42305 F900.000 ; perimeter
G1 X102.152 Y105.589 E0.04281 ; perimeter
G1 X101.644 Y106.349 E0.03649 ; perimeter
G1 X101.073 Y107.064 E0.03649 ; perimeter
G1 X100.444 Y107.727 E0.03649 ; perimeter
G1 X99.760 Y108.334 E0.03649 ; perimeter
G1 X99.027 Y108.881 E0.03649 ; perimeter
G1 X98.251 Y109.363 E0.03649 ; perimeter
G1 X97.436 Y109.778 E0.03649 ; perimeter
G1 X96.589 Y110.122 E0.03649 ; perimeter
G1 X95.716 Y110.393 E0.03649 ; perimeter
G1 X94.823 Y110.589 E0.03649 ; perimeter
G1 X93.917 Y110.708 E0.03649 ; perimeter
G1 X93.003 Y110.750 E0.03649 ; perimeter
G1 X92.090 Y110.714 E0.03649 ; perimeter
G1 X91.182 Y110.600 E0.03649 ; perimeter
G1 X90.288 Y110.410 E0.03649 ; perimeter
G1 X89.413 Y110.144 E0.03649 ; perimeter
G1 X88.564 Y109.805 E0.03649 ; perimeter
G1 X87.747 Y109.396 E0.03649 ; perimeter
G1 X86.967 Y108.918 E0.03649 ; perimeter
G1 X86.231 Y108.376 E0.03649 ; perimeter
G1 X85.544 Y107.773 E0.03649 ; perimeter
G1 X84.910 Y107.114 E0.03649 ; perimeter
G1 X84.335 Y106.403 E0.03649 ; perimeter
G1 X83.822 Y105.646 E0.03649 ; perimeter
G1 X83.376 Y104.848 E0.03649 ; perimeter
G1 X82.998 Y104.016 E0.03649 ; perimeter
G1 X82.693 Y103.154 E0.03649 ; perimeter
G1 X82.462 Y102.269 E0.03649 ; perimeter
G1 X82.308 Y101.368 E0.03649 ; perimeter
G1 X82.230 Y100.457 E0.03649 ; perimeter
G1 X82.230 Y99.543 E0.03649 ; perimeter
G1 X82.308 Y98.632 E0.03649 ; perimeter
G1 X82.462 Y97.731 E0.03649 ; perimeter
G1 X82.693 Y96.846 E0.03649 ; perimeter
G1 X82.998 Y95.984 E0.03649 ; perimeter
G1 X83.376 Y95.152 E0.03649 ; perimeter
G1 X83.822 Y94.354 E0.03649 ; perimeter
G1 X84.335 Y93.597 E0.03649 ; perimeter
G1 X84.910 Y92.886 E0.03649 ; perimeter
G1 X85.544 Y92.227 E0.03649 ; perimeter
G1 X86.231 Y91.624 E0.03649 ; perimeter
G1 X86.967 Y91.082 E0.03649 ; perimeter
G1 X87.747 Y90.604 E0.03649 ; perimeter
G1 X88.564 Y90.195 E0.03649 ; perimeter
G1 X89.413 Y89.856 E0.03649 ; perimeter
G1 X90.288 Y89.590 E0.03649 ; perimeter
G1 X91.182 Y89.400 E0.03649 ; perimeter
G1 X92.090 Y89.286 E0.03649 ; perimeter
G1 X93.003 Y89.250 E0.03649 ; perimeter
G1 X93.916 Y89.292 E0.03649 ; perimeter
G1 X94.823 Y89.411 E0.03649 ; perimeter
G1 X95.716 Y89.607 E0.03649 ; perimeter
G1 X96.589 Y89.878 E0.03649 ; perimeter
G1 X97.436 Y90.222 E0.03649 ; perimeter
G1 X98.251 Y90.637 E0.03649 ; perimeter
G1 X99.027 Y91.119 E0.03649 ; perimeter
G1 X99.760 Y91.666 E0.03649 ; perimeter
G1 X100.444 Y92.273 E0.03649 ; perimeter
G1 X101.073 Y92.936 E0.03649 ; perimeter
G1 X101.644 Y93.651 E0.03649 ; perimeter
G1 X102.152 Y94.411 E0.03649 ; perimeter
G1 X102.670 Y95.350 E0.04281 ; perimeter
G1 X113.270 Y95.350 E0.42305 ; perimeter
G1 X113.270 Y76.750 E0.74235 ; perimeter
G1 X117.770 Y76.750 E0.17960 ; perimeter
G1 X117.770 Y99.250 E0.89802 ; perimeter
G1 X99.217 Y99.250 E0.74051 ; perimeter
G1 X99.150 Y98.773 E0.01923 ; perimeter
G1 X98.971 Y98.082 E0.02847 ; perimeter
G1 X98.716 Y97.416 E0.02848 ; perimeter
G1 X98.387 Y96.783 E0.02848 ; perimeter
G1 X97.989 Y96.191 E0.02847 ; perimeter
G1 X97.526 Y95.648 E0.02847 ; perimeter
G1 X97.005 Y95.161 E0.02848 ; perimeter
G1 X96.432 Y94.736 E0.02848 ; perimeter
G1 X95.814 Y94.378 E0.02847 ; perimeter
G1 X95.161 Y94.093 E0.02848 ; perimeter
G1 X94.479 Y93.883 E0.02847 ; perimeter
G1 X93.778 Y93.752 E0.02847 ; perimeter
G1 X93.066 Y93.700 E0.02847 ; perimeter
G1 X92.353 Y93.730 E0.02848 ; perimeter
G1 X91.649 Y93.840 E0.02847 ; perimeter
G1 X90.961 Y94.029 E0.02848 ; perimeter
G1 X90.298 Y94.294 E0.02847 ; perimeter
G1 X89.670 Y94.633 E0.02847 ; perimeter
G1 X89.070 Y95.053 E0.02925 ; perimeter
G1 X88.549 Y95.511 E0.02770 ; perimeter
G1 X88.070 Y96.040 E0.02847 ; perimeter
G1 X87.654 Y96.619 E0.02848 ; perimeter
G1 X87.305 Y97.242 E0.02847 ; perimeter
G1 X87.030 Y97.900 E0.02848 ; perimeter
G1 X86.831 Y98.585 E0.02847 ; perimeter
G1 X86.710 Y99.288 E0.02847 ; perimeter
G1 X86.670 Y100.000 E0.02848 ; perimeter
G1 X86.710 Y100.712 E0.02847 ; perimeter
G1 X86.836 Y101.434 E0.02925 ; perimeter
G1 X87.030 Y102.100 E0.02770 ; perimeter
G1 X87.305 Y102.758 E0.02847 ; perimeter
G1 X87.654 Y103.381 E0.02848 ; perimeter
G1 X88.070 Y103.960 E0.02847 ; perimeter
G1 X88.549 Y104.489 E0.02848 ; perimeter
G1 X89.085 Y104.960 E0.02847 ; perimeter
G1 X89.670 Y105.367 E0.02847 ; perimeter
G1 X90.298 Y105.706 E0.02847 ; perimeter
G1 X90.961 Y105.971 E0.02848 ; perimeter
G1 X91.648 Y106.160 E0.02847 ; perimeter
G1 X92.353 Y106.270 E0.02848 ; perimeter
G1 X93.066 Y106.300 E0.02847 ; perimeter
G1 X93.778 Y106.248 E0.02847 ; perimeter
G1 X94.498 Y106.111 E0.02925 ; perimeter
G1 X95.161 Y105.907 E0.02769 ; perimeter
G1 X95.814 Y105.622 E0.02847 ; perimeter
G1 X96.432 Y105.264 E0.02848 ; perimeter
G1 X97.005 Y104.839 E0.02848 ; perimeter
G1 X97.526 Y104.352 E0.02847 ; perimeter
G1 X97.989 Y103.809 E0.02847 ; perimeter
G1 X98.387 Y103.217 E0.02848 ; perimeter
G1 X98.716 Y102.584 E0.02848 ; perimeter
G1 X98.971 Y101.918 E0.02847 ; perimeter
G1 X99.150 Y101.227 E0.02847 ; perimeter
G1 X99.217 Y100.750 E0.01923 ; perimeter
G1 X117.770 Y100.750 E0.74051 ; perimeter
G1 X117.770 Y123.250 E0.89802 ; perimeter
G1 X113.270 Y123.250 E0.17960 ; perimeter
G1 X113.270 Y104.725 E0.73936 ; perimeter
G1 X113.270 Y104.150 F6000.000 ; move inwards before travel
G1 X113.770 Y104.150 F6000.000 ; move to first perimeter point
G1 X102.375 Y104.150 E0.45479 F900.000 ; perimeter
G1 X101.725 Y105.329 E0.05374 ; perimeter
G1 X101.240 Y106.054 E0.03479 ; perimeter
G1 X100.696 Y106.735 E0.03479 ; perimeter
G1 X100.096 Y107.367 E0.03479 ; perimeter
G1 X99.444 Y107.946 E0.03479 ; perimeter
G1 X98.745 Y108.467 E0.03479 ; perimeter
G1 X98.005 Y108.927 E0.03479 ; perimeter
G1 X97.228 Y109.323 E0.03479 ; perimeter
G1 X96.421 Y109.651 E0.03479 ; perimeter
G1 X95.588 Y109.909 E0.03479 ; perimeter
G1 X94.737 Y110.096 E0.03479 ; perimeter
G1 X93.872 Y110.210 E0.03479 ; perimeter
G1 X93.002 Y110.249 E0.03479 ; perimeter
G1 X92.131 Y110.215 E0.03479 ; perimeter
G1 X91.266 Y110.107 E0.03479 ; perimeter
G1 X90.413 Y109.925 E0.03479 ; perimeter
G1 X89.579 Y109.672 E0.03479 ; perimeter
G1 X88.769 Y109.349 E0.03479 ; perimeter
G1 X87.990 Y108.958 E0.03479 ; perimeter
G1 X87.247 Y108.503 E0.03479 ; perimeter
G1 X86.545 Y107.986 E0.03479 ; perimeter
G1 X85.890 Y107.411 E0.03479 ; perimeter
G1 X85.286 Y106.782 E0.03479 ; perimeter
G1 X84.737 Y106.105 E0.03479 ; perimeter
G1 X84.248 Y105.383 E0.03479 ; perimeter
G1 X83.822 Y104.623 E0.03479 ; perimeter
G1 X83.463 Y103.829 E0.03479 ; perimeter
G1 X83.172 Y103.007 E0.03479 ; perimeter
G1 X82.952 Y102.164 E0.03479 ; perimeter
G1 X82.804 Y101.304 E0.03479 ; perimeter
G1 X82.730 Y100.436 E0.03479 ; perimeter
G1 X82.730 Y99.564 E0.03479 ; perimeter
G1 X82.804 Y98.696 E0.03479 ; perimeter
G1 X82.952 Y97.836 E0.03479 ; perimeter
G1 X83.172 Y96.993 E0.03479 ; perimeter
G1 X83.463 Y96.171 E0.03479 ; perimeter
G1 X83.822 Y95.377 E0.03479 ; perimeter
G1 X84.248 Y94.617 E0.03479 ; perimeter
G1 X84.737 Y93.895 E0.03479 ; perimeter
G1 X85.286 Y93.218 E0.03479 ; perimeter
G1 X85.890 Y92.589 E0.03479 ; perimeter
G1 X86.545 Y92.014 E0.03479 ; perimeter
G1 X87.247 Y91.497 E0.03479 ; perimeter
G1 X87.990 Y91.042 E0.03479 ; perimeter
G1 X88.769 Y90.651 E0.03479 ; perimeter
G1 X89.579 Y90.328 E0.03479 ; perimeter
G1 X90.413 Y90.075 E0.03479 ; perimeter
G1 X91.266 Y89.893 E0.03479 ; perimeter
G1 X92.131 Y89.785 E0.03479 ; perimeter
G1 X93.002 Y89.751 E0.03479 ; perimeter
G1 X93.872 Y89.790 E0.03479 ; perimeter
G1 X94.737 Y89.904 E0.03479 ; perimeter
G1 X95.588 Y90.091 E0.03479 ; perimeter
G1 X96.421 Y90.349 E0.03479 ; perimeter
G1 X97.228 Y90.677 E0.03479 ; perimeter
G1 X98.005 Y91.073 E0.03479 ; perimeter
G1 X98.745 Y91.533 E0.03479 ; perimeter
G1 X99.444 Y92.054 E0.03479 ; perimeter
G1 X100.096 Y92.633 E0.03479 ; perimeter
G1 X100.696 Y93.265 E0.03479 ; perimeter
G1 X101.240 Y93.946 E0.03479 ; perimeter
G1 X101.725 Y94.671 E0.03479 ; perimeter
G1 X102.375 Y95.850 E0.05374 ; perimeter
G1 X113.770 Y95.850 E0.45479 ; perimeter
G1 X113.770 Y77.250 E0.74235 ; perimeter
G1 X117.270 Y77.250 E0.13969 ; perimeter
G1 X117.270 Y98.750 E0.85811 ; perimeter
G1 X99.660 Y98.750 E0.70285 ; perimeter
G1 X99.448 Y97.930 E0.03381 ; perimeter
G1 X99.173 Y97.210 E0.03074 ; perimeter
G1 X98.818 Y96.527 E0.03075 ; perimeter
G1 X98.388 Y95.888 E0.03072 ; perimeter
G1 X97.888 Y95.302 E0.03073 ; perimeter
G1 X97.325 Y94.776 E0.03075 ; perimeter
G1 X96.707 Y94.317 E0.03074 ; perimeter
G1 X96.041 Y93.931 E0.03073 ; perimeter
G1 X95.335 Y93.623 E0.03074 ; perimeter
G1 X94.599 Y93.397 E0.03073 ; perimeter
G1 X93.842 Y93.255 E0.03074 ; perimeter
G1 X93.074 Y93.200 E0.03073 ; perimeter
G1 X92.304 Y93.231 E0.03076 ; perimeter
G1 X91.544 Y93.350 E0.03071 ; perimeter
G1 X90.801 Y93.554 E0.03075 ; perimeter
G1 X90.086 Y93.840 E0.03073 ; perimeter
G1 X89.408 Y94.206 E0.03074 ; perimeter
G1 X88.740 Y94.677 E0.03263 ; perimeter
G1 X88.197 Y95.154 E0.02884 ; perimeter
G1 X87.681 Y95.725 E0.03072 ; perimeter
G1 X87.231 Y96.350 E0.03075 ; perimeter
G1 X86.855 Y97.022 E0.03072 ; perimeter
G1 X86.558 Y97.733 E0.03076 ; perimeter
G1 X86.343 Y98.472 E0.03072 ; perimeter
G1 X86.212 Y99.231 E0.03074 ; perimeter
G1 X86.169 Y100.000 E0.03075 ; perimeter
G1 X86.212 Y100.769 E0.03073 ; perimeter
G1 X86.356 Y101.574 E0.03262 ; perimeter
G1 X86.558 Y102.267 E0.02884 ; perimeter
G1 X86.855 Y102.977 E0.03072 ; perimeter
G1 X87.231 Y103.650 E0.03075 ; perimeter
G1 X87.680 Y104.275 E0.03072 ; perimeter
G1 X88.198 Y104.846 E0.03076 ; perimeter
G1 X88.776 Y105.354 E0.03072 ; perimeter
G1 X89.408 Y105.794 E0.03074 ; perimeter
G1 X90.086 Y106.160 E0.03073 ; perimeter
G1 X90.801 Y106.446 E0.03075 ; perimeter
G1 X91.543 Y106.650 E0.03072 ; perimeter
G1 X92.304 Y106.769 E0.03075 ; perimeter
G1 X93.074 Y106.800 E0.03073 ; perimeter
G1 X93.842 Y106.745 E0.03074 ; perimeter
G1 X94.599 Y106.603 E0.03072 ; perimeter
G1 X95.335 Y106.377 E0.03074 ; perimeter
G1 X96.082 Y106.045 E0.03264 ; perimeter
G1 X96.707 Y105.683 E0.02883 ; perimeter
G1 X97.326 Y105.223 E0.03075 ; perimeter
G1 X97.888 Y104.698 E0.03073 ; perimeter
G1 X98.387 Y104.112 E0.03072 ; perimeter
G1 X98.818 Y103.473 E0.03075 ; perimeter
G1 X99.173 Y102.789 E0.03074 ; perimeter
G1 X99.448 Y102.070 E0.03073 ; perimeter
G1 X99.660 Y101.250 E0.03381 ; perimeter
G1 X117.270 Y101.250 E0.70285 ; perimeter
G1 X117.270 Y122.750 E0.85811 ; perimeter
G1 X113.770 Y122.750 E0.13969 ; perimeter
G1 X113.770 Y104.225 E0.73936 ; perimeter
G1 F1800.000 E-4.00000 ; retract
G1 X116.928 Y105.301 F6000.000 ; move to first fill point
G1 E4.00000 F1800.000 ; compensate retraction
G1 X113.219 Y101.592 E0.20933 F900.000 ; fill
G1 X113.929 Y101.592 E0.02832 ; fill
G1 X116.928 Y104.592 E0.16928 ; fill
G1 X116.928 Y103.882 E0.02832 ; fill
G1 X114.638 Y101.592 E0.12924 ; fill
G1 X115.347 Y101.592 E0.02832 ; fill
G1 X116.928 Y103.173 E0.08919 ; fill
G1 X116.928 Y102.463 E0.02832 ; fill
G1 X116.057 Y101.592 E0.04915 ; fill
G1 X116.766 Y101.592 E0.02832 ; fill
G1 X116.928 Y101.754 E0.00910 ; fill
G1 F1800.000 E-4.00000 ; retract
G1 X100.811 Y98.408 F6000.000 ; move to first fill point
G1 E4.00000 F1800.000 ; compensate retraction
G1 X99.493 Y97.089 E0.07440 F900.000 ; fill
G1 X99.864 Y98.170 F6000.000 ; move to first fill point
G1 X100.102 Y98.408 E0.01342 F900.000 ; fill
G1 F1800.000 E-4.00000 ; retract
G1 X101.276 Y94.615 F6000.000 ; move to first fill point
G1 E4.00000 F1800.000 ; compensate retraction
G1 X98.352 Y91.692 E0.16502 F900.000 ; fill
G1 X96.840 Y90.889 F6000.000 ; move to first fill point
G1 X104.359 Y98.408 E0.42437 F900.000 ; fill
G1 X105.068 Y98.408 E0.02832 ; fill
G1 X102.853 Y96.192 E0.12505 ; fill
G1 X103.562 Y96.192 E0.02832 ; fill
G1 X105.777 Y98.408 E0.12505 ; fill
G1 X106.487 Y98.408 E0.02832 ; fill
G1 X104.271 Y96.192 E0.12505 ; fill
G1 X104.981 Y96.192 E0.02832 ; fill
G1 X107.196 Y98.408 E0.12505 ; fill
G1 X107.906 Y98.408 E0.02832 ; fill
G1 X105.690 Y96.192 E0.12505 ; fill
G1 X106.400 Y96.192 E0.02832 ; fill
G1 X108.615 Y98.408 E0.12505 ; fill
G1 X109.325 Y98.408 E0.02832 ; fill
G1 X107.109 Y96.192 E0.12505 ; fill
