; generated by Slic3r 1.0.1 on 2014-06-28 at 17:20:41

; layer_height = 0.24
; perimeters = 2
; top_solid_layers = 3
; bottom_solid_layers = 3
; fill_density = 0.25
; perimeter_speed = 30
; infill_speed = 30
; travel_speed = 100
; nozzle_diameter = 0.5
; filament_diameter = 1.75
; extrusion_multiplier = 1
; perimeters extrusion width = 0.50mm
; infill extrusion width = 0.50mm
; solid infill extrusion width = 0.50mm
; top infill extrusion width = 0.50mm
; first layer extrusion width = 0.80mm

G21 ; set units to millimeters
M107 ; disable fan
M190 S57 ; wait for bed temperature to be reached
M104 S200 ; set temperature

M109 S200 ; wait for temperature to be reached
G90 ; use absolute coordinates
M83 ; use relative distances for extrusion
G1 F1800.000 E-2.40000 ; retract
G1 Z0.240 F6000.000 ; move to next layer (0)
G1 X81.820 Y84.078 F6000.000 ; move to first skirt point
G1 E2.40000 F1800.000 ; compensate retraction
G1 X82.810 Y83.328 E0.09276 F900.000 ; skirt
G1 X83.950 Y82.848 E0.09238 ; skirt
G1 X85.180 Y82.688 E0.09264 ; skirt
G1 X114.820 Y82.688 E2.21367 ; skirt
G1 X116.050 Y82.848 E0.09264 ; skirt
G1 X117.190 Y83.328 E0.09238 ; skirt
G1 X118.180 Y84.078 E0.09276 ; skirt
G1 X118.930 Y85.068 E0.09276 ; skirt
G1 X119.410 Y86.208 E0.09238 ; skirt
G1 X119.570 Y87.438 E0.09264 ; skirt
G1 X119.570 Y97.748 E0.77000 ; skirt
G1 X119.490 Y99.398 E0.12338 ; skirt
G1 X119.450 Y99.828 E0.03225 ; skirt
G1 X119.250 Y101.228 E0.10562 ; skirt
G1 X119.160 Y101.698 E0.03574 ; skirt
G1 X118.820 Y103.068 E0.10542 ; skirt
G1 X118.700 Y103.478 E0.03191 ; skirt
G1 X118.240 Y104.808 E0.10510 ; skirt
G1 X118.080 Y105.208 E0.03218 ; skirt
G1 X117.500 Y106.498 E0.10563 ; skirt
G1 X117.260 Y106.968 E0.03941 ; skirt
G1 X116.580 Y108.138 E0.10107 ; skirt
G1 X116.330 Y108.528 E0.03460 ; skirt
G1 X115.510 Y109.678 E0.10549 ; skirt
G1 X115.230 Y110.028 E0.03348 ; skirt
G1 X114.310 Y111.088 E0.10483 ; skirt
G1 X112.990 Y112.378 E0.13784 ; skirt
G1 X112.630 Y112.698 E0.03597 ; skirt
G1 X111.520 Y113.568 E0.10533 ; skirt
G1 X111.150 Y113.828 E0.03377 ; skirt
G1 X109.960 Y114.588 E0.10545 ; skirt
G1 X108.340 Y115.448 E0.13698 ; skirt
G1 X107.900 Y115.648 E0.03610 ; skirt
G1 X106.590 Y116.168 E0.10526 ; skirt
G1 X106.190 Y116.308 E0.03165 ; skirt
G1 X104.840 Y116.708 E0.10516 ; skirt
G1 X104.360 Y116.828 E0.03695 ; skirt
G1 X102.970 Y117.088 E0.10561 ; skirt
G1 X101.170 Y117.278 E0.13518 ; skirt
G1 X100.700 Y117.308 E0.03517 ; skirt
G1 X99.290 Y117.308 E0.10531 ; skirt
G1 X98.820 Y117.278 E0.03517 ; skirt
G1 X97.020 Y117.088 E0.13518 ; skirt
G1 X95.630 Y116.828 E0.10561 ; skirt
G1 X95.150 Y116.708 E0.03695 ; skirt
G1 X93.800 Y116.308 E0.10516 ; skirt
G1 X93.400 Y116.168 E0.03165 ; skirt
G1 X92.090 Y115.648 E0.10526 ; skirt
G1 X91.650 Y115.448 E0.03610 ; skirt
G1 X90.030 Y114.588 E0.13698 ; skirt
G1 X88.840 Y113.828 E0.10545 ; skirt
G1 X88.470 Y113.568 E0.03377 ; skirt
G1 X87.360 Y112.698 E0.10533 ; skirt
G1 X87.000 Y112.378 E0.03597 ; skirt
G1 X85.680 Y111.088 E0.13784 ; skirt
G1 X84.760 Y110.028 E0.10483 ; skirt
G1 X84.480 Y109.678 E0.03348 ; skirt
G1 X83.660 Y108.528 E0.10549 ; skirt
G1 X82.720 Y106.938 E0.13795 ; skirt
G1 X82.490 Y106.498 E0.03708 ; skirt
G1 X81.910 Y105.208 E0.10563 ; skirt
G1 X81.750 Y104.808 E0.03218 ; skirt
G1 X81.290 Y103.478 E0.10510 ; skirt
G1 X81.170 Y103.068 E0.03191 ; skirt
G1 X80.830 Y101.698 E0.10542 ; skirt
G1 X80.740 Y101.228 E0.03574 ; skirt
G1 X80.540 Y99.828 E0.10562 ; skirt
G1 X80.500 Y99.358 E0.03523 ; skirt
G1 X80.430 Y97.748 E0.12036 ; skirt
G1 X80.430 Y87.438 E0.77000 ; skirt
G1 X80.590 Y86.208 E0.09264 ; skirt
G1 X81.070 Y85.068 E0.09238 ; skirt
G1 X81.752 Y84.168 E0.08437 ; skirt
G1 F1800.000 E-2.40000 ; retract
G1 X85.580 Y87.838 F6000.000 ; move to first perimeter point
G1 E2.40000 F1800.000 ; compensate retraction
G1 X90.420 Y87.838 E0.36148 F900.000 ; perimeter
G1 X90.420 Y92.003 E0.31100 ; perimeter
G1 X90.024 Y92.710 E0.06052 ; perimeter
G1 X89.518 Y93.867 E0.09432 ; perimeter
G1 X89.146 Y95.077 E0.09457 ; perimeter
G1 X88.912 Y96.322 E0.09457 ; perimeter
G1 X88.821 Y97.584 E0.09457 ; perimeter
G1 X88.873 Y98.850 E0.09457 ; perimeter
G1 X89.067 Y100.101 E0.09457 ; perimeter
G1 X89.200 Y100.586 E0.03756 ; perimeter
G1 X89.402 Y101.322 E0.05701 ; perimeter
G1 X89.873 Y102.497 E0.09457 ; perimeter
G1 X90.474 Y103.612 E0.09457 ; perimeter
G1 X91.197 Y104.651 E0.09457 ; perimeter
G1 X92.033 Y105.603 E0.09457 ; perimeter
G1 X92.971 Y106.453 E0.09457 ; perimeter
G1 X93.999 Y107.192 E0.09457 ; perimeter
G1 X94.200 Y107.305 E0.01723 ; perimeter
G1 X95.104 Y107.810 E0.07734 ; perimeter
G1 X96.272 Y108.299 E0.09457 ; perimeter
G1 X97.488 Y108.653 E0.09457 ; perimeter
G1 X98.736 Y108.867 E0.09457 ; perimeter
G1 X100.000 Y108.939 E0.09457 ; perimeter
G1 X101.264 Y108.867 E0.09457 ; perimeter
G1 X102.512 Y108.653 E0.09457 ; perimeter
G1 X103.728 Y108.299 E0.09457 ; perimeter
G1 X104.896 Y107.810 E0.09457 ; perimeter
G1 X105.800 Y107.305 E0.07734 ; perimeter
G1 X106.001 Y107.192 E0.01723 ; perimeter
G1 X107.029 Y106.453 E0.09457 ; perimeter
G1 X107.967 Y105.603 E0.09457 ; perimeter
G1 X108.803 Y104.651 E0.09457 ; perimeter
G1 X109.526 Y103.612 E0.09457 ; perimeter
G1 X110.127 Y102.497 E0.09457 ; perimeter
G1 X110.598 Y101.322 E0.09457 ; perimeter
G1 X110.933 Y100.101 E0.09457 ; perimeter
G1 X111.101 Y99.021 E0.08160 ; perimeter
G1 X111.127 Y98.850 E0.01297 ; perimeter
G1 X111.179 Y97.584 E0.09457 ; perimeter
G1 X111.088 Y96.322 E0.09457 ; perimeter
G1 X110.854 Y95.077 E0.09457 ; perimeter
G1 X110.482 Y93.867 E0.09457 ; perimeter
G1 X109.975 Y92.709 E0.09438 ; perimeter
G1 X109.580 Y92.003 E0.06041 ; perimeter
G1 X109.580 Y87.838 E0.31106 ; perimeter
G1 X114.420 Y87.838 E0.36148 ; perimeter
G1 X114.420 Y97.749 E0.74017 ; perimeter
G1 X114.354 Y99.129 E0.10320 ; perimeter
G1 X114.159 Y100.487 E0.10248 ; perimeter
G1 X113.835 Y101.821 E0.10248 ; perimeter
G1 X113.387 Y103.118 E0.10249 ; perimeter
G1 X112.817 Y104.366 E0.10248 ; perimeter
G1 X112.130 Y105.554 E0.10248 ; perimeter
G1 X111.335 Y106.672 E0.10248 ; perimeter
G1 X110.436 Y107.709 E0.10248 ; perimeter
G1 X109.443 Y108.656 E0.10248 ; perimeter
G1 X108.364 Y109.504 E0.10248 ; perimeter
G1 X107.210 Y110.246 E0.10248 ; perimeter
G1 X105.990 Y110.875 E0.10248 ; perimeter
G1 X104.716 Y111.385 E0.10249 ; perimeter
G1 X103.400 Y111.772 E0.10248 ; perimeter
G1 X102.052 Y112.031 E0.10248 ; perimeter
G1 X100.686 Y112.162 E0.10248 ; perimeter
G1 X99.314 Y112.162 E0.10248 ; perimeter
G1 X97.948 Y112.031 E0.10248 ; perimeter
G1 X96.600 Y111.772 E0.10248 ; perimeter
G1 X95.284 Y111.385 E0.10248 ; perimeter
G1 X94.010 Y110.875 E0.10248 ; perimeter
G1 X92.790 Y110.246 E0.10248 ; perimeter
G1 X91.636 Y109.504 E0.10248 ; perimeter
G1 X90.557 Y108.656 E0.10248 ; perimeter
G1 X89.564 Y107.709 E0.10248 ; perimeter
G1 X88.665 Y106.672 E0.10248 ; perimeter
G1 X88.345 Y106.222 E0.04122 ; perimeter
G1 X87.870 Y105.554 E0.06126 ; perimeter
G1 X87.183 Y104.366 E0.10248 ; perimeter
G1 X86.613 Y103.118 E0.10248 ; perimeter
G1 X86.165 Y101.821 E0.10249 ; perimeter
G1 X85.841 Y100.487 E0.10248 ; perimeter
G1 X85.646 Y99.129 E0.10248 ; perimeter
G1 X85.580 Y97.749 E0.10320 ; perimeter
G1 X85.580 Y87.951 E0.73178 ; perimeter
G1 X86.228 Y88.213 F6000.000 ; move inwards before travel
G1 X86.328 Y88.587 F6000.000 ; move to first perimeter point
G1 X89.672 Y88.587 E0.24967 F900.000 ; perimeter
G1 X89.672 Y91.806 E0.24040 ; perimeter
G1 X89.353 Y92.377 E0.04883 ; perimeter
G1 X88.816 Y93.606 E0.10019 ; perimeter
G1 X88.418 Y94.897 E0.10091 ; perimeter
G1 X88.169 Y96.225 E0.10091 ; perimeter
G1 X88.071 Y97.573 E0.10091 ; perimeter
G1 X88.127 Y98.923 E0.10091 ; perimeter
G1 X88.334 Y100.258 E0.10091 ; perimeter
G1 X88.479 Y100.784 E0.04073 ; perimeter
G1 X88.692 Y101.561 E0.06018 ; perimeter
G1 X89.194 Y102.815 E0.10091 ; perimeter
G1 X89.835 Y104.004 E0.10091 ; perimeter
G1 X90.607 Y105.114 E0.10091 ; perimeter
G1 X91.499 Y106.129 E0.10091 ; perimeter
G1 X92.499 Y107.036 E0.10091 ; perimeter
G1 X93.597 Y107.825 E0.10091 ; perimeter
G1 X93.835 Y107.958 E0.02040 ; perimeter
G1 X94.776 Y108.484 E0.08051 ; perimeter
G1 X96.022 Y109.006 E0.10091 ; perimeter
G1 X97.319 Y109.384 E0.10091 ; perimeter
G1 X98.651 Y109.612 E0.10091 ; perimeter
G1 X100.000 Y109.689 E0.10091 ; perimeter
G1 X101.349 Y109.612 E0.10091 ; perimeter
G1 X102.681 Y109.384 E0.10091 ; perimeter
G1 X103.978 Y109.006 E0.10091 ; perimeter
G1 X105.224 Y108.484 E0.10091 ; perimeter
G1 X106.165 Y107.958 E0.08051 ; perimeter
G1 X106.403 Y107.825 E0.02040 ; perimeter
G1 X107.501 Y107.036 E0.10091 ; perimeter
G1 X108.501 Y106.129 E0.10091 ; perimeter
G1 X109.393 Y105.114 E0.10091 ; perimeter
G1 X110.165 Y104.004 E0.10091 ; perimeter
G1 X110.806 Y102.815 E0.10091 ; perimeter
G1 X111.308 Y101.561 E0.10091 ; perimeter
G1 X111.666 Y100.258 E0.10091 ; perimeter
G1 X111.840 Y99.136 E0.08477 ; perimeter
G1 X111.873 Y98.923 E0.01614 ; perimeter
G1 X111.929 Y97.573 E0.10091 ; perimeter
G1 X111.831 Y96.225 E0.10091 ; perimeter
G1 X111.582 Y94.897 E0.10091 ; perimeter
G1 X111.184 Y93.606 E0.10091 ; perimeter
G1 X110.646 Y92.375 E0.10036 ; perimeter
G1 X110.328 Y91.809 E0.04846 ; perimeter
G1 X110.328 Y88.587 E0.24062 ; perimeter
G1 X113.672 Y88.587 E0.24967 ; perimeter
G1 X113.672 Y97.731 E0.68293 ; perimeter
G1 X113.608 Y99.058 E0.09920 ; perimeter
G1 X113.423 Y100.346 E0.09716 ; perimeter
G1 X113.116 Y101.610 E0.09716 ; perimeter
G1 X112.691 Y102.839 E0.09716 ; perimeter
G1 X112.151 Y104.023 E0.09716 ; perimeter
G1 X111.500 Y105.149 E0.09716 ; perimeter
G1 X110.746 Y106.209 E0.09716 ; perimeter
G1 X109.894 Y107.192 E0.09716 ; perimeter
G1 X108.952 Y108.090 E0.09716 ; perimeter
G1 X107.929 Y108.894 E0.09716 ; perimeter
G1 X106.835 Y109.597 E0.09716 ; perimeter
G1 X105.679 Y110.193 E0.09716 ; perimeter
G1 X104.471 Y110.677 E0.09716 ; perimeter
G1 X103.223 Y111.043 E0.09716 ; perimeter
G1 X101.945 Y111.290 E0.09716 ; perimeter
G1 X100.650 Y111.413 E0.09716 ; perimeter
G1 X99.350 Y111.413 E0.09716 ; perimeter
G1 X98.055 Y111.290 E0.09716 ; perimeter
G1 X96.777 Y111.043 E0.09716 ; perimeter
G1 X95.529 Y110.677 E0.09716 ; perimeter
G1 X94.321 Y110.193 E0.09716 ; perimeter
G1 X93.165 Y109.597 E0.09716 ; perimeter
G1 X92.071 Y108.894 E0.09716 ; perimeter
G1 X91.048 Y108.090 E0.09716 ; perimeter
G1 X90.106 Y107.192 E0.09716 ; perimeter
G1 X89.254 Y106.209 E0.09716 ; perimeter
G1 X88.955 Y105.788 E0.03856 ; perimeter
G1 X88.500 Y105.149 E0.05860 ; perimeter
G1 X87.849 Y104.023 E0.09716 ; perimeter
G1 X87.309 Y102.839 E0.09716 ; perimeter
G1 X86.884 Y101.610 E0.09716 ; perimeter
G1 X86.577 Y100.346 E0.09716 ; perimeter
G1 X86.392 Y99.058 E0.09716 ; perimeter
G1 X86.328 Y97.731 E0.09920 ; perimeter
G1 X86.328 Y88.699 E0.67455 ; perimeter
G1 F1800.000 E-2.40000 ; retract
G1 X89.139 Y89.140 F6000.000 ; move to first fill point
G1 E2.40000 F1800.000 ; compensate retraction
G1 X89.119 Y89.120 E0.00231 F900.000 ; fill
G1 X87.960 Y89.120 E0.09481 ; fill
G1 X89.139 Y90.299 E0.13640 ; fill
G1 X89.139 Y91.458 E0.09481 ; fill
G1 X86.861 Y89.180 E0.26346 ; fill
G1 X86.861 Y90.340 E0.09481 ; fill
G1 X88.810 Y92.289 E0.22545 ; fill
G1 X88.203 Y92.841 E0.06712 ; fill
G1 X86.861 Y91.499 E0.15524 ; fill
G1 X86.861 Y92.658 E0.09481 ; fill
G1 X87.853 Y93.650 E0.11474 ; fill
G1 X86.861 Y93.817 E0.08228 ; fill
G1 X87.580 Y94.536 E0.08316 ; fill
G1 X86.861 Y94.977 E0.06895 ; fill
G1 X86.883 Y94.998 E0.00253 ; fill
G1 X87.093 Y96.712 F6000.000 ; move to first fill point
G1 X87.349 Y96.968 E0.02710 F300.000 ; fill
G1 X87.096 Y97.777 E0.06348 F300.000 ; fill
G1 X87.324 Y98.005 E0.02417 F300.000 ; fill
G1 X87.149 Y98.892 E0.06770 F300.000 ; fill
G1 X87.385 Y99.128 E0.02502 F300.000 ; fill
G1 X87.317 Y100.121 E0.07458 F300.000 ; fill
G1 X87.581 Y100.385 E0.02798 F300.000 ; fill
G1 X87.665 Y101.531 E0.08608 F300.000 ; fill
G1 X87.985 Y101.851 E0.03387 F300.000 ; fill
G1 X88.349 Y103.277 E0.11026 F300.000 ; fill
G1 X88.839 Y103.767 E0.05191 F300.000 ; fill
G1 F1800.000 E-2.40000 ; retract
G1 X90.568 Y106.558 F6000.000 ; move to first fill point
G1 E2.40000 F1800.000 ; compensate retraction
G1 X90.965 Y106.954 E0.04198 F300.000 ; fill
G1 F1800.000 E-2.40000 ; retract
G1 X93.995 Y108.923 F6000.000 ; move to first fill point
G1 E2.40000 F1800.000 ; compensate retraction
G1 X94.495 Y109.423 E0.05295 F300.000 ; fill
G1 X95.900 Y109.767 E0.10835 F300.000 ; fill
G1 X96.216 Y110.082 E0.03340 F300.000 ; fill
G1 X97.362 Y110.166 E0.08609 F300.000 ; fill
G1 X97.624 Y110.428 E0.02772 F300.000 ; fill
G1 X98.634 Y110.377 E0.07578 F300.000 ; fill
G1 X98.855 Y110.598 E0.02346 F300.000 ; fill
G1 X99.759 Y110.441 E0.06874 F300.000 ; fill
G1 X99.968 Y110.649 E0.02207 F300.000 ; fill
G1 X100.790 Y110.410 E0.06415 F300.000 ; fill
G1 X100.993 Y110.613 E0.02153 F300.000 ; fill
G1 X101.759 Y110.317 E0.06152 F300.000 ; fill
G1 X101.952 Y110.510 E0.02041 F300.000 ; fill
G1 X102.666 Y110.162 E0.05947 F300.000 ; fill
G1 X102.842 Y110.338 E0.01871 F300.000 ; fill
G1 X103.505 Y109.940 E0.05795 F300.000 ; fill
G1 X103.679 Y110.113 E0.01836 F300.000 ; fill
G1 X104.319 Y109.692 E0.05742 F300.000 ; fill
G1 X104.478 Y109.851 E0.01685 F300.000 ; fill
G1 X105.067 Y109.378 E0.05658 F300.000 ; fill
G1 X105.236 Y109.547 E0.01789 F300.000 ; fill
G1 X105.793 Y109.042 E0.05630 F300.000 ; fill
G1 X105.946 Y109.196 E0.01628 F300.000 ; fill
G1 X106.473 Y108.661 E0.05624 F300.000 ; fill
G1 X106.632 Y108.819 E0.01677 F300.000 ; fill
G1 X107.123 Y108.249 E0.05639 F300.000 ; fill
G1 X107.278 Y108.404 E0.01645 F300.000 ; fill
G1 X107.740 Y107.805 E0.05670 F300.000 ; fill
G1 X107.889 Y107.953 E0.01574 F300.000 ; fill
G1 X108.481 Y107.483 E0.05660 F300.000 ; fill
G1 X108.321 Y107.324 E0.01690 F300.000 ; fill
G1 X108.878 Y106.819 E0.05630 F300.000 ; fill
G1 X109.024 Y106.965 E0.01549 F300.000 ; fill
G1 X109.546 Y106.426 E0.05624 F300.000 ; fill
G1 X109.393 Y106.272 E0.01627 F300.000 ; fill
G1 X109.889 Y105.707 E0.05635 F300.000 ; fill
G1 X110.039 Y105.857 E0.01588 F300.000 ; fill
G1 X110.492 Y105.248 E0.05684 F300.000 ; fill
G1 X110.338 Y105.094 E0.01629 F300.000 ; fill
G1 X110.924 Y104.618 E0.05654 F300.000 ; fill
G1 X110.773 Y104.468 E0.01596 F300.000 ; fill
G1 X111.313 Y103.945 E0.05624 F300.000 ; fill
G1 X111.152 Y103.784 E0.01707 F300.000 ; fill
G1 X111.668 Y103.239 E0.05626 F300.000 ; fill
G1 X111.519 Y103.090 E0.01581 F300.000 ; fill
G1 X111.997 Y102.507 E0.05651 F300.000 ; fill
G1 X111.823 Y102.332 E0.01851 F300.000 ; fill
G1 X112.270 Y101.718 E0.05692 F300.000 ; fill
G1 X112.103 Y101.551 E0.01769 F300.000 ; fill
G1 X112.505 Y100.890 E0.05789 F300.000 ; fill
G1 X112.332 Y100.718 E0.01829 F300.000 ; fill
G1 X112.698 Y100.022 E0.05889 F300.000 ; fill
G1 X112.506 Y99.830 E0.02033 F300.000 ; fill
G1 X112.831 Y99.093 E0.06030 F300.000 ; fill
G1 X112.639 Y98.902 E0.02033 F300.000 ; fill
G1 X112.889 Y98.090 E0.06361 F300.000 ; fill
G1 X112.681 Y97.882 E0.02206 F300.000 ; fill
G1 X112.907 Y97.046 E0.06484 F300.000 ; fill
G1 X112.638 Y96.777 E0.02857 F300.000 ; fill
G1 X112.907 Y95.985 E0.06267 F300.000 ; fill
G1 X112.888 Y95.966 E0.00199 F300.000 ; fill
G1 X112.603 Y95.076 F6000.000 ; move to first fill point
G1 X112.579 Y95.052 E0.00257 F900.000 ; fill
G1 X113.139 Y94.533 E0.05810 ; fill
G1 X111.419 Y92.814 E0.18509 ; fill
G1 X110.861 Y91.177 F6000.000 ; move to first fill point
G1 X113.139 Y93.455 E0.24517 F900.000 ; fill
G1 X113.139 Y92.376 E0.08210 ; fill
G1 X110.861 Y90.098 E0.24517 ; fill
G1 X110.961 Y89.120 E0.07486 ; fill
G1 X113.139 Y91.297 E0.23438 ; fill
G1 X113.139 Y90.218 E0.08210 ; fill
G1 X112.040 Y89.120 E0.11826 ; fill
G1 X113.119 Y89.120 E0.08210 ; fill
G1 X113.139 Y89.140 E0.00215 ; fill
M104 S190 ; set temperature
G1 F1800.000 E-2.40000 ; retract
G1 Z0.480 F6000.000 ; move to next layer (1)
G1 X114.750 Y87.508 F6000.000 ; move to first perimeter point
G1 E2.40000 F1800.000 ; compensate retraction
G1 X114.750 Y97.759 E0.51139 F1800 ; perimeter
G1 X114.683 Y99.162 E0.07009 ; perimeter
G1 X114.483 Y100.554 E0.07017 ; perimeter
G1 X114.153 Y101.913 E0.06978 ; perimeter
