; generated by Slic3r 1.0.1 on 2014-07-04 at 19:05:14

; layer_height = 0.24
; perimeters = 2
; top_solid_layers = 3
; bottom_solid_layers = 3
; fill_density = 0.25
; perimeter_speed = 30
; infill_speed = 30
; travel_speed = 100
; nozzle_diameter = 0.5
; filament_diameter = 1.75
; extrusion_multiplier = 1
; perimeters extrusion width = 0.50mm
; infill extrusion width = 0.50mm
; solid infill extrusion width = 0.50mm
; top infill extrusion width = 0.50mm
; first layer extrusion width = 0.80mm

G21 ; set units to millimeters
M107 ; disable fan
M190 S57 ; wait for bed temperature to be reached
M104 S200 ; set temperature

M109 S200 ; wait for temperature to be reached
G90 ; use absolute coordinates
M83 ; use relative distances for extrusion
G1 F1800.000 E-2.40000 ; retract
G1 Z0.240 F6000.000 ; move to next layer (0)
G1 X77.326 Y86.572 F6000.000 ; move to first skirt point
G1 E2.40000 F1800.000 ; compensate retraction
G1 X78.316 Y85.822 E0.09276 F900.000 ; skirt
G1 X79.456 Y85.342 E0.09238 ; skirt
G1 X80.686 Y85.182 E0.09264 ; skirt
G1 X110.816 Y85.182 E2.25026 ; skirt
G1 X111.886 Y85.302 E0.08041 ; skirt
G1 X112.896 Y85.662 E0.08008 ; skirt
G1 X113.796 Y86.242 E0.07997 ; skirt
G1 X114.556 Y87.002 E0.08027 ; skirt
G1 X121.936 Y96.412 E0.89314 ; skirt
G1 X122.636 Y97.352 E0.08753 ; skirt
G1 X122.846 Y97.712 E0.03113 ; skirt
G1 X123.176 Y98.342 E0.05312 ; skirt
G1 X123.466 Y99.022 E0.05521 ; skirt
G1 X123.696 Y99.702 E0.05361 ; skirt
G1 X123.886 Y100.492 E0.06068 ; skirt
G1 X123.996 Y101.202 E0.05366 ; skirt
G1 X124.056 Y101.932 E0.05470 ; skirt
G1 X124.036 Y103.092 E0.08665 ; skirt
G1 X123.976 Y103.522 E0.03243 ; skirt
G1 X123.846 Y104.222 E0.05317 ; skirt
G1 X123.656 Y104.932 E0.05489 ; skirt
G1 X123.416 Y105.612 E0.05386 ; skirt
G1 X123.086 Y106.342 E0.05983 ; skirt
G1 X122.736 Y106.972 E0.05383 ; skirt
G1 X122.516 Y107.322 E0.03087 ; skirt
G1 X122.276 Y107.652 E0.03047 ; skirt
G1 X121.846 Y108.182 E0.05097 ; skirt
G1 X121.356 Y108.702 E0.05336 ; skirt
G1 X120.476 Y109.482 E0.08782 ; skirt
G1 X119.536 Y110.092 E0.08369 ; skirt
G1 X118.826 Y110.462 E0.05979 ; skirt
G1 X118.156 Y110.742 E0.05423 ; skirt
G1 X117.386 Y110.992 E0.06046 ; skirt
G1 X116.686 Y111.152 E0.05363 ; skirt
G1 X116.266 Y111.232 E0.03193 ; skirt
G1 X90.836 Y114.682 E1.91664 ; skirt
G1 X89.696 Y114.792 E0.08554 ; skirt
G1 X89.096 Y114.812 E0.04484 ; skirt
G1 X88.146 Y114.782 E0.07099 ; skirt
G1 X87.606 Y114.732 E0.04050 ; skirt
G1 X86.656 Y114.592 E0.07172 ; skirt
G1 X86.046 Y114.462 E0.04658 ; skirt
G1 X85.136 Y114.202 E0.07068 ; skirt
G1 X84.596 Y114.012 E0.04275 ; skirt
G1 X83.716 Y113.642 E0.07130 ; skirt
G1 X83.216 Y113.392 E0.04175 ; skirt
G1 X82.386 Y112.922 E0.07124 ; skirt
G1 X81.906 Y112.612 E0.04268 ; skirt
G1 X81.146 Y112.052 E0.07051 ; skirt
G1 X80.686 Y111.662 E0.04504 ; skirt
G1 X79.996 Y111.002 E0.07131 ; skirt
G1 X79.616 Y110.592 E0.04175 ; skirt
G1 X79.006 Y109.852 E0.07162 ; skirt
G1 X78.666 Y109.382 E0.04332 ; skirt
G1 X78.006 Y108.342 E0.09199 ; skirt
G1 X77.066 Y106.652 E0.14443 ; skirt
G1 X76.856 Y106.232 E0.03507 ; skirt
G1 X76.566 Y105.562 E0.05453 ; skirt
G1 X76.326 Y104.852 E0.05597 ; skirt
G1 X76.146 Y104.152 E0.05398 ; skirt
G1 X76.016 Y103.362 E0.05979 ; skirt
G1 X75.936 Y102.242 E0.08386 ; skirt
G1 X75.936 Y89.932 E0.91937 ; skirt
G1 X76.096 Y88.702 E0.09264 ; skirt
G1 X76.576 Y87.562 E0.09238 ; skirt
G1 X77.258 Y86.661 E0.08437 ; skirt
G1 F1800.000 E-2.40000 ; retract
G1 X81.086 Y90.332 F6000.000 ; move to first perimeter point
G1 E2.40000 F1800.000 ; compensate retraction
G1 X85.512 Y90.332 E0.33054 F900.000 ; perimeter
G1 X87.322 Y97.782 E0.57261 ; perimeter
G1 X88.111 Y98.311 E0.07093 ; perimeter
G1 X88.673 Y98.828 E0.05704 ; perimeter
G1 X89.150 Y99.425 E0.05703 ; perimeter
G1 X89.531 Y100.087 E0.05705 ; perimeter
G1 X89.808 Y100.798 E0.05703 ; perimeter
G1 X89.973 Y101.544 E0.05704 ; perimeter
G1 X90.022 Y102.307 E0.05708 ; perimeter
G1 X89.956 Y103.067 E0.05701 ; perimeter
G1 X89.775 Y103.809 E0.05706 ; perimeter
G1 X89.484 Y104.514 E0.05696 ; perimeter
G1 X89.088 Y105.168 E0.05711 ; perimeter
G1 X88.598 Y105.754 E0.05703 ; perimeter
G1 X87.972 Y106.305 E0.06224 ; perimeter
G1 X87.824 Y106.499 E0.01829 ; perimeter
G1 X87.713 Y106.711 E0.01788 ; perimeter
G1 X87.640 Y106.939 E0.01788 ; perimeter
G1 X87.607 Y107.176 E0.01788 ; perimeter
G1 X87.614 Y107.416 E0.01788 ; perimeter
G1 X87.662 Y107.650 E0.01788 ; perimeter
G1 X87.750 Y107.873 E0.01788 ; perimeter
G1 X87.874 Y108.078 E0.01788 ; perimeter
G1 X88.031 Y108.258 E0.01788 ; perimeter
G1 X88.216 Y108.410 E0.01788 ; perimeter
G1 X88.425 Y108.527 E0.01788 ; perimeter
G1 X88.650 Y108.608 E0.01787 ; perimeter
G1 X88.886 Y108.648 E0.01788 ; perimeter
G1 X89.126 Y108.648 E0.01788 ; perimeter
G1 X89.362 Y108.608 E0.01788 ; perimeter
G1 X89.587 Y108.527 E0.01788 ; perimeter
G1 X89.796 Y108.410 E0.01788 ; perimeter
G1 X89.981 Y108.258 E0.01788 ; perimeter
G1 X90.138 Y108.078 E0.01788 ; perimeter
G1 X90.262 Y107.873 E0.01788 ; perimeter
G1 X90.350 Y107.650 E0.01788 ; perimeter
G1 X90.398 Y107.416 E0.01788 ; perimeter
G1 X90.405 Y107.176 E0.01788 ; perimeter
G1 X90.372 Y106.939 E0.01788 ; perimeter
G1 X90.256 Y106.578 E0.02831 ; perimeter
G1 X90.639 Y106.095 E0.04601 ; perimeter
G1 X91.129 Y105.255 E0.07264 ; perimeter
G1 X91.491 Y104.362 E0.07202 ; perimeter
G1 X91.721 Y103.439 E0.07101 ; perimeter
G1 X91.821 Y102.481 E0.07195 ; perimeter
G1 X91.785 Y101.527 E0.07132 ; perimeter
G1 X91.620 Y100.601 E0.07026 ; perimeter
G1 X91.313 Y99.659 E0.07401 ; perimeter
G1 X90.877 Y98.785 E0.07292 ; perimeter
G1 X90.353 Y98.022 E0.06914 ; perimeter
G1 X89.407 Y96.981 E0.10501 ; perimeter
G1 X89.179 Y96.625 E0.03157 ; perimeter
G1 X89.012 Y96.237 E0.03157 ; perimeter
G1 X88.910 Y95.827 E0.03154 ; perimeter
G1 X88.874 Y95.390 E0.03277 ; perimeter
G1 X88.874 Y90.332 E0.37777 ; perimeter
G1 X91.926 Y90.332 E0.22792 ; perimeter
G1 X91.926 Y96.040 E0.42632 ; perimeter
G1 X107.586 Y96.040 E1.16957 ; perimeter
G1 X107.586 Y90.332 E0.42632 ; perimeter
G1 X110.426 Y90.332 E0.21211 ; perimeter
G1 X110.426 Y98.332 E0.59748 ; perimeter
G1 X114.989 Y98.332 E0.34081 ; perimeter
G1 X115.655 Y98.387 E0.04990 ; perimeter
G1 X116.286 Y98.548 E0.04865 ; perimeter
G1 X116.882 Y98.812 E0.04865 ; perimeter
G1 X117.426 Y99.170 E0.04865 ; perimeter
G1 X117.903 Y99.613 E0.04865 ; perimeter
G1 X118.300 Y100.130 E0.04865 ; perimeter
G1 X118.606 Y100.705 E0.04865 ; perimeter
G1 X118.813 Y101.323 E0.04865 ; perimeter
G1 X118.914 Y101.966 E0.04865 ; perimeter
G1 X118.908 Y102.618 E0.04865 ; perimeter
G1 X118.793 Y103.259 E0.04865 ; perimeter
G1 X118.574 Y103.872 E0.04865 ; perimeter
G1 X118.256 Y104.441 E0.04865 ; perimeter
G1 X117.849 Y104.949 E0.04865 ; perimeter
G1 X117.363 Y105.383 E0.04865 ; perimeter
G1 X116.811 Y105.730 E0.04865 ; perimeter
G1 X116.210 Y105.981 E0.04865 ; perimeter
G1 X115.576 Y106.129 E0.04865 ; perimeter
G1 X114.923 Y106.170 E0.04884 ; perimeter
G1 X114.317 Y106.113 E0.04550 ; perimeter
G1 X102.423 Y106.113 E0.88830 ; perimeter
G1 X100.974 Y106.167 E0.10824 ; perimeter
G1 X99.527 Y106.329 E0.10879 ; perimeter
G1 X98.095 Y106.597 E0.10879 ; perimeter
G1 X96.687 Y106.970 E0.10879 ; perimeter
G1 X95.310 Y107.446 E0.10879 ; perimeter
G1 X93.973 Y108.023 E0.10879 ; perimeter
G1 X92.699 Y108.688 E0.10733 ; perimeter
G1 X91.871 Y109.096 E0.06893 ; perimeter
G1 X91.018 Y109.393 E0.06746 ; perimeter
G1 X90.135 Y109.585 E0.06746 ; perimeter
G1 X89.236 Y109.668 E0.06746 ; perimeter
G1 X88.333 Y109.641 E0.06746 ; perimeter
G1 X87.440 Y109.504 E0.06746 ; perimeter
G1 X86.570 Y109.260 E0.06746 ; perimeter
G1 X85.737 Y108.912 E0.06746 ; perimeter
G1 X84.952 Y108.465 E0.06746 ; perimeter
G1 X84.227 Y107.927 E0.06746 ; perimeter
G1 X83.572 Y107.304 E0.06746 ; perimeter
G1 X82.999 Y106.606 E0.06746 ; perimeter
G1 X82.508 Y105.833 E0.06837 ; perimeter
G1 X81.584 Y104.164 E0.14246 ; perimeter
G1 X81.308 Y103.547 E0.05050 ; perimeter
G1 X81.143 Y102.909 E0.04924 ; perimeter
G1 X81.086 Y102.235 E0.05050 ; perimeter
G1 X81.086 Y90.444 E0.88060 ; perimeter
G1 X81.734 Y90.706 F6000.000 ; move inwards before travel
G1 F1800.000 E-2.40000 ; retract
G1 X89.623 Y91.080 F6000.000 ; move to first perimeter point
G1 E2.40000 F1800.000 ; compensate retraction
G1 X91.177 Y91.080 E0.11612 F900.000 ; perimeter
G1 X91.177 Y96.789 E0.42632 ; perimeter
G1 X108.334 Y96.789 E1.28137 ; perimeter
G1 X108.334 Y91.080 E0.42632 ; perimeter
G1 X109.677 Y91.080 E0.10030 ; perimeter
G1 X109.677 Y99.080 E0.59748 ; perimeter
G1 X114.343 Y99.080 E0.34842 ; perimeter
G1 X114.416 Y99.413 E0.02544 ; perimeter
G1 X113.589 Y99.799 E0.06814 ; perimeter
G1 X113.185 Y100.082 E0.03687 ; perimeter
G1 X112.836 Y100.431 E0.03689 ; perimeter
G1 X112.553 Y100.835 E0.03688 ; perimeter
G1 X112.344 Y101.283 E0.03688 ; perimeter
G1 X112.216 Y101.760 E0.03688 ; perimeter
G1 X112.173 Y102.252 E0.03688 ; perimeter
G1 X112.216 Y102.744 E0.03688 ; perimeter
G1 X112.344 Y103.221 E0.03688 ; perimeter
G1 X112.553 Y103.668 E0.03688 ; perimeter
G1 X112.836 Y104.073 E0.03688 ; perimeter
G1 X113.185 Y104.422 E0.03688 ; perimeter
G1 X114.234 Y105.156 E0.09562 ; perimeter
G1 X114.168 Y105.365 E0.01634 ; perimeter
G1 X102.409 Y105.365 E0.87824 ; perimeter
G1 X100.919 Y105.420 E0.11134 ; perimeter
G1 X99.416 Y105.588 E0.11293 ; perimeter
G1 X97.930 Y105.866 E0.11293 ; perimeter
G1 X97.342 Y106.022 E0.04541 ; perimeter
G1 X96.468 Y106.253 E0.06752 ; perimeter
G1 X95.039 Y106.748 E0.11293 ; perimeter
G1 X93.651 Y107.347 E0.11294 ; perimeter
G1 X92.360 Y108.021 E0.10873 ; perimeter
G1 X91.581 Y108.404 E0.06485 ; perimeter
G1 X90.744 Y108.696 E0.06625 ; perimeter
G1 X91.070 Y107.864 E0.06678 ; perimeter
G1 X91.144 Y107.504 E0.02746 ; perimeter
G1 X91.156 Y107.136 E0.02746 ; perimeter
G1 X91.097 Y106.722 E0.03125 ; perimeter
G1 X91.258 Y106.519 E0.01932 ; perimeter
G1 X91.809 Y105.574 E0.08171 ; perimeter
G1 X92.211 Y104.579 E0.08015 ; perimeter
G1 X92.459 Y103.571 E0.07749 ; perimeter
G1 X92.471 Y103.465 E0.00798 ; perimeter
G1 X92.571 Y102.506 E0.07201 ; perimeter
G1 X92.535 Y101.519 E0.07381 ; perimeter
G1 X92.319 Y100.315 E0.09133 ; perimeter
G1 X92.007 Y99.373 E0.07408 ; perimeter
G1 X91.560 Y98.473 E0.07511 ; perimeter
G1 X90.903 Y97.510 E0.08700 ; perimeter
G1 X90.005 Y96.526 E0.09953 ; perimeter
G1 X89.842 Y96.273 E0.02245 ; perimeter
G1 X89.723 Y95.997 E0.02245 ; perimeter
G1 X89.651 Y95.706 E0.02242 ; perimeter
G1 X89.623 Y95.360 E0.02593 ; perimeter
G1 X89.623 Y91.193 E0.31121 ; perimeter
G1 F1800.000 E-2.40000 ; retract
G1 X84.923 Y91.080 F6000.000 ; move to first perimeter point
G1 E2.40000 F1800.000 ; compensate retraction
G1 X86.664 Y98.241 E0.55039 F900.000 ; perimeter
G1 X87.646 Y98.901 E0.08839 ; perimeter
G1 X88.124 Y99.341 E0.04850 ; perimeter
G1 X88.530 Y99.848 E0.04850 ; perimeter
G1 X88.854 Y100.411 E0.04852 ; perimeter
G1 X89.089 Y101.016 E0.04849 ; perimeter
G1 X89.229 Y101.650 E0.04850 ; perimeter
G1 X89.272 Y102.299 E0.04854 ; perimeter
G1 X89.215 Y102.945 E0.04847 ; perimeter
G1 X89.061 Y103.576 E0.04853 ; perimeter
G1 X88.814 Y104.176 E0.04842 ; perimeter
G1 X88.477 Y104.732 E0.04857 ; perimeter
G1 X88.061 Y105.230 E0.04849 ; perimeter
G1 X87.423 Y105.791 E0.06344 ; perimeter
G1 X87.190 Y106.096 E0.02864 ; perimeter
G1 X87.020 Y106.422 E0.02746 ; perimeter
G1 X86.908 Y106.772 E0.02746 ; perimeter
G1 X86.856 Y107.136 E0.02746 ; perimeter
G1 X86.868 Y107.504 E0.02746 ; perimeter
G1 X86.942 Y107.864 E0.02746 ; perimeter
G1 X87.289 Y108.749 E0.07102 ; perimeter
G1 X86.067 Y108.239 E0.09891 ; perimeter
G1 X85.361 Y107.837 E0.06064 ; perimeter
G1 X84.710 Y107.353 E0.06064 ; perimeter
G1 X84.122 Y106.793 E0.06064 ; perimeter
G1 X83.606 Y106.166 E0.06064 ; perimeter
G1 X83.151 Y105.451 E0.06326 ; perimeter
G1 X82.552 Y104.368 E0.09249 ; perimeter
G1 X82.795 Y104.149 E0.02442 ; perimeter
G1 X83.590 Y104.705 E0.07244 ; perimeter
G1 X84.037 Y104.914 E0.03688 ; perimeter
G1 X84.514 Y105.042 E0.03688 ; perimeter
G1 X85.006 Y105.085 E0.03688 ; perimeter
G1 X85.498 Y105.042 E0.03688 ; perimeter
G1 X85.975 Y104.914 E0.03688 ; perimeter
G1 X86.422 Y104.705 E0.03688 ; perimeter
G1 X86.827 Y104.422 E0.03688 ; perimeter
G1 X87.176 Y104.073 E0.03688 ; perimeter
G1 X87.459 Y103.668 E0.03688 ; perimeter
G1 X87.668 Y103.221 E0.03688 ; perimeter
G1 X87.796 Y102.744 E0.03688 ; perimeter
G1 X87.839 Y102.252 E0.03688 ; perimeter
G1 X87.796 Y101.760 E0.03688 ; perimeter
G1 X87.668 Y101.283 E0.03688 ; perimeter
G1 X87.459 Y100.835 E0.03688 ; perimeter
G1 X87.176 Y100.431 E0.03688 ; perimeter
G1 X86.827 Y100.082 E0.03688 ; perimeter
G1 X86.659 Y99.964 E0.01532 ; perimeter
G1 X86.422 Y99.799 E0.02157 ; perimeter
G1 X85.975 Y99.590 E0.03687 ; perimeter
G1 X85.498 Y99.462 E0.03688 ; perimeter
G1 X85.006 Y99.419 E0.03688 ; perimeter
G1 X84.514 Y99.462 E0.03688 ; perimeter
G1 X84.037 Y99.590 E0.03688 ; perimeter
G1 X83.851 Y99.677 E0.01532 ; perimeter
G1 X83.590 Y99.799 E0.02157 ; perimeter
G1 X83.185 Y100.082 E0.03688 ; perimeter
G1 X82.836 Y100.431 E0.03688 ; perimeter
G1 X82.553 Y100.835 E0.03688 ; perimeter
G1 X82.167 Y101.662 E0.06813 ; perimeter
G1 X81.834 Y101.589 E0.02544 ; perimeter
G1 X81.834 Y91.080 E0.78480 ; perimeter
G1 X84.811 Y91.080 E0.22231 ; perimeter
G1 F1800.000 E-2.40000 ; retract
G1 X85.006 Y100.170 F6000.000 ; move to first perimeter point
G1 E2.40000 F1800.000 ; compensate retraction
G1 X85.367 Y100.202 E0.02710 F780.000 ; perimeter
G1 X85.718 Y100.296 E0.02710 ; perimeter
G1 X86.047 Y100.449 E0.02710 ; perimeter
G1 X86.230 Y100.577 E0.01667 ; perimeter
G1 X86.344 Y100.657 E0.01042 ; perimeter
G1 X86.601 Y100.914 E0.02710 ; perimeter
G1 X86.809 Y101.211 E0.02710 ; perimeter
G1 X86.962 Y101.540 E0.02710 ; perimeter
G1 X87.056 Y101.890 E0.02710 ; perimeter
G1 X87.088 Y102.252 E0.02710 ; perimeter
G1 X87.056 Y102.613 E0.02710 ; perimeter
G1 X86.962 Y102.964 E0.02710 ; perimeter
G1 X86.809 Y103.293 E0.02710 ; perimeter
G1 X86.601 Y103.590 E0.02710 ; perimeter
G1 X86.344 Y103.846 E0.02710 ; perimeter
G1 X86.047 Y104.055 E0.02710 ; perimeter
G1 X85.718 Y104.208 E0.02710 ; perimeter
G1 X85.367 Y104.302 E0.02710 ; perimeter
G1 X85.006 Y104.333 E0.02710 ; perimeter
G1 X84.645 Y104.302 E0.02710 ; perimeter
G1 X84.294 Y104.208 E0.02710 ; perimeter
G1 X83.965 Y104.055 E0.02710 ; perimeter
G1 X83.668 Y103.846 E0.02710 ; perimeter
G1 X83.510 Y103.689 E0.01668 ; perimeter
G1 X83.411 Y103.590 E0.01043 ; perimeter
G1 X83.203 Y103.293 E0.02710 ; perimeter
G1 X83.050 Y102.964 E0.02710 ; perimeter
G1 X82.956 Y102.613 E0.02710 ; perimeter
G1 X82.924 Y102.252 E0.02710 ; perimeter
G1 X82.956 Y101.890 E0.02710 ; perimeter
G1 X83.050 Y101.540 E0.02710 ; perimeter
G1 X83.203 Y101.211 E0.02710 ; perimeter
G1 X83.411 Y100.914 E0.02710 ; perimeter
G1 X83.668 Y100.657 E0.02710 ; perimeter
G1 X83.965 Y100.449 E0.02710 ; perimeter
G1 X84.294 Y100.296 E0.02710 ; perimeter
G1 X84.645 Y100.202 E0.02710 ; perimeter
G1 X84.894 Y100.180 E0.01871 ; perimeter
G1 X85.196 Y99.862 F6000.000 ; move inwards before travel
G1 F1800.000 E-2.40000 ; retract
G1 X112.924 Y102.252 F6000.000 ; move to first perimeter point
G1 E2.40000 F1800.000 ; compensate retraction
G1 X112.956 Y101.890 E0.02710 F780.000 ; perimeter
G1 X113.050 Y101.540 E0.02710 ; perimeter
G1 X113.203 Y101.211 E0.02710 ; perimeter
G1 X113.411 Y100.914 E0.02710 ; perimeter
G1 X113.569 Y100.756 E0.01668 ; perimeter
G1 X113.668 Y100.657 E0.01043 ; perimeter
G1 X113.965 Y100.449 E0.02709 ; perimeter
G1 X114.294 Y100.296 E0.02710 ; perimeter
G1 X114.645 Y100.202 E0.02710 ; perimeter
G1 X115.006 Y100.170 E0.02710 ; perimeter
G1 X115.367 Y100.202 E0.02710 ; perimeter
G1 X115.718 Y100.296 E0.02710 ; perimeter
G1 X116.047 Y100.449 E0.02710 ; perimeter
G1 X116.230 Y100.577 E0.01667 ; perimeter
G1 X116.344 Y100.657 E0.01042 ; perimeter
G1 X116.601 Y100.914 E0.02710 ; perimeter
G1 X116.809 Y101.211 E0.02710 ; perimeter
G1 X116.962 Y101.540 E0.02710 ; perimeter
G1 X117.056 Y101.890 E0.02710 ; perimeter
G1 X117.088 Y102.252 E0.02710 ; perimeter
G1 X117.056 Y102.613 E0.02710 ; perimeter
G1 X116.962 Y102.964 E0.02710 ; perimeter
