; generated by Slic3r 1.0.1 on 2014-07-18 at 23:26:20

; layer_height = 0.24
; perimeters = 2
; top_solid_layers = 3
; bottom_solid_layers = 3
; fill_density = 0.25
; perimeter_speed = 30
; infill_speed = 30
; travel_speed = 100
; nozzle_diameter = 0.5
; filament_diameter = 1.75
; extrusion_multiplier = 1
; perimeters extrusion width = 0.50mm
; infill extrusion width = 0.50mm
; solid infill extrusion width = 0.50mm
; top infill extrusion width = 0.50mm
; support material extrusion width = 0.50mm
; first layer extrusion width = 0.80mm

G21 ; set units to millimeters
M107 ; disable fan
M190 S57 ; wait for bed temperature to be reached
M104 S200 ; set temperature

M109 S200 ; wait for temperature to be reached
G90 ; use absolute coordinates
M83 ; use relative distances for extrusion
G1 F1800.000 E-2.40000 ; retract
G1 Z0.240 F6000.000 ; move to next layer (0)
G1 X91.050 Y59.880 F6000.000 ; move to first skirt point
G1 E2.40000 F1800.000 ; compensate retraction
G1 X91.430 Y59.430 E0.04399 F900.000 ; skirt
G1 X92.850 Y57.940 E0.15372 ; skirt
G1 X93.470 Y57.400 E0.06141 ; skirt
G1 X94.180 Y56.970 E0.06199 ; skirt
G1 X97.180 Y55.480 E0.25017 ; skirt
G1 X98.210 Y55.110 E0.08174 ; skirt
G1 X99.290 Y54.980 E0.08124 ; skirt
G1 X108.110 Y54.980 E0.65872 ; skirt
G1 X109.190 Y55.110 E0.08124 ; skirt
G1 X110.220 Y55.480 E0.08174 ; skirt
G1 X113.220 Y56.970 E0.25017 ; skirt
G1 X113.930 Y57.400 E0.06199 ; skirt
G1 X114.550 Y57.940 E0.06141 ; skirt
G1 X115.970 Y59.430 E0.15372 ; skirt
G1 X116.360 Y59.910 E0.04619 ; skirt
G1 X116.700 Y60.430 E0.04640 ; skirt
G1 X117.520 Y61.930 E0.12767 ; skirt
G1 X117.680 Y62.260 E0.02739 ; skirt
G1 X139.420 Y110.630 E3.96063 ; skirt
G1 X139.660 Y111.290 E0.05245 ; skirt
G1 X140.200 Y113.200 E0.14824 ; skirt
G1 X140.290 Y113.600 E0.03062 ; skirt
G1 X140.350 Y114.010 E0.03095 ; skirt
G1 X142.220 Y132.590 E1.39466 ; skirt
G1 X142.250 Y133.070 E0.03592 ; skirt
G1 X142.250 Y136.070 E0.22406 ; skirt
G1 X142.090 Y137.300 E0.09264 ; skirt
G1 X141.610 Y138.440 E0.09238 ; skirt
G1 X140.860 Y139.430 E0.09276 ; skirt
G1 X139.870 Y140.180 E0.09276 ; skirt
G1 X138.730 Y140.660 E0.09238 ; skirt
G1 X137.500 Y140.820 E0.09264 ; skirt
G1 X136.230 Y140.820 E0.09485 ; skirt
G1 X135.820 Y140.800 E0.03066 ; skirt
G1 X63.760 Y134.520 E5.40221 ; skirt
G1 X62.610 Y134.280 E0.08774 ; skirt
G1 X61.560 Y133.760 E0.08751 ; skirt
G1 X60.670 Y133.000 E0.08741 ; skirt
G1 X59.990 Y132.040 E0.08786 ; skirt
G1 X59.570 Y130.950 E0.08724 ; skirt
G1 X59.420 Y129.790 E0.08736 ; skirt
G1 X59.420 Y104.150 E1.91493 ; skirt
G1 X59.660 Y102.660 E0.11272 ; skirt
G1 X60.350 Y101.320 E0.11257 ; skirt
G1 X90.983 Y59.970 E3.84335 ; skirt
G1 F1800.000 E-2.40000 ; retract
G1 X95.422 Y85.416 F6000.000 ; move to first perimeter point
G1 E2.40000 F1800.000 ; compensate retraction
G1 X97.310 Y86.250 E0.15414 F900.000 ; perimeter
G1 X98.785 Y86.744 E0.11621 ; perimeter
G1 X100.300 Y87.100 E0.11621 ; perimeter
G1 X101.841 Y87.315 E0.11621 ; perimeter
G1 X103.395 Y87.387 E0.11621 ; perimeter
G1 X104.950 Y87.315 E0.11621 ; perimeter
G1 X106.491 Y87.100 E0.11621 ; perimeter
G1 X108.006 Y86.744 E0.11621 ; perimeter
G1 X109.481 Y86.250 E0.11621 ; perimeter
G1 X110.904 Y85.621 E0.11621 ; perimeter
G1 X111.990 Y85.016 E0.09280 ; perimeter
G1 X111.990 Y104.755 E1.47417 ; perimeter
G1 X125.983 Y106.106 E1.04996 ; perimeter
G1 X127.885 Y106.469 E0.14459 ; perimeter
G1 X129.671 Y107.167 E0.14321 ; perimeter
G1 X130.643 Y107.773 E0.08549 ; perimeter
G1 X131.299 Y108.181 E0.05772 ; perimeter
G1 X132.713 Y109.476 E0.14321 ; perimeter
G1 X133.866 Y111.008 E0.14321 ; perimeter
G1 X134.375 Y112.034 E0.08549 ; perimeter
G1 X134.718 Y112.726 E0.05772 ; perimeter
G1 X135.242 Y114.571 E0.14321 ; perimeter
G1 X135.420 Y116.498 E0.14459 ; perimeter
G1 X135.420 Y130.969 E1.08074 ; perimeter
G1 X125.980 Y130.969 E0.70503 ; perimeter
G1 X125.980 Y119.913 E0.82570 ; perimeter
G1 X126.714 Y119.617 E0.05910 ; perimeter
G1 X127.062 Y119.397 E0.03075 ; perimeter
G1 X127.606 Y118.917 E0.05423 ; perimeter
G1 X127.877 Y118.607 E0.03075 ; perimeter
G1 X128.231 Y117.973 E0.05423 ; perimeter
G1 X128.403 Y117.598 E0.03076 ; perimeter
G1 X128.585 Y116.474 E0.08509 ; perimeter
G1 X128.370 Y115.253 E0.09254 ; perimeter
G1 X127.747 Y114.175 E0.09302 ; perimeter
G1 X126.793 Y113.374 E0.09302 ; perimeter
G1 X125.623 Y112.948 E0.09302 ; perimeter
G1 X124.377 Y112.948 E0.09302 ; perimeter
G1 X123.207 Y113.374 E0.09302 ; perimeter
G1 X122.253 Y114.175 E0.09302 ; perimeter
G1 X121.630 Y115.253 E0.09302 ; perimeter
G1 X121.415 Y116.474 E0.09254 ; perimeter
G1 X121.597 Y117.598 E0.08509 ; perimeter
G1 X121.769 Y117.973 E0.03076 ; perimeter
G1 X122.123 Y118.607 E0.05423 ; perimeter
G1 X122.394 Y118.917 E0.03075 ; perimeter
G1 X122.938 Y119.397 E0.05423 ; perimeter
G1 X123.286 Y119.617 E0.03075 ; perimeter
G1 X124.020 Y119.913 E0.05910 ; perimeter
G1 X124.020 Y130.970 E0.82578 ; perimeter
G1 X116.687 Y130.992 E0.54764 ; perimeter
G1 X98.900 Y130.653 E1.32870 ; perimeter
G1 X98.900 Y129.400 E0.09355 ; perimeter
G1 X64.580 Y129.400 E2.56320 ; perimeter
G1 X64.580 Y104.560 E1.85518 ; perimeter
G1 X95.422 Y104.560 E2.30344 ; perimeter
G1 X95.422 Y85.528 E1.42139 ; perimeter
G1 X95.943 Y85.953 F6000.000 ; move inwards before travel
G1 X96.170 Y86.565 F6000.000 ; move to first perimeter point
G1 X97.039 Y86.948 E0.07093 F900.000 ; perimeter
G1 X98.580 Y87.465 E0.12138 ; perimeter
G1 X100.162 Y87.837 E0.12138 ; perimeter
G1 X101.772 Y88.061 E0.12138 ; perimeter
G1 X103.395 Y88.136 E0.12138 ; perimeter
G1 X105.019 Y88.061 E0.12138 ; perimeter
G1 X106.629 Y87.837 E0.12138 ; perimeter
G1 X108.211 Y87.465 E0.12138 ; perimeter
G1 X109.752 Y86.948 E0.12138 ; perimeter
G1 X111.242 Y86.290 E0.12163 ; perimeter
G1 X111.242 Y105.435 E1.42978 ; perimeter
G1 X125.877 Y106.848 E1.09815 ; perimeter
G1 X127.677 Y107.191 E0.13685 ; perimeter
G1 X129.334 Y107.839 E0.13288 ; perimeter
G1 X130.247 Y108.408 E0.08032 ; perimeter
G1 X130.844 Y108.780 E0.05256 ; perimeter
G1 X132.156 Y109.982 E0.13288 ; perimeter
G1 X133.226 Y111.403 E0.13288 ; perimeter
G1 X133.704 Y112.366 E0.08032 ; perimeter
G1 X134.017 Y112.997 E0.05256 ; perimeter
G1 X134.503 Y114.708 E0.13288 ; perimeter
G1 X134.672 Y116.533 E0.13685 ; perimeter
G1 X134.672 Y130.221 E1.02226 ; perimeter
G1 X126.728 Y130.221 E0.59323 ; perimeter
G1 X126.728 Y120.419 E0.73207 ; perimeter
G1 X127.057 Y120.286 E0.02646 ; perimeter
G1 X127.512 Y119.997 E0.04026 ; perimeter
G1 X128.138 Y119.446 E0.06228 ; perimeter
G1 X128.493 Y119.040 E0.04026 ; perimeter
G1 X128.899 Y118.312 E0.06229 ; perimeter
G1 X129.124 Y117.822 E0.04029 ; perimeter
G1 X129.343 Y116.462 E0.10286 ; perimeter
G1 X129.084 Y114.993 E0.11137 ; perimeter
G1 X128.329 Y113.686 E0.11273 ; perimeter
G1 X127.173 Y112.716 E0.11273 ; perimeter
G1 X125.755 Y112.200 E0.11273 ; perimeter
G1 X124.245 Y112.200 E0.11273 ; perimeter
G1 X122.827 Y112.716 E0.11273 ; perimeter
G1 X121.671 Y113.686 E0.11273 ; perimeter
G1 X120.901 Y115.019 E0.11489 ; perimeter
G1 X120.657 Y116.462 E0.10934 ; perimeter
G1 X120.876 Y117.822 E0.10286 ; perimeter
G1 X121.101 Y118.312 E0.04029 ; perimeter
G1 X121.507 Y119.040 E0.06229 ; perimeter
G1 X121.862 Y119.446 E0.04026 ; perimeter
G1 X122.488 Y119.997 E0.06228 ; perimeter
G1 X122.943 Y120.286 E0.04026 ; perimeter
G1 X123.272 Y120.419 E0.02646 ; perimeter
G1 X123.272 Y130.224 E0.73232 ; perimeter
G1 X116.693 Y130.243 E0.49129 ; perimeter
G1 X99.648 Y129.918 E1.27324 ; perimeter
G1 X99.648 Y128.651 E0.09461 ; perimeter
G1 X65.328 Y128.651 E2.56320 ; perimeter
G1 X65.328 Y105.308 E1.74338 ; perimeter
G1 X96.170 Y105.308 E2.30344 ; perimeter
G1 X96.170 Y86.677 E1.39150 ; perimeter
G1 F1800.000 E-2.40000 ; retract
G1 X80.342 Y111.192 F6000.000 ; move to first perimeter point
G1 E2.40000 F1800.000 ; compensate retraction
G1 X81.726 Y112.254 E0.13031 F900.000 ; perimeter
G1 X82.788 Y113.638 E0.13031 ; perimeter
G1 X83.456 Y115.250 E0.13031 ; perimeter
G1 X83.683 Y116.980 E0.13031 ; perimeter
G1 X83.593 Y117.664 E0.05150 ; perimeter
G1 X83.456 Y118.710 E0.07880 ; perimeter
G1 X82.788 Y120.322 E0.13031 ; perimeter
G1 X81.726 Y121.706 E0.13031 ; perimeter
G1 X80.342 Y122.768 E0.13031 ; perimeter
G1 X78.730 Y123.436 E0.13031 ; perimeter
G1 X77.000 Y123.663 E0.13031 ; perimeter
G1 X75.270 Y123.436 E0.13031 ; perimeter
G1 X73.658 Y122.768 E0.13031 ; perimeter
G1 X72.274 Y121.706 E0.13031 ; perimeter
G1 X71.212 Y120.322 E0.13031 ; perimeter
G1 X70.544 Y118.710 E0.13031 ; perimeter
G1 X70.317 Y116.980 E0.13031 ; perimeter
G1 X70.407 Y116.296 E0.05151 ; perimeter
G1 X70.544 Y115.250 E0.07880 ; perimeter
G1 X71.212 Y113.638 E0.13031 ; perimeter
G1 X72.274 Y112.254 E0.13031 ; perimeter
G1 X73.658 Y111.192 E0.13031 ; perimeter
G1 X75.270 Y110.524 E0.13031 ; perimeter
G1 X77.000 Y110.297 E0.13031 ; perimeter
G1 X78.730 Y110.524 E0.13031 ; perimeter
G1 X80.238 Y111.149 E0.12192 ; perimeter
G1 X81.006 Y110.846 F6000.000 ; move inwards before travel
G1 X80.511 Y110.378 F6000.000 ; move to first perimeter point
G1 X82.260 Y111.720 E0.16465 F900.000 ; perimeter
G1 X83.442 Y113.261 E0.14502 ; perimeter
G1 X84.185 Y115.055 E0.14502 ; perimeter
G1 X84.438 Y116.980 E0.14502 ; perimeter
G1 X84.336 Y117.761 E0.05886 ; perimeter
G1 X84.185 Y118.905 E0.08616 ; perimeter
G1 X83.442 Y120.699 E0.14502 ; perimeter
G1 X82.260 Y122.240 E0.14502 ; perimeter
G1 X80.719 Y123.422 E0.14502 ; perimeter
G1 X78.925 Y124.165 E0.14503 ; perimeter
G1 X77.000 Y124.418 E0.14502 ; perimeter
G1 X75.075 Y124.165 E0.14502 ; perimeter
G1 X73.281 Y123.422 E0.14502 ; perimeter
G1 X71.740 Y122.240 E0.14502 ; perimeter
G1 X70.558 Y120.699 E0.14502 ; perimeter
G1 X69.815 Y118.905 E0.14502 ; perimeter
G1 X69.562 Y116.980 E0.14502 ; perimeter
G1 X69.664 Y116.199 E0.05886 ; perimeter
G1 X69.815 Y115.055 E0.08616 ; perimeter
G1 X70.558 Y113.261 E0.14503 ; perimeter
G1 X71.740 Y111.720 E0.14502 ; perimeter
G1 X73.281 Y110.538 E0.14502 ; perimeter
G1 X75.075 Y109.795 E0.14502 ; perimeter
G1 X77.000 Y109.542 E0.14503 ; perimeter
G1 X78.925 Y109.795 E0.14502 ; perimeter
G1 X80.423 Y110.415 E0.12108 ; perimeter
G1 F1800.000 E-2.40000 ; retract
G1 X90.808 Y114.613 F6000.000 ; move to first perimeter point
G1 E2.40000 F1800.000 ; compensate retraction
G1 X91.212 Y113.638 E0.07880 F900.000 ; perimeter
G1 X92.274 Y112.254 E0.13031 ; perimeter
G1 X93.658 Y111.192 E0.13031 ; perimeter
G1 X95.270 Y110.524 E0.13031 ; perimeter
G1 X97.000 Y110.297 E0.13031 ; perimeter
G1 X98.730 Y110.524 E0.13031 ; perimeter
G1 X100.342 Y111.192 E0.13031 ; perimeter
G1 X101.726 Y112.254 E0.13031 ; perimeter
G1 X102.788 Y113.638 E0.13031 ; perimeter
G1 X103.456 Y115.250 E0.13030 ; perimeter
G1 X103.683 Y116.980 E0.13031 ; perimeter
G1 X103.456 Y118.710 E0.13031 ; perimeter
G1 X102.861 Y120.145 E0.11602 ; perimeter
G1 X102.924 Y120.145 E0.00466 ; perimeter
G1 X101.726 Y121.706 E0.14694 ; perimeter
G1 X100.342 Y122.768 E0.13031 ; perimeter
G1 X98.730 Y123.436 E0.13031 ; perimeter
G1 X97.000 Y123.663 E0.13031 ; perimeter
G1 X95.270 Y123.436 E0.13031 ; perimeter
G1 X93.658 Y122.768 E0.13031 ; perimeter
G1 X92.274 Y121.706 E0.13031 ; perimeter
G1 X91.212 Y120.322 E0.13031 ; perimeter
G1 X90.544 Y118.710 E0.13031 ; perimeter
G1 X90.317 Y116.980 E0.13031 ; perimeter
G1 X90.544 Y115.250 E0.13031 ; perimeter
G1 X90.765 Y114.717 E0.04312 ; perimeter
G1 X90.353 Y114.019 F6000.000 ; move inwards before travel
G1 X90.117 Y114.327 F6000.000 ; move to first perimeter point
G1 X90.558 Y113.261 E0.08616 F900.000 ; perimeter
G1 X91.740 Y111.720 E0.14502 ; perimeter
G1 X93.281 Y110.538 E0.14502 ; perimeter
G1 X95.075 Y109.795 E0.14502 ; perimeter
G1 X97.000 Y109.542 E0.14502 ; perimeter
G1 X98.925 Y109.795 E0.14502 ; perimeter
G1 X100.719 Y110.538 E0.14503 ; perimeter
G1 X102.260 Y111.720 E0.14502 ; perimeter
G1 X103.442 Y113.261 E0.14502 ; perimeter
G1 X104.185 Y115.055 E0.14502 ; perimeter
G1 X104.438 Y116.980 E0.14503 ; perimeter
G1 X104.120 Y119.397 E0.18204 ; perimeter
G1 X104.441 Y119.397 E0.02398 ; perimeter
G1 X102.260 Y122.240 E0.26765 ; perimeter
G1 X100.719 Y123.422 E0.14503 ; perimeter
G1 X98.925 Y124.165 E0.14502 ; perimeter
G1 X97.000 Y124.418 E0.14502 ; perimeter
G1 X95.075 Y124.165 E0.14502 ; perimeter
G1 X93.281 Y123.422 E0.14503 ; perimeter
G1 X91.740 Y122.240 E0.14502 ; perimeter
G1 X90.558 Y120.699 E0.14502 ; perimeter
G1 X89.815 Y118.905 E0.14502 ; perimeter
G1 X89.562 Y116.980 E0.14502 ; perimeter
G1 X89.815 Y115.055 E0.14502 ; perimeter
G1 X90.074 Y114.430 E0.05048 ; perimeter
G1 F1800.000 E-2.40000 ; retract
G1 X84.741 Y115.196 F6000.000 ; move to first fill point
G1 E2.40000 F1800.000 ; compensate retraction
G1 X89.796 Y120.251 E0.53439 F900.000 ; fill
G1 F1800.000 E-2.40000 ; retract
G1 X84.786 Y118.419 F6000.000 ; move to first fill point
G1 E2.40000 F1800.000 ; compensate retraction
G1 X94.486 Y128.119 E1.02533 F900.000 ; fill
G1 X95.545 Y128.119 E0.07919 ; fill
G1 X84.909 Y117.483 E1.12429 ; fill
G1 X84.901 Y116.416 E0.07979 ; fill
G1 X96.604 Y128.119 E1.23713 ; fill
G1 F1800.000 E-2.40000 ; retract
G1 X93.426 Y128.119 F6000.000 ; move to first fill point
G1 E2.40000 F1800.000 ; compensate retraction
G1 X84.601 Y119.293 E0.93294 F900.000 ; fill
G1 X84.290 Y120.042 E0.06061 ; fill
G1 X92.367 Y128.119 E0.85375 ; fill
G1 X91.307 Y128.119 E0.07919 ; fill
G1 X83.980 Y120.792 E0.77456 ; fill
G1 X83.555 Y121.426 E0.05708 ; fill
G1 X90.248 Y128.119 E0.70747 ; fill
G1 X89.188 Y128.119 E0.07919 ; fill
G1 X83.095 Y122.026 E0.64410 ; fill
G1 X82.634 Y122.624 E0.05646 ; fill
G1 X88.129 Y128.119 E0.58087 ; fill
G1 X87.070 Y128.119 E0.07919 ; fill
G1 X82.035 Y123.084 E0.53225 ; fill
G1 X81.435 Y123.544 E0.05648 ; fill
G1 X86.010 Y128.119 E0.48362 ; fill
G1 X84.951 Y128.119 E0.07919 ; fill
G1 X80.798 Y123.966 E0.43902 ; fill
G1 X80.049 Y124.276 E0.06061 ; fill
G1 X83.891 Y128.119 E0.40621 ; fill
G1 X82.832 Y128.119 E0.07919 ; fill
G1 X79.299 Y124.586 E0.37341 ; fill
G1 X78.422 Y124.768 E0.06698 ; fill
G1 X81.772 Y128.119 E0.35417 ; fill
G1 X80.713 Y128.119 E0.07919 ; fill
G1 X77.486 Y124.892 E0.34115 ; fill
G1 X76.413 Y124.878 E0.08019 ; fill
G1 X79.654 Y128.119 E0.34255 ; fill
G1 X78.594 Y128.119 E0.07919 ; fill
G1 X75.193 Y124.718 E0.35953 ; fill
G1 X73.509 Y124.093 F6000.000 ; move to first fill point
G1 X77.535 Y128.119 E0.42560 F900.000 ; fill
G1 F1800.000 E-2.40000 ; retract
G1 X69.887 Y120.471 F6000.000 ; move to first fill point
G1 E2.40000 F1800.000 ; compensate retraction
G1 X65.861 Y116.445 E0.42560 F900.000 ; fill
G1 X65.861 Y117.505 E0.07919 ; fill
G1 X76.475 Y128.119 E1.12203 ; fill
G1 X75.416 Y128.119 E0.07919 ; fill
G1 X65.861 Y118.564 E1.01004 ; fill
G1 X65.861 Y119.623 E0.07919 ; fill
G1 X74.357 Y128.119 E0.89805 ; fill
G1 X73.297 Y128.119 E0.07919 ; fill
G1 X65.861 Y120.683 E0.78605 ; fill
G1 X65.861 Y121.742 E0.07919 ; fill
G1 X72.238 Y128.119 E0.67406 ; fill
G1 X71.178 Y128.119 E0.07919 ; fill
G1 X65.861 Y122.802 E0.56207 ; fill
G1 X65.861 Y123.861 E0.07919 ; fill
G1 X70.119 Y128.119 E0.45008 ; fill
G1 X69.059 Y128.119 E0.07919 ; fill
G1 X65.861 Y124.921 E0.33809 ; fill
G1 X65.861 Y125.980 E0.07919 ; fill
G1 X68.000 Y128.119 E0.22610 ; fill
G1 X66.941 Y128.119 E0.07919 ; fill
G1 X65.861 Y127.039 E0.11411 ; fill
G1 X65.861 Y128.099 E0.07919 ; fill
G1 X65.881 Y128.119 E0.00211 ; fill
G1 F1800.000 E-2.40000 ; retract
G1 X69.262 Y118.787 F6000.000 ; move to first fill point
G1 E2.40000 F1800.000 ; compensate retraction
G1 X65.861 Y115.386 E0.35953 F900.000 ; fill
G1 X65.861 Y114.326 E0.07919 ; fill
G1 X69.102 Y117.567 E0.34255 ; fill
G1 X69.088 Y116.494 E0.08019 ; fill
G1 X65.861 Y113.267 E0.34115 ; fill
G1 X65.861 Y112.207 E0.07919 ; fill
G1 X69.212 Y115.558 E0.35417 ; fill
G1 X69.394 Y114.680 E0.06698 ; fill
G1 X65.861 Y111.148 E0.37341 ; fill
G1 X65.861 Y110.089 E0.07919 ; fill
G1 X69.704 Y113.931 E0.40621 ; fill
G1 X70.014 Y113.182 E0.06061 ; fill
G1 X65.861 Y109.029 E0.43902 ; fill
G1 X65.861 Y107.970 E0.07919 ; fill
G1 X70.436 Y112.545 E0.48362 ; fill
G1 X70.896 Y111.945 E0.05648 ; fill
G1 X65.861 Y106.910 E0.53225 ; fill
