; generated by Slic3r 1.1.6 on 2014-10-23 at 13:56:47

; perimeters extrusion width = 0.50mm
; infill extrusion width = 0.50mm
; solid infill extrusion width = 0.50mm
; top infill extrusion width = 0.50mm

G21 ; set units to millimeters
M107 ; disable fan
M190 S57 ; wait for bed temperature to be reached
M104 S200 ; set temperature

M109 S200 ; wait for temperature to be reached
G90 ; use absolute coordinates
M83 ; use relative distances for extrusion
G1 F1800.000 E-2.40000 ; retract
G1 Z0.240 F6000.000 ; move to next layer (0)
G1 X60.440 Y58.170 F6000.000 ; move to first skirt point
G1 E2.40000 F1800.000 ; compensate retraction
G1 X60.678 Y57.933 E0.02509 F600.000 ; skirt
G1 X61.640 Y57.165 E0.09193 ; skirt
G1 X61.925 Y56.987 E0.02509 ; skirt
G1 X63.034 Y56.452 E0.09194 ; skirt
G1 X63.351 Y56.341 E0.02509 ; skirt
G1 X64.551 Y56.068 E0.09191 ; skirt
G1 X65.500 Y55.995 E0.07111 ; skirt
G1 X100.308 Y56.004 E2.59967 ; skirt
G1 X100.620 Y56.030 E0.02332 ; skirt
G1 X101.855 Y56.248 E0.09370 ; skirt
G1 X102.006 Y56.293 E0.01174 ; skirt
G1 X136.649 Y67.341 E2.71574 ; skirt
G1 X136.966 Y67.452 E0.02509 ; skirt
G1 X138.076 Y67.987 E0.09196 ; skirt
G1 X138.360 Y68.165 E0.02509 ; skirt
G1 X139.322 Y68.933 E0.09191 ; skirt
G1 X139.560 Y69.170 E0.02509 ; skirt
G1 X140.327 Y70.133 E0.09193 ; skirt
G1 X140.506 Y70.417 E0.02509 ; skirt
G1 X141.040 Y71.526 E0.09193 ; skirt
G1 X141.151 Y71.843 E0.02509 ; skirt
G1 X141.425 Y73.043 E0.09193 ; skirt
G1 X141.497 Y73.992 E0.07110 ; skirt
G1 X141.462 Y97.608 E1.76373 ; skirt
G1 X141.424 Y97.946 E0.02541 ; skirt
G1 X141.151 Y99.142 E0.09161 ; skirt
G1 X141.039 Y99.462 E0.02533 ; skirt
G1 X140.506 Y100.568 E0.09169 ; skirt
G1 X140.328 Y100.851 E0.02495 ; skirt
G1 X139.773 Y101.589 E0.06904 ; skirt
G1 X105.112 Y140.375 E3.88482 ; skirt
G1 X104.600 Y140.870 E0.05317 ; skirt
G1 X104.141 Y141.268 E0.04543 ; skirt
G1 X103.578 Y141.704 E0.05316 ; skirt
G1 X103.077 Y142.050 E0.04544 ; skirt
G1 X102.470 Y142.422 E0.05323 ; skirt
G1 X101.935 Y142.711 E0.04537 ; skirt
G1 X101.290 Y143.014 E0.05320 ; skirt
G1 X100.727 Y143.242 E0.04540 ; skirt
G1 X100.053 Y143.473 E0.05320 ; skirt
G1 X99.468 Y143.638 E0.04540 ; skirt
G1 X98.773 Y143.793 E0.05321 ; skirt
G1 X98.173 Y143.893 E0.04539 ; skirt
G1 X97.465 Y143.971 E0.05320 ; skirt
G1 X96.858 Y144.005 E0.04539 ; skirt
G1 X95.539 Y143.971 E0.09856 ; skirt
G1 X94.831 Y143.893 E0.05317 ; skirt
G1 X94.231 Y143.794 E0.04542 ; skirt
G1 X93.537 Y143.639 E0.05315 ; skirt
G1 X92.951 Y143.474 E0.04544 ; skirt
G1 X91.713 Y143.016 E0.09856 ; skirt
G1 X91.069 Y142.713 E0.05317 ; skirt
G1 X90.534 Y142.424 E0.04543 ; skirt
G1 X89.426 Y141.707 E0.09856 ; skirt
G1 X88.864 Y141.271 E0.05313 ; skirt
G1 X88.403 Y140.873 E0.04548 ; skirt
G1 X87.478 Y139.932 E0.09856 ; skirt
G1 X86.662 Y138.894 E0.09856 ; skirt
G1 X86.105 Y138.031 E0.07674 ; skirt
G1 X60.387 Y93.642 E3.83142 ; skirt
G1 X59.806 Y92.409 E0.10181 ; skirt
G1 X59.328 Y91.133 E0.10182 ; skirt
G1 X58.957 Y89.821 E0.10181 ; skirt
G1 X58.695 Y88.483 E0.10181 ; skirt
G1 X58.545 Y87.128 E0.10181 ; skirt
G1 X58.503 Y85.992 E0.08487 ; skirt
G1 X58.538 Y62.377 E1.76374 ; skirt
G1 X58.575 Y62.043 E0.02509 ; skirt
G1 X58.849 Y60.843 E0.09191 ; skirt
G1 X58.960 Y60.525 E0.02518 ; skirt
G1 X59.494 Y59.417 E0.09186 ; skirt
G1 X59.673 Y59.133 E0.02509 ; skirt
G1 X60.394 Y58.229 E0.08632 ; skirt
G1 X60.970 Y58.699 F6000.000 ; move to first skirt point
G1 X61.207 Y58.462 E0.02509 F600.000 ; skirt
G1 X62.038 Y57.799 E0.07941 ; skirt
G1 X62.323 Y57.620 E0.02509 ; skirt
G1 X63.281 Y57.159 E0.07942 ; skirt
G1 X63.598 Y57.048 E0.02509 ; skirt
G1 X64.634 Y56.811 E0.07940 ; skirt
G1 X65.500 Y56.744 E0.06484 ; skirt
G1 X100.266 Y56.751 E2.59653 ; skirt
G1 X100.535 Y56.774 E0.02017 ; skirt
G1 X101.648 Y56.967 E0.08433 ; skirt
G1 X101.778 Y57.007 E0.01016 ; skirt
G1 X136.402 Y68.048 E2.71418 ; skirt
G1 X136.719 Y68.159 E0.02509 ; skirt
G1 X137.677 Y68.620 E0.07944 ; skirt
G1 X137.962 Y68.799 E0.02509 ; skirt
G1 X138.793 Y69.462 E0.07940 ; skirt
G1 X139.030 Y69.699 E0.02509 ; skirt
G1 X139.693 Y70.531 E0.07942 ; skirt
G1 X139.872 Y70.815 E0.02509 ; skirt
G1 X140.333 Y71.773 E0.07941 ; skirt
G1 X140.444 Y72.090 E0.02509 ; skirt
G1 X140.681 Y73.127 E0.07941 ; skirt
G1 X140.748 Y73.992 E0.06483 ; skirt
G1 X140.719 Y97.524 E1.75747 ; skirt
G1 X140.681 Y97.862 E0.02537 ; skirt
G1 X140.444 Y98.895 E0.07914 ; skirt
G1 X140.333 Y99.214 E0.02530 ; skirt
G1 X139.872 Y100.170 E0.07920 ; skirt
G1 X139.694 Y100.452 E0.02494 ; skirt
G1 X139.214 Y101.091 E0.05966 ; skirt
G1 X104.591 Y139.837 E3.88076 ; skirt
G1 X104.080 Y140.332 E0.05317 ; skirt
G1 X103.682 Y140.677 E0.03930 ; skirt
G1 X103.120 Y141.113 E0.05315 ; skirt
G1 X102.687 Y141.412 E0.03931 ; skirt
G1 X102.079 Y141.784 E0.05321 ; skirt
G1 X101.617 Y142.033 E0.03925 ; skirt
G1 X100.972 Y142.336 E0.05319 ; skirt
G1 X100.485 Y142.534 E0.03927 ; skirt
G1 X99.811 Y142.764 E0.05319 ; skirt
G1 X99.305 Y142.907 E0.03927 ; skirt
G1 X98.610 Y143.062 E0.05319 ; skirt
G1 X98.091 Y143.149 E0.03927 ; skirt
G1 X97.383 Y143.227 E0.05319 ; skirt
G1 X96.858 Y143.256 E0.03927 ; skirt
G1 X95.621 Y143.227 E0.09243 ; skirt
G1 X94.913 Y143.149 E0.05317 ; skirt
G1 X94.394 Y143.063 E0.03929 ; skirt
G1 X93.700 Y142.908 E0.05315 ; skirt
G1 X93.193 Y142.766 E0.03931 ; skirt
G1 X92.032 Y142.338 E0.09243 ; skirt
G1 X91.388 Y142.035 E0.05316 ; skirt
G1 X90.925 Y141.786 E0.03930 ; skirt
G1 X89.884 Y141.116 E0.09242 ; skirt
G1 X89.322 Y140.680 E0.05313 ; skirt
G1 X88.924 Y140.335 E0.03934 ; skirt
G1 X88.055 Y139.454 E0.09242 ; skirt
G1 X87.288 Y138.483 E0.09242 ; skirt
G1 X86.752 Y137.656 E0.07358 ; skirt
G1 X61.060 Y93.313 E3.82747 ; skirt
G1 X60.503 Y92.137 E0.09719 ; skirt
G1 X60.045 Y90.919 E0.09720 ; skirt
G1 X59.689 Y89.667 E0.09719 ; skirt
G1 X59.438 Y88.390 E0.09719 ; skirt
G1 X59.293 Y87.097 E0.09719 ; skirt
G1 X59.252 Y85.992 E0.08256 ; skirt
G1 X59.281 Y62.461 E1.75748 ; skirt
G1 X59.319 Y62.127 E0.02509 ; skirt
G1 X59.556 Y61.090 E0.07940 ; skirt
G1 X59.667 Y60.772 E0.02517 ; skirt
G1 X60.128 Y59.815 E0.07935 ; skirt
G1 X60.307 Y59.531 E0.02509 ; skirt
G1 X60.923 Y58.758 E0.07381 ; skirt
G1 F1800.000 E-2.40000 ; retract
G1 X75.800 Y81.955 F6000.000 ; move to first perimeter point
G1 E2.40000 F1800.000 ; compensate retraction
G1 X75.800 Y63.015 E1.41453 F900.000 ; perimeter
G1 X75.830 Y62.748 E0.02004 ; perimeter
G1 X75.911 Y62.516 E0.01836 ; perimeter
G1 X76.042 Y62.308 E0.01835 ; perimeter
G1 X76.216 Y62.134 E0.01836 ; perimeter
G1 X76.424 Y62.004 E0.01835 ; perimeter
G1 X76.656 Y61.922 E0.01836 ; perimeter
G1 X76.922 Y61.892 E0.02004 ; perimeter
G1 X99.978 Y61.892 E1.72187 ; perimeter
G1 X100.244 Y61.922 E0.02004 ; perimeter
G1 X100.476 Y62.004 E0.01835 ; perimeter
G1 X100.684 Y62.134 E0.01835 ; perimeter
G1 X100.858 Y62.308 E0.01835 ; perimeter
G1 X100.989 Y62.516 E0.01835 ; perimeter
G1 X101.070 Y62.748 E0.01835 ; perimeter
G1 X101.100 Y63.015 E0.02004 ; perimeter
G1 X101.100 Y71.015 E0.59748 ; perimeter
G1 X101.145 Y71.416 E0.03013 ; perimeter
G1 X101.286 Y71.818 E0.03182 ; perimeter
G1 X101.513 Y72.179 E0.03182 ; perimeter
G1 X101.814 Y72.480 E0.03182 ; perimeter
G1 X102.175 Y72.707 E0.03182 ; perimeter
G1 X102.577 Y72.847 E0.03182 ; perimeter
G1 X102.965 Y72.892 E0.02918 ; perimeter
G1 X134.478 Y72.892 E2.35354 ; perimeter
G1 X134.744 Y72.922 E0.02004 ; perimeter
G1 X134.976 Y73.004 E0.01835 ; perimeter
G1 X135.184 Y73.134 E0.01835 ; perimeter
G1 X135.358 Y73.308 E0.01835 ; perimeter
G1 X135.489 Y73.516 E0.01835 ; perimeter
G1 X135.570 Y73.748 E0.01835 ; perimeter
G1 X135.600 Y74.015 E0.02004 ; perimeter
G1 X135.600 Y96.970 E1.71440 ; perimeter
G1 X135.570 Y97.237 E0.02004 ; perimeter
G1 X135.489 Y97.469 E0.01835 ; perimeter
G1 X135.358 Y97.677 E0.01835 ; perimeter
G1 X135.184 Y97.850 E0.01835 ; perimeter
G1 X134.976 Y97.981 E0.01835 ; perimeter
G1 X134.744 Y98.062 E0.01835 ; perimeter
G1 X134.478 Y98.092 E0.02004 ; perimeter
G1 X104.478 Y98.092 E2.24055 ; perimeter
G1 X104.077 Y98.138 E0.03013 ; perimeter
G1 X103.675 Y98.278 E0.03182 ; perimeter
G1 X103.314 Y98.505 E0.03182 ; perimeter
G1 X103.013 Y98.806 E0.03182 ; perimeter
G1 X102.786 Y99.167 E0.03182 ; perimeter
G1 X102.645 Y99.569 E0.03182 ; perimeter
G1 X102.600 Y99.970 E0.03013 ; perimeter
G1 X102.600 Y132.535 E2.43209 ; perimeter
G1 X102.505 Y133.194 E0.04974 ; perimeter
G1 X102.337 Y133.845 E0.05023 ; perimeter
G1 X102.099 Y134.474 E0.05023 ; perimeter
G1 X101.793 Y135.073 E0.05023 ; perimeter
G1 X101.424 Y135.635 E0.05023 ; perimeter
G1 X100.995 Y136.153 E0.05023 ; perimeter
G1 X100.511 Y136.620 E0.05023 ; perimeter
G1 X99.980 Y137.032 E0.05023 ; perimeter
G1 X99.406 Y137.383 E0.05023 ; perimeter
G1 X98.797 Y137.670 E0.05023 ; perimeter
G1 X98.161 Y137.887 E0.05023 ; perimeter
G1 X97.505 Y138.034 E0.05023 ; perimeter
G1 X96.836 Y138.108 E0.05023 ; perimeter
G1 X96.164 Y138.108 E0.05023 ; perimeter
G1 X95.495 Y138.034 E0.05023 ; perimeter
G1 X94.839 Y137.887 E0.05023 ; perimeter
G1 X94.203 Y137.670 E0.05023 ; perimeter
G1 X93.594 Y137.383 E0.05023 ; perimeter
G1 X93.020 Y137.032 E0.05023 ; perimeter
G1 X92.489 Y136.620 E0.05023 ; perimeter
G1 X92.005 Y136.153 E0.05023 ; perimeter
G1 X91.576 Y135.635 E0.05023 ; perimeter
G1 X91.207 Y135.073 E0.05023 ; perimeter
G1 X90.901 Y134.474 E0.05023 ; perimeter
G1 X90.663 Y133.845 E0.05023 ; perimeter
G1 X90.495 Y133.194 E0.05023 ; perimeter
G1 X90.400 Y132.534 E0.04974 ; perimeter
G1 X90.400 Y99.829 E2.44263 ; perimeter
G1 X90.360 Y99.453 E0.02822 ; perimeter
G1 X90.237 Y99.074 E0.02980 ; perimeter
G1 X90.036 Y98.728 E0.02980 ; perimeter
G1 X89.769 Y98.433 E0.02980 ; perimeter
G1 X89.445 Y98.199 E0.02980 ; perimeter
G1 X89.080 Y98.038 E0.02980 ; perimeter
G1 X88.710 Y97.961 E0.02822 ; perimeter
G1 X75.028 Y96.593 E1.02692 ; perimeter
G1 X74.125 Y96.556 E0.06754 ; perimeter
G1 X73.255 Y96.448 E0.06543 ; perimeter
G1 X72.398 Y96.268 E0.06543 ; perimeter
G1 X71.558 Y96.018 E0.06543 ; perimeter
G1 X70.742 Y95.699 E0.06543 ; perimeter
G1 X69.955 Y95.315 E0.06543 ; perimeter
G1 X69.203 Y94.866 E0.06543 ; perimeter
G1 X68.490 Y94.357 E0.06543 ; perimeter
G1 X67.821 Y93.791 E0.06543 ; perimeter
G1 X67.202 Y93.171 E0.06543 ; perimeter
G1 X66.635 Y92.503 E0.06543 ; perimeter
G1 X66.126 Y91.790 E0.06543 ; perimeter
G1 X65.678 Y91.037 E0.06543 ; perimeter
G1 X65.293 Y90.250 E0.06543 ; perimeter
G1 X64.975 Y89.434 E0.06543 ; perimeter
G1 X64.725 Y88.594 E0.06543 ; perimeter
G1 X64.545 Y87.737 E0.06543 ; perimeter
G1 X64.437 Y86.868 E0.06543 ; perimeter
G1 X64.400 Y85.984 E0.06605 ; perimeter
G1 X64.400 Y63.015 E1.71546 ; perimeter
G1 X64.430 Y62.748 E0.02004 ; perimeter
G1 X64.511 Y62.516 E0.01835 ; perimeter
G1 X64.642 Y62.308 E0.01835 ; perimeter
G1 X64.816 Y62.134 E0.01836 ; perimeter
G1 X65.024 Y62.004 E0.01835 ; perimeter
G1 X65.256 Y61.922 E0.01836 ; perimeter
G1 X65.522 Y61.892 E0.02004 ; perimeter
G1 X73.064 Y61.892 E0.56324 ; perimeter
G1 X73.331 Y61.922 E0.02004 ; perimeter
G1 X73.563 Y62.004 E0.01835 ; perimeter
G1 X73.771 Y62.134 E0.01835 ; perimeter
G1 X73.945 Y62.308 E0.01836 ; perimeter
G1 X74.075 Y62.516 E0.01835 ; perimeter
G1 X74.156 Y62.748 E0.01835 ; perimeter
G1 X74.186 Y63.015 E0.02004 ; perimeter
G1 X74.186 Y81.957 E1.41473 ; perimeter
G1 X73.561 Y82.141 E0.04866 ; perimeter
G1 X73.028 Y82.385 E0.04383 ; perimeter
G1 X72.534 Y82.703 E0.04383 ; perimeter
G1 X72.120 Y83.063 E0.04098 ; perimeter
G1 X71.707 Y83.531 E0.04664 ; perimeter
G1 X71.390 Y84.025 E0.04383 ; perimeter
G1 X71.147 Y84.559 E0.04383 ; perimeter
G1 X70.982 Y85.122 E0.04383 ; perimeter
G1 X70.910 Y85.625 E0.03791 ; perimeter
G1 X70.900 Y86.290 E0.04969 ; perimeter
G1 X70.984 Y86.871 E0.04383 ; perimeter
G1 X71.150 Y87.434 E0.04383 ; perimeter
G1 X71.394 Y87.967 E0.04383 ; perimeter
G1 X71.691 Y88.427 E0.04088 ; perimeter
G1 X72.097 Y88.903 E0.04675 ; perimeter
G1 X72.541 Y89.287 E0.04383 ; perimeter
G1 X73.035 Y89.604 E0.04382 ; perimeter
G1 X73.570 Y89.847 E0.04383 ; perimeter
G1 X74.133 Y90.011 E0.04383 ; perimeter
G1 X74.714 Y90.093 E0.04383 ; perimeter
G1 X75.301 Y90.092 E0.04383 ; perimeter
G1 X75.881 Y90.008 E0.04383 ; perimeter
G1 X76.444 Y89.841 E0.04383 ; perimeter
G1 X76.977 Y89.597 E0.04383 ; perimeter
G1 X77.470 Y89.278 E0.04382 ; perimeter
G1 X77.913 Y88.893 E0.04383 ; perimeter
G1 X78.296 Y88.449 E0.04383 ; perimeter
G1 X78.613 Y87.954 E0.04383 ; perimeter
G1 X78.855 Y87.420 E0.04383 ; perimeter
G1 X79.019 Y86.857 E0.04383 ; perimeter
G1 X79.101 Y86.276 E0.04383 ; perimeter
G1 X79.100 Y85.689 E0.04383 ; perimeter
G1 X79.015 Y85.108 E0.04383 ; perimeter
G1 X78.848 Y84.546 E0.04382 ; perimeter
G1 X78.603 Y84.012 E0.04382 ; perimeter
G1 X78.284 Y83.520 E0.04383 ; perimeter
G1 X77.899 Y83.077 E0.04383 ; perimeter
G1 X77.454 Y82.694 E0.04382 ; perimeter
G1 X76.959 Y82.378 E0.04383 ; perimeter
G1 X76.425 Y82.136 E0.04383 ; perimeter
G1 X75.872 Y81.976 E0.04299 ; perimeter
G1 X76.090 Y81.547 F6000.000 ; move inwards before travel
G1 X76.548 Y81.371 F6000.000 ; move to first perimeter point
G1 X76.548 Y63.057 E1.36775 F900.000 ; perimeter
G1 X76.564 Y62.916 E0.01061 ; perimeter
G1 X76.631 Y62.778 E0.01144 ; perimeter
G1 X76.751 Y62.682 E0.01144 ; perimeter
G1 X76.823 Y62.657 E0.00576 ; perimeter
G1 X76.965 Y62.641 E0.01061 ; perimeter
G1 X99.935 Y62.641 E1.71559 ; perimeter
G1 X100.149 Y62.682 E0.01627 ; perimeter
G1 X100.215 Y62.723 E0.00576 ; perimeter
G1 X100.310 Y62.843 E0.01144 ; perimeter
G1 X100.352 Y63.057 E0.01627 ; perimeter
G1 X100.352 Y71.057 E0.59748 ; perimeter
G1 X100.411 Y71.583 E0.03957 ; perimeter
G1 X100.607 Y72.145 E0.04442 ; perimeter
G1 X100.924 Y72.648 E0.04442 ; perimeter
G1 X101.344 Y73.069 E0.04441 ; perimeter
G1 X101.848 Y73.385 E0.04442 ; perimeter
G1 X102.409 Y73.582 E0.04442 ; perimeter
G1 X102.902 Y73.641 E0.03707 ; perimeter
G1 X134.435 Y73.641 E2.35510 ; perimeter
G1 X134.577 Y73.657 E0.01061 ; perimeter
G1 X134.715 Y73.723 E0.01144 ; perimeter
G1 X134.769 Y73.778 E0.00576 ; perimeter
G1 X134.836 Y73.916 E0.01144 ; perimeter
G1 X134.852 Y74.057 E0.01060 ; perimeter
G1 X134.852 Y96.928 E1.70813 ; perimeter
G1 X134.810 Y97.142 E0.01627 ; perimeter
G1 X134.715 Y97.262 E0.01144 ; perimeter
G1 X134.577 Y97.328 E0.01144 ; perimeter
G1 X134.436 Y97.344 E0.01060 ; perimeter
G1 X104.436 Y97.344 E2.24055 ; perimeter
G1 X103.909 Y97.403 E0.03957 ; perimeter
G1 X103.348 Y97.600 E0.04441 ; perimeter
G1 X102.844 Y97.916 E0.04442 ; perimeter
G1 X102.424 Y98.337 E0.04442 ; perimeter
G1 X102.107 Y98.840 E0.04441 ; perimeter
G1 X101.911 Y99.401 E0.04442 ; perimeter
G1 X101.852 Y99.928 E0.03957 ; perimeter
G1 X101.852 Y132.481 E2.43124 ; perimeter
G1 X101.770 Y133.047 E0.04267 ; perimeter
G1 X101.623 Y133.618 E0.04408 ; perimeter
G1 X101.414 Y134.170 E0.04408 ; perimeter
G1 X101.145 Y134.696 E0.04408 ; perimeter
G1 X100.821 Y135.189 E0.04408 ; perimeter
G1 X100.444 Y135.643 E0.04408 ; perimeter
G1 X100.020 Y136.054 E0.04408 ; perimeter
G1 X99.554 Y136.415 E0.04408 ; perimeter
G1 X99.050 Y136.724 E0.04408 ; perimeter
G1 X98.516 Y136.975 E0.04408 ; perimeter
G1 X97.958 Y137.166 E0.04408 ; perimeter
G1 X97.382 Y137.294 E0.04408 ; perimeter
G1 X96.795 Y137.359 E0.04408 ; perimeter
G1 X96.205 Y137.359 E0.04408 ; perimeter
G1 X95.618 Y137.294 E0.04408 ; perimeter
G1 X95.042 Y137.166 E0.04408 ; perimeter
G1 X94.484 Y136.975 E0.04408 ; perimeter
G1 X93.950 Y136.724 E0.04408 ; perimeter
G1 X93.446 Y136.415 E0.04408 ; perimeter
G1 X92.980 Y136.054 E0.04408 ; perimeter
G1 X92.556 Y135.643 E0.04408 ; perimeter
G1 X92.179 Y135.189 E0.04408 ; perimeter
G1 X91.855 Y134.696 E0.04408 ; perimeter
G1 X91.586 Y134.170 E0.04408 ; perimeter
G1 X91.377 Y133.618 E0.04408 ; perimeter
G1 X91.230 Y133.047 E0.04408 ; perimeter
G1 X91.148 Y132.481 E0.04268 ; perimeter
G1 X91.148 Y99.790 E2.44158 ; perimeter
G1 X91.096 Y99.296 E0.03706 ; perimeter
G1 X90.924 Y98.767 E0.04160 ; perimeter
G1 X90.644 Y98.285 E0.04159 ; perimeter
G1 X90.271 Y97.872 E0.04159 ; perimeter
G1 X89.819 Y97.546 E0.04159 ; perimeter
G1 X89.309 Y97.321 E0.04159 ; perimeter
G1 X88.824 Y97.221 E0.03706 ; perimeter
G1 X75.081 Y95.846 E1.03149 ; perimeter
