; generated by Slic3r 1.0.1 on 2014-06-28 at 14:29:47

; layer_height = 0.24
; perimeters = 2
; top_solid_layers = 3
; bottom_solid_layers = 3
; fill_density = 0.25
; perimeter_speed = 30
; infill_speed = 30
; travel_speed = 100
; nozzle_diameter = 0.5
; filament_diameter = 1.75
; extrusion_multiplier = 1
; perimeters extrusion width = 0.50mm
; infill extrusion width = 0.50mm
; solid infill extrusion width = 0.50mm
; top infill extrusion width = 0.50mm
; first layer extrusion width = 0.80mm

G21 ; set units to millimeters
M107 ; disable fan
M190 S57 ; wait for bed temperature to be reached
M104 S200 ; set temperature

M109 S200 ; wait for temperature to be reached
G90 ; use absolute coordinates
M83 ; use relative distances for extrusion
G1 F1800.000 E-2.40000 ; retract
G1 Z0.240 F6000.000 ; move to next layer (0)
G1 X70.955 Y101.020 F6000.000 ; move to first skirt point
G1 E2.40000 F1800.000 ; compensate retraction
G1 X71.855 Y100.460 E0.07917 F900.000 ; skirt
G1 X105.585 Y84.460 E2.78818 ; skirt
G1 X106.585 Y84.120 E0.07888 ; skirt
G1 X107.625 Y84.000 E0.07819 ; skirt
G1 X125.565 Y84.000 E1.33985 ; skirt
G1 X126.795 Y84.160 E0.09264 ; skirt
G1 X127.935 Y84.640 E0.09238 ; skirt
G1 X128.925 Y85.390 E0.09276 ; skirt
G1 X129.675 Y86.380 E0.09276 ; skirt
G1 X130.155 Y87.520 E0.09238 ; skirt
G1 X130.315 Y88.750 E0.09264 ; skirt
G1 X130.315 Y104.240 E1.15687 ; skirt
G1 X130.175 Y105.400 E0.08726 ; skirt
G1 X129.745 Y106.480 E0.08682 ; skirt
G1 X129.075 Y107.440 E0.08743 ; skirt
G1 X128.195 Y108.200 E0.08684 ; skirt
G1 X127.145 Y108.720 E0.08751 ; skirt
G1 X107.325 Y115.730 E1.57012 ; skirt
G1 X106.545 Y115.930 E0.06014 ; skirt
G1 X105.745 Y116.000 E0.05998 ; skirt
G1 X73.895 Y116.000 E2.37872 ; skirt
G1 X72.665 Y115.840 E0.09264 ; skirt
G1 X71.525 Y115.360 E0.09238 ; skirt
G1 X70.535 Y114.610 E0.09276 ; skirt
G1 X69.785 Y113.620 E0.09276 ; skirt
G1 X69.305 Y112.480 E0.09238 ; skirt
G1 X69.145 Y111.250 E0.09264 ; skirt
G1 X69.145 Y104.750 E0.48545 ; skirt
G1 X69.265 Y103.690 E0.07967 ; skirt
G1 X69.625 Y102.680 E0.08008 ; skirt
G1 X70.195 Y101.780 E0.07956 ; skirt
G1 X70.876 Y101.099 E0.07189 ; skirt
G1 F1800.000 E-2.40000 ; retract
G1 X74.305 Y105.013 F6000.000 ; move to first perimeter point
G1 E2.40000 F1800.000 ; compensate retraction
G1 X107.721 Y89.150 E2.76263 F900.000 ; perimeter
G1 X125.175 Y89.150 E1.30351 ; perimeter
G1 X125.175 Y92.505 E0.25056 ; perimeter
G1 X123.488 Y93.882 E0.16262 ; perimeter
G1 X122.919 Y94.114 E0.04586 ; perimeter
G1 X122.919 Y99.386 E0.39372 ; perimeter
G1 X123.488 Y99.618 E0.04586 ; perimeter
G1 X125.175 Y100.995 E0.16262 ; perimeter
G1 X125.175 Y103.850 E0.21322 ; perimeter
G1 X105.351 Y103.850 E1.48052 ; perimeter
G1 X105.351 Y110.850 E0.52280 ; perimeter
G1 X74.305 Y110.850 E2.31871 ; perimeter
G1 X74.305 Y105.125 E0.42758 ; perimeter
G1 X75.034 Y105.182 F6000.000 ; move inwards before travel
G1 X75.053 Y105.486 F6000.000 ; move to first perimeter point
G1 X107.890 Y89.898 E2.71470 F900.000 ; perimeter
G1 X124.426 Y89.898 E1.23501 ; perimeter
G1 X124.426 Y92.150 E0.16813 ; perimeter
G1 X123.101 Y93.231 E0.12773 ; perimeter
G1 X122.171 Y93.611 E0.07506 ; perimeter
G1 X122.171 Y99.889 E0.46884 ; perimeter
G1 X123.101 Y100.269 E0.07506 ; perimeter
G1 X124.426 Y101.350 E0.12773 ; perimeter
G1 X124.426 Y103.101 E0.13079 ; perimeter
G1 X104.603 Y103.101 E1.48052 ; perimeter
G1 X104.603 Y110.102 E0.52280 ; perimeter
G1 X75.053 Y110.102 E2.20690 ; perimeter
G1 X75.053 Y105.598 E0.33633 ; perimeter
G1 F1800.000 E-2.40000 ; retract
G1 X75.606 Y109.569 F6000.000 ; move to first fill point
G1 E2.40000 F1800.000 ; compensate retraction
G1 X75.586 Y109.549 E0.00214 F900.000 ; fill
G1 X75.586 Y108.479 E0.08077 ; fill
G1 X76.676 Y109.569 E0.11636 ; fill
G1 X77.746 Y109.569 E0.08077 ; fill
G1 X75.586 Y107.409 E0.23058 ; fill
G1 X75.586 Y106.339 E0.08077 ; fill
G1 X78.816 Y109.569 E0.34480 ; fill
G1 X79.886 Y109.569 E0.08077 ; fill
G1 X75.961 Y105.644 E0.41896 ; fill
G1 X76.687 Y105.300 E0.06063 ; fill
G1 X80.955 Y109.569 E0.45572 ; fill
G1 X82.025 Y109.569 E0.08077 ; fill
G1 X77.412 Y104.956 E0.49249 ; fill
G1 X78.138 Y104.611 E0.06063 ; fill
G1 X83.095 Y109.569 E0.52926 ; fill
G1 X84.165 Y109.569 E0.08077 ; fill
G1 X78.863 Y104.267 E0.56603 ; fill
G1 X79.589 Y103.922 E0.06063 ; fill
G1 X85.235 Y109.569 E0.60280 ; fill
G1 X86.305 Y109.569 E0.08077 ; fill
G1 X80.314 Y103.578 E0.63956 ; fill
G1 X81.040 Y103.234 E0.06063 ; fill
G1 X87.375 Y109.569 E0.67633 ; fill
G1 X88.445 Y109.569 E0.08077 ; fill
G1 X81.765 Y102.889 E0.71310 ; fill
G1 X82.491 Y102.545 E0.06063 ; fill
G1 X89.515 Y109.569 E0.74987 ; fill
G1 X90.585 Y109.569 E0.08077 ; fill
G1 X83.216 Y102.200 E0.78663 ; fill
G1 X83.942 Y101.856 E0.06063 ; fill
G1 X91.655 Y109.569 E0.82340 ; fill
G1 X92.725 Y109.569 E0.08077 ; fill
G1 X84.667 Y101.512 E0.86017 ; fill
G1 X85.393 Y101.167 E0.06063 ; fill
G1 X93.795 Y109.569 E0.89694 ; fill
G1 X94.865 Y109.569 E0.08077 ; fill
G1 X86.119 Y100.823 E0.93370 ; fill
G1 X86.844 Y100.478 E0.06063 ; fill
G1 X95.934 Y109.569 E0.97047 ; fill
G1 X97.004 Y109.569 E0.08077 ; fill
G1 X87.570 Y100.134 E1.00724 ; fill
G1 X88.295 Y99.790 E0.06063 ; fill
G1 X98.074 Y109.569 E1.04401 ; fill
G1 X99.144 Y109.569 E0.08077 ; fill
G1 X89.021 Y99.445 E1.08078 ; fill
G1 X89.746 Y99.101 E0.06063 ; fill
G1 X100.214 Y109.569 E1.11754 ; fill
G1 X101.284 Y109.569 E0.08077 ; fill
G1 X90.472 Y98.756 E1.15431 ; fill
G1 X91.197 Y98.412 E0.06063 ; fill
G1 X102.354 Y109.569 E1.19108 ; fill
G1 X103.424 Y109.569 E0.08077 ; fill
G1 X91.923 Y98.068 E1.22785 ; fill
G1 X92.648 Y97.723 E0.06063 ; fill
G1 X104.070 Y109.145 E1.21936 ; fill
G1 X104.070 Y108.075 E0.08077 ; fill
G1 X93.374 Y97.379 E1.14190 ; fill
G1 X94.099 Y97.034 E0.06063 ; fill
G1 X104.070 Y107.005 E1.06445 ; fill
G1 X104.070 Y105.935 E0.08077 ; fill
G1 X94.825 Y96.690 E0.98699 ; fill
G1 X95.550 Y96.346 E0.06063 ; fill
G1 X104.070 Y104.865 E0.90954 ; fill
G1 X104.070 Y103.795 E0.08077 ; fill
G1 X96.276 Y96.001 E0.83208 ; fill
G1 X97.001 Y95.657 E0.06063 ; fill
G1 X104.070 Y102.725 E0.75463 ; fill
G1 X104.983 Y102.569 E0.06995 ; fill
G1 X97.727 Y95.312 E0.77468 ; fill
G1 X98.452 Y94.968 E0.06063 ; fill
G1 X106.053 Y102.569 E0.81145 ; fill
G1 X107.123 Y102.569 E0.08077 ; fill
G1 X99.178 Y94.624 E0.84822 ; fill
G1 X99.903 Y94.279 E0.06063 ; fill
G1 X108.193 Y102.569 E0.88498 ; fill
G1 X109.263 Y102.569 E0.08077 ; fill
G1 X100.629 Y93.935 E0.92175 ; fill
G1 X101.355 Y93.590 E0.06063 ; fill
G1 X110.333 Y102.569 E0.95852 ; fill
G1 X111.403 Y102.569 E0.08077 ; fill
G1 X102.080 Y93.246 E0.99529 ; fill
G1 X102.806 Y92.902 E0.06063 ; fill
G1 X112.473 Y102.569 E1.03206 ; fill
G1 X113.543 Y102.569 E0.08077 ; fill
G1 X103.531 Y92.557 E1.06882 ; fill
G1 X104.257 Y92.213 E0.06063 ; fill
G1 X114.613 Y102.569 E1.10559 ; fill
G1 X115.683 Y102.569 E0.08077 ; fill
G1 X104.982 Y91.868 E1.14236 ; fill
G1 X105.708 Y91.524 E0.06063 ; fill
G1 X116.753 Y102.569 E1.17913 ; fill
G1 X117.822 Y102.569 E0.08077 ; fill
G1 X106.433 Y91.180 E1.21589 ; fill
G1 X107.159 Y90.835 E0.06063 ; fill
G1 X118.892 Y102.569 E1.25266 ; fill
G1 X119.962 Y102.569 E0.08077 ; fill
G1 X107.884 Y90.491 E1.28943 ; fill
G1 X108.895 Y90.431 E0.07640 ; fill
G1 X121.032 Y102.569 E1.29580 ; fill
G1 X122.102 Y102.569 E0.08077 ; fill
G1 X109.964 Y90.431 E1.29580 ; fill
G1 X111.034 Y90.431 E0.08077 ; fill
G1 X123.172 Y102.569 E1.29580 ; fill
G1 X123.893 Y102.220 E0.06048 ; fill
G1 X112.104 Y90.431 E1.25858 ; fill
G1 X113.174 Y90.431 E0.08077 ; fill
G1 X121.638 Y98.895 E0.90360 ; fill
G1 X121.638 Y97.825 E0.08077 ; fill
G1 X114.244 Y90.431 E0.78938 ; fill
G1 X115.314 Y90.431 E0.08077 ; fill
G1 X121.638 Y96.755 E0.67516 ; fill
G1 X121.638 Y95.685 E0.08077 ; fill
G1 X116.384 Y90.431 E0.56094 ; fill
G1 X117.454 Y90.431 E0.08077 ; fill
G1 X121.638 Y94.615 E0.44671 ; fill
G1 X121.638 Y93.546 E0.08077 ; fill
G1 X118.524 Y90.431 E0.33249 ; fill
G1 X119.594 Y90.431 E0.08077 ; fill
G1 X122.191 Y93.028 E0.27722 ; fill
G1 X122.922 Y92.690 E0.06086 ; fill
G1 X120.664 Y90.431 E0.24113 ; fill
G1 X121.734 Y90.431 E0.08077 ; fill
G1 X123.511 Y92.209 E0.18979 ; fill
G1 X123.893 Y91.521 E0.05940 ; fill
G1 X122.804 Y90.431 E0.11635 ; fill
G1 X123.874 Y90.431 E0.08077 ; fill
G1 X123.893 Y90.451 E0.00213 ; fill
M104 S190 ; set temperature
G1 F1800.000 E-2.40000 ; retract
G1 Z0.480 F6000.000 ; move to next layer (1)
G1 X125.325 Y89.460 F6000.000 ; move to first perimeter point
G1 E2.40000 F1800.000 ; compensate retraction
G1 X125.325 Y92.576 E0.15546 F1800 ; perimeter
G1 X123.805 Y93.816 E0.09784 ; perimeter
G1 X122.829 Y94.215 E0.05260 ; perimeter
G1 X122.829 Y94.574 E0.01793 ; perimeter
G1 X122.829 Y99.285 E0.23502 ; perimeter
G1 X123.805 Y99.684 E0.05260 ; perimeter
G1 X125.325 Y100.924 E0.09784 ; perimeter
G1 X125.325 Y104.000 E0.15347 ; perimeter
G1 X105.741 Y104.000 E0.97702 ; perimeter
G1 X105.741 Y111.000 E0.34923 ; perimeter
G1 X74.155 Y111.000 E1.57585 ; perimeter
G1 X74.155 Y104.918 E0.30344 ; perimeter
G1 X77.393 Y103.381 E0.17881 ; perimeter
G1 X77.393 Y106.500 E0.15561 ; perimeter
G1 X78.210 Y106.500 E0.04080 ; perimeter
G1 X78.210 Y102.993 E0.17498 ; perimeter
G1 X107.687 Y89.000 E1.62790 ; perimeter
G1 X125.325 Y89.000 E0.87992 ; perimeter
G1 X125.325 Y89.385 E0.01921 ; perimeter
G1 X124.892 Y89.710 F6000.000 ; move inwards before travel
G1 X124.825 Y89.500 F6000.000 ; move to first perimeter point
G1 X124.825 Y92.339 E0.14163 F1800 ; perimeter
G1 X123.547 Y93.382 E0.08227 ; perimeter
G1 X122.329 Y93.879 E0.06562 ; perimeter
G1 X122.329 Y99.621 E0.28648 ; perimeter
G1 X123.547 Y100.118 E0.06562 ; perimeter
G1 X124.825 Y101.161 E0.08227 ; perimeter
G1 X124.825 Y103.500 E0.11668 ; perimeter
G1 X105.241 Y103.500 E0.97702 ; perimeter
G1 X105.241 Y110.500 E0.34923 ; perimeter
G1 X74.655 Y110.500 E1.52596 ; perimeter
G1 X74.655 Y105.234 E0.26272 ; perimeter
G1 X76.893 Y104.172 E0.12359 ; perimeter
G1 X76.893 Y107.000 E0.14111 ; perimeter
G1 X78.710 Y107.000 E0.09069 ; perimeter
G1 X78.710 Y103.309 E0.18415 ; perimeter
G1 X107.800 Y89.500 E1.60651 ; perimeter
G1 X124.750 Y89.500 E0.84561 ; perimeter
G1 F1800.000 E-2.40000 ; retract
G1 X124.472 Y91.705 F6000.000 ; move to first fill point
G1 E2.40000 F1800.000 ; compensate retraction
G1 X122.919 Y93.257 E0.11061 F1800 ; fill
G1 F1800.000 E-2.40000 ; retract
G1 X124.472 Y103.128 F6000.000 ; move to first fill point
G1 E2.40000 F1800.000 ; compensate retraction
G1 X124.452 Y103.148 E0.00142 F1800 ; fill
G1 X123.738 Y103.148 E0.03596 ; fill
G1 X124.472 Y102.414 E0.05228 ; fill
G1 X124.472 Y101.700 E0.03596 ; fill
G1 X123.024 Y103.148 E0.10314 ; fill
G1 X122.310 Y103.148 E0.03596 ; fill
G1 X124.283 Y101.174 E0.14056 ; fill
G1 X123.890 Y100.853 E0.02556 ; fill
G1 X121.596 Y103.148 E0.16342 ; fill
G1 X120.882 Y103.148 E0.03596 ; fill
G1 X123.497 Y100.533 E0.18628 ; fill
G1 X123.029 Y100.287 E0.02664 ; fill
G1 X120.169 Y103.148 E0.20375 ; fill
G1 X119.455 Y103.148 E0.03596 ; fill
G1 X122.522 Y100.080 E0.21850 ; fill
G1 X122.015 Y99.873 E0.02758 ; fill
G1 X118.741 Y103.148 E0.23324 ; fill
G1 X118.027 Y103.148 E0.03596 ; fill
G1 X121.977 Y99.197 E0.28140 ; fill
G1 X121.977 Y98.483 E0.03596 ; fill
G1 X117.313 Y103.148 E0.33225 ; fill
G1 X116.599 Y103.148 E0.03596 ; fill
G1 X121.977 Y97.769 E0.38311 ; fill
G1 X121.977 Y97.056 E0.03596 ; fill
G1 X115.885 Y103.148 E0.43397 ; fill
G1 X115.171 Y103.148 E0.03596 ; fill
G1 X121.977 Y96.342 E0.48483 ; fill
G1 X121.977 Y95.628 E0.03596 ; fill
G1 X114.457 Y103.148 E0.53568 ; fill
G1 X113.743 Y103.148 E0.03596 ; fill
G1 X121.977 Y94.914 E0.58654 ; fill
G1 X121.977 Y94.200 E0.03596 ; fill
G1 X113.029 Y103.148 E0.63740 ; fill
G1 X112.315 Y103.148 E0.03596 ; fill
G1 X124.472 Y90.991 E0.86600 ; fill
G1 X124.472 Y90.277 E0.03596 ; fill
G1 X111.601 Y103.148 E0.91686 ; fill
G1 X110.887 Y103.148 E0.03596 ; fill
G1 X124.183 Y89.852 E0.94709 ; fill
G1 X123.469 Y89.852 E0.03596 ; fill
G1 X110.174 Y103.148 E0.94709 ; fill
G1 X109.460 Y103.148 E0.03596 ; fill
G1 X122.755 Y89.852 E0.94709 ; fill
G1 X122.041 Y89.852 E0.03596 ; fill
G1 X108.746 Y103.148 E0.94709 ; fill
G1 X108.032 Y103.148 E0.03596 ; fill
G1 X121.327 Y89.852 E0.94709 ; fill
G1 X120.613 Y89.852 E0.03596 ; fill
G1 X107.318 Y103.148 E0.94709 ; fill
G1 X106.604 Y103.148 E0.03596 ; fill
G1 X119.899 Y89.852 E0.94709 ; fill
G1 X119.185 Y89.852 E0.03596 ; fill
G1 X105.890 Y103.148 E0.94709 ; fill
G1 X105.176 Y103.148 E0.03596 ; fill
G1 X118.471 Y89.852 E0.94709 ; fill
G1 X117.757 Y89.852 E0.03596 ; fill
G1 X97.462 Y110.148 E1.44574 ; fill
G1 X98.176 Y110.148 E0.03596 ; fill
G1 X104.889 Y103.435 E0.47818 ; fill
G1 X104.889 Y104.149 E0.03596 ; fill
G1 X98.890 Y110.148 E0.42732 ; fill
G1 X99.604 Y110.148 E0.03596 ; fill
G1 X104.889 Y104.863 E0.37647 ; fill
G1 X104.889 Y105.577 E0.03596 ; fill
G1 X100.318 Y110.148 E0.32561 ; fill
G1 X101.032 Y110.148 E0.03596 ; fill
G1 X104.889 Y106.291 E0.27475 ; fill
G1 X104.889 Y107.005 E0.03596 ; fill
G1 X101.746 Y110.148 E0.22389 ; fill
G1 X102.460 Y110.148 E0.03596 ; fill
G1 X104.889 Y107.718 E0.17304 ; fill
G1 X104.889 Y108.432 E0.03596 ; fill
G1 X103.174 Y110.148 E0.12218 ; fill
G1 X103.887 Y110.148 E0.03596 ; fill
G1 X104.889 Y109.146 E0.07132 ; fill
G1 X104.889 Y109.860 E0.03596 ; fill
G1 X104.601 Y110.148 E0.02046 ; fill
G1 F1800.000 E-2.40000 ; retract
G1 X96.748 Y110.148 F6000.000 ; move to first fill point
G1 E2.40000 F1800.000 ; compensate retraction
G1 X117.043 Y89.852 E1.44574 F1800 ; fill
G1 X116.329 Y89.852 E0.03596 ; fill
G1 X96.034 Y110.148 E1.44574 ; fill
G1 X95.320 Y110.148 E0.03596 ; fill
G1 X115.615 Y89.852 E1.44574 ; fill
G1 X114.901 Y89.852 E0.03596 ; fill
G1 X94.606 Y110.148 E1.44574 ; fill
G1 X93.892 Y110.148 E0.03596 ; fill
G1 X114.188 Y89.852 E1.44574 ; fill
G1 X113.474 Y89.852 E0.03596 ; fill
G1 X93.179 Y110.148 E1.44574 ; fill
G1 X92.465 Y110.148 E0.03596 ; fill
G1 X112.760 Y89.852 E1.44574 ; fill
G1 X112.046 Y89.852 E0.03596 ; fill
G1 X91.751 Y110.148 E1.44574 ; fill
G1 X91.037 Y110.148 E0.03596 ; fill
G1 X111.332 Y89.852 E1.44574 ; fill
G1 X110.618 Y89.852 E0.03596 ; fill
G1 X90.323 Y110.148 E1.44574 ; fill
G1 X89.609 Y110.148 E0.03596 ; fill
G1 X109.904 Y89.852 E1.44574 ; fill
G1 X109.190 Y89.852 E0.03596 ; fill
G1 X88.895 Y110.148 E1.44574 ; fill
G1 X88.181 Y110.148 E0.03596 ; fill
G1 X108.476 Y89.852 E1.44574 ; fill
G1 X107.656 Y89.959 E0.04165 ; fill
G1 X87.467 Y110.148 E1.43818 ; fill
G1 X86.753 Y110.148 E0.03596 ; fill
G1 X106.297 Y90.604 E1.39223 ; fill
G1 X104.938 Y91.249 F6000.000 ; move to first fill point
G1 X86.039 Y110.148 E1.34627 F1800 ; fill
G1 X85.325 Y110.148 E0.03596 ; fill
G1 X103.579 Y91.894 E1.30031 ; fill
G1 X102.220 Y92.539 F6000.000 ; move to first fill point
G1 X84.611 Y110.148 E1.25435 F1800 ; fill
G1 X83.897 Y110.148 E0.03596 ; fill
G1 X100.861 Y93.184 E1.20840 ; fill
G1 X99.502 Y93.829 F6000.000 ; move to first fill point
G1 X83.184 Y110.148 E1.16244 F1800 ; fill
G1 X82.470 Y110.148 E0.03596 ; fill
G1 X98.143 Y94.475 E1.11648 ; fill
G1 X96.783 Y95.120 F6000.000 ; move to first fill point
G1 X81.756 Y110.148 E1.07052 F1800 ; fill
G1 X81.042 Y110.148 E0.03596 ; fill
G1 X95.424 Y95.765 E1.02456 ; fill
G1 X94.065 Y96.410 F6000.000 ; move to first fill point
G1 X80.328 Y110.148 E0.97861 F1800 ; fill
G1 X79.614 Y110.148 E0.03596 ; fill
G1 X92.706 Y97.055 E0.93265 ; fill
G1 X91.347 Y97.700 F6000.000 ; move to first fill point
G1 X78.900 Y110.148 E0.88669 F1800 ; fill
G1 X78.186 Y110.148 E0.03596 ; fill
G1 X89.988 Y98.345 E0.84073 ; fill
G1 X88.629 Y98.991 F6000.000 ; move to first fill point
G1 X77.472 Y110.148 E0.79478 F1800 ; fill
G1 X76.758 Y110.148 E0.03596 ; fill
G1 X87.270 Y99.636 E0.74882 ; fill
G1 X85.911 Y100.281 F6000.000 ; move to first fill point
G1 X76.044 Y110.148 E0.70286 F1800 ; fill
G1 X75.330 Y110.148 E0.03596 ; fill
G1 X78.125 Y107.352 E0.19911 ; fill
G1 X77.411 Y107.352 E0.03596 ; fill
G1 X75.007 Y109.757 E0.17127 ; fill
G1 X75.007 Y109.043 E0.03596 ; fill
G1 X76.698 Y107.352 E0.12041 ; fill
G1 X76.540 Y106.796 E0.02913 ; fill
G1 X75.007 Y108.329 E0.10920 ; fill
G1 X75.007 Y107.615 E0.03596 ; fill
