; generated by Slic3r 1.2.9 on 2016-08-02 at 21:52:18

; external perimeters extrusion width = 0.50mm
; perimeters extrusion width = 0.50mm
; infill extrusion width = 0.50mm
; solid infill extrusion width = 0.50mm
; top infill extrusion width = 0.50mm

M107 ; disable fan
M190 S57 ; set bed temperature
M104 S185 ; set temperature

M109 S185 ; wait for temperature to be reached
G21 ; set units to millimeters
G90 ; use absolute coordinates
M83 ; use relative distances for extrusion
G1 E-4.00000 F1800.00000 ; retract
G1 Z0.240 F6000.000 ; move to next layer (0)
G1 X75.634 Y75.569 F6000.000 ; move to first skirt point
G1 E4.00000 F1800.00000 ; unretract
G1 X76.092 Y75.139 E0.02248 F1050.000 ; skirt
G1 X76.759 Y74.587 E0.03101 ; skirt
G1 X77.267 Y74.218 E0.02248 ; skirt
G1 X77.998 Y73.754 E0.03101 ; skirt
G1 X78.548 Y73.452 E0.02248 ; skirt
G1 X79.332 Y73.083 E0.03101 ; skirt
G1 X79.916 Y72.852 E0.02248 ; skirt
G1 X80.740 Y72.584 E0.03101 ; skirt
G1 X81.334 Y72.431 E0.02198 ; skirt
G1 X82.199 Y72.266 E0.03151 ; skirt
G1 X82.822 Y72.187 E0.02249 ; skirt
G1 X83.686 Y72.133 E0.03099 ; skirt
G1 X116.314 Y72.133 E1.16811 ; skirt
G1 X117.178 Y72.187 E0.03101 ; skirt
G1 X117.801 Y72.266 E0.02248 F1050.000 ; skirt
G1 X118.652 Y72.428 E0.03101 ; skirt
G1 X119.260 Y72.584 E0.02248 ; skirt
G1 X120.084 Y72.852 E0.03101 ; skirt
G1 X120.668 Y73.083 E0.02248 ; skirt
G1 X121.452 Y73.452 E0.03100 ; skirt
G1 X122.002 Y73.754 E0.02248 ; skirt
G1 X122.733 Y74.218 E0.03101 ; skirt
G1 X123.241 Y74.587 E0.02248 ; skirt
G1 X123.908 Y75.139 E0.03101 ; skirt
G1 X124.522 Y75.720 E0.03024 ; skirt
G1 X124.959 Y76.201 E0.02326 ; skirt
G1 X125.359 Y76.684 E0.02248 ; skirt
G1 X125.868 Y77.385 E0.03101 ; skirt
G1 X126.205 Y77.915 E0.02248 ; skirt
G1 X126.622 Y78.674 E0.03101 ; skirt
G1 X126.889 Y79.243 E0.02248 ; skirt
G1 X127.208 Y80.048 E0.03101 ; skirt
G1 X127.402 Y80.645 E0.02248 ; skirt
G1 X127.618 Y81.484 E0.03101 ; skirt
G1 X127.735 Y82.101 E0.02248 ; skirt
G1 X127.844 Y82.960 E0.03101 ; skirt
G1 X127.897 Y84.020 E0.03799 ; skirt
G1 X127.897 Y115.980 E1.14421 ; skirt
G1 X127.844 Y117.040 E0.03799 ; skirt
G1 X127.735 Y117.899 E0.03101 ; skirt
G1 X127.618 Y118.516 E0.02248 ; skirt
G1 X127.402 Y119.355 E0.03101 ; skirt
G1 X127.208 Y119.952 E0.02248 ; skirt
G1 X126.889 Y120.757 E0.03101 ; skirt
G1 X126.622 Y121.326 E0.02248 ; skirt
G1 X126.205 Y122.085 E0.03101 ; skirt
G1 X125.868 Y122.615 E0.02248 ; skirt
G1 X125.359 Y123.316 E0.03101 ; skirt
G1 X124.959 Y123.799 E0.02248 ; skirt
G1 X124.522 Y124.280 E0.02326 ; skirt
G1 X123.908 Y124.861 E0.03024 ; skirt
G1 X123.241 Y125.413 E0.03101 ; skirt
G1 X122.733 Y125.782 E0.02248 ; skirt
G1 X122.002 Y126.246 E0.03101 ; skirt
G1 X121.451 Y126.548 E0.02248 ; skirt
G1 X120.668 Y126.917 E0.03100 ; skirt
G1 X120.084 Y127.148 E0.02248 ; skirt
G1 X119.260 Y127.416 E0.03101 ; skirt
G1 X118.652 Y127.572 E0.02248 ; skirt
G1 X117.801 Y127.734 E0.03101 ; skirt
G1 X117.178 Y127.813 E0.02248 ; skirt
G1 X116.314 Y127.867 E0.03101 ; skirt
G1 X83.686 Y127.867 E1.16811 ; skirt
G1 X82.822 Y127.813 E0.03101 ; skirt
G1 X82.199 Y127.734 E0.02248 ; skirt
G1 X81.348 Y127.572 E0.03101 ; skirt
G1 X80.740 Y127.416 E0.02248 ; skirt
G1 X79.916 Y127.148 E0.03101 ; skirt
G1 X79.332 Y126.917 E0.02248 ; skirt
G1 X78.548 Y126.548 E0.03101 ; skirt
G1 X77.998 Y126.246 E0.02248 ; skirt
G1 X77.267 Y125.782 E0.03101 ; skirt
G1 X76.759 Y125.412 E0.02249 ; skirt
G1 X76.092 Y124.861 E0.03100 ; skirt
G1 X75.634 Y124.431 E0.02248 ; skirt
G1 X75.041 Y123.799 E0.03101 ; skirt
G1 X74.641 Y123.315 E0.02248 ; skirt
G1 X74.132 Y122.615 E0.03100 ; skirt
G1 X73.795 Y122.085 E0.02248 ; skirt
G1 X73.378 Y121.326 E0.03101 ; skirt
G1 X73.110 Y120.757 E0.02248 ; skirt
G1 X72.792 Y119.952 E0.03100 ; skirt
G1 X72.602 Y119.368 E0.02198 ; skirt
G1 X72.382 Y118.516 E0.03151 ; skirt
G1 X72.265 Y117.899 E0.02248 ; skirt
G1 X72.156 Y117.040 E0.03100 ; skirt
G1 X72.103 Y115.980 E0.03799 ; skirt
G1 X72.103 Y84.020 E1.14421 ; skirt
G1 X72.156 Y82.960 E0.03799 ; skirt
G1 X72.265 Y82.101 E0.03101 ; skirt
G1 X72.382 Y81.484 E0.02248 ; skirt
G1 X72.598 Y80.645 E0.03101 ; skirt
G1 X72.792 Y80.048 E0.02248 ; skirt
G1 X73.111 Y79.243 E0.03100 ; skirt
G1 X73.378 Y78.674 E0.02248 ; skirt
G1 X73.795 Y77.915 E0.03101 ; skirt
G1 X74.132 Y77.385 E0.02248 ; skirt
G1 X74.641 Y76.685 E0.03101 ; skirt
G1 X75.041 Y76.201 E0.02248 ; skirt
G1 X75.583 Y75.624 E0.02832 ; skirt
G1 X75.941 Y75.896 F6000.000 ; move to first skirt point
G1 X76.399 Y75.466 E0.02248 F1050.000 ; skirt
G1 X77.023 Y74.950 E0.02899 ; skirt
G1 X77.531 Y74.581 E0.02248 ; skirt
G1 X78.214 Y74.147 E0.02899 ; skirt
G1 X78.765 Y73.845 E0.02248 ; skirt
G1 X79.497 Y73.500 E0.02899 ; skirt
G1 X80.081 Y73.269 E0.02248 ; skirt
G1 X80.851 Y73.019 E0.02899 ; skirt
G1 X81.446 Y72.866 E0.02198 ; skirt
G1 X82.255 Y72.711 E0.02949 ; skirt
G1 X82.878 Y72.632 E0.02249 ; skirt
G1 X83.686 Y72.581 E0.02898 ; skirt
G1 X116.314 Y72.581 E1.16811 ; skirt
G1 X117.122 Y72.632 E0.02899 ; skirt
G1 X117.745 Y72.711 E0.02248 F1050.000 ; skirt
G1 X118.541 Y72.862 E0.02899 ; skirt
G1 X119.149 Y73.019 E0.02248 ; skirt
G1 X119.919 Y73.269 E0.02899 ; skirt
G1 X120.503 Y73.500 E0.02248 ; skirt
G1 X121.235 Y73.845 E0.02899 ; skirt
G1 X121.786 Y74.147 E0.02248 ; skirt
G1 X122.469 Y74.581 E0.02899 ; skirt
G1 X122.977 Y74.950 E0.02248 ; skirt
G1 X123.601 Y75.466 E0.02899 ; skirt
G1 X124.059 Y75.896 E0.02248 ; skirt
G1 X124.613 Y76.487 E0.02899 ; skirt
G1 X125.014 Y76.970 E0.02248 ; skirt
G1 X125.490 Y77.626 E0.02899 ; skirt
G1 X125.826 Y78.156 E0.02248 ; skirt
G1 X126.216 Y78.865 E0.02899 ; skirt
G1 X126.484 Y79.433 E0.02248 ; skirt
G1 X126.782 Y80.186 E0.02899 ; skirt
G1 X126.976 Y80.784 E0.02248 ; skirt
G1 X127.177 Y81.568 E0.02899 ; skirt
G1 X127.295 Y82.185 E0.02248 ; skirt
G1 X127.396 Y82.988 E0.02899 ; skirt
G1 X127.448 Y84.020 E0.03698 ; skirt
G1 X127.448 Y115.980 E1.14421 ; skirt
G1 X127.396 Y117.012 E0.03698 ; skirt
G1 X127.295 Y117.815 E0.02899 ; skirt
G1 X127.177 Y118.432 E0.02248 ; skirt
G1 X126.976 Y119.216 E0.02899 ; skirt
G1 X126.782 Y119.814 E0.02248 ; skirt
G1 X126.484 Y120.567 E0.02899 ; skirt
G1 X126.216 Y121.135 E0.02248 ; skirt
G1 X125.826 Y121.844 E0.02899 ; skirt
G1 X125.490 Y122.375 E0.02248 ; skirt
G1 X125.014 Y123.030 E0.02899 ; skirt
G1 X124.613 Y123.513 E0.02248 ; skirt
G1 X124.205 Y123.963 E0.02175 ; skirt
G1 X123.601 Y124.534 E0.02973 ; skirt
G1 X122.977 Y125.050 E0.02899 ; skirt
G1 X122.469 Y125.419 E0.02248 ; skirt
G1 X121.786 Y125.853 E0.02899 ; skirt
G1 X121.272 Y126.135 E0.02098 ; skirt
G1 X120.503 Y126.500 E0.03049 ; skirt
G1 X119.919 Y126.731 E0.02248 ; skirt
G1 X119.149 Y126.981 E0.02899 ; skirt
G1 X118.541 Y127.138 E0.02248 ; skirt
G1 X117.745 Y127.289 E0.02899 ; skirt
G1 X117.122 Y127.368 E0.02248 ; skirt
G1 X116.314 Y127.419 E0.02899 ; skirt
G1 X83.686 Y127.419 E1.16811 ; skirt
G1 X82.878 Y127.368 E0.02899 ; skirt
G1 X82.255 Y127.289 E0.02248 ; skirt
G1 X81.459 Y127.138 E0.02899 ; skirt
G1 X80.851 Y126.981 E0.02248 ; skirt
G1 X80.081 Y126.731 E0.02899 ; skirt
G1 X79.497 Y126.500 E0.02248 ; skirt
G1 X78.765 Y126.155 E0.02899 ; skirt
G1 X78.214 Y125.853 E0.02248 ; skirt
G1 X77.531 Y125.419 E0.02899 ; skirt
G1 X77.022 Y125.050 E0.02249 ; skirt
G1 X76.399 Y124.534 E0.02898 ; skirt
G1 X75.941 Y124.104 E0.02248 ; skirt
G1 X75.387 Y123.513 E0.02899 ; skirt
G1 X74.986 Y123.030 E0.02248 ; skirt
G1 X74.510 Y122.374 E0.02899 ; skirt
G1 X74.174 Y121.844 E0.02248 ; skirt
G1 X73.784 Y121.135 E0.02899 ; skirt
G1 X73.516 Y120.566 E0.02248 ; skirt
G1 X73.218 Y119.814 E0.02899 ; skirt
G1 X73.024 Y119.216 E0.02248 ; skirt
G1 X72.823 Y118.432 E0.02899 ; skirt
G1 X72.713 Y117.856 E0.02098 ; skirt
G1 X72.604 Y117.012 E0.03049 ; skirt
G1 X72.564 Y116.385 E0.02250 ; skirt
G1 X72.552 Y115.980 E0.01448 ; skirt
G1 X72.552 Y84.020 E1.14421 ; skirt
G1 X72.604 Y82.988 E0.03698 ; skirt
G1 X72.705 Y82.185 E0.02899 ; skirt
G1 X72.823 Y81.568 E0.02248 ; skirt
G1 X73.024 Y80.784 E0.02899 ; skirt
G1 X73.205 Y80.226 E0.02099 ; skirt
G1 X73.516 Y79.433 E0.03048 ; skirt
G1 X73.784 Y78.865 E0.02248 ; skirt
G1 X74.174 Y78.156 E0.02899 ; skirt
G1 X74.510 Y77.626 E0.02248 ; skirt
G1 X74.986 Y76.970 E0.02899 ; skirt
G1 X75.386 Y76.487 E0.02248 ; skirt
G1 X75.890 Y75.951 E0.02631 ; skirt
G1 E-4.00000 F1800.00000 ; retract
G1 X102.461 Y102.346 F6000.000 ; move to first perimeter point
G1 E4.00000 F1800.00000 ; unretract
G1 X102.023 Y102.734 E0.02095 F1350.000 ; perimeter
G1 X101.531 Y103.037 E0.02069 ; perimeter
G1 X100.996 Y103.252 E0.02065 ; perimeter
G1 X100.432 Y103.373 E0.02065 ; perimeter
G1 X99.856 Y103.398 E0.02065 ; perimeter
G1 X99.283 Y103.325 E0.02065 ; perimeter
G1 X98.732 Y103.156 E0.02065 ; perimeter
G1 X98.217 Y102.896 E0.02065 ; perimeter
G1 X97.753 Y102.553 E0.02065 ; perimeter
G1 X97.354 Y102.137 E0.02065 ; perimeter
G1 X97.031 Y101.659 E0.02065 ; perimeter
G1 X96.797 Y101.142 E0.02031 ; perimeter
G1 X96.648 Y100.576 E0.02095 ; perimeter
G1 X96.599 Y100.000 E0.02069 ; perimeter
G1 X96.648 Y99.425 E0.02065 ; perimeter
G1 X96.791 Y98.876 E0.02031 ; perimeter
G1 X97.030 Y98.342 E0.02095 ; perimeter
G1 X97.354 Y97.863 E0.02069 ; perimeter
G1 X97.753 Y97.447 E0.02065 ; perimeter
G1 X98.217 Y97.104 E0.02065 ; perimeter
G1 X98.732 Y96.844 E0.02065 ; perimeter
G1 X99.283 Y96.675 E0.02065 ; perimeter
G1 X99.846 Y96.603 E0.02031 F1350.000 ; perimeter
G1 X100.431 Y96.626 E0.02095 ; perimeter
G1 X100.996 Y96.748 E0.02069 ; perimeter
G1 X101.531 Y96.963 E0.02065 ; perimeter
G1 X102.022 Y97.266 E0.02065 ; perimeter
G1 X102.455 Y97.647 E0.02065 ; perimeter
G1 X102.818 Y98.096 E0.02065 ; perimeter
G1 X103.099 Y98.599 E0.02065 ; perimeter
G1 X103.291 Y99.143 E0.02065 ; perimeter
G1 X103.389 Y99.712 E0.02065 ; perimeter
G1 X103.389 Y100.288 E0.02065 ; perimeter
G1 X103.291 Y100.857 E0.02065 ; perimeter
G1 X103.099 Y101.401 E0.02065 ; perimeter
G1 X102.818 Y101.904 E0.02065 ; perimeter
G1 X102.509 Y102.287 E0.01762 ; perimeter
G1 X102.136 Y102.035 F6000.000 ; move to first perimeter point
G1 X101.755 Y102.372 E0.01822 F1350.000 ; perimeter
G1 X101.329 Y102.635 E0.01793 ; perimeter
G1 X100.864 Y102.822 E0.01792 ; perimeter
G1 X100.375 Y102.927 E0.01792 ; perimeter
G1 X99.875 Y102.948 E0.01792 ; perimeter
G1 X99.378 Y102.885 E0.01792 ; perimeter
G1 X98.900 Y102.738 E0.01792 ; perimeter
G1 X98.453 Y102.513 E0.01792 ; perimeter
G1 X98.050 Y102.215 E0.01792 ; perimeter
G1 X97.704 Y101.854 E0.01792 ; perimeter
G1 X97.424 Y101.439 E0.01792 ; perimeter
G1 X97.221 Y100.991 E0.01760 ; perimeter
G1 X97.092 Y100.499 E0.01822 ; perimeter
G1 X97.049 Y100.000 E0.01793 ; perimeter
G1 X97.092 Y99.501 E0.01792 ; perimeter
G1 X97.215 Y99.026 E0.01760 ; perimeter
G1 X97.424 Y98.561 E0.01822 ; perimeter
G1 X97.704 Y98.146 E0.01793 ; perimeter
G1 X98.050 Y97.785 E0.01792 ; perimeter
G1 X98.453 Y97.487 E0.01792 ; perimeter
G1 X98.900 Y97.262 E0.01792 ; perimeter
G1 X99.378 Y97.115 E0.01792 ; perimeter
G1 X99.866 Y97.053 E0.01760 F1350.000 ; perimeter
G1 X100.374 Y97.073 E0.01822 ; perimeter
G1 X100.864 Y97.178 E0.01793 ; perimeter
G1 X101.329 Y97.365 E0.01792 ; perimeter
G1 X101.755 Y97.627 E0.01792 ; perimeter
G1 X102.130 Y97.958 E0.01792 ; perimeter
G1 X102.445 Y98.348 E0.01792 ; perimeter
G1 X102.689 Y98.785 E0.01792 ; perimeter
G1 X102.856 Y99.256 E0.01792 ; perimeter
G1 X102.940 Y99.750 E0.01792 ; perimeter
G1 X102.940 Y100.250 E0.01792 ; perimeter
G1 X102.856 Y100.744 E0.01792 ; perimeter
G1 X102.689 Y101.215 E0.01792 ; perimeter
G1 X102.445 Y101.652 E0.01792 ; perimeter
G1 X102.183 Y101.977 E0.01491 ; perimeter
G1 X102.263 Y102.518 F6000.000 ; move inwards before travel
G1 X103.057 Y103.016 F6000.000 ; move to first perimeter point
G1 X102.741 Y103.313 E0.01554 F1350.000 ; perimeter
G1 X102.304 Y103.631 E0.01933 ; perimeter
G1 X101.831 Y103.891 E0.01933 ; perimeter
G1 X101.341 Y104.085 E0.01887 ; perimeter
G1 X100.805 Y104.224 E0.01983 ; perimeter
G1 X100.270 Y104.292 E0.01930 ; perimeter
G1 X99.730 Y104.292 E0.01933 ; perimeter
G1 X99.194 Y104.224 E0.01933 ; perimeter
G1 X98.671 Y104.090 E0.01933 ; perimeter
G1 X98.169 Y103.891 E0.01933 ; perimeter
G1 X97.696 Y103.631 E0.01933 ; perimeter
G1 X97.259 Y103.313 E0.01933 ; perimeter
G1 X96.865 Y102.944 E0.01933 ; perimeter
G1 X96.521 Y102.528 E0.01933 ; perimeter
G1 X96.232 Y102.072 E0.01933 ; perimeter
G1 X96.002 Y101.583 E0.01933 ; perimeter
G1 X95.835 Y101.069 E0.01933 ; perimeter
G1 X95.734 Y100.539 E0.01933 ; perimeter
G1 X95.700 Y100.000 E0.01933 ; perimeter
G1 X95.734 Y99.461 E0.01933 ; perimeter
G1 X95.835 Y98.931 E0.01933 ; perimeter
G1 X96.002 Y98.417 E0.01933 ; perimeter
G1 X96.232 Y97.928 E0.01933 ; perimeter
G1 X96.521 Y97.472 E0.01933 ; perimeter
G1 X96.857 Y97.066 E0.01887 ; perimeter
G1 X97.260 Y96.686 E0.01983 ; perimeter
G1 X97.696 Y96.369 E0.01930 ; perimeter
G1 X98.169 Y96.109 E0.01933 ; perimeter
G1 X98.671 Y95.910 E0.01933 ; perimeter
G1 X99.194 Y95.776 E0.01933 ; perimeter
G1 X99.730 Y95.708 E0.01933 ; perimeter
G1 X100.270 Y95.708 E0.01933 ; perimeter
G1 X100.793 Y95.774 E0.01887 ; perimeter
G1 X101.330 Y95.911 E0.01983 F1350.000 ; perimeter
G1 X101.831 Y96.109 E0.01930 ; perimeter
G1 X102.304 Y96.369 E0.01933 ; perimeter
G1 X102.741 Y96.687 E0.01933 ; perimeter
G1 X103.135 Y97.056 E0.01933 ; perimeter
G1 X103.479 Y97.472 E0.01933 ; perimeter
G1 X103.768 Y97.928 E0.01933 ; perimeter
G1 X103.998 Y98.417 E0.01933 ; perimeter
G1 X104.165 Y98.931 E0.01933 ; perimeter
G1 X104.266 Y99.461 E0.01933 ; perimeter
G1 X104.300 Y100.000 E0.01933 ; perimeter
G1 X104.266 Y100.539 E0.01933 ; perimeter
G1 X104.165 Y101.069 E0.01933 ; perimeter
G1 X103.998 Y101.583 E0.01933 ; perimeter
G1 X103.768 Y102.072 E0.01933 ; perimeter
G1 X103.479 Y102.528 E0.01933 ; perimeter
G1 X103.112 Y102.965 E0.02043 ; perimeter
G1 X103.365 Y103.343 F6000.000 ; move to first perimeter point
G1 X103.027 Y103.660 E0.01655 F1350.000 ; perimeter
G1 X102.545 Y104.010 E0.02135 ; perimeter
G1 X102.022 Y104.297 E0.02135 ; perimeter
G1 X101.480 Y104.512 E0.02087 ; perimeter
G1 X100.890 Y104.665 E0.02185 ; perimeter
G1 X100.298 Y104.740 E0.02134 ; perimeter
G1 X99.702 Y104.740 E0.02135 ; perimeter
G1 X99.110 Y104.665 E0.02135 ; perimeter
G1 X98.532 Y104.517 E0.02135 ; perimeter
G1 X97.978 Y104.297 E0.02135 ; perimeter
G1 X97.455 Y104.010 E0.02135 ; perimeter
G1 X96.973 Y103.660 E0.02135 ; perimeter
G1 X96.538 Y103.251 E0.02135 ; perimeter
G1 X96.158 Y102.792 E0.02135 ; perimeter
G1 X95.838 Y102.288 E0.02135 ; perimeter
G1 X95.584 Y101.748 E0.02135 ; perimeter
G1 X95.400 Y101.181 E0.02135 ; perimeter
G1 X95.288 Y100.595 E0.02135 ; perimeter
G1 X95.250 Y100.000 E0.02135 ; perimeter
G1 X95.288 Y99.405 E0.02135 ; perimeter
G1 X95.400 Y98.819 E0.02135 ; perimeter
G1 X95.584 Y98.252 E0.02135 ; perimeter
G1 X95.838 Y97.712 E0.02135 ; perimeter
G1 X96.158 Y97.208 E0.02135 ; perimeter
G1 X96.529 Y96.759 E0.02087 ; perimeter
G1 X96.973 Y96.340 E0.02185 ; perimeter
G1 X97.455 Y95.990 E0.02134 ; perimeter
G1 X97.978 Y95.703 E0.02135 ; perimeter
G1 X98.532 Y95.483 E0.02135 ; perimeter
G1 X99.110 Y95.335 E0.02135 ; perimeter
G1 X99.702 Y95.260 E0.02135 ; perimeter
G1 X100.298 Y95.260 E0.02135 ; perimeter
G1 X100.876 Y95.333 E0.02087 ; perimeter
G1 X101.468 Y95.483 E0.02185 F1350.000 ; perimeter
G1 X102.022 Y95.703 E0.02134 ; perimeter
G1 X102.545 Y95.990 E0.02135 ; perimeter
G1 X103.027 Y96.340 E0.02135 ; perimeter
G1 X103.462 Y96.749 E0.02135 ; perimeter
G1 X103.842 Y97.208 E0.02135 ; perimeter
G1 X104.162 Y97.712 E0.02135 ; perimeter
G1 X104.416 Y98.252 E0.02135 ; perimeter
G1 X104.600 Y98.819 E0.02135 ; perimeter
G1 X104.712 Y99.405 E0.02135 ; perimeter
G1 X104.750 Y100.000 E0.02135 ; perimeter
G1 X104.712 Y100.595 E0.02135 ; perimeter
G1 X104.600 Y101.181 E0.02135 ; perimeter
G1 X104.416 Y101.748 E0.02135 ; perimeter
G1 X104.162 Y102.288 E0.02135 ; perimeter
G1 X103.842 Y102.792 E0.02135 ; perimeter
G1 X103.419 Y103.292 E0.02345 ; perimeter
G1 X102.918 Y103.225 F6000.000 ; move inwards before travel
G1 X102.760 Y102.680 F6000.000 ; move to first infill point
G1 X102.304 Y103.080 E0.04592 F540.000 ; infill
G1 X101.749 Y103.427 E0.04956 ; infill
