; generated by Slic3r 1.2.9 on 2016-08-02 at 21:47:25

; external perimeters extrusion width = 0.50mm
; perimeters extrusion width = 0.50mm
; infill extrusion width = 0.50mm
; solid infill extrusion width = 0.50mm
; top infill extrusion width = 0.50mm

M107 ; disable fan
M190 S57 ; set bed temperature
M104 S185 ; set temperature

M109 S185 ; wait for temperature to be reached
G21 ; set units to millimeters
G90 ; use absolute coordinates
M83 ; use relative distances for extrusion
G1 E-4.00000 F1800.00000 ; retract
G1 Z0.240 F6000.000 ; move to next layer (0)
G1 X57.396 Y59.653 F6000.000 ; move to first skirt point
G1 E4.00000 F1800.00000 ; unretract
G1 X59.158 Y58.112 E0.08379 F1050.000 ; skirt
G1 X61.334 Y57.250 E0.08379 ; skirt
G1 X62.750 Y57.103 E0.05098 ; skirt
G1 X137.250 Y57.103 E2.66716 ; skirt
G1 X139.556 Y57.500 E0.08379 ; skirt
G1 X141.597 Y58.646 E0.08379 F1050.000 ; skirt
G1 X143.138 Y60.408 E0.08379 ; skirt
G1 X144.000 Y62.584 E0.08379 ; skirt
G1 X144.147 Y64.000 E0.05098 ; skirt
G1 X144.147 Y136.000 E2.57766 ; skirt
G1 X143.750 Y138.306 E0.08379 ; skirt
G1 X142.604 Y140.347 E0.08379 ; skirt
G1 X140.842 Y141.888 E0.08379 ; skirt
G1 X138.666 Y142.750 E0.08379 ; skirt
G1 X137.250 Y142.897 E0.05098 ; skirt
G1 X62.750 Y142.897 E2.66716 ; skirt
G1 X60.444 Y142.500 E0.08379 ; skirt
G1 X58.403 Y141.354 E0.08379 ; skirt
G1 X56.862 Y139.592 E0.08379 ; skirt
G1 X56.000 Y137.416 E0.08379 ; skirt
G1 X55.853 Y136.000 E0.05098 ; skirt
G1 X55.853 Y64.000 E2.57766 ; skirt
G1 X56.250 Y61.694 E0.08379 ; skirt
G1 X57.359 Y59.718 E0.08110 ; skirt
G1 X57.800 Y59.889 F6000.000 ; move to first skirt point
G1 X57.840 Y59.819 E0.00288 F1050.000 ; skirt
G1 X59.586 Y58.381 E0.08100 ; skirt
G1 X62.750 Y57.552 E0.11708 ; skirt
G1 X137.250 Y57.552 E2.66716 ; skirt
G1 X139.477 Y57.948 E0.08100 ; skirt
G1 X141.431 Y59.090 E0.08100 F1050.000 ; skirt
G1 X142.869 Y60.836 E0.08100 ; skirt
G1 X143.698 Y64.000 E0.11708 ; skirt
G1 X143.698 Y136.000 E2.57766 ; skirt
G1 X143.302 Y138.227 E0.08100 ; skirt
G1 X142.160 Y140.181 E0.08100 ; skirt
G1 X140.414 Y141.619 E0.08100 ; skirt
G1 X137.250 Y142.448 E0.11708 ; skirt
G1 X62.750 Y142.448 E2.66716 ; skirt
G1 X60.523 Y142.052 E0.08100 ; skirt
G1 X58.569 Y140.910 E0.08100 ; skirt
G1 X57.131 Y139.164 E0.08100 ; skirt
G1 X56.302 Y136.000 E0.11708 ; skirt
G1 X56.302 Y64.000 E2.57766 ; skirt
G1 X56.698 Y61.773 E0.08100 ; skirt
G1 X57.762 Y59.954 E0.07544 ; skirt
G1 E-4.00000 F1800.00000 ; retract
G1 X128.088 Y128.174 F6000.000 ; move to first perimeter point
G1 E4.00000 F1800.00000 ; unretract
G1 X128.453 Y127.653 E0.02279 F1350.000 ; perimeter
G1 X128.903 Y127.203 E0.02279 ; perimeter
G1 X129.424 Y126.838 E0.02279 ; perimeter
G1 X130.001 Y126.569 E0.02279 ; perimeter
G1 X130.616 Y126.404 E0.02279 ; perimeter
G1 X131.237 Y126.350 E0.02233 F1350.000 ; perimeter
G1 X131.882 Y126.403 E0.02316 ; perimeter
G1 X132.499 Y126.569 E0.02287 ; perimeter
G1 X133.076 Y126.838 E0.02279 ; perimeter
G1 X133.597 Y127.203 E0.02279 ; perimeter
G1 X134.047 Y127.653 E0.02279 ; perimeter
G1 X134.412 Y128.174 E0.02279 ; perimeter
G1 X134.681 Y128.751 E0.02279 ; perimeter
G1 X134.843 Y129.354 E0.02233 ; perimeter
G1 X134.902 Y129.998 E0.02316 ; perimeter
G1 X134.846 Y130.634 E0.02287 ; perimeter
G1 X134.681 Y131.249 E0.02279 ; perimeter
G1 X134.412 Y131.826 E0.02279 ; perimeter
G1 X134.047 Y132.347 E0.02279 ; perimeter
G1 X133.597 Y132.797 E0.02279 ; perimeter
G1 X133.076 Y133.162 E0.02279 ; perimeter
G1 X132.499 Y133.431 E0.02279 ; perimeter
G1 X131.896 Y133.593 E0.02233 ; perimeter
G1 X131.252 Y133.652 E0.02316 ; perimeter
G1 X130.616 Y133.596 E0.02287 ; perimeter
G1 X130.001 Y133.431 E0.02279 ; perimeter
G1 X129.436 Y133.168 E0.02233 ; perimeter
G1 X128.905 Y132.799 E0.02316 ; perimeter
G1 X128.453 Y132.347 E0.02287 ; perimeter
G1 X128.088 Y131.826 E0.02279 ; perimeter
G1 X127.819 Y131.249 E0.02279 ; perimeter
G1 X127.654 Y130.634 E0.02279 ; perimeter
G1 X127.599 Y130.000 E0.02279 ; perimeter
G1 X127.654 Y129.366 E0.02279 ; perimeter
G1 X127.819 Y128.751 E0.02279 ; perimeter
G1 X128.056 Y128.242 E0.02010 ; perimeter
G1 X128.478 Y128.399 F6000.000 ; move to first perimeter point
G1 X128.798 Y127.942 E0.01998 F1350.000 ; perimeter
G1 X129.192 Y127.548 E0.01998 ; perimeter
G1 X129.649 Y127.228 E0.01998 ; perimeter
G1 X130.155 Y126.992 E0.01998 ; perimeter
G1 X130.694 Y126.847 E0.01998 ; perimeter
G1 X131.238 Y126.800 E0.01955 F1350.000 ; perimeter
G1 X131.804 Y126.847 E0.02035 ; perimeter
G1 X132.345 Y126.992 E0.02003 ; perimeter
G1 X132.851 Y127.228 E0.01998 ; perimeter
G1 X133.308 Y127.548 E0.01998 ; perimeter
G1 X133.702 Y127.942 E0.01998 ; perimeter
G1 X134.022 Y128.399 E0.01998 ; perimeter
G1 X134.258 Y128.905 E0.01998 ; perimeter
G1 X134.399 Y129.433 E0.01955 ; perimeter
G1 X134.451 Y129.999 E0.02035 ; perimeter
G1 X134.403 Y130.556 E0.02003 ; perimeter
G1 X134.258 Y131.095 E0.01998 ; perimeter
G1 X134.022 Y131.601 E0.01998 ; perimeter
G1 X133.702 Y132.058 E0.01998 ; perimeter
G1 X133.308 Y132.452 E0.01998 ; perimeter
G1 X132.851 Y132.772 E0.01998 ; perimeter
G1 X132.345 Y133.008 E0.01998 ; perimeter
G1 X131.817 Y133.149 E0.01955 ; perimeter
G1 X131.251 Y133.201 E0.02035 ; perimeter
G1 X130.694 Y133.153 E0.02003 ; perimeter
G1 X130.155 Y133.008 E0.01998 ; perimeter
G1 X129.660 Y132.777 E0.01955 ; perimeter
G1 X129.193 Y132.453 E0.02035 ; perimeter
G1 X128.798 Y132.058 E0.02003 ; perimeter
G1 X128.478 Y131.601 E0.01998 ; perimeter
G1 X128.242 Y131.095 E0.01998 ; perimeter
G1 X128.097 Y130.556 E0.01998 ; perimeter
G1 X128.049 Y130.000 E0.01998 ; perimeter
G1 X128.097 Y129.444 E0.01998 ; perimeter
G1 X128.242 Y128.905 E0.01998 ; perimeter
G1 X128.446 Y128.467 E0.01729 ; perimeter
G1 X128.868 Y128.625 F6000.000 ; move to first perimeter point
G1 X129.143 Y128.232 E0.01717 F1350.000 ; perimeter
G1 X129.482 Y127.893 E0.01717 ; perimeter
G1 X129.875 Y127.618 E0.01717 ; perimeter
G1 X130.309 Y127.415 E0.01717 ; perimeter
G1 X130.772 Y127.291 E0.01717 ; perimeter
G1 X131.239 Y127.250 E0.01677 F1350.000 ; perimeter
G1 X131.727 Y127.291 E0.01754 ; perimeter
G1 X132.191 Y127.415 E0.01719 ; perimeter
G1 X132.625 Y127.618 E0.01717 ; perimeter
G1 X133.018 Y127.893 E0.01717 ; perimeter
G1 X133.357 Y128.232 E0.01717 ; perimeter
G1 X133.632 Y128.625 E0.01717 ; perimeter
G1 X133.835 Y129.059 E0.01717 ; perimeter
G1 X133.956 Y129.512 E0.01677 ; perimeter
G1 X134.001 Y129.999 E0.01754 ; perimeter
G1 X133.959 Y130.478 E0.01719 ; perimeter
G1 X133.835 Y130.941 E0.01717 ; perimeter
G1 X133.632 Y131.375 E0.01717 ; perimeter
G1 X133.357 Y131.768 E0.01717 ; perimeter
G1 X133.018 Y132.107 E0.01717 ; perimeter
G1 X132.625 Y132.382 E0.01717 ; perimeter
G1 X132.191 Y132.585 E0.01717 ; perimeter
G1 X131.738 Y132.706 E0.01677 ; perimeter
G1 X131.251 Y132.751 E0.01754 ; perimeter
G1 X130.772 Y132.709 E0.01719 ; perimeter
G1 X130.309 Y132.585 E0.01717 ; perimeter
G1 X129.884 Y132.387 E0.01677 ; perimeter
G1 X129.482 Y132.108 E0.01754 ; perimeter
G1 X129.143 Y131.768 E0.01719 ; perimeter
G1 X128.868 Y131.375 E0.01717 ; perimeter
G1 X128.665 Y130.941 E0.01717 ; perimeter
G1 X128.541 Y130.478 E0.01717 ; perimeter
G1 X128.499 Y130.000 E0.01717 ; perimeter
G1 X128.541 Y129.522 E0.01717 ; perimeter
G1 X128.665 Y129.059 E0.01717 ; perimeter
G1 X128.836 Y128.692 E0.01448 ; perimeter
G1 X128.640 Y128.202 F6000.000 ; move inwards before travel
G1 X130.804 Y112.717 F6000.000 ; move to first perimeter point
G1 X130.231 Y112.558 E0.02132 F1350.000 ; perimeter
G1 X129.705 Y112.279 E0.02132 ; perimeter
G1 X129.251 Y111.894 E0.02132 ; perimeter
G1 X128.890 Y111.420 E0.02132 ; perimeter
G1 X128.640 Y110.879 E0.02132 ; perimeter
G1 X128.512 Y110.298 E0.02132 ; perimeter
G1 X128.512 Y109.702 E0.02132 ; perimeter
G1 X128.640 Y109.121 E0.02132 ; perimeter
G1 X128.890 Y108.580 E0.02132 ; perimeter
G1 X129.251 Y108.106 E0.02132 ; perimeter
G1 X129.705 Y107.721 E0.02132 ; perimeter
G1 X130.232 Y107.441 E0.02139 ; perimeter
G1 X130.813 Y107.282 E0.02154 ; perimeter
G1 X131.398 Y107.250 E0.02100 F1350.000 ; perimeter
G1 X131.987 Y107.347 E0.02135 ; perimeter
G1 X132.540 Y107.567 E0.02132 ; perimeter
G1 X133.033 Y107.901 E0.02132 ; perimeter
G1 X133.442 Y108.334 E0.02132 ; perimeter
G1 X133.749 Y108.844 E0.02132 ; perimeter
G1 X133.939 Y109.408 E0.02132 ; perimeter
G1 X134.004 Y110.000 E0.02132 ; perimeter
G1 X133.939 Y110.592 E0.02132 ; perimeter
G1 X133.749 Y111.156 E0.02132 ; perimeter
G1 X133.442 Y111.666 E0.02132 ; perimeter
G1 X133.040 Y112.091 E0.02092 ; perimeter
G1 X132.543 Y112.432 E0.02161 ; perimeter
G1 X131.987 Y112.653 E0.02142 ; perimeter
G1 X131.399 Y112.750 E0.02132 ; perimeter
G1 X130.879 Y112.722 E0.01863 ; perimeter
G1 X130.877 Y112.272 F6000.000 ; move to first perimeter point
G1 X130.398 Y112.139 E0.01783 F1350.000 ; perimeter
G1 X129.958 Y111.906 E0.01783 ; perimeter
G1 X129.578 Y111.584 E0.01783 ; perimeter
G1 X129.277 Y111.187 E0.01783 ; perimeter
G1 X129.068 Y110.735 E0.01783 ; perimeter
G1 X128.961 Y110.249 E0.01783 ; perimeter
G1 X128.961 Y109.751 E0.01782 ; perimeter
G1 X129.068 Y109.265 E0.01783 ; perimeter
G1 X129.277 Y108.813 E0.01783 ; perimeter
G1 X129.578 Y108.416 E0.01783 ; perimeter
G1 X129.958 Y108.094 E0.01783 ; perimeter
G1 X130.399 Y107.860 E0.01787 ; perimeter
G1 X130.885 Y107.727 E0.01805 ; perimeter
G1 X131.374 Y107.701 E0.01753 F1350.000 ; perimeter
G1 X131.866 Y107.781 E0.01785 ; perimeter
G1 X132.329 Y107.966 E0.01783 ; perimeter
G1 X132.741 Y108.245 E0.01783 ; perimeter
G1 X133.083 Y108.607 E0.01783 ; perimeter
G1 X133.340 Y109.033 E0.01783 ; perimeter
G1 X133.499 Y109.505 E0.01783 ; perimeter
G1 X133.553 Y110.000 E0.01783 ; perimeter
G1 X133.499 Y110.495 E0.01783 ; perimeter
G1 X133.340 Y110.967 E0.01783 ; perimeter
G1 X133.083 Y111.393 E0.01783 ; perimeter
G1 X132.748 Y111.748 E0.01747 ; perimeter
G1 X132.330 Y112.034 E0.01812 ; perimeter
G1 X131.866 Y112.219 E0.01789 ; perimeter
G1 X131.375 Y112.299 E0.01783 ; perimeter
G1 X130.952 Y112.276 E0.01514 ; perimeter
G1 X130.950 Y111.827 F6000.000 ; move to first perimeter point
G1 X130.565 Y111.720 E0.01433 F1350.000 ; perimeter
G1 X130.211 Y111.532 E0.01433 ; perimeter
G1 X129.906 Y111.273 E0.01433 ; perimeter
G1 X129.664 Y110.955 E0.01433 ; perimeter
G1 X129.495 Y110.591 E0.01433 ; perimeter
G1 X129.409 Y110.200 E0.01433 ; perimeter
G1 X129.409 Y109.800 E0.01433 ; perimeter
G1 X129.495 Y109.409 E0.01433 ; perimeter
G1 X129.664 Y109.045 E0.01433 ; perimeter
G1 X129.906 Y108.727 E0.01433 ; perimeter
G1 X130.211 Y108.468 E0.01433 ; perimeter
G1 X130.565 Y108.280 E0.01435 ; perimeter
G1 X130.957 Y108.172 E0.01455 ; perimeter
G1 X131.349 Y108.151 E0.01407 F1350.000 ; perimeter
G1 X131.745 Y108.216 E0.01436 ; perimeter
G1 X132.117 Y108.364 E0.01433 ; perimeter
G1 X132.449 Y108.589 E0.01433 ; perimeter
G1 X132.724 Y108.880 E0.01433 ; perimeter
G1 X132.930 Y109.223 E0.01433 ; perimeter
G1 X133.058 Y109.602 E0.01433 ; perimeter
G1 X133.101 Y110.000 E0.01433 ; perimeter
G1 X133.058 Y110.398 E0.01433 ; perimeter
G1 X132.930 Y110.777 E0.01433 ; perimeter
G1 X132.724 Y111.120 E0.01433 ; perimeter
G1 X132.455 Y111.405 E0.01401 ; perimeter
G1 X132.118 Y111.636 E0.01462 ; perimeter
G1 X131.745 Y111.784 E0.01436 ; perimeter
G1 X131.350 Y111.849 E0.01433 ; perimeter
G1 X131.025 Y111.831 E0.01165 ; perimeter
G1 X130.686 Y112.127 F6000.000 ; move inwards before travel
G1 E-4.00000 F1800.00000 ; retract
G1 X131.398 Y92.750 F6000.000 ; move to first perimeter point
G1 E4.00000 F1800.00000 ; unretract
G1 X130.804 Y92.717 E0.02129 F1350.000 ; perimeter
G1 X130.231 Y92.558 E0.02131 ; perimeter
G1 X129.705 Y92.279 E0.02132 ; perimeter
G1 X129.251 Y91.894 E0.02132 ; perimeter
G1 X128.890 Y91.420 E0.02132 ; perimeter
G1 X128.640 Y90.879 E0.02132 ; perimeter
G1 X128.512 Y90.298 E0.02132 ; perimeter
G1 X128.512 Y89.702 E0.02132 ; perimeter
G1 X128.640 Y89.121 E0.02132 ; perimeter
G1 X128.890 Y88.580 E0.02132 ; perimeter
G1 X129.251 Y88.106 E0.02132 ; perimeter
G1 X129.705 Y87.721 E0.02132 ; perimeter
G1 X130.231 Y87.442 E0.02132 ; perimeter
G1 X130.804 Y87.283 E0.02132 ; perimeter
G1 X131.388 Y87.251 E0.02092 F1350.000 ; perimeter
G1 X131.984 Y87.346 E0.02161 ; perimeter
G1 X132.540 Y87.567 E0.02142 ; perimeter
G1 X133.033 Y87.901 E0.02132 ; perimeter
G1 X133.442 Y88.334 E0.02132 ; perimeter
G1 X133.749 Y88.844 E0.02132 ; perimeter
G1 X133.939 Y89.408 E0.02132 ; perimeter
G1 X134.004 Y90.000 E0.02132 ; perimeter
G1 X133.939 Y90.592 E0.02132 ; perimeter
G1 X133.749 Y91.156 E0.02132 ; perimeter
G1 X133.442 Y91.666 E0.02132 ; perimeter
G1 X133.033 Y92.099 E0.02132 ; perimeter
G1 X132.540 Y92.433 E0.02132 ; perimeter
G1 X131.987 Y92.653 E0.02132 ; perimeter
G1 X131.472 Y92.738 E0.01867 ; perimeter
G1 X131.374 Y92.299 F6000.000 ; move to first perimeter point
G1 X130.877 Y92.272 E0.01780 F1350.000 ; perimeter
G1 X130.398 Y92.139 E0.01782 ; perimeter
G1 X129.958 Y91.906 E0.01783 ; perimeter
G1 X129.578 Y91.583 E0.01783 ; perimeter
G1 X129.277 Y91.187 E0.01783 ; perimeter
G1 X129.068 Y90.735 E0.01783 ; perimeter
G1 X128.961 Y90.249 E0.01783 ; perimeter
G1 X128.961 Y89.751 E0.01782 ; perimeter
G1 X129.068 Y89.265 E0.01783 ; perimeter
G1 X129.277 Y88.813 E0.01783 ; perimeter
G1 X129.578 Y88.416 E0.01783 ; perimeter
G1 X129.958 Y88.094 E0.01783 ; perimeter
G1 X130.398 Y87.861 E0.01783 ; perimeter
G1 X130.877 Y87.728 E0.01783 ; perimeter
G1 X131.365 Y87.701 E0.01746 F1350.000 ; perimeter
G1 X131.864 Y87.781 E0.01812 ; perimeter
G1 X132.329 Y87.966 E0.01789 ; perimeter
G1 X132.741 Y88.245 E0.01783 ; perimeter
G1 X133.083 Y88.607 E0.01783 ; perimeter
G1 X133.340 Y89.033 E0.01783 ; perimeter
G1 X133.499 Y89.505 E0.01783 ; perimeter
G1 X133.553 Y90.000 E0.01783 ; perimeter
G1 X133.499 Y90.495 E0.01783 ; perimeter
G1 X133.340 Y90.967 E0.01783 ; perimeter
G1 X133.083 Y91.393 E0.01783 ; perimeter
G1 X132.741 Y91.755 E0.01783 ; perimeter
G1 X132.329 Y92.034 E0.01783 ; perimeter
G1 X131.866 Y92.219 E0.01783 ; perimeter
G1 X131.448 Y92.287 E0.01517 ; perimeter
G1 X131.349 Y91.849 F6000.000 ; move to first perimeter point
G1 X130.950 Y91.827 E0.01431 F1350.000 ; perimeter
G1 X130.565 Y91.720 E0.01433 ; perimeter
G1 X130.211 Y91.532 E0.01433 ; perimeter
G1 X129.906 Y91.273 E0.01433 ; perimeter
G1 X129.664 Y90.955 E0.01433 ; perimeter
G1 X129.495 Y90.591 E0.01433 ; perimeter
G1 X129.409 Y90.200 E0.01433 ; perimeter
G1 X129.409 Y89.800 E0.01433 ; perimeter
G1 X129.495 Y89.409 E0.01433 ; perimeter
G1 X129.664 Y89.045 E0.01433 ; perimeter
G1 X129.906 Y88.727 E0.01433 ; perimeter
G1 X130.211 Y88.468 E0.01433 ; perimeter
G1 X130.565 Y88.280 E0.01433 ; perimeter
G1 X130.950 Y88.173 E0.01433 ; perimeter
G1 X131.341 Y88.152 E0.01401 F1350.000 ; perimeter
G1 X131.745 Y88.216 E0.01462 ; perimeter
G1 X132.117 Y88.364 E0.01436 ; perimeter
G1 X132.449 Y88.589 E0.01433 ; perimeter
G1 X132.724 Y88.880 E0.01433 ; perimeter
G1 X132.930 Y89.223 E0.01433 ; perimeter
G1 X133.058 Y89.602 E0.01433 ; perimeter
G1 X133.101 Y90.000 E0.01433 ; perimeter
G1 X133.058 Y90.398 E0.01433 ; perimeter
G1 X132.930 Y90.777 E0.01433 ; perimeter
G1 X132.724 Y91.120 E0.01433 ; perimeter
G1 X132.449 Y91.411 E0.01433 ; perimeter
G1 X132.117 Y91.636 E0.01433 ; perimeter
G1 X131.745 Y91.784 E0.01433 ; perimeter
G1 X131.423 Y91.837 E0.01168 ; perimeter
G1 X131.156 Y92.198 F6000.000 ; move inwards before travel
G1 E-4.00000 F1800.00000 ; retract
G1 X131.250 Y73.651 F6000.000 ; move to first perimeter point
G1 E4.00000 F1800.00000 ; unretract
G1 X130.616 Y73.596 E0.02279 F1350.000 ; perimeter
G1 X130.001 Y73.431 E0.02279 ; perimeter
G1 X129.424 Y73.162 E0.02279 ; perimeter
G1 X128.903 Y72.797 E0.02279 ; perimeter
G1 X128.453 Y72.347 E0.02279 ; perimeter
G1 X128.088 Y71.826 E0.02279 ; perimeter
G1 X127.819 Y71.249 E0.02279 ; perimeter
G1 X127.654 Y70.634 E0.02279 ; perimeter
G1 X127.599 Y70.000 E0.02279 ; perimeter
G1 X127.654 Y69.366 E0.02279 ; perimeter
G1 X127.819 Y68.751 E0.02279 ; perimeter
G1 X128.088 Y68.174 E0.02279 ; perimeter
G1 X128.453 Y67.653 E0.02279 ; perimeter
G1 X128.903 Y67.203 E0.02279 ; perimeter
G1 X129.424 Y66.838 E0.02279 ; perimeter
