; generated by Slic3r 1.2.9 on 2016-08-01 at 22:08:37

; external perimeters extrusion width = 0.50mm
; perimeters extrusion width = 0.50mm
; infill extrusion width = 0.50mm
; solid infill extrusion width = 0.50mm
; top infill extrusion width = 0.50mm

M107 ; disable fan
M190 S57 ; set bed temperature
M104 S185 ; set temperature

M109 S185 ; wait for temperature to be reached
G21 ; set units to millimeters
G90 ; use absolute coordinates
M83 ; use relative distances for extrusion
G1 E-4.00000 F1800.00000 ; retract
G1 Z0.240 F6000.000 ; move to next layer (0)
G1 X64.115 Y61.161 F6000.000 ; move to first skirt point
G1 E4.00000 F1800.00000 ; unretract
G1 X64.662 Y60.615 E0.02768 F1050.000 ; skirt
G1 X65.163 Y60.166 E0.02409 ; skirt
G1 X65.768 Y59.684 E0.02769 ; skirt
G1 X66.317 Y59.295 E0.02409 ; skirt
G1 X66.972 Y58.883 E0.02769 ; skirt
G1 X67.560 Y58.558 E0.02409 ; skirt
G1 X68.257 Y58.222 E0.02769 ; skirt
G1 X68.879 Y57.965 E0.02409 ; skirt
G1 X69.609 Y57.709 E0.02769 ; skirt
G1 X70.256 Y57.523 E0.02409 ; skirt
G1 X71.010 Y57.351 E0.02769 ; skirt
G1 X71.673 Y57.238 E0.02409 ; skirt
G1 X72.441 Y57.152 E0.02769 ; skirt
G1 X73.500 Y57.103 E0.03794 ; skirt
G1 X126.887 Y57.114 E1.91129 ; skirt
G1 X127.559 Y57.152 E0.02411 F1050.000 ; skirt
G1 X128.327 Y57.238 E0.02766 ; skirt
G1 X128.990 Y57.351 E0.02409 ; skirt
G1 X129.744 Y57.523 E0.02769 ; skirt
G1 X130.391 Y57.709 E0.02409 ; skirt
G1 X131.121 Y57.965 E0.02769 ; skirt
G1 X131.743 Y58.222 E0.02409 ; skirt
G1 X132.440 Y58.558 E0.02769 ; skirt
G1 X133.028 Y58.883 E0.02409 ; skirt
G1 X133.683 Y59.295 E0.02769 ; skirt
G1 X134.232 Y59.684 E0.02409 ; skirt
G1 X134.837 Y60.166 E0.02769 ; skirt
G1 X135.620 Y60.880 E0.03793 ; skirt
G1 X136.334 Y61.663 E0.03793 ; skirt
G1 X136.816 Y62.268 E0.02769 ; skirt
G1 X137.205 Y62.817 E0.02409 ; skirt
G1 X137.617 Y63.472 E0.02769 ; skirt
G1 X137.942 Y64.061 E0.02409 ; skirt
G1 X138.278 Y64.757 E0.02768 ; skirt
G1 X138.530 Y65.366 E0.02359 ; skirt
G1 X138.791 Y66.109 E0.02819 ; skirt
G1 X138.977 Y66.755 E0.02409 ; skirt
G1 X139.149 Y67.510 E0.02769 ; skirt
G1 X139.262 Y68.173 E0.02409 ; skirt
G1 X139.348 Y68.941 E0.02769 ; skirt
G1 X139.397 Y70.000 E0.03794 ; skirt
G1 X139.397 Y130.000 E2.14805 ; skirt
G1 X139.348 Y131.059 E0.03794 ; skirt
G1 X139.262 Y131.827 E0.02769 ; skirt
G1 X139.149 Y132.491 E0.02410 ; skirt
G1 X138.977 Y133.245 E0.02768 ; skirt
G1 X138.791 Y133.891 E0.02410 ; skirt
G1 X138.535 Y134.621 E0.02768 ; skirt
G1 X138.294 Y135.203 E0.02254 ; skirt
G1 X137.942 Y135.939 E0.02923 ; skirt
G1 X137.616 Y136.529 E0.02414 ; skirt
G1 X137.205 Y137.183 E0.02765 ; skirt
G1 X136.816 Y137.732 E0.02409 ; skirt
G1 X136.334 Y138.337 E0.02769 ; skirt
G1 X135.885 Y138.838 E0.02409 ; skirt
G1 X135.338 Y139.385 E0.02769 ; skirt
G1 X134.837 Y139.834 E0.02409 ; skirt
G1 X134.232 Y140.316 E0.02769 ; skirt
G1 X133.683 Y140.705 E0.02409 ; skirt
G1 X133.028 Y141.117 E0.02770 ; skirt
G1 X132.439 Y141.442 E0.02409 ; skirt
G1 X131.743 Y141.778 E0.02768 ; skirt
G1 X131.121 Y142.035 E0.02409 ; skirt
G1 X130.391 Y142.291 E0.02769 ; skirt
G1 X129.745 Y142.477 E0.02409 ; skirt
G1 X128.990 Y142.649 E0.02769 ; skirt
G1 X128.327 Y142.762 E0.02409 ; skirt
G1 X127.559 Y142.848 E0.02769 ; skirt
G1 X126.500 Y142.897 E0.03794 ; skirt
G1 X73.500 Y142.897 E1.89745 ; skirt
G1 X72.441 Y142.848 E0.03795 ; skirt
G1 X71.673 Y142.762 E0.02768 ; skirt
G1 X71.010 Y142.649 E0.02409 ; skirt
G1 X70.256 Y142.477 E0.02769 ; skirt
G1 X69.609 Y142.291 E0.02410 ; skirt
G1 X68.879 Y142.035 E0.02768 ; skirt
G1 X68.257 Y141.778 E0.02409 ; skirt
G1 X67.561 Y141.442 E0.02768 ; skirt
G1 X66.972 Y141.117 E0.02409 ; skirt
G1 X66.317 Y140.705 E0.02770 ; skirt
G1 X65.768 Y140.316 E0.02409 ; skirt
G1 X65.163 Y139.834 E0.02768 ; skirt
G1 X64.662 Y139.385 E0.02409 ; skirt
G1 X64.115 Y138.838 E0.02769 ; skirt
G1 X63.666 Y138.337 E0.02409 ; skirt
G1 X63.184 Y137.732 E0.02769 ; skirt
G1 X62.795 Y137.183 E0.02409 ; skirt
G1 X62.383 Y136.528 E0.02768 ; skirt
G1 X62.058 Y135.939 E0.02410 ; skirt
G1 X61.722 Y135.243 E0.02768 ; skirt
G1 X61.483 Y134.666 E0.02236 ; skirt
G1 X61.209 Y133.891 E0.02942 ; skirt
G1 X61.023 Y133.244 E0.02410 ; skirt
G1 X60.851 Y132.490 E0.02768 ; skirt
G1 X60.741 Y131.843 E0.02351 ; skirt
G1 X60.652 Y131.059 E0.02827 ; skirt
G1 X60.614 Y130.386 E0.02411 ; skirt
G1 X60.603 Y70.000 E2.16187 ; skirt
G1 X60.652 Y68.942 E0.03793 ; skirt
G1 X60.738 Y68.173 E0.02769 ; skirt
G1 X60.851 Y67.510 E0.02409 ; skirt
G1 X61.023 Y66.756 E0.02769 ; skirt
G1 X61.209 Y66.109 E0.02409 ; skirt
G1 X61.465 Y65.379 E0.02769 ; skirt
G1 X61.722 Y64.757 E0.02409 ; skirt
G1 X62.058 Y64.060 E0.02769 ; skirt
G1 X62.383 Y63.472 E0.02409 ; skirt
G1 X62.795 Y62.817 E0.02769 ; skirt
G1 X63.184 Y62.268 E0.02409 ; skirt
G1 X63.666 Y61.663 E0.02769 ; skirt
G1 X64.065 Y61.217 E0.02141 ; skirt
G1 X64.449 Y61.460 F6000.000 ; move to first skirt point
G1 X64.960 Y60.949 E0.02588 F1050.000 ; skirt
G1 X65.462 Y60.501 E0.02409 ; skirt
G1 X66.028 Y60.050 E0.02589 ; skirt
G1 X66.576 Y59.661 E0.02409 ; skirt
G1 X67.189 Y59.276 E0.02589 ; skirt
G1 X67.777 Y58.950 E0.02409 ; skirt
G1 X68.429 Y58.637 E0.02589 ; skirt
G1 X69.051 Y58.379 E0.02409 ; skirt
G1 X69.733 Y58.140 E0.02589 ; skirt
G1 X70.380 Y57.954 E0.02409 ; skirt
G1 X71.085 Y57.793 E0.02589 ; skirt
G1 X71.748 Y57.680 E0.02409 ; skirt
G1 X72.467 Y57.599 E0.02589 ; skirt
G1 X73.500 Y57.552 E0.03703 ; skirt
G1 X126.862 Y57.562 E1.91039 ; skirt
G1 X127.534 Y57.599 E0.02411 F1050.000 ; skirt
G1 X128.252 Y57.680 E0.02586 ; skirt
G1 X128.915 Y57.793 E0.02409 ; skirt
G1 X129.620 Y57.954 E0.02589 ; skirt
G1 X130.267 Y58.140 E0.02409 ; skirt
G1 X130.949 Y58.379 E0.02589 ; skirt
G1 X131.571 Y58.637 E0.02409 ; skirt
G1 X132.223 Y58.950 E0.02589 ; skirt
G1 X132.811 Y59.276 E0.02409 ; skirt
G1 X133.424 Y59.660 E0.02589 ; skirt
G1 X133.973 Y60.050 E0.02409 ; skirt
G1 X134.538 Y60.501 E0.02589 ; skirt
G1 X135.302 Y61.198 E0.03703 ; skirt
G1 X135.999 Y61.962 E0.03703 ; skirt
G1 X136.450 Y62.527 E0.02589 ; skirt
G1 X136.839 Y63.076 E0.02409 ; skirt
G1 X137.224 Y63.689 E0.02589 ; skirt
G1 X137.550 Y64.278 E0.02409 ; skirt
G1 X137.863 Y64.929 E0.02588 ; skirt
G1 X138.115 Y65.537 E0.02357 ; skirt
G1 X138.360 Y66.233 E0.02640 ; skirt
G1 X138.546 Y66.880 E0.02409 ; skirt
G1 X138.707 Y67.585 E0.02589 ; skirt
G1 X138.820 Y68.248 E0.02409 ; skirt
G1 X138.901 Y68.967 E0.02589 ; skirt
G1 X138.948 Y70.000 E0.03704 ; skirt
G1 X138.948 Y130.000 E2.14805 ; skirt
G1 X138.901 Y131.033 E0.03704 ; skirt
G1 X138.820 Y131.752 E0.02589 ; skirt
G1 X138.707 Y132.416 E0.02410 ; skirt
G1 X138.546 Y133.120 E0.02588 ; skirt
G1 X138.360 Y133.767 E0.02410 ; skirt
G1 X138.121 Y134.449 E0.02588 ; skirt
G1 X137.880 Y135.031 E0.02254 ; skirt
G1 X137.550 Y135.722 E0.02743 ; skirt
G1 X137.224 Y136.312 E0.02413 ; skirt
G1 X136.839 Y136.924 E0.02585 ; skirt
G1 X136.450 Y137.473 E0.02409 ; skirt
G1 X135.999 Y138.038 E0.02589 ; skirt
G1 X135.551 Y138.540 E0.02409 ; skirt
G1 X135.040 Y139.051 E0.02589 ; skirt
G1 X134.538 Y139.499 E0.02409 ; skirt
G1 X133.973 Y139.950 E0.02589 ; skirt
G1 X133.424 Y140.339 E0.02409 ; skirt
G1 X132.811 Y140.724 E0.02589 ; skirt
G1 X132.222 Y141.050 E0.02409 ; skirt
G1 X131.571 Y141.363 E0.02588 ; skirt
G1 X130.949 Y141.621 E0.02409 ; skirt
G1 X130.267 Y141.860 E0.02589 ; skirt
G1 X129.620 Y142.046 E0.02409 ; skirt
G1 X128.915 Y142.207 E0.02589 ; skirt
G1 X128.252 Y142.320 E0.02409 ; skirt
G1 X127.533 Y142.401 E0.02589 ; skirt
G1 X126.500 Y142.448 E0.03704 ; skirt
G1 X73.500 Y142.448 E1.89745 ; skirt
G1 X72.466 Y142.401 E0.03705 ; skirt
G1 X71.748 Y142.320 E0.02588 ; skirt
G1 X71.085 Y142.207 E0.02409 ; skirt
G1 X70.380 Y142.046 E0.02589 ; skirt
G1 X69.733 Y141.860 E0.02410 ; skirt
G1 X69.051 Y141.621 E0.02588 ; skirt
G1 X68.429 Y141.363 E0.02409 ; skirt
G1 X67.778 Y141.050 E0.02588 ; skirt
G1 X67.189 Y140.724 E0.02409 ; skirt
G1 X66.576 Y140.339 E0.02590 ; skirt
G1 X66.027 Y139.950 E0.02409 ; skirt
G1 X65.462 Y139.499 E0.02588 ; skirt
G1 X64.960 Y139.051 E0.02409 ; skirt
G1 X64.449 Y138.540 E0.02589 ; skirt
G1 X64.001 Y138.038 E0.02409 ; skirt
G1 X63.550 Y137.473 E0.02589 ; skirt
G1 X63.160 Y136.924 E0.02409 ; skirt
G1 X62.776 Y136.311 E0.02588 ; skirt
G1 X62.450 Y135.722 E0.02410 ; skirt
G1 X62.137 Y135.071 E0.02588 ; skirt
G1 X61.898 Y134.494 E0.02235 ; skirt
G1 X61.640 Y133.767 E0.02762 ; skirt
G1 X61.454 Y133.120 E0.02410 ; skirt
G1 X61.293 Y132.415 E0.02588 ; skirt
G1 X61.183 Y131.768 E0.02351 ; skirt
G1 X61.099 Y131.033 E0.02647 ; skirt
G1 X61.062 Y130.361 E0.02411 ; skirt
G1 X61.052 Y70.000 E2.16097 ; skirt
G1 X61.099 Y68.967 E0.03703 ; skirt
G1 X61.180 Y68.248 E0.02589 ; skirt
G1 X61.293 Y67.585 E0.02409 ; skirt
G1 X61.454 Y66.880 E0.02589 ; skirt
G1 X61.640 Y66.233 E0.02409 ; skirt
G1 X61.879 Y65.551 E0.02589 ; skirt
G1 X62.137 Y64.929 E0.02409 ; skirt
G1 X62.450 Y64.277 E0.02589 ; skirt
G1 X62.776 Y63.689 E0.02409 ; skirt
G1 X63.161 Y63.076 E0.02589 ; skirt
G1 X63.550 Y62.527 E0.02409 ; skirt
G1 X64.001 Y61.962 E0.02589 ; skirt
G1 X64.399 Y61.516 E0.02141 ; skirt
G1 E-4.00000 F1800.00000 ; retract
G1 X77.151 Y130.000 F6000.000 ; move to first perimeter point
G1 E4.00000 F1800.00000 ; unretract
G1 X77.096 Y130.634 E0.02279 F1350.000 ; perimeter
G1 X76.931 Y131.249 E0.02279 ; perimeter
G1 X76.662 Y131.826 E0.02279 ; perimeter
G1 X76.297 Y132.347 E0.02279 ; perimeter
G1 X75.847 Y132.797 E0.02279 ; perimeter
G1 X75.326 Y133.162 E0.02279 ; perimeter
G1 X74.749 Y133.431 E0.02279 ; perimeter
G1 X74.146 Y133.593 E0.02233 ; perimeter
G1 X73.502 Y133.652 E0.02316 ; perimeter
G1 X72.866 Y133.596 E0.02287 ; perimeter
G1 X72.251 Y133.431 E0.02279 ; perimeter
G1 X71.674 Y133.162 E0.02279 ; perimeter
G1 X71.153 Y132.797 E0.02279 ; perimeter
G1 X70.703 Y132.347 E0.02279 ; perimeter
G1 X70.338 Y131.826 E0.02279 ; perimeter
G1 X70.069 Y131.249 E0.02279 ; perimeter
G1 X69.904 Y130.634 E0.02279 ; perimeter
G1 X69.849 Y130.000 E0.02279 ; perimeter
G1 X69.904 Y129.366 E0.02279 ; perimeter
G1 X70.069 Y128.751 E0.02279 ; perimeter
G1 X70.338 Y128.174 E0.02279 ; perimeter
G1 X70.703 Y127.653 E0.02279 ; perimeter
G1 X71.153 Y127.203 E0.02279 ; perimeter
G1 X71.674 Y126.838 E0.02279 ; perimeter
G1 X72.251 Y126.569 E0.02279 ; perimeter
G1 X72.866 Y126.404 E0.02279 ; perimeter
G1 X73.487 Y126.350 E0.02233 F1350.000 ; perimeter
G1 X74.132 Y126.403 E0.02316 ; perimeter
G1 X74.749 Y126.569 E0.02287 ; perimeter
G1 X75.326 Y126.838 E0.02279 ; perimeter
G1 X75.847 Y127.203 E0.02279 ; perimeter
G1 X76.297 Y127.653 E0.02279 ; perimeter
G1 X76.662 Y128.174 E0.02279 ; perimeter
G1 X76.931 Y128.751 E0.02279 ; perimeter
G1 X77.096 Y129.366 E0.02279 ; perimeter
G1 X77.145 Y129.925 E0.02010 ; perimeter
G1 X76.701 Y130.000 F6000.000 ; move to first perimeter point
G1 X76.653 Y130.556 E0.01998 F1350.000 ; perimeter
G1 X76.508 Y131.095 E0.01998 ; perimeter
G1 X76.272 Y131.601 E0.01998 ; perimeter
G1 X75.952 Y132.058 E0.01998 ; perimeter
G1 X75.558 Y132.452 E0.01998 ; perimeter
G1 X75.101 Y132.772 E0.01998 ; perimeter
G1 X74.595 Y133.008 E0.01998 ; perimeter
G1 X74.067 Y133.149 E0.01955 ; perimeter
G1 X73.501 Y133.201 E0.02035 ; perimeter
G1 X72.944 Y133.153 E0.02003 ; perimeter
G1 X72.405 Y133.008 E0.01998 ; perimeter
G1 X71.899 Y132.772 E0.01998 ; perimeter
G1 X71.442 Y132.452 E0.01998 ; perimeter
G1 X71.048 Y132.058 E0.01998 ; perimeter
G1 X70.728 Y131.601 E0.01998 ; perimeter
G1 X70.492 Y131.095 E0.01998 ; perimeter
G1 X70.347 Y130.556 E0.01998 ; perimeter
G1 X70.299 Y130.000 E0.01998 ; perimeter
G1 X70.347 Y129.444 E0.01998 ; perimeter
G1 X70.492 Y128.905 E0.01998 ; perimeter
G1 X70.728 Y128.399 E0.01998 ; perimeter
G1 X71.048 Y127.942 E0.01998 ; perimeter
G1 X71.442 Y127.548 E0.01998 ; perimeter
G1 X71.899 Y127.228 E0.01998 ; perimeter
G1 X72.405 Y126.992 E0.01998 ; perimeter
G1 X72.944 Y126.847 E0.01998 ; perimeter
G1 X73.488 Y126.800 E0.01955 F1350.000 ; perimeter
G1 X74.054 Y126.847 E0.02035 ; perimeter
G1 X74.595 Y126.992 E0.02003 ; perimeter
G1 X75.101 Y127.228 E0.01998 ; perimeter
G1 X75.558 Y127.548 E0.01998 ; perimeter
G1 X75.952 Y127.942 E0.01998 ; perimeter
G1 X76.272 Y128.399 E0.01998 ; perimeter
G1 X76.508 Y128.905 E0.01998 ; perimeter
G1 X76.653 Y129.444 E0.01998 ; perimeter
G1 X76.695 Y129.925 E0.01729 ; perimeter
G1 X76.251 Y130.000 F6000.000 ; move to first perimeter point
G1 X76.209 Y130.478 E0.01717 F1350.000 ; perimeter
G1 X76.085 Y130.941 E0.01717 ; perimeter
G1 X75.882 Y131.375 E0.01717 ; perimeter
G1 X75.607 Y131.768 E0.01717 ; perimeter
G1 X75.268 Y132.107 E0.01717 ; perimeter
G1 X74.875 Y132.382 E0.01717 ; perimeter
G1 X74.441 Y132.585 E0.01717 ; perimeter
G1 X73.988 Y132.706 E0.01677 ; perimeter
G1 X73.501 Y132.751 E0.01754 ; perimeter
G1 X73.022 Y132.709 E0.01719 ; perimeter
G1 X72.559 Y132.585 E0.01717 ; perimeter
G1 X72.125 Y132.382 E0.01717 ; perimeter
G1 X71.732 Y132.107 E0.01717 ; perimeter
G1 X71.393 Y131.768 E0.01717 ; perimeter
G1 X71.118 Y131.375 E0.01717 ; perimeter
G1 X70.915 Y130.941 E0.01717 ; perimeter
G1 X70.791 Y130.478 E0.01717 ; perimeter
G1 X70.749 Y130.000 E0.01717 ; perimeter
G1 X70.791 Y129.522 E0.01717 ; perimeter
G1 X70.915 Y129.059 E0.01717 ; perimeter
G1 X71.118 Y128.625 E0.01717 ; perimeter
G1 X71.393 Y128.232 E0.01717 ; perimeter
G1 X71.732 Y127.893 E0.01717 ; perimeter
G1 X72.125 Y127.618 E0.01717 ; perimeter
G1 X72.559 Y127.415 E0.01717 ; perimeter
G1 X73.022 Y127.291 E0.01717 ; perimeter
G1 X73.489 Y127.250 E0.01677 F1350.000 ; perimeter
G1 X73.977 Y127.291 E0.01754 ; perimeter
G1 X74.441 Y127.415 E0.01719 ; perimeter
G1 X74.875 Y127.618 E0.01717 ; perimeter
G1 X75.268 Y127.893 E0.01717 ; perimeter
G1 X75.607 Y128.232 E0.01717 ; perimeter
G1 X75.882 Y128.625 E0.01717 ; perimeter
G1 X76.085 Y129.059 E0.01717 ; perimeter
G1 X76.209 Y129.522 E0.01717 ; perimeter
G1 X76.244 Y129.925 E0.01448 ; perimeter
G1 X76.659 Y130.252 F6000.000 ; move inwards before travel
G1 X120.849 Y130.005 F6000.000 ; move to first perimeter point
G1 X120.902 Y129.383 E0.02234 F1350.000 ; perimeter
G1 X121.064 Y128.768 E0.02276 ; perimeter
G1 X121.328 Y128.195 E0.02260 ; perimeter
G1 X121.686 Y127.676 E0.02257 ; perimeter
G1 X122.128 Y127.227 E0.02257 ; perimeter
G1 X122.641 Y126.860 E0.02257 ; perimeter
G1 X123.209 Y126.587 E0.02257 ; perimeter
G1 X123.816 Y126.416 E0.02257 ; perimeter
G1 X124.401 Y126.356 E0.02108 ; perimeter
G1 X126.492 Y126.353 E0.07486 F1350.000 ; perimeter
G1 X127.125 Y126.402 E0.02271 ; perimeter
G1 X127.745 Y126.567 E0.02297 ; perimeter
G1 X128.322 Y126.836 E0.02280 ; perimeter
G1 X128.844 Y127.200 E0.02280 ; perimeter
G1 X129.287 Y127.642 E0.02239 ; perimeter
G1 X129.660 Y128.170 E0.02313 ; perimeter
G1 X129.930 Y128.748 E0.02287 ; perimeter
G1 X130.095 Y129.363 E0.02280 ; perimeter
G1 X130.151 Y129.998 E0.02280 ; perimeter
G1 X130.096 Y130.632 E0.02280 ; perimeter
G1 X129.932 Y131.247 E0.02280 ; perimeter
G1 X129.663 Y131.824 E0.02280 ; perimeter
G1 X129.298 Y132.346 E0.02280 ; perimeter
G1 X128.848 Y132.796 E0.02280 ; perimeter
G1 X128.326 Y133.162 E0.02280 ; perimeter
G1 X127.749 Y133.431 E0.02280 ; perimeter
G1 X127.134 Y133.596 E0.02280 ; perimeter
G1 X126.551 Y133.647 E0.02097 ; perimeter
G1 X124.407 Y133.649 E0.07675 ; perimeter
G1 X123.819 Y133.590 E0.02117 ; perimeter
G1 X123.207 Y133.417 E0.02275 ; perimeter
G1 X122.645 Y133.147 E0.02233 ; perimeter
G1 X122.134 Y132.784 E0.02245 ; perimeter
G1 X121.689 Y132.333 E0.02267 ; perimeter
G1 X121.330 Y131.815 E0.02258 ; perimeter
G1 X121.065 Y131.241 E0.02260 ; perimeter
G1 X120.903 Y130.627 E0.02276 ; perimeter
G1 X120.855 Y130.080 E0.01966 ; perimeter
G1 X121.299 Y130.005 F6000.000 ; move to first perimeter point
G1 X121.345 Y129.460 E0.01957 F1350.000 ; perimeter
G1 X121.487 Y128.920 E0.01998 ; perimeter
G1 X121.719 Y128.418 E0.01981 ; perimeter
G1 X122.033 Y127.963 E0.01979 ; perimeter
G1 X122.420 Y127.569 E0.01979 ; perimeter
G1 X122.870 Y127.248 E0.01979 ; perimeter
G1 X123.368 Y127.008 E0.01979 ; perimeter
G1 X123.900 Y126.858 E0.01979 ; perimeter
G1 X124.425 Y126.805 E0.01888 ; perimeter
G1 X126.475 Y126.802 E0.07342 F1350.000 ; perimeter
G1 X127.049 Y126.846 E0.02060 ; perimeter
