; generated by Slic3r 1.2.9 on 2016-08-02 at 21:49:53

; external perimeters extrusion width = 0.50mm
; perimeters extrusion width = 0.50mm
; infill extrusion width = 0.50mm
; solid infill extrusion width = 0.50mm
; top infill extrusion width = 0.50mm

M107 ; disable fan
M190 S57 ; set bed temperature
M104 S185 ; set temperature

M109 S185 ; wait for temperature to be reached
G21 ; set units to millimeters
G90 ; use absolute coordinates
M83 ; use relative distances for extrusion
G1 E-4.00000 F1800.00000 ; retract
G1 Z0.240 F6000.000 ; move to next layer (0)
G1 X59.662 Y60.615 F6000.000 ; move to first skirt point
G1 E4.00000 F1800.00000 ; unretract
G1 X60.163 Y60.166 E0.02409 F1050.000 ; skirt
G1 X60.768 Y59.684 E0.02768 ; skirt
G1 X61.317 Y59.295 E0.02409 ; skirt
G1 X61.972 Y58.883 E0.02769 ; skirt
G1 X62.560 Y58.558 E0.02409 ; skirt
G1 X63.257 Y58.222 E0.02769 ; skirt
G1 X63.865 Y57.970 E0.02355 ; skirt
G1 X64.609 Y57.709 E0.02823 ; skirt
G1 X65.256 Y57.523 E0.02409 ; skirt
G1 X66.010 Y57.351 E0.02768 ; skirt
G1 X66.673 Y57.238 E0.02409 ; skirt
G1 X67.441 Y57.152 E0.02769 ; skirt
G1 X68.114 Y57.114 E0.02411 ; skirt
G1 X137.500 Y57.103 E2.48408 ; skirt
G1 X139.806 Y57.500 E0.08379 ; skirt
G1 X141.847 Y58.646 E0.08379 F1050.000 ; skirt
G1 X143.388 Y60.408 E0.08379 ; skirt
G1 X144.250 Y62.584 E0.08379 ; skirt
G1 X144.397 Y64.000 E0.05098 ; skirt
G1 X144.397 Y136.000 E2.57766 ; skirt
G1 X144.000 Y138.306 E0.08379 ; skirt
G1 X142.854 Y140.347 E0.08379 ; skirt
G1 X141.092 Y141.888 E0.08379 ; skirt
G1 X138.916 Y142.750 E0.08379 ; skirt
G1 X137.500 Y142.897 E0.05098 ; skirt
G1 X68.113 Y142.886 E2.48410 ; skirt
G1 X67.441 Y142.848 E0.02410 ; skirt
G1 X66.673 Y142.762 E0.02768 ; skirt
G1 X66.010 Y142.649 E0.02409 ; skirt
G1 X65.256 Y142.477 E0.02769 ; skirt
G1 X64.609 Y142.291 E0.02410 ; skirt
G1 X63.879 Y142.035 E0.02768 ; skirt
G1 X63.257 Y141.778 E0.02409 ; skirt
G1 X62.561 Y141.442 E0.02768 ; skirt
G1 X61.972 Y141.117 E0.02409 ; skirt
G1 X61.317 Y140.705 E0.02770 ; skirt
G1 X60.768 Y140.316 E0.02409 ; skirt
G1 X60.163 Y139.834 E0.02769 ; skirt
G1 X59.662 Y139.385 E0.02409 ; skirt
G1 X59.115 Y138.838 E0.02769 ; skirt
G1 X58.666 Y138.337 E0.02409 ; skirt
G1 X58.184 Y137.732 E0.02769 ; skirt
G1 X57.795 Y137.183 E0.02410 ; skirt
G1 X57.383 Y136.528 E0.02768 ; skirt
G1 X57.058 Y135.939 E0.02409 ; skirt
G1 X56.722 Y135.243 E0.02769 ; skirt
G1 X56.483 Y134.666 E0.02235 ; skirt
G1 X56.209 Y133.891 E0.02942 ; skirt
G1 X56.023 Y133.244 E0.02410 ; skirt
G1 X55.851 Y132.490 E0.02768 ; skirt
G1 X55.738 Y131.827 E0.02410 ; skirt
G1 X55.652 Y131.059 E0.02768 ; skirt
G1 X55.614 Y130.386 E0.02411 ; skirt
G1 X55.603 Y70.000 E2.16187 ; skirt
G1 X55.652 Y68.942 E0.03793 ; skirt
G1 X55.738 Y68.173 E0.02769 ; skirt
G1 X55.851 Y67.510 E0.02409 ; skirt
G1 X56.023 Y66.756 E0.02769 ; skirt
G1 X56.209 Y66.109 E0.02409 ; skirt
G1 X56.465 Y65.379 E0.02769 ; skirt
G1 X56.722 Y64.757 E0.02409 ; skirt
G1 X57.058 Y64.060 E0.02769 ; skirt
G1 X57.383 Y63.472 E0.02409 ; skirt
G1 X57.795 Y62.817 E0.02769 ; skirt
G1 X58.184 Y62.268 E0.02409 ; skirt
G1 X58.666 Y61.663 E0.02769 ; skirt
G1 X59.115 Y61.162 E0.02409 ; skirt
G1 X59.609 Y60.668 E0.02500 ; skirt
G1 X59.960 Y60.949 F6000.000 ; move to first skirt point
G1 X60.462 Y60.501 E0.02409 F1050.000 ; skirt
G1 X61.028 Y60.050 E0.02588 ; skirt
G1 X61.576 Y59.661 E0.02409 ; skirt
G1 X62.189 Y59.276 E0.02589 ; skirt
G1 X62.777 Y58.950 E0.02409 ; skirt
G1 X63.429 Y58.637 E0.02589 ; skirt
G1 X64.037 Y58.385 E0.02355 ; skirt
G1 X64.733 Y58.140 E0.02643 ; skirt
G1 X65.380 Y57.954 E0.02409 ; skirt
G1 X66.085 Y57.793 E0.02588 ; skirt
G1 X66.748 Y57.680 E0.02409 ; skirt
G1 X67.467 Y57.599 E0.02589 ; skirt
G1 X68.139 Y57.562 E0.02411 ; skirt
G1 X137.500 Y57.552 E2.48318 ; skirt
G1 X139.727 Y57.948 E0.08100 ; skirt
G1 X141.681 Y59.090 E0.08100 F1050.000 ; skirt
G1 X143.119 Y60.836 E0.08100 ; skirt
G1 X143.948 Y64.000 E0.11708 ; skirt
G1 X143.948 Y136.000 E2.57766 ; skirt
G1 X143.552 Y138.227 E0.08100 ; skirt
G1 X142.410 Y140.181 E0.08100 ; skirt
G1 X140.664 Y141.619 E0.08100 ; skirt
G1 X137.500 Y142.448 E0.11708 ; skirt
G1 X68.138 Y142.438 E2.48320 ; skirt
G1 X67.466 Y142.401 E0.02410 ; skirt
G1 X66.748 Y142.320 E0.02588 ; skirt
G1 X66.085 Y142.207 E0.02409 ; skirt
G1 X65.380 Y142.046 E0.02589 ; skirt
G1 X64.733 Y141.860 E0.02410 ; skirt
G1 X64.051 Y141.621 E0.02588 ; skirt
G1 X63.429 Y141.363 E0.02409 ; skirt
G1 X62.778 Y141.050 E0.02588 ; skirt
G1 X62.189 Y140.724 E0.02409 ; skirt
G1 X61.576 Y140.339 E0.02590 ; skirt
G1 X61.027 Y139.950 E0.02409 ; skirt
G1 X60.462 Y139.499 E0.02588 ; skirt
G1 X59.960 Y139.051 E0.02409 ; skirt
G1 X59.449 Y138.540 E0.02589 ; skirt
G1 X59.001 Y138.038 E0.02409 ; skirt
G1 X58.550 Y137.473 E0.02589 ; skirt
G1 X58.160 Y136.924 E0.02409 ; skirt
G1 X57.776 Y136.311 E0.02588 ; skirt
G1 X57.450 Y135.722 E0.02409 ; skirt
G1 X57.137 Y135.071 E0.02589 ; skirt
G1 X56.898 Y134.494 E0.02235 ; skirt
G1 X56.640 Y133.767 E0.02762 ; skirt
G1 X56.454 Y133.120 E0.02410 ; skirt
G1 X56.293 Y132.415 E0.02588 ; skirt
G1 X56.180 Y131.752 E0.02410 ; skirt
G1 X56.099 Y131.033 E0.02588 ; skirt
G1 X56.062 Y130.361 E0.02411 ; skirt
G1 X56.052 Y70.000 E2.16097 ; skirt
G1 X56.099 Y68.967 E0.03703 ; skirt
G1 X56.180 Y68.248 E0.02589 ; skirt
G1 X56.293 Y67.585 E0.02409 ; skirt
G1 X56.454 Y66.880 E0.02589 ; skirt
G1 X56.640 Y66.233 E0.02409 ; skirt
G1 X56.879 Y65.551 E0.02589 ; skirt
G1 X57.137 Y64.929 E0.02409 ; skirt
G1 X57.450 Y64.277 E0.02589 ; skirt
G1 X57.776 Y63.689 E0.02409 ; skirt
G1 X58.161 Y63.076 E0.02589 ; skirt
G1 X58.550 Y62.527 E0.02409 ; skirt
G1 X59.001 Y61.962 E0.02589 ; skirt
G1 X59.449 Y61.460 E0.02409 ; skirt
G1 X59.907 Y61.002 E0.02320 ; skirt
G1 E-4.00000 F1800.00000 ; retract
G1 X126.598 Y127.825 F6000.000 ; move to first perimeter point
G1 E4.00000 F1800.00000 ; unretract
G1 X126.695 Y127.685 E0.00610 F1350.000 ; perimeter
G1 X127.146 Y127.232 E0.02287 ; perimeter
G1 X127.668 Y126.864 E0.02287 ; perimeter
G1 X128.247 Y126.593 E0.02287 ; perimeter
G1 X128.868 Y126.426 E0.02302 ; perimeter
G1 X129.495 Y126.376 E0.02252 ; perimeter
G1 X131.508 Y126.353 E0.07209 F1350.000 ; perimeter
G1 X132.095 Y126.397 E0.02106 ; perimeter
G1 X132.714 Y126.556 E0.02287 ; perimeter
G1 X133.295 Y126.820 E0.02287 ; perimeter
G1 X133.822 Y127.182 E0.02287 ; perimeter
G1 X134.277 Y127.630 E0.02287 ; perimeter
G1 X134.648 Y128.150 E0.02287 ; perimeter
G1 X134.922 Y128.727 E0.02287 ; perimeter
G1 X135.092 Y129.343 E0.02287 ; perimeter
G1 X135.151 Y129.979 E0.02287 ; perimeter
G1 X135.099 Y130.616 E0.02287 ; perimeter
G1 X134.937 Y131.233 E0.02287 ; perimeter
G1 X134.675 Y131.802 E0.02241 ; perimeter
G1 X134.306 Y132.336 E0.02324 ; perimeter
G1 X133.854 Y132.791 E0.02295 ; perimeter
G1 X133.332 Y133.159 E0.02287 ; perimeter
G1 X132.765 Y133.424 E0.02241 ; perimeter
G1 X132.139 Y133.595 E0.02324 ; perimeter
G1 X131.557 Y133.646 E0.02091 ; perimeter
G1 X129.492 Y133.670 E0.07393 ; perimeter
G1 X128.905 Y133.626 E0.02106 ; perimeter
G1 X128.286 Y133.467 E0.02287 ; perimeter
G1 X127.705 Y133.203 E0.02287 ; perimeter
G1 X127.189 Y132.848 E0.02241 ; perimeter
G1 X126.724 Y132.395 E0.02324 ; perimeter
G1 X126.352 Y131.873 E0.02296 ; perimeter
G1 X126.078 Y131.296 E0.02287 ; perimeter
G1 X125.908 Y130.680 E0.02287 ; perimeter
G1 X125.849 Y130.044 E0.02287 ; perimeter
G1 X125.901 Y129.407 E0.02287 ; perimeter
G1 X126.060 Y128.802 E0.02241 ; perimeter
G1 X126.329 Y128.211 E0.02324 ; perimeter
G1 X126.555 Y127.886 E0.01417 ; perimeter
G1 X126.966 Y128.081 F6000.000 ; move to first perimeter point
G1 X127.041 Y127.973 E0.00469 F1350.000 ; perimeter
G1 X127.436 Y127.576 E0.02005 ; perimeter
G1 X127.894 Y127.254 E0.02005 ; perimeter
G1 X128.401 Y127.016 E0.02005 ; perimeter
G1 X128.945 Y126.870 E0.02014 ; perimeter
G1 X129.515 Y126.824 E0.02050 ; perimeter
G1 X131.494 Y126.801 E0.07083 F1350.000 ; perimeter
G1 X132.021 Y126.842 E0.01895 ; perimeter
G1 X132.564 Y126.981 E0.02005 ; perimeter
G1 X133.074 Y127.212 E0.02005 ; perimeter
G1 X133.536 Y127.529 E0.02005 ; perimeter
G1 X133.935 Y127.922 E0.02005 ; perimeter
G1 X134.260 Y128.378 E0.02005 ; perimeter
G1 X134.500 Y128.884 E0.02005 ; perimeter
G1 X134.649 Y129.424 E0.02005 ; perimeter
G1 X134.701 Y129.982 E0.02005 ; perimeter
G1 X134.655 Y130.540 E0.02005 ; perimeter
G1 X134.513 Y131.081 E0.02005 ; perimeter
G1 X134.283 Y131.579 E0.01962 ; perimeter
G1 X133.960 Y132.049 E0.02042 ; perimeter
G1 X133.564 Y132.447 E0.02010 ; perimeter
G1 X133.106 Y132.769 E0.02005 ; perimeter
G1 X132.610 Y133.002 E0.01962 ; perimeter
G1 X132.059 Y133.152 E0.02042 ; perimeter
G1 X131.535 Y133.198 E0.01886 ; perimeter
G1 X129.506 Y133.222 E0.07262 ; perimeter
G1 X128.979 Y133.181 E0.01895 ; perimeter
G1 X128.436 Y133.042 E0.02005 ; perimeter
G1 X127.926 Y132.810 E0.02005 ; perimeter
G1 X127.474 Y132.500 E0.01962 ; perimeter
G1 X127.066 Y132.102 E0.02042 ; perimeter
G1 X126.740 Y131.645 E0.02010 ; perimeter
G1 X126.500 Y131.139 E0.02005 ; perimeter
G1 X126.351 Y130.599 E0.02005 ; perimeter
G1 X126.299 Y130.041 E0.02005 ; perimeter
G1 X126.345 Y129.483 E0.02005 ; perimeter
G1 X126.484 Y128.953 E0.01962 ; perimeter
G1 X126.721 Y128.434 E0.02042 ; perimeter
G1 X126.924 Y128.142 E0.01273 ; perimeter
G1 X127.335 Y128.337 F6000.000 ; move to first perimeter point
G1 X127.387 Y128.261 E0.00328 F1350.000 ; perimeter
G1 X127.726 Y127.920 E0.01723 ; perimeter
G1 X128.120 Y127.643 E0.01723 ; perimeter
G1 X128.556 Y127.439 E0.01723 ; perimeter
G1 X129.021 Y127.314 E0.01726 ; perimeter
G1 X129.536 Y127.272 E0.01847 ; perimeter
G1 X131.479 Y127.250 E0.06958 F1350.000 ; perimeter
G1 X131.948 Y127.286 E0.01684 ; perimeter
G1 X132.414 Y127.405 E0.01723 ; perimeter
G1 X132.852 Y127.604 E0.01723 ; perimeter
G1 X133.249 Y127.877 E0.01723 ; perimeter
G1 X133.593 Y128.214 E0.01723 ; perimeter
G1 X133.872 Y128.606 E0.01723 ; perimeter
G1 X134.078 Y129.041 E0.01723 ; perimeter
G1 X134.206 Y129.505 E0.01723 ; perimeter
G1 X134.251 Y129.984 E0.01723 ; perimeter
G1 X134.212 Y130.464 E0.01723 ; perimeter
G1 X134.089 Y130.929 E0.01723 ; perimeter
G1 X133.892 Y131.356 E0.01684 ; perimeter
G1 X133.613 Y131.761 E0.01760 ; perimeter
G1 X133.274 Y132.103 E0.01725 ; perimeter
G1 X132.880 Y132.380 E0.01723 ; perimeter
G1 X132.454 Y132.579 E0.01684 ; perimeter
G1 X131.980 Y132.709 E0.01760 ; perimeter
G1 X131.512 Y132.750 E0.01680 ; perimeter
G1 X129.521 Y132.773 E0.07131 ; perimeter
G1 X129.052 Y132.737 E0.01684 ; perimeter
G1 X128.586 Y132.618 E0.01723 ; perimeter
G1 X128.148 Y132.418 E0.01723 ; perimeter
G1 X127.760 Y132.152 E0.01684 ; perimeter
G1 X127.408 Y131.809 E0.01760 ; perimeter
G1 X127.128 Y131.417 E0.01725 ; perimeter
G1 X126.922 Y130.982 E0.01723 ; perimeter
G1 X126.794 Y130.518 E0.01723 ; perimeter
G1 X126.749 Y130.039 E0.01723 ; perimeter
G1 X126.788 Y129.559 E0.01723 ; perimeter
G1 X126.908 Y129.104 E0.01684 ; perimeter
G1 X127.112 Y128.657 E0.01760 ; perimeter
G1 X127.292 Y128.398 E0.01129 ; perimeter
G1 X127.296 Y128.254 F6000.000 ; move inwards before travel
G1 X129.450 Y73.647 F6000.000 ; move to first perimeter point
G1 X128.866 Y73.596 E0.02099 F1350.000 ; perimeter
G1 X128.251 Y73.431 E0.02279 ; perimeter
G1 X127.674 Y73.162 E0.02279 ; perimeter
G1 X127.153 Y72.797 E0.02279 ; perimeter
G1 X126.703 Y72.347 E0.02279 ; perimeter
G1 X126.338 Y71.826 E0.02279 ; perimeter
G1 X126.069 Y71.249 E0.02279 ; perimeter
G1 X125.904 Y70.634 E0.02279 ; perimeter
G1 X125.849 Y70.000 E0.02279 ; perimeter
G1 X125.904 Y69.366 E0.02279 ; perimeter
G1 X126.069 Y68.751 E0.02279 ; perimeter
G1 X126.338 Y68.174 E0.02279 ; perimeter
G1 X126.696 Y67.663 E0.02233 ; perimeter
G1 X127.151 Y67.204 E0.02316 ; perimeter
G1 X127.674 Y66.838 E0.02287 ; perimeter
G1 X128.251 Y66.569 E0.02279 ; perimeter
G1 X128.866 Y66.404 E0.02279 ; perimeter
G1 X129.450 Y66.353 E0.02099 ; perimeter
G1 X131.550 Y66.353 E0.07519 F1350.000 ; perimeter
G1 X132.134 Y66.404 E0.02099 ; perimeter
G1 X132.749 Y66.569 E0.02279 ; perimeter
G1 X133.326 Y66.838 E0.02279 ; perimeter
G1 X133.847 Y67.203 E0.02279 ; perimeter
G1 X134.297 Y67.653 E0.02279 ; perimeter
G1 X134.662 Y68.174 E0.02279 ; perimeter
G1 X134.931 Y68.751 E0.02279 ; perimeter
G1 X135.096 Y69.366 E0.02279 ; perimeter
G1 X135.151 Y70.000 E0.02279 ; perimeter
G1 X135.097 Y70.621 E0.02233 ; perimeter
G1 X134.932 Y71.247 E0.02316 ; perimeter
G1 X134.662 Y71.826 E0.02287 ; perimeter
G1 X134.297 Y72.347 E0.02279 ; perimeter
G1 X133.847 Y72.797 E0.02279 ; perimeter
G1 X133.326 Y73.162 E0.02279 ; perimeter
G1 X132.749 Y73.431 E0.02279 ; perimeter
G1 X132.134 Y73.596 E0.02279 ; perimeter
G1 X131.550 Y73.647 E0.02099 ; perimeter
G1 X129.525 Y73.647 E0.07250 ; perimeter
G1 X129.470 Y73.198 F6000.000 ; move to first perimeter point
G1 X128.944 Y73.153 E0.01888 F1350.000 ; perimeter
G1 X128.405 Y73.008 E0.01998 ; perimeter
G1 X127.899 Y72.772 E0.01998 ; perimeter
G1 X127.442 Y72.452 E0.01998 ; perimeter
G1 X127.048 Y72.058 E0.01998 ; perimeter
G1 X126.728 Y71.601 E0.01998 ; perimeter
G1 X126.492 Y71.095 E0.01998 ; perimeter
G1 X126.347 Y70.556 E0.01998 ; perimeter
G1 X126.299 Y70.000 E0.01998 ; perimeter
G1 X126.347 Y69.444 E0.01998 ; perimeter
G1 X126.492 Y68.905 E0.01998 ; perimeter
G1 X126.728 Y68.399 E0.01998 ; perimeter
G1 X127.041 Y67.952 E0.01955 ; perimeter
G1 X127.441 Y67.549 E0.02035 ; perimeter
G1 X127.899 Y67.228 E0.02003 ; perimeter
G1 X128.405 Y66.992 E0.01998 ; perimeter
G1 X128.944 Y66.847 E0.01998 ; perimeter
G1 X129.470 Y66.802 E0.01888 ; perimeter
G1 X131.530 Y66.802 E0.07379 F1350.000 ; perimeter
G1 X132.056 Y66.847 E0.01888 ; perimeter
G1 X132.595 Y66.992 E0.01998 ; perimeter
G1 X133.101 Y67.228 E0.01998 ; perimeter
G1 X133.558 Y67.548 E0.01998 ; perimeter
G1 X133.952 Y67.942 E0.01998 ; perimeter
G1 X134.272 Y68.399 E0.01998 ; perimeter
G1 X134.508 Y68.905 E0.01998 ; perimeter
G1 X134.653 Y69.444 E0.01998 ; perimeter
G1 X134.701 Y70.000 E0.01998 ; perimeter
G1 X134.654 Y70.544 E0.01955 ; perimeter
G1 X134.509 Y71.094 E0.02035 ; perimeter
G1 X134.272 Y71.601 E0.02003 ; perimeter
G1 X133.952 Y72.058 E0.01998 ; perimeter
G1 X133.558 Y72.452 E0.01998 ; perimeter
G1 X133.101 Y72.772 E0.01998 ; perimeter
G1 X132.595 Y73.008 E0.01998 ; perimeter
G1 X132.056 Y73.153 E0.01998 ; perimeter
G1 X131.530 Y73.198 E0.01888 ; perimeter
G1 X129.545 Y73.198 E0.07110 ; perimeter
G1 X129.489 Y72.750 F6000.000 ; move to first perimeter point
G1 X129.022 Y72.709 E0.01678 F1350.000 ; perimeter
G1 X128.559 Y72.585 E0.01717 ; perimeter
G1 X128.125 Y72.382 E0.01717 ; perimeter
G1 X127.732 Y72.107 E0.01717 ; perimeter
G1 X127.393 Y71.768 E0.01717 ; perimeter
G1 X127.118 Y71.375 E0.01717 ; perimeter
G1 X126.915 Y70.941 E0.01717 ; perimeter
G1 X126.791 Y70.478 E0.01717 ; perimeter
G1 X126.749 Y70.000 E0.01717 ; perimeter
G1 X126.791 Y69.522 E0.01717 ; perimeter
G1 X126.915 Y69.059 E0.01717 ; perimeter
G1 X127.118 Y68.625 E0.01717 ; perimeter
G1 X127.386 Y68.241 E0.01677 ; perimeter
G1 X127.731 Y67.893 E0.01754 ; perimeter
G1 X128.125 Y67.618 E0.01719 ; perimeter
G1 X128.559 Y67.415 E0.01717 ; perimeter
G1 X129.022 Y67.291 E0.01717 ; perimeter
G1 X129.489 Y67.250 E0.01678 ; perimeter
G1 X131.511 Y67.250 E0.07238 F1350.000 ; perimeter
G1 X131.978 Y67.291 E0.01678 ; perimeter
G1 X132.441 Y67.415 E0.01717 ; perimeter
G1 X132.875 Y67.618 E0.01717 ; perimeter
G1 X133.268 Y67.893 E0.01717 ; perimeter
G1 X133.607 Y68.232 E0.01717 ; perimeter
G1 X133.882 Y68.625 E0.01717 ; perimeter
G1 X134.085 Y69.059 E0.01717 ; perimeter
G1 X134.209 Y69.522 E0.01717 ; perimeter
G1 X134.251 Y70.000 E0.01717 ; perimeter
G1 X134.210 Y70.467 E0.01677 ; perimeter
G1 X134.085 Y70.940 E0.01754 ; perimeter
G1 X133.882 Y71.375 E0.01719 ; perimeter
G1 X133.607 Y71.768 E0.01717 ; perimeter
G1 X133.268 Y72.107 E0.01717 ; perimeter
G1 X132.875 Y72.382 E0.01717 ; perimeter
G1 X132.441 Y72.585 E0.01717 ; perimeter
G1 X131.978 Y72.709 E0.01717 ; perimeter
G1 X131.511 Y72.750 E0.01678 ; perimeter
G1 X129.564 Y72.750 E0.06970 ; perimeter
G1 X129.232 Y73.141 F6000.000 ; move inwards before travel
