; generated by Slic3r 1.2.9 on 2016-08-01 at 21:30:16

; external perimeters extrusion width = 0.50mm
; perimeters extrusion width = 0.50mm
; infill extrusion width = 0.50mm
; solid infill extrusion width = 0.50mm
; top infill extrusion width = 0.50mm

M107 ; disable fan
M190 S57 ; set bed temperature
M104 S185 ; set temperature

M109 S185 ; wait for temperature to be reached
G21 ; set units to millimeters
G90 ; use absolute coordinates
M83 ; use relative distances for extrusion
G1 E-4.00000 F1800.00000 ; retract
G1 Z0.240 F6000.000 ; move to next layer (0)
G1 X93.875 Y93.824 F6000.000 ; move to first skirt point
G1 E4.00000 F1800.00000 ; unretract
G1 X93.962 Y93.737 E0.00438 F600.000 ; skirt
G1 X95.873 Y92.387 E0.08379 ; skirt
G1 X97.172 Y91.921 E0.04939 ; skirt
G1 X98.957 Y91.686 E0.06446 ; skirt
G1 X101.043 Y91.686 E0.07470 ; skirt
G1 X102.828 Y91.921 E0.06446 ; skirt
G1 X102.946 Y91.952 E0.00438 F600.000 ; skirt
G1 X105.072 Y92.933 E0.08379 ; skirt
G1 X106.125 Y93.824 E0.04939 ; skirt
G1 X107.475 Y95.736 E0.08379 ; skirt
G1 X107.942 Y97.034 E0.04939 ; skirt
G1 X108.177 Y98.819 E0.06446 ; skirt
G1 X108.177 Y101.181 E0.08457 ; skirt
G1 X107.942 Y102.966 E0.06446 ; skirt
G1 X107.910 Y103.084 E0.00438 ; skirt
G1 X106.929 Y105.209 E0.08379 ; skirt
G1 X106.038 Y106.263 E0.04939 ; skirt
G1 X104.127 Y107.613 E0.08379 ; skirt
G1 X102.828 Y108.079 E0.04939 ; skirt
G1 X101.043 Y108.314 E0.06446 ; skirt
G1 X98.957 Y108.314 E0.07470 ; skirt
G1 X97.172 Y108.079 E0.06446 ; skirt
G1 X97.054 Y108.048 E0.00438 ; skirt
G1 X94.928 Y107.067 E0.08379 ; skirt
G1 X93.962 Y106.263 E0.04503 ; skirt
G1 X93.875 Y106.176 E0.00438 ; skirt
G1 X92.525 Y104.264 E0.08379 ; skirt
G1 X92.058 Y102.966 E0.04939 ; skirt
G1 X91.823 Y101.181 E0.06446 ; skirt
G1 X91.823 Y98.819 E0.08457 ; skirt
G1 X92.058 Y97.034 E0.06446 ; skirt
G1 X92.090 Y96.916 E0.00438 ; skirt
G1 X93.071 Y94.791 E0.08379 ; skirt
G1 X93.827 Y93.882 E0.04234 ; skirt
G1 X94.192 Y94.141 F6000.000 ; move to first skirt point
G1 X94.279 Y94.055 E0.00438 F600.000 ; skirt
G1 X97.169 Y92.386 E0.11950 ; skirt
G1 X97.288 Y92.354 E0.00438 ; skirt
G1 X98.957 Y92.134 E0.06026 ; skirt
G1 X101.043 Y92.134 E0.07470 ; skirt
G1 X102.712 Y92.354 E0.06026 ; skirt
G1 X102.830 Y92.386 E0.00438 F600.000 ; skirt
G1 X105.721 Y94.055 E0.11951 ; skirt
G1 X105.808 Y94.141 E0.00438 ; skirt
G1 X107.477 Y97.032 E0.11950 ; skirt
G1 X107.508 Y97.150 E0.00438 ; skirt
G1 X107.728 Y98.819 E0.06027 ; skirt
G1 X107.728 Y101.181 E0.08457 ; skirt
G1 X107.508 Y102.850 E0.06027 ; skirt
G1 X107.477 Y102.968 E0.00438 ; skirt
G1 X105.808 Y105.859 E0.11950 ; skirt
G1 X105.721 Y105.945 E0.00438 ; skirt
G1 X102.830 Y107.614 E0.11950 ; skirt
G1 X102.712 Y107.646 E0.00438 ; skirt
G1 X101.043 Y107.866 E0.06027 ; skirt
G1 X98.957 Y107.866 E0.07470 ; skirt
G1 X97.288 Y107.646 E0.06027 ; skirt
G1 X97.170 Y107.614 E0.00438 ; skirt
G1 X94.279 Y105.945 E0.11950 ; skirt
G1 X94.192 Y105.859 E0.00438 ; skirt
G1 X92.523 Y102.968 E0.11949 ; skirt
G1 X92.492 Y102.850 E0.00439 ; skirt
G1 X92.272 Y101.181 E0.06026 ; skirt
G1 X92.272 Y98.819 E0.08457 ; skirt
G1 X92.492 Y97.150 E0.06027 ; skirt
G1 X92.523 Y97.032 E0.00438 ; skirt
G1 X94.155 Y94.206 E0.11682 ; skirt
G1 E-4.00000 F1800.00000 ; retract
G1 X100.581 Y100.474 F6000.000 ; move to first perimeter point
G1 E4.00000 F1800.00000 ; unretract
G1 X100.442 Y100.513 E0.00516 F600.000 ; perimeter
G1 X100.319 Y100.719 E0.00860 ; perimeter
G1 X99.630 Y100.719 E0.02465 ; perimeter
G1 X99.602 Y100.640 E0.00300 ; perimeter
G1 X99.419 Y100.535 E0.00755 ; perimeter
G1 X99.419 Y99.499 E0.03709 ; perimeter
G1 X99.601 Y99.281 E0.01016 ; perimeter
G1 X100.321 Y99.281 E0.02578 ; perimeter
G1 X100.475 Y99.493 E0.00936 ; perimeter
G1 X100.581 Y99.527 E0.00399 ; perimeter
G1 X100.581 Y100.399 E0.03120 ; perimeter
G1 X101.030 Y100.474 F6000.000 ; move to first perimeter point
G1 X101.030 Y100.813 E0.01216 F600.000 ; perimeter
G1 X100.735 Y100.896 E0.01094 ; perimeter
G1 X100.573 Y101.167 E0.01132 ; perimeter
G1 X99.316 Y101.167 E0.04499 ; perimeter
G1 X99.236 Y100.947 E0.00840 ; perimeter
G1 X98.970 Y100.794 E0.01097 ; perimeter
G1 X98.970 Y99.164 E0.05833 ; perimeter
G1 X99.139 Y99.135 E0.00612 ; perimeter
G1 X99.299 Y98.944 E0.00893 ; perimeter
G1 X99.299 Y98.833 E0.00397 ; perimeter
G1 X100.621 Y98.833 E0.04732 ; perimeter
G1 X100.621 Y98.931 E0.00350 ; perimeter
G1 X100.752 Y99.111 E0.00799 F600.000 ; perimeter
G1 X101.030 Y99.201 E0.01044 ; perimeter
G1 X101.030 Y100.399 E0.04287 ; perimeter
G1 X100.735 Y100.644 F6000.000 ; move inwards before travel
G1 X99.897 Y100.495 F6000.000 ; move to first infill point
G1 X100.000 Y100.122 E0.02931 F600.000 ; infill
G1 X100.000 Y99.505 E0.04665 ; infill
M106 S255 ; enable fan
G1 E-4.00000 F1800.00000 ; retract
G1 Z0.480 F6000.000 ; move to next layer (1)
G1 X93.962 Y93.737 F6000.000 ; move to first skirt point
G1 E4.00000 F1800.00000 ; unretract
G1 X95.873 Y92.387 E0.08379 F600.000 ; skirt
G1 X97.172 Y91.921 E0.04939 ; skirt
G1 X98.957 Y91.686 E0.06446 ; skirt
G1 X101.043 Y91.686 E0.07470 ; skirt
G1 X102.828 Y91.921 E0.06446 ; skirt
G1 X102.946 Y91.952 E0.00438 F600.000 ; skirt
G1 X105.072 Y92.933 E0.08379 ; skirt
G1 X106.125 Y93.824 E0.04939 ; skirt
G1 X107.475 Y95.736 E0.08379 ; skirt
G1 X107.942 Y97.034 E0.04939 ; skirt
G1 X108.177 Y98.819 E0.06446 ; skirt
G1 X108.177 Y101.181 E0.08457 ; skirt
G1 X107.942 Y102.966 E0.06446 ; skirt
G1 X107.910 Y103.084 E0.00438 ; skirt
G1 X106.929 Y105.209 E0.08379 ; skirt
G1 X106.038 Y106.263 E0.04939 ; skirt
G1 X104.127 Y107.613 E0.08379 ; skirt
G1 X102.828 Y108.079 E0.04939 ; skirt
G1 X101.043 Y108.314 E0.06446 ; skirt
G1 X98.957 Y108.314 E0.07470 ; skirt
G1 X97.172 Y108.079 E0.06446 ; skirt
G1 X97.054 Y108.048 E0.00438 ; skirt
G1 X94.928 Y107.067 E0.08379 ; skirt
G1 X93.962 Y106.263 E0.04503 ; skirt
G1 X93.875 Y106.176 E0.00438 ; skirt
G1 X92.525 Y104.264 E0.08379 ; skirt
G1 X92.058 Y102.966 E0.04939 ; skirt
G1 X91.823 Y101.181 E0.06446 ; skirt
G1 X91.823 Y98.819 E0.08457 ; skirt
G1 X92.058 Y97.034 E0.06446 ; skirt
G1 X92.090 Y96.916 E0.00438 ; skirt
G1 X93.071 Y94.791 E0.08379 ; skirt
G1 X93.909 Y93.790 E0.04671 ; skirt
G1 X94.279 Y94.055 F6000.000 ; move to first skirt point
G1 X97.169 Y92.386 E0.11950 F600.000 ; skirt
G1 X97.288 Y92.354 E0.00438 ; skirt
G1 X98.957 Y92.134 E0.06026 ; skirt
G1 X101.043 Y92.134 E0.07470 ; skirt
G1 X102.712 Y92.354 E0.06026 ; skirt
G1 X102.830 Y92.386 E0.00438 F600.000 ; skirt
G1 X105.721 Y94.055 E0.11951 ; skirt
G1 X105.808 Y94.141 E0.00438 ; skirt
G1 X107.477 Y97.032 E0.11950 ; skirt
G1 X107.508 Y97.150 E0.00438 ; skirt
G1 X107.728 Y98.819 E0.06027 ; skirt
G1 X107.728 Y101.181 E0.08457 ; skirt
G1 X107.508 Y102.850 E0.06027 ; skirt
G1 X107.477 Y102.968 E0.00438 ; skirt
G1 X105.808 Y105.859 E0.11950 ; skirt
G1 X105.721 Y105.945 E0.00438 ; skirt
G1 X102.830 Y107.614 E0.11950 ; skirt
G1 X102.712 Y107.646 E0.00438 ; skirt
G1 X101.043 Y107.866 E0.06027 ; skirt
G1 X98.957 Y107.866 E0.07470 ; skirt
G1 X97.288 Y107.646 E0.06027 ; skirt
G1 X97.170 Y107.614 E0.00438 ; skirt
G1 X94.279 Y105.945 E0.11950 ; skirt
G1 X94.192 Y105.859 E0.00438 ; skirt
G1 X92.523 Y102.968 E0.11949 ; skirt
G1 X92.492 Y102.850 E0.00439 ; skirt
G1 X92.272 Y101.181 E0.06026 ; skirt
G1 X92.272 Y98.819 E0.08457 ; skirt
G1 X92.492 Y97.150 E0.06027 ; skirt
G1 X92.523 Y97.032 E0.00438 ; skirt
G1 X94.226 Y94.108 E0.12114 ; skirt
G1 E-4.00000 F1800.00000 ; retract
G1 Z0.720 F6000.000 ; move to next layer (2)
G1 Z0.960 F6000.000 ; move to next layer (3)
G1 Z1.200 F6000.000 ; move to next layer (4)
M107 ; disable fan
G1 X2 Y190   ; park the machine
M1
; filament used = 8.0mm (0.0cm3)

; avoid_crossing_perimeters = 0
; bed_shape = 0x0,200x0,200x200,0x200
; bed_temperature = 57
; before_layer_gcode = 
; bridge_acceleration = 0
; bridge_fan_speed = 100
; brim_width = 0
; complete_objects = 0
; cooling = 1
; default_acceleration = 0
; disable_fan_first_layers = 1
; duplicate_distance = 6
; end_gcode = G1 X2 Y190   ; park the machine\nM1
; extruder_clearance_height = 20
; extruder_clearance_radius = 20
; extruder_offset = 0x0
; extrusion_axis = E
; extrusion_multiplier = 0.8
; fan_always_on = 0
; fan_below_layer_time = 60
; filament_colour = #FFFFFF
; filament_diameter = 1.75
; first_layer_acceleration = 0
; first_layer_bed_temperature = 57
; first_layer_extrusion_width = 0.5
; first_layer_speed = 50%
; first_layer_temperature = 185
; gcode_arcs = 0
; gcode_comments = 1
; gcode_flavor = reprap
; infill_acceleration = 0
; infill_first = 0
; layer_gcode = 
; max_fan_speed = 100
; max_print_speed = 80
; max_volumetric_speed = 0
; min_fan_speed = 35
; min_print_speed = 10
; min_skirt_length = 0
; notes = 
; nozzle_diameter = 0.5
; only_retract_when_crossing_perimeters = 1
; ooze_prevention = 0
; output_filename_format = [input_filename_base].gcode
; perimeter_acceleration = 0
; post_process = 
; pressure_advance = 0
; resolution = 0
; retract_before_travel = 2
; retract_layer_change = 1
; retract_length = 4
; retract_length_toolchange = 10
; retract_lift = 0
; retract_restart_extra = 0
; retract_restart_extra_toolchange = 0
; retract_speed = 30
; skirt_distance = 6
; skirt_height = 2
; skirts = 2
; slowdown_below_layer_time = 30
; spiral_vase = 0
; standby_temperature_delta = -5
; start_gcode = 
; temperature = 185
; threads = 2
; toolchange_gcode = 
; travel_speed = 100
; use_firmware_retraction = 0
; use_relative_e_distances = 1
; use_volumetric_e = 0
; vibration_limit = 0
; wipe = 0
; z_offset = 0
; dont_support_bridges = 1
; extrusion_width = 0.5
; first_layer_height = 0.24
; infill_only_where_needed = 0
; interface_shells = 0
; layer_height = 0.24
; raft_layers = 0
; seam_position = aligned
; support_material = 0
; support_material_angle = 0
; support_material_contact_distance = 0.2
; support_material_enforce_layers = 0
; support_material_extruder = 1
; support_material_extrusion_width = 0
; support_material_interface_extruder = 1
; support_material_interface_layers = 0
; support_material_interface_spacing = 0
; support_material_interface_speed = 100%
; support_material_pattern = rectilinear
; support_material_spacing = 2.5
; support_material_speed = 35
; support_material_threshold = 0
; xy_size_compensation = 0
; bottom_solid_layers = 4
; bridge_flow_ratio = 1
; bridge_speed = 50
; external_fill_pattern = rectilinear
; external_perimeter_extrusion_width = 0
; external_perimeter_speed = 50
; external_perimeters_first = 0
; extra_perimeters = 1
; fill_angle = 45
; fill_density = 50%
; fill_pattern = rectilinear
; gap_fill_speed = 18
; infill_every_layers = 1
; infill_extruder = 1
; infill_extrusion_width = 0.5
; infill_overlap = 15%
; infill_speed = 50
; overhangs = 1
; perimeter_extruder = 1
; perimeter_extrusion_width = 0.5
; perimeter_speed = 50
; perimeters = 3
; small_perimeter_speed = 45
; solid_infill_below_area = 70
; solid_infill_every_layers = 0
; solid_infill_extruder = 1
; solid_infill_extrusion_width = 0.5
; solid_infill_speed = 50
; thin_walls = 1
; top_infill_extrusion_width = 0
; top_solid_infill_speed = 50
; top_solid_layers = 4
