; generated by Slic3r 1.1.6 on 2015-03-22 at 14:45:04

; perimeters extrusion width = 0.50mm
; infill extrusion width = 0.50mm
; solid infill extrusion width = 0.50mm
; top infill extrusion width = 0.50mm
; support material extrusion width = 0.50mm

G21 ; set units to millimeters
M107 ; disable fan
M190 S57 ; wait for bed temperature to be reached
M104 S185 ; set temperature

M109 S185 ; wait for temperature to be reached
G90 ; use absolute coordinates
M83 ; use relative distances for extrusion
G1 F1800.000 E-4.00000 ; retract
G1 Z0.240 F6000.000 ; move to next layer (0)
G1 X88.698 Y80.486 F6000.000 ; move to first skirt point
G1 E4.00000 F1800.000 ; compensate retraction
G1 X90.582 Y78.959 E0.09678 F600.000 ; skirt
G1 X92.346 Y78.039 E0.07942 ; skirt
G1 X93.643 Y77.844 E0.05232 ; skirt
G1 X101.760 Y77.707 E0.32403 ; skirt
G1 X107.280 Y77.852 E0.22041 ; skirt
G1 X109.219 Y78.299 E0.07942 ; skirt
G1 X110.831 Y79.467 E0.07942 ; skirt
G1 X112.094 Y82.106 E0.11679 ; skirt
G1 X112.408 Y84.563 E0.09886 ; skirt
G1 X112.431 Y115.762 E1.24524 ; skirt
G1 X111.901 Y118.006 E0.09203 ; skirt
G1 X111.203 Y119.397 E0.06210 ; skirt
G1 X109.976 Y120.963 E0.07942 ; skirt
G1 X108.234 Y121.927 E0.07942 ; skirt
G1 X106.846 Y122.156 E0.05615 ; skirt
G1 X101.034 Y122.284 E0.23202 ; skirt
G1 X93.220 Y122.148 E0.31195 ; skirt
G1 X91.277 Y121.715 E0.07942 ; skirt
G1 X90.284 Y121.126 E0.04607 ; skirt
G1 X89.475 Y120.510 E0.04062 ; skirt
G1 X88.299 Y119.236 E0.06917 ; skirt
G1 X87.517 Y118.003 E0.05832 ; skirt
G1 X86.926 Y116.950 E0.04818 ; skirt
G1 X86.286 Y114.588 E0.09766 ; skirt
G1 X85.803 Y86.539 E1.11969 ; skirt
G1 X86.333 Y84.212 E0.09523 ; skirt
G1 X87.376 Y82.130 E0.09296 ; skirt
G1 X88.651 Y80.544 E0.08120 ; skirt
G1 X89.013 Y80.874 F6000.000 ; move to first skirt point
G1 X90.897 Y79.348 E0.09678 F600.000 ; skirt
G1 X92.579 Y78.493 E0.07531 ; skirt
G1 X93.651 Y78.344 E0.04321 ; skirt
G1 X101.747 Y78.207 E0.32316 ; skirt
G1 X107.267 Y78.352 E0.22041 ; skirt
G1 X109.101 Y78.795 E0.07531 ; skirt
G1 X110.592 Y79.952 E0.07531 ; skirt
G1 X111.599 Y82.181 E0.09761 ; skirt
G1 X111.908 Y84.563 E0.09590 ; skirt
G1 X111.931 Y115.763 E1.24524 ; skirt
G1 X111.454 Y117.782 E0.08283 ; skirt
G1 X110.756 Y119.173 E0.06210 ; skirt
G1 X109.576 Y120.645 E0.07531 ; skirt
G1 X107.896 Y121.504 E0.07531 ; skirt
G1 X106.835 Y121.656 E0.04279 ; skirt
G1 X101.039 Y121.784 E0.23140 ; skirt
G1 X93.229 Y121.648 E0.31174 ; skirt
G1 X90.587 Y120.729 E0.11164 ; skirt
G1 X89.778 Y120.112 E0.04062 ; skirt
G1 X88.720 Y118.966 E0.06225 ; skirt
G1 X87.953 Y117.758 E0.05712 ; skirt
G1 X87.362 Y116.705 E0.04818 ; skirt
G1 X86.786 Y114.580 E0.08789 ; skirt
G1 X86.303 Y86.530 E1.11969 ; skirt
G1 X86.780 Y84.436 E0.08570 ; skirt
G1 X87.823 Y82.354 E0.09296 ; skirt
G1 X88.966 Y80.933 E0.07278 ; skirt
G1 F1800.000 E-4.00000 ; retract
G1 X100.000 Y114.168 F6000.000 ; move to first perimeter point
G1 E4.00000 F1800.000 ; compensate retraction
G1 X95.384 Y113.786 E0.18486 F900.000 ; perimeter
G1 X94.382 Y113.644 E0.04042 ; perimeter
G1 X94.382 Y86.350 E1.08938 ; perimeter
G1 X96.221 Y86.130 E0.07396 ; perimeter
G1 X97.678 Y86.005 E0.05833 ; perimeter
G1 X100.000 Y85.856 E0.09288 ; perimeter
G1 X100.000 Y89.757 E0.15569 ; perimeter
G1 X99.602 Y89.797 E0.01598 ; perimeter
G1 X99.150 Y89.886 E0.01838 ; perimeter
G1 X98.706 Y90.023 E0.01854 ; perimeter
G1 X98.276 Y90.206 E0.01865 ; perimeter
G1 X97.867 Y90.433 E0.01866 ; perimeter
G1 X97.477 Y90.706 E0.01900 ; perimeter
G1 X97.101 Y91.035 E0.01996 ; perimeter
G1 X96.773 Y91.393 E0.01939 ; perimeter
G1 X96.483 Y91.788 E0.01954 ; perimeter
G1 X96.237 Y92.214 E0.01964 ; perimeter
G1 X96.048 Y92.642 E0.01865 ; perimeter
G1 X95.887 Y93.147 E0.02117 ; perimeter
G1 X95.791 Y93.642 E0.02011 ; perimeter
G1 X95.751 Y94.147 E0.02022 ; perimeter
G1 X95.768 Y94.652 E0.02020 ; perimeter
G1 X95.842 Y95.154 E0.02023 ; perimeter
G1 X95.973 Y95.650 E0.02049 ; perimeter
G1 X96.162 Y96.131 E0.02061 ; perimeter
G1 X96.405 Y96.589 E0.02071 ; perimeter
G1 X96.532 Y96.773 E0.00891 ; perimeter
G1 X96.702 Y97.018 E0.01192 ; perimeter
G1 X97.048 Y97.412 E0.02092 ; perimeter
G1 X97.401 Y97.733 E0.01905 ; perimeter
G1 X97.774 Y98.008 E0.01848 ; perimeter
G1 X98.182 Y98.247 E0.01889 ; perimeter
G1 X98.611 Y98.441 E0.01878 ; perimeter
G1 X99.055 Y98.589 E0.01871 ; perimeter
G1 X99.511 Y98.689 E0.01862 ; perimeter
G1 X100.000 Y98.743 E0.01964 ; perimeter
G1 X100.000 Y104.848 E0.24366 ; perimeter
G1 X97.967 Y104.883 E0.08116 ; perimeter
G1 X97.748 Y104.908 E0.00882 ; perimeter
G1 X97.493 Y104.989 E0.01068 ; perimeter
G1 X97.259 Y105.127 E0.01082 ; perimeter
G1 X97.019 Y105.360 E0.01335 ; perimeter
G1 X96.879 Y105.577 E0.01032 ; perimeter
G1 X96.782 Y105.843 E0.01128 ; perimeter
G1 X96.750 Y106.116 E0.01099 ; perimeter
G1 X96.771 Y106.399 E0.01131 ; perimeter
G1 X96.852 Y106.664 E0.01108 ; perimeter
G1 X96.976 Y106.882 E0.00998 ; perimeter
G1 X97.195 Y107.125 E0.01307 ; perimeter
G1 X97.441 Y107.288 E0.01175 ; perimeter
G1 X97.692 Y107.381 E0.01071 ; perimeter
G1 X97.967 Y107.417 E0.01106 ; perimeter
G1 X100.000 Y107.452 E0.08116 ; perimeter
G1 X100.000 Y114.093 E0.26502 ; perimeter
G1 X99.582 Y113.894 F6000.000 ; move inwards before travel
G1 F1800.000 E-4.00000 ; retract
G1 X95.265 Y93.941 F6000.000 ; move to first perimeter point
G1 E4.00000 F1800.000 ; compensate retraction
G1 X94.882 Y93.925 E0.01534 F900.000 ; perimeter
G1 X94.882 Y86.792 E0.28471 ; perimeter
G1 X96.271 Y86.627 E0.05585 ; perimeter
G1 X97.715 Y86.504 E0.05785 ; perimeter
G1 X99.500 Y86.388 E0.07138 ; perimeter
G1 X99.500 Y89.307 E0.11649 ; perimeter
G1 X99.024 Y89.402 E0.01936 ; perimeter
G1 X98.577 Y89.539 E0.01866 ; perimeter
G1 X98.057 Y89.756 E0.02252 ; perimeter
G1 X97.600 Y90.009 E0.02082 ; perimeter
G1 X97.168 Y90.311 E0.02105 ; perimeter
G1 X96.751 Y90.677 E0.02216 ; perimeter
G1 X96.385 Y91.076 E0.02160 ; perimeter
G1 X96.089 Y91.479 E0.01997 ; perimeter
G1 X95.789 Y91.990 E0.02364 ; perimeter
G1 X95.567 Y92.497 E0.02209 ; perimeter
G1 X95.401 Y93.028 E0.02223 ; perimeter
G1 X95.295 Y93.579 E0.02237 ; perimeter
G1 X95.271 Y93.866 E0.01151 ; perimeter
G1 X95.252 Y94.584 F6000.000 ; move to first perimeter point
G1 X95.365 Y95.309 E0.02926 F900.000 ; perimeter
G1 X95.497 Y95.803 E0.02044 ; perimeter
G1 X95.706 Y96.337 E0.02287 ; perimeter
G1 X96.005 Y96.890 E0.02511 ; perimeter
G1 X96.305 Y97.322 E0.02098 ; perimeter
G1 X96.688 Y97.760 E0.02322 ; perimeter
G1 X97.132 Y98.157 E0.02379 ; perimeter
G1 X97.499 Y98.426 E0.01813 ; perimeter
G1 X97.952 Y98.692 E0.02096 ; perimeter
G1 X98.430 Y98.908 E0.02094 ; perimeter
G1 X98.924 Y99.072 E0.02080 ; perimeter
G1 X99.500 Y99.199 E0.02354 ; perimeter
G1 X99.500 Y104.356 E0.20584 ; perimeter
G1 X97.936 Y104.384 E0.06244 ; perimeter
G1 X97.634 Y104.420 E0.01211 ; perimeter
G1 X97.287 Y104.530 E0.01455 ; perimeter
G1 X97.108 Y104.627 E0.00815 ; perimeter
G1 X96.902 Y104.771 E0.00999 ; perimeter
G1 X96.609 Y105.074 E0.01684 ; perimeter
G1 X96.434 Y105.346 E0.01292 ; perimeter
G1 X96.292 Y105.729 E0.01628 ; perimeter
G1 X96.250 Y106.084 E0.01428 ; perimeter
G1 X96.279 Y106.500 E0.01666 ; perimeter
G1 X96.396 Y106.873 E0.01559 ; perimeter
G1 X96.548 Y107.140 E0.01226 ; perimeter
G1 X96.599 Y107.220 E0.00377 ; perimeter
G1 X96.881 Y107.516 E0.01634 ; perimeter
G1 X97.222 Y107.743 E0.01633 ; perimeter
G1 X97.570 Y107.868 E0.01475 ; perimeter
G1 X97.936 Y107.916 E0.01474 ; perimeter
G1 X99.500 Y107.944 E0.06245 ; perimeter
G1 X99.500 Y113.616 E0.22641 ; perimeter
G1 X95.464 Y113.291 E0.16160 ; perimeter
G1 X94.882 Y113.207 E0.02350 ; perimeter
G1 X94.882 Y94.611 E0.74218 ; perimeter
G1 X95.178 Y94.590 E0.01185 ; perimeter
G1 F1800.000 E-4.00000 ; retract
G1 X98.029 Y99.103 F6000.000 ; move to first fill point
G1 E4.00000 F1800.000 ; compensate retraction
G1 X99.158 Y100.231 E0.06368 F900.000 ; fill
G1 X99.158 Y99.510 E0.02876 ; fill
G1 X99.111 Y99.464 E0.00261 ; fill
G1 X99.158 Y100.952 F6000.000 ; move to first fill point
G1 X95.224 Y97.018 E0.22203 F900.000 ; fill
G1 X95.224 Y97.739 E0.02876 ; fill
G1 X99.158 Y101.672 E0.22203 ; fill
G1 X99.158 Y102.393 E0.02876 ; fill
G1 X95.224 Y98.459 E0.22203 ; fill
G1 X95.224 Y99.180 E0.02876 ; fill
G1 X99.158 Y103.114 E0.22203 ; fill
G1 X99.158 Y103.834 E0.02876 ; fill
G1 X95.224 Y99.901 E0.22203 ; fill
G1 X95.224 Y100.621 E0.02876 ; fill
G1 X98.631 Y104.029 E0.19233 ; fill
G1 X97.923 Y104.041 E0.02827 ; fill
G1 X95.224 Y101.342 E0.15235 ; fill
G1 X95.224 Y102.063 E0.02876 ; fill
G1 X97.321 Y104.160 E0.11837 ; fill
G1 X96.838 Y104.398 E0.02148 ; fill
G1 X95.224 Y102.783 E0.09111 ; fill
G1 X95.224 Y103.504 E0.02876 ; fill
G1 X96.457 Y104.738 E0.06962 ; fill
G1 X96.151 Y105.152 E0.02057 ; fill
G1 X95.224 Y104.225 E0.05234 ; fill
G1 X95.224 Y104.945 E0.02876 ; fill
G1 X95.954 Y105.675 E0.04120 ; fill
G1 X95.927 Y106.369 E0.02770 ; fill
G1 X95.224 Y105.666 E0.03967 ; fill
G1 X95.224 Y106.387 E0.02876 ; fill
G1 X99.158 Y110.320 E0.22203 ; fill
G1 X99.158 Y109.600 E0.02876 ; fill
G1 X97.802 Y108.244 E0.07650 ; fill
G1 X98.548 Y108.270 E0.02979 ; fill
G1 X99.158 Y108.879 E0.03440 ; fill
G1 F1800.000 E-4.00000 ; retract
G1 X99.158 Y111.041 F6000.000 ; move to first fill point
G1 E4.00000 F1800.000 ; compensate retraction
G1 X95.224 Y107.107 E0.22203 F900.000 ; fill
G1 X95.224 Y107.828 E0.02876 ; fill
G1 X99.158 Y111.762 E0.22203 ; fill
G1 X99.158 Y112.482 E0.02876 ; fill
G1 X95.224 Y108.549 E0.22203 ; fill
G1 X95.224 Y109.269 E0.02876 ; fill
G1 X99.158 Y113.203 E0.22203 ; fill
G1 X98.420 Y113.186 E0.02947 ; fill
G1 X95.224 Y109.990 E0.18037 ; fill
G1 X95.224 Y110.711 E0.02876 ; fill
G1 X97.636 Y113.122 E0.13612 ; fill
G1 X96.852 Y113.059 E0.03139 ; fill
G1 X95.224 Y111.431 E0.09188 ; fill
G1 X95.224 Y112.152 E0.02876 ; fill
G1 X96.068 Y112.996 E0.04763 ; fill
G1 X95.268 Y112.916 E0.03210 ; fill
G1 X95.224 Y112.873 E0.00246 ; fill
G1 F1800.000 E-4.00000 ; retract
G1 X95.270 Y92.010 F6000.000 ; move to first fill point
G1 E4.00000 F1800.000 ; compensate retraction
G1 X95.224 Y91.964 E0.00259 F900.000 ; fill
G1 X95.620 Y91.601 E0.02143 ; fill
G1 X95.224 Y91.205 E0.02236 ; fill
G1 X95.224 Y90.447 E0.03027 ; fill
G1 X95.915 Y91.138 E0.03900 ; fill
G1 X96.251 Y90.715 E0.02155 ; fill
G1 X95.224 Y89.688 E0.05798 ; fill
G1 X95.224 Y88.930 E0.03027 ; fill
G1 X96.626 Y90.331 E0.07911 ; fill
G1 X97.037 Y89.985 E0.02149 ; fill
G1 X95.224 Y88.171 E0.10236 ; fill
G1 X95.224 Y87.413 E0.03027 ; fill
G1 X97.490 Y89.678 E0.12789 ; fill
G1 X97.985 Y89.415 E0.02238 ; fill
G1 X95.619 Y87.050 E0.13350 ; fill
G1 X96.298 Y86.969 E0.02726 ; fill
G1 X98.525 Y89.197 E0.12574 ; fill
G1 X99.117 Y89.030 E0.02454 ; fill
G1 X96.996 Y86.909 E0.11972 ; fill
G1 X97.695 Y86.849 E0.02799 ; fill
G1 X99.158 Y88.312 E0.08257 ; fill
G1 X99.158 Y87.554 E0.03027 ; fill
G1 X98.406 Y86.802 E0.04241 ; fill
G1 X99.158 Y86.795 E0.02999 ; fill
G1 X99.119 Y86.756 E0.00219 ; fill
G1 F1800.000 E-4.00000 ; retract
G1 X101.770 Y91.351 F6000.000 ; move to first support material point
G1 E4.00000 F1800.000 ; compensate retraction
G1 X101.726 Y91.439 E0.00391 F600.000 ; support material
G1 F1800.000 E-4.00000 ; retract
G1 X102.714 Y82.773 F6000.000 ; move to first support material point
G1 E4.00000 F1800.000 ; compensate retraction
G1 X100.980 Y86.232 E0.15445 F600.000 ; support material
G1 X100.980 Y84.000 E0.08908 ; support material
G1 X101.629 Y82.706 E0.05780 ; support material
G1 X100.501 Y82.725 E0.04505 ; support material
G1 X100.101 Y83.522 E0.03559 ; support material
G1 X99.372 Y82.745 E0.04253 ; support material
G1 X98.973 Y83.542 E0.03559 ; support material
G1 X98.244 Y82.765 E0.04253 ; support material
G1 X97.844 Y83.562 E0.03559 ; support material
G1 X97.115 Y82.784 E0.04253 ; support material
G1 X96.716 Y83.582 E0.03559 ; support material
G1 X95.987 Y82.804 E0.04254 ; support material
G1 X95.587 Y83.601 E0.03559 ; support material
G1 X94.858 Y82.824 E0.04253 ; support material
G1 X94.459 Y83.621 E0.03559 ; support material
G1 X93.730 Y82.844 E0.04253 ; support material
G1 X93.126 Y84.048 E0.05379 ; support material
G1 X91.846 Y84.370 E0.05267 ; support material
G1 X90.803 Y86.452 E0.09296 ; support material
G1 X91.730 Y86.834 F6000.000 ; move to first support material point
G1 X92.529 Y85.240 E0.07115 F600.000 ; support material
G1 X92.645 Y87.240 E0.07996 ; support material
G1 X92.615 Y87.300 E0.00268 ; support material
G1 F1800.000 E-4.00000 ; retract
G1 X107.408 Y84.567 F6000.000 ; move to first support material point
G1 E4.00000 F1800.000 ; compensate retraction
G1 X106.078 Y87.219 E0.11842 F600.000 ; support material
G1 X104.955 Y87.229 E0.04485 ; support material
G1 X107.150 Y82.850 E0.19549 ; support material
G1 X106.041 Y82.831 E0.04426 ; support material
G1 X103.831 Y87.239 E0.19679 ; support material
G1 X102.708 Y87.249 E0.04484 ; support material
G1 X104.932 Y82.811 E0.19809 ; support material
G1 X103.823 Y82.792 E0.04426 ; support material
G1 X100.980 Y88.464 E0.25322 ; support material
G1 X101.770 Y89.120 E0.04097 ; support material
G1 X100.577 Y91.499 E0.10623 ; support material
G1 X99.829 Y90.760 E0.04197 ; support material
G1 X99.373 Y91.671 E0.04063 ; support material
G1 X98.485 Y91.210 E0.03992 ; support material
G1 X96.759 Y94.655 E0.15379 ; support material
G1 X97.657 Y95.094 E0.03991 ; support material
G1 X97.203 Y96.001 E0.04050 ; support material
G1 X97.893 Y96.856 E0.04385 ; support material
G1 X98.263 Y96.118 E0.03297 ; support material
G1 X99.083 Y96.712 E0.04045 ; support material
G1 X98.729 Y97.419 E0.03154 ; support material
G1 X99.695 Y97.724 E0.04042 ; support material
G1 X100.072 Y96.971 E0.03362 ; support material
G1 X101.160 Y97.031 E0.04349 ; support material
G1 X100.774 Y97.802 E0.03441 ; support material
G1 X101.770 Y98.047 E0.04093 ; support material
G1 X100.980 Y99.623 E0.07037 ; support material
G1 X101.770 Y100.278 E0.04097 ; support material
G1 X100.980 Y101.855 E0.07037 ; support material
G1 X101.770 Y102.510 E0.04097 ; support material
G1 X100.980 Y104.086 E0.07037 ; support material
G1 X101.238 Y105.804 E0.06933 ; support material
G1 X101.770 Y104.742 E0.04742 ; support material
G1 X101.955 Y106.605 F6000.000 ; move to first support material point
G1 X100.980 Y108.550 E0.08682 F600.000 ; support material
G1 X100.980 Y110.782 E0.08908 ; support material
G1 X103.061 Y106.630 E0.18536 ; support material
G1 X104.167 Y106.654 E0.04416 ; support material
G1 X100.980 Y113.014 E0.28390 ; support material
G1 X102.232 Y112.747 F6000.000 ; move to first support material point
G1 X101.073 Y115.060 E0.10325 F600.000 ; support material
G1 X100.489 Y116.226 F6000.000 ; move to first support material point
G1 X99.963 Y117.275 E0.04685 F600.000 ; support material
G1 X99.251 Y116.463 E0.04310 ; support material
G1 X98.859 Y117.246 E0.03497 ; support material
G1 X98.143 Y116.443 E0.04294 ; support material
G1 X97.750 Y117.227 E0.03497 ; support material
G1 X97.034 Y116.424 E0.04294 ; support material
G1 X96.641 Y117.207 E0.03497 ; support material
G1 X95.925 Y116.405 E0.04294 ; support material
G1 X95.532 Y117.188 E0.03497 ; support material
G1 X94.816 Y116.385 E0.04294 ; support material
G1 X94.423 Y117.169 E0.03497 ; support material
G1 X93.741 Y116.298 E0.04415 ; support material
G1 X93.314 Y117.149 E0.03801 ; support material
G1 X92.505 Y116.532 E0.04062 ; support material
G1 X92.907 Y115.731 E0.03578 ; support material
G1 X91.876 Y115.555 E0.04172 ; support material
G1 X92.520 Y114.271 E0.05733 ; support material
G1 X91.285 Y114.502 E0.05014 ; support material
G1 X92.520 Y112.039 E0.10998 ; support material
G1 F1800.000 E-4.00000 ; retract
G1 X102.667 Y111.879 F6000.000 ; move to first support material point
G1 E4.00000 F1800.000 ; compensate retraction
G1 X105.274 Y106.679 E0.23214 F600.000 ; support material
G1 X106.380 Y106.704 E0.04416 ; support material
G1 X103.799 Y111.854 E0.22993 ; support material
G1 X103.346 Y112.757 F6000.000 ; move to first support material point
G1 X101.077 Y117.285 E0.20214 F600.000 ; support material
G1 X102.220 Y117.236 E0.04566 ; support material
