; generated by Slic3r 1.1.6 on 2015-03-22 at 15:11:39

; perimeters extrusion width = 0.50mm
; infill extrusion width = 0.50mm
; solid infill extrusion width = 0.50mm
; top infill extrusion width = 0.50mm
; support material extrusion width = 0.50mm

G21 ; set units to millimeters
M107 ; disable fan
M190 S57 ; wait for bed temperature to be reached
M104 S185 ; set temperature

M109 S185 ; wait for temperature to be reached
G90 ; use absolute coordinates
M83 ; use relative distances for extrusion
G1 F1800.000 E-4.00000 ; retract
G1 Z0.240 F6000.000 ; move to next layer (0)
G1 X80.515 Y81.794 F6000.000 ; move to first skirt point
G1 E4.00000 F1800.000 ; compensate retraction
G1 X80.937 Y81.412 E0.02274 F600.000 ; skirt
G1 X81.198 Y81.206 E0.01325 ; skirt
G1 X81.718 Y80.850 E0.02516 ; skirt
G1 X82.325 Y80.520 E0.02758 ; skirt
G1 X83.089 Y80.213 E0.03287 ; skirt
G1 X83.716 Y80.034 E0.02600 ; skirt
G1 X91.611 Y78.336 E0.32234 ; skirt
G1 X105.499 Y77.796 E0.55468 ; skirt
G1 X108.855 Y77.796 E0.13396 ; skirt
G1 X110.437 Y78.053 E0.06397 ; skirt
G1 X116.813 Y80.181 E0.26829 ; skirt
G1 X117.593 Y80.482 E0.03336 ; skirt
G1 X118.156 Y80.775 E0.02532 ; skirt
G1 X118.686 Y81.120 E0.02524 ; skirt
G1 X118.967 Y81.334 E0.01413 ; skirt
G1 X119.456 Y81.765 E0.02598 ; skirt
G1 X119.838 Y82.187 E0.02273 ; skirt
G1 X120.044 Y82.448 E0.01329 ; skirt
G1 X120.400 Y82.969 E0.02516 ; skirt
G1 X120.705 Y83.524 E0.02529 ; skirt
G1 X120.956 Y84.110 E0.02544 ; skirt
G1 X121.180 Y84.815 E0.02951 ; skirt
G1 X121.285 Y85.331 E0.02103 ; skirt
G1 X121.349 Y85.876 E0.02189 ; skirt
G1 X121.366 Y86.290 E0.01655 ; skirt
G1 X121.355 Y114.044 E1.10774 ; skirt
G1 X121.300 Y114.567 E0.02097 ; skirt
G1 X121.190 Y115.144 E0.02345 ; skirt
G1 X121.006 Y115.751 E0.02530 ; skirt
G1 X120.768 Y116.343 E0.02546 ; skirt
G1 X120.427 Y116.986 E0.02906 ; skirt
G1 X120.130 Y117.436 E0.02151 ; skirt
G1 X119.733 Y117.931 E0.02533 ; skirt
G1 X119.287 Y118.387 E0.02545 ; skirt
G1 X118.801 Y118.794 E0.02532 ; skirt
G1 X118.282 Y119.150 E0.02512 ; skirt
G1 X117.766 Y119.436 E0.02356 ; skirt
G1 X114.192 Y121.168 E0.15850 ; skirt
G1 X112.136 Y121.667 E0.08443 ; skirt
G1 X90.490 Y122.204 E0.86421 ; skirt
G1 X87.134 Y122.204 E0.13393 ; skirt
G1 X85.184 Y121.808 E0.07942 ; skirt
G1 X83.963 Y121.070 E0.05696 ; skirt
G1 X80.795 Y118.461 E0.16378 ; skirt
G1 X80.376 Y118.050 E0.02345 ; skirt
G1 X79.966 Y117.564 E0.02537 ; skirt
G1 X79.607 Y117.042 E0.02530 ; skirt
G1 X79.275 Y116.435 E0.02762 ; skirt
G1 X79.047 Y115.898 E0.02328 ; skirt
G1 X78.822 Y115.191 E0.02960 ; skirt
G1 X78.700 Y114.568 E0.02535 ; skirt
G1 X78.651 Y114.126 E0.01775 ; skirt
G1 X78.634 Y113.710 E0.01661 ; skirt
G1 X78.645 Y85.955 E1.10774 ; skirt
G1 X78.700 Y85.433 E0.02094 ; skirt
G1 X78.810 Y84.856 E0.02348 ; skirt
G1 X78.994 Y84.250 E0.02528 ; skirt
G1 X79.232 Y83.657 E0.02549 ; skirt
G1 X79.524 Y83.095 E0.02530 ; skirt
G1 X79.870 Y82.565 E0.02523 ; skirt
G1 X80.084 Y82.283 E0.01416 ; skirt
G1 X80.465 Y81.851 E0.02297 ; skirt
G1 X80.868 Y82.148 F6000.000 ; move to first skirt point
G1 X81.251 Y81.801 E0.02064 F600.000 ; skirt
G1 X81.496 Y81.608 E0.01242 ; skirt
G1 X81.975 Y81.279 E0.02322 ; skirt
G1 X82.539 Y80.973 E0.02560 ; skirt
G1 X83.248 Y80.687 E0.03052 ; skirt
G1 X83.826 Y80.521 E0.02398 ; skirt
G1 X91.631 Y78.835 E0.31871 ; skirt
G1 X105.499 Y78.296 E0.55390 ; skirt
G1 X108.855 Y78.296 E0.13396 ; skirt
G1 X110.279 Y78.527 E0.05758 ; skirt
G1 X116.922 Y80.747 E0.27955 ; skirt
G1 X117.464 Y80.974 E0.02346 ; skirt
G1 X117.979 Y81.251 E0.02332 ; skirt
G1 X118.388 Y81.522 E0.01958 ; skirt
G1 X118.653 Y81.723 E0.01329 ; skirt
G1 X119.102 Y82.118 E0.02387 ; skirt
G1 X119.449 Y82.501 E0.02062 ; skirt
G1 X119.642 Y82.746 E0.01245 ; skirt
G1 X119.971 Y83.226 E0.02322 ; skirt
G1 X120.253 Y83.738 E0.02333 ; skirt
G1 X120.485 Y84.279 E0.02347 ; skirt
G1 X120.695 Y84.936 E0.02754 ; skirt
G1 X120.790 Y85.405 E0.01909 ; skirt
G1 X120.850 Y85.909 E0.02028 ; skirt
G1 X120.866 Y86.290 E0.01521 ; skirt
G1 X120.856 Y114.011 E1.10640 ; skirt
G1 X120.805 Y114.493 E0.01936 ; skirt
G1 X120.705 Y115.023 E0.02151 ; skirt
G1 X120.535 Y115.583 E0.02335 ; skirt
G1 X120.316 Y116.129 E0.02349 ; skirt
G1 X119.999 Y116.729 E0.02709 ; skirt
G1 X119.728 Y117.138 E0.01957 ; skirt
G1 X119.363 Y117.595 E0.02337 ; skirt
G1 X118.952 Y118.016 E0.02348 ; skirt
G1 X118.503 Y118.393 E0.02336 ; skirt
G1 X118.024 Y118.721 E0.02318 ; skirt
G1 X117.548 Y118.986 E0.02177 ; skirt
G1 X113.974 Y120.718 E0.15850 ; skirt
G1 X112.124 Y121.167 E0.07598 ; skirt
G1 X90.490 Y121.704 E0.86371 ; skirt
G1 X87.134 Y121.704 E0.13393 ; skirt
G1 X85.290 Y121.309 E0.07531 ; skirt
G1 X84.280 Y120.683 E0.04739 ; skirt
G1 X81.130 Y118.090 E0.16287 ; skirt
G1 X80.745 Y117.714 E0.02147 ; skirt
G1 X80.367 Y117.266 E0.02341 ; skirt
G1 X80.035 Y116.784 E0.02334 ; skirt
G1 X79.727 Y116.220 E0.02565 ; skirt
G1 X79.518 Y115.729 E0.02131 ; skirt
G1 X79.307 Y115.069 E0.02763 ; skirt
G1 X79.195 Y114.494 E0.02340 ; skirt
G1 X79.150 Y114.092 E0.01615 ; skirt
G1 X79.134 Y113.710 E0.01527 ; skirt
G1 X79.144 Y85.989 E1.10641 ; skirt
G1 X79.195 Y85.507 E0.01933 ; skirt
G1 X79.295 Y84.977 E0.02154 ; skirt
G1 X79.465 Y84.418 E0.02332 ; skirt
G1 X79.684 Y83.871 E0.02351 ; skirt
G1 X79.953 Y83.352 E0.02334 ; skirt
G1 X80.271 Y82.863 E0.02328 ; skirt
G1 X80.473 Y82.597 E0.01332 ; skirt
G1 X80.819 Y82.204 E0.02087 ; skirt
G1 F1800.000 E-4.00000 ; retract
G1 X93.060 Y113.840 F6000.000 ; move to first perimeter point
G1 E4.00000 F1800.000 ; compensate retraction
G1 X84.940 Y113.840 E0.32409 F900.000 ; perimeter
G1 X84.940 Y114.873 E0.04122 ; perimeter
G1 X84.537 Y114.718 E0.01723 ; perimeter
G1 X84.249 Y114.506 E0.01427 ; perimeter
G1 X84.035 Y114.219 E0.01427 ; perimeter
G1 X83.911 Y113.904 E0.01351 ; perimeter
G1 X83.885 Y113.708 E0.00791 ; perimeter
G1 X83.885 Y86.292 E1.09422 ; perimeter
G1 X83.906 Y86.116 E0.00707 ; perimeter
G1 X83.983 Y85.890 E0.00953 ; perimeter
G1 X84.095 Y85.680 E0.00950 ; perimeter
G1 X84.228 Y85.508 E0.00866 ; perimeter
G1 X84.430 Y85.345 E0.01038 ; perimeter
G1 X84.640 Y85.233 E0.00950 ; perimeter
G1 X84.866 Y85.156 E0.00953 ; perimeter
G1 X85.042 Y85.135 E0.00707 ; perimeter
G1 X90.517 Y85.143 E0.21854 ; perimeter
G1 X90.517 Y86.528 E0.05531 ; perimeter
G1 X90.580 Y86.760 E0.00956 ; perimeter
G1 X90.738 Y86.892 E0.00825 ; perimeter
G1 X90.934 Y86.945 E0.00809 ; perimeter
G1 X95.066 Y86.945 E0.16492 ; perimeter
G1 X95.264 Y86.891 E0.00817 ; perimeter
G1 X95.430 Y86.724 E0.00942 ; perimeter
G1 X95.483 Y86.528 E0.00809 ; perimeter
G1 X95.483 Y85.138 E0.05548 ; perimeter
G1 X102.940 Y85.138 E0.29764 ; perimeter
G1 X102.940 Y86.160 E0.04080 ; perimeter
G1 X111.060 Y86.160 E0.32409 ; perimeter
G1 X111.060 Y85.138 E0.04081 ; perimeter
G1 X115.013 Y85.138 E0.15777 ; perimeter
G1 X115.153 Y85.161 E0.00566 ; perimeter
G1 X115.360 Y85.233 E0.00875 ; perimeter
G1 X115.570 Y85.345 E0.00950 ; perimeter
G1 X115.742 Y85.478 E0.00866 ; perimeter
G1 X115.905 Y85.680 E0.01037 ; perimeter
G1 X116.017 Y85.890 E0.00950 ; perimeter
G1 X116.094 Y86.116 E0.00953 ; perimeter
G1 X116.115 Y86.292 E0.00707 ; perimeter
G1 X116.115 Y113.708 E1.09423 ; perimeter
G1 X116.094 Y113.884 E0.00707 ; perimeter
G1 X116.060 Y113.989 E0.00439 ; perimeter
G1 X115.905 Y114.320 E0.01460 ; perimeter
G1 X115.665 Y114.584 E0.01422 ; perimeter
G1 X115.360 Y114.767 E0.01422 ; perimeter
G1 X115.134 Y114.844 E0.00953 ; perimeter
G1 X114.958 Y114.865 E0.00707 ; perimeter
G1 X113.483 Y114.857 E0.05889 ; perimeter
G1 X113.483 Y113.472 E0.05529 ; perimeter
G1 X113.420 Y113.240 E0.00956 ; perimeter
G1 X113.262 Y113.108 E0.00824 ; perimeter
G1 X113.066 Y113.055 E0.00809 ; perimeter
G1 X108.934 Y113.055 E0.16492 ; perimeter
G1 X108.736 Y113.109 E0.00817 ; perimeter
G1 X108.570 Y113.276 E0.00942 ; perimeter
G1 X108.517 Y113.472 E0.00809 ; perimeter
G1 X108.517 Y114.862 E0.05548 ; perimeter
G1 X103.996 Y114.865 E0.18048 ; perimeter
G1 X103.018 Y113.136 E0.07928 ; perimeter
G1 X103.098 Y112.831 E0.01256 ; perimeter
G1 X103.151 Y112.333 E0.02000 ; perimeter
G1 X103.124 Y111.831 E0.02007 ; perimeter
G1 X103.007 Y111.313 E0.02118 ; perimeter
G1 X102.834 Y110.871 E0.01895 ; perimeter
G1 X102.579 Y110.438 E0.02007 ; perimeter
G1 X102.258 Y110.051 E0.02007 ; perimeter
G1 X101.879 Y109.720 E0.02007 ; perimeter
G1 X101.453 Y109.453 E0.02007 ; perimeter
G1 X100.962 Y109.251 E0.02118 ; perimeter
G1 X100.501 Y109.138 E0.01895 ; perimeter
G1 X100.000 Y109.098 E0.02008 ; perimeter
G1 X99.499 Y109.138 E0.02007 ; perimeter
G1 X99.010 Y109.258 E0.02007 ; perimeter
G1 X98.547 Y109.453 E0.02007 ; perimeter
G1 X98.121 Y109.720 E0.02007 ; perimeter
G1 X97.742 Y110.051 E0.02007 ; perimeter
G1 X97.421 Y110.438 E0.02007 ; perimeter
G1 X97.156 Y110.897 E0.02117 ; perimeter
G1 X96.983 Y111.339 E0.01895 ; perimeter
G1 X96.876 Y111.831 E0.02007 ; perimeter
G1 X96.849 Y112.333 E0.02007 ; perimeter
G1 X96.902 Y112.831 E0.02000 ; perimeter
G1 X96.982 Y113.136 E0.01256 ; perimeter
G1 X96.005 Y114.865 E0.07925 ; perimeter
G1 X93.060 Y114.862 E0.11754 ; perimeter
G1 X93.060 Y113.915 E0.03779 ; perimeter
G1 X93.060 Y113.340 F6000.000 ; move inwards before travel
G1 X93.560 Y113.340 F6000.000 ; move to first perimeter point
G1 X84.388 Y113.340 E0.36609 F900.000 ; perimeter
G1 X84.385 Y86.294 E1.07947 ; perimeter
G1 X84.446 Y86.082 E0.00880 ; perimeter
G1 X84.566 Y85.885 E0.00920 ; perimeter
G1 X84.769 Y85.726 E0.01029 ; perimeter
G1 X85.044 Y85.635 E0.01156 ; perimeter
G1 X90.017 Y85.641 E0.19851 ; perimeter
G1 X90.017 Y86.595 E0.03805 ; perimeter
G1 X90.150 Y87.088 E0.02040 ; perimeter
G1 X90.333 Y87.195 E0.00845 ; perimeter
G1 X90.480 Y87.341 E0.00828 ; perimeter
G1 X90.869 Y87.445 E0.01604 ; perimeter
G1 X95.132 Y87.445 E0.17017 ; perimeter
G1 X95.524 Y87.339 E0.01617 ; perimeter
G1 X95.879 Y86.982 E0.02011 ; perimeter
G1 X95.983 Y86.594 E0.01604 ; perimeter
G1 X95.983 Y85.637 E0.03817 ; perimeter
G1 X102.440 Y85.639 E0.25773 ; perimeter
G1 X102.440 Y86.660 E0.04075 ; perimeter
G1 X111.560 Y86.660 E0.36400 ; perimeter
G1 X111.560 Y85.638 E0.04081 ; perimeter
G1 X114.956 Y85.635 E0.13555 ; perimeter
G1 X115.231 Y85.726 E0.01156 ; perimeter
G1 X115.418 Y85.865 E0.00928 ; perimeter
G1 X115.554 Y86.082 E0.01024 ; perimeter
G1 X115.615 Y86.294 E0.00880 ; perimeter
G1 X115.615 Y113.706 E1.09409 ; perimeter
G1 X115.554 Y113.918 E0.00880 ; perimeter
G1 X115.447 Y114.098 E0.00836 ; perimeter
G1 X115.348 Y114.197 E0.00556 ; perimeter
G1 X115.168 Y114.304 E0.00836 ; perimeter
G1 X114.956 Y114.365 E0.00880 ; perimeter
G1 X113.983 Y114.357 E0.03886 ; perimeter
G1 X113.983 Y113.405 E0.03797 ; perimeter
G1 X113.850 Y112.912 E0.02040 ; perimeter
G1 X113.667 Y112.805 E0.00845 ; perimeter
G1 X113.520 Y112.659 E0.00828 ; perimeter
G1 X113.131 Y112.555 E0.01604 ; perimeter
G1 X108.868 Y112.555 E0.17018 ; perimeter
G1 X108.476 Y112.661 E0.01617 ; perimeter
G1 X108.121 Y113.018 E0.02011 ; perimeter
G1 X108.017 Y113.406 E0.01604 ; perimeter
G1 X108.017 Y114.367 E0.03832 ; perimeter
G1 X107.439 Y114.351 E0.02310 ; perimeter
G1 X104.287 Y114.365 E0.12579 ; perimeter
G1 X103.553 Y113.067 E0.05953 ; perimeter
G1 X103.591 Y112.921 E0.00601 ; perimeter
G1 X103.652 Y112.346 E0.02306 ; perimeter
G1 X103.621 Y111.765 E0.02325 ; perimeter
G1 X103.473 Y111.131 E0.02596 ; perimeter
G1 X103.285 Y110.652 E0.02054 ; perimeter
G1 X102.989 Y110.150 E0.02327 ; perimeter
G1 X102.617 Y109.701 E0.02327 ; perimeter
G1 X102.178 Y109.317 E0.02326 ; perimeter
G1 X101.684 Y109.008 E0.02326 ; perimeter
G1 X101.081 Y108.765 E0.02595 ; perimeter
G1 X100.581 Y108.643 E0.02054 ; perimeter
G1 X100.000 Y108.597 E0.02328 ; perimeter
G1 X99.419 Y108.643 E0.02326 ; perimeter
G1 X98.853 Y108.781 E0.02326 ; perimeter
G1 X98.316 Y109.008 E0.02326 ; perimeter
G1 X97.822 Y109.317 E0.02327 ; perimeter
G1 X97.383 Y109.701 E0.02326 ; perimeter
G1 X97.011 Y110.150 E0.02326 ; perimeter
G1 X96.690 Y110.715 E0.02594 ; perimeter
G1 X96.502 Y111.194 E0.02056 ; perimeter
G1 X96.379 Y111.764 E0.02325 ; perimeter
G1 X96.348 Y112.346 E0.02328 ; perimeter
G1 X96.409 Y112.920 E0.02305 ; perimeter
G1 X96.447 Y113.067 E0.00602 ; perimeter
G1 X95.714 Y114.363 E0.05944 ; perimeter
G1 X93.560 Y114.361 E0.08597 ; perimeter
G1 X93.560 Y113.415 E0.03774 ; perimeter
G1 X93.903 Y113.541 F6000.000 ; move to first fill point
G1 X94.381 Y114.019 E0.02699 F900.000 ; fill
G1 F1800.000 E-4.00000 ; retract
G1 X100.897 Y108.368 F6000.000 ; move to first fill point
G1 E4.00000 F1800.000 ; compensate retraction
G1 X84.736 Y92.207 E0.91216 F900.000 ; fill
G1 X84.736 Y92.923 E0.02856 ; fill
G1 X100.072 Y108.259 E0.86563 ; fill
G1 X99.399 Y108.301 E0.02693 ; fill
G1 X84.736 Y93.638 E0.82763 ; fill
G1 X84.736 Y94.354 E0.02856 ; fill
G1 X98.819 Y108.437 E0.79492 ; fill
G1 X98.306 Y108.640 E0.02201 ; fill
G1 X84.736 Y95.069 E0.76600 ; fill
G1 X84.735 Y95.785 E0.02856 ; fill
G1 X97.847 Y108.897 E0.74010 ; fill
G1 X97.435 Y109.200 E0.02043 ; fill
G1 X84.735 Y96.500 E0.71683 ; fill
G1 X84.735 Y97.216 E0.02856 ; fill
G1 X97.066 Y109.547 E0.69601 ; fill
G1 X96.741 Y109.938 E0.02029 ; fill
G1 X84.735 Y97.931 E0.67770 ; fill
G1 X84.734 Y98.647 E0.02856 ; fill
G1 X96.479 Y110.392 E0.66294 ; fill
G1 X96.256 Y110.884 E0.02158 ; fill
G1 X84.734 Y99.362 E0.65034 ; fill
G1 X84.734 Y100.078 E0.02856 ; fill
G1 X96.098 Y111.442 E0.64145 ; fill
G1 X96.019 Y112.079 E0.02561 ; fill
G1 X84.734 Y100.794 E0.63700 ; fill
G1 X84.734 Y101.509 E0.02856 ; fill
G1 X96.055 Y112.830 E0.63903 ; fill
G1 X95.881 Y113.372 E0.02270 ; fill
G1 X84.733 Y102.225 E0.62921 ; fill
G1 X84.733 Y102.940 E0.02856 ; fill
G1 X95.622 Y113.829 E0.61463 ; fill
G1 X95.097 Y114.020 E0.02230 ; fill
G1 X84.733 Y103.656 E0.58500 ; fill
G1 X84.733 Y104.371 E0.02856 ; fill
G1 X93.359 Y112.997 E0.48691 ; fill
G1 X92.643 Y112.997 E0.02857 ; fill
G1 X84.733 Y105.087 E0.44652 ; fill
G1 X84.732 Y105.802 E0.02856 ; fill
G1 X91.928 Y112.997 E0.40613 ; fill
G1 X91.212 Y112.997 E0.02857 ; fill
G1 X84.732 Y106.518 E0.36574 ; fill
G1 X84.732 Y107.233 E0.02856 ; fill
G1 X90.496 Y112.997 E0.32536 ; fill
G1 X89.780 Y112.997 E0.02857 ; fill
G1 X84.732 Y107.949 E0.28497 ; fill
G1 X84.731 Y108.664 E0.02856 ; fill
G1 X89.065 Y112.997 E0.24458 ; fill
G1 X88.349 Y112.997 E0.02857 ; fill
G1 X84.731 Y109.380 E0.20419 ; fill
G1 X84.731 Y110.095 E0.02856 ; fill
G1 X87.633 Y112.997 E0.16381 ; fill
G1 X86.917 Y112.997 E0.02857 ; fill
G1 X84.731 Y110.811 E0.12342 ; fill
G1 X84.731 Y111.526 E0.02856 ; fill
G1 X86.202 Y112.997 E0.08303 ; fill
G1 X85.486 Y112.997 E0.02857 ; fill
G1 X84.730 Y112.242 E0.04264 ; fill
G1 X84.730 Y112.957 E0.02856 ; fill
G1 X84.770 Y112.997 E0.00226 ; fill
G1 F1800.000 E-4.00000 ; retract
G1 X102.124 Y108.879 F6000.000 ; move to first fill point
G1 E4.00000 F1800.000 ; compensate retraction
G1 X84.737 Y91.492 E0.98141 F900.000 ; fill
G1 X84.737 Y90.776 E0.02856 ; fill
G1 X107.675 Y113.714 E1.29473 ; fill
G1 X107.751 Y113.075 E0.02570 ; fill
G1 X84.737 Y90.061 E1.29903 ; fill
G1 X84.737 Y89.345 E0.02856 ; fill
G1 X108.023 Y112.631 E1.31435 ; fill
G1 X108.427 Y112.319 E0.02037 ; fill
G1 X84.737 Y88.630 E1.33715 ; fill
G1 X84.738 Y87.914 E0.02856 ; fill
G1 X109.037 Y112.213 E1.37154 ; fill
G1 X109.752 Y112.213 E0.02857 ; fill
G1 X84.738 Y87.199 E1.41192 ; fill
G1 X84.738 Y86.483 E0.02856 ; fill
G1 X110.468 Y112.213 E1.45231 ; fill
G1 X111.184 Y112.213 E0.02857 ; fill
G1 X84.980 Y86.010 E1.47904 ; fill
G1 X85.665 Y85.979 E0.02736 ; fill
G1 X111.900 Y112.213 E1.48078 ; fill
G1 X112.615 Y112.213 E0.02857 ; fill
G1 X86.382 Y85.980 E1.48073 ; fill
G1 X87.098 Y85.980 E0.02860 ; fill
G1 X113.387 Y112.269 E1.48386 ; fill
G1 F1800.000 E-4.00000 ; retract
G1 X114.420 Y114.018 F6000.000 ; move to first fill point
G1 E4.00000 F1800.000 ; compensate retraction
G1 X114.325 Y113.923 E0.00537 F900.000 ; fill
G1 X114.269 Y113.150 E0.03090 ; fill
G1 X115.075 Y113.957 E0.04552 ; fill
G1 X115.262 Y113.428 E0.02239 ; fill
G1 X87.815 Y85.981 E1.54922 ; fill
G1 X89.675 Y86.410 F6000.000 ; move to first fill point
G1 X89.248 Y85.983 E0.02409 F900.000 ; fill
G1 X88.532 Y85.982 E0.02860 ; fill
