; generated by Slic3r 1.2.9 on 2016-07-31 at 16:03:43

; external perimeters extrusion width = 0.50mm
; perimeters extrusion width = 0.50mm
; infill extrusion width = 0.50mm
; solid infill extrusion width = 0.50mm
; top infill extrusion width = 0.50mm
; support material extrusion width = 0.50mm

M107 ; disable fan
M190 S57 ; set bed temperature
M104 S185 ; set temperature

M109 S185 ; wait for temperature to be reached
G21 ; set units to millimeters
G90 ; use absolute coordinates
M83 ; use relative distances for extrusion
G1 E-4.00000 F1800.00000 ; retract
G1 Z0.240 F6000.000 ; move to next layer (0)
G1 X61.026 Y62.557 F6000.000 ; move to first skirt point
G1 E4.00000 F1800.00000 ; unretract
G1 X62.599 Y61.422 E0.06943 F1050.000 ; skirt
G1 X63.973 Y60.651 E0.05641 ; skirt
G1 X65.243 Y60.120 E0.04928 ; skirt
G1 X66.406 Y59.750 E0.04369 ; skirt
G1 X67.535 Y59.498 E0.04143 ; skirt
G1 X68.538 Y59.351 E0.03628 ; skirt
G1 X69.579 Y59.276 E0.03737 ; skirt
G1 X70.077 Y59.258 E0.01784 ; skirt
G1 X127.264 Y59.267 E2.04733 ; skirt
G1 X130.310 Y59.273 E0.10904 F1050.000 ; skirt
G1 X130.922 Y59.304 E0.02194 ; skirt
G1 X131.879 Y59.394 E0.03444 ; skirt
G1 X132.761 Y59.536 E0.03196 ; skirt
G1 X133.661 Y59.741 E0.03306 ; skirt
G1 X134.563 Y60.013 E0.03371 ; skirt
G1 X135.407 Y60.331 E0.03229 ; skirt
G1 X136.062 Y60.618 E0.02562 ; skirt
G1 X136.864 Y61.020 E0.03211 ; skirt
G1 X137.647 Y61.480 E0.03250 ; skirt
G1 X138.396 Y61.988 E0.03239 ; skirt
G1 X139.094 Y62.531 E0.03168 ; skirt
G1 X139.789 Y63.146 E0.03323 ; skirt
G1 X140.431 Y63.795 E0.03268 ; skirt
G1 X141.067 Y64.529 E0.03476 ; skirt
G1 X141.635 Y65.284 E0.03383 ; skirt
G1 X142.202 Y66.155 E0.03721 ; skirt
G1 X142.699 Y67.062 E0.03701 ; skirt
G1 X143.176 Y68.112 E0.04129 ; skirt
G1 X143.576 Y69.244 E0.04300 ; skirt
G1 X143.916 Y70.567 E0.04888 ; skirt
G1 X144.125 Y71.933 E0.04947 ; skirt
G1 X144.219 Y73.748 E0.06508 ; skirt
G1 X144.220 Y126.168 E1.87667 ; skirt
G1 X143.489 Y129.257 E0.11366 ; skirt
G1 X140.319 Y135.582 E0.25330 ; skirt
G1 X138.930 Y137.466 E0.08379 ; skirt
G1 X137.515 Y138.514 E0.06304 ; skirt
G1 X136.122 Y139.292 E0.05712 ; skirt
G1 X134.886 Y139.831 E0.04828 ; skirt
G1 X133.688 Y140.219 E0.04508 ; skirt
G1 X132.596 Y140.477 E0.04015 ; skirt
G1 X131.510 Y140.641 E0.03932 ; skirt
G1 X130.626 Y140.718 E0.03177 ; skirt
G1 X129.461 Y140.742 E0.04175 ; skirt
G1 X70.267 Y140.733 E2.11917 ; skirt
G1 X69.057 Y140.697 E0.04335 ; skirt
G1 X68.220 Y140.619 E0.03011 ; skirt
G1 X67.289 Y140.474 E0.03372 ; skirt
G1 X66.431 Y140.284 E0.03147 ; skirt
G1 X65.555 Y140.030 E0.03266 ; skirt
G1 X64.746 Y139.739 E0.03078 ; skirt
G1 X63.920 Y139.384 E0.03217 ; skirt
G1 X63.160 Y138.999 E0.03053 ; skirt
G1 X62.384 Y138.544 E0.03218 ; skirt
G1 X61.673 Y138.065 E0.03070 ; skirt
G1 X60.948 Y137.509 E0.03270 ; skirt
G1 X60.290 Y136.933 E0.03132 ; skirt
G1 X59.620 Y136.268 E0.03380 ; skirt
G1 X58.998 Y135.560 E0.03373 ; skirt
G1 X58.392 Y134.766 E0.03573 ; skirt
G1 X57.853 Y133.946 E0.03516 ; skirt
G1 X57.324 Y132.999 E0.03882 ; skirt
G1 X56.867 Y132.003 E0.03924 ; skirt
G1 X56.444 Y130.846 E0.04412 ; skirt
G1 X56.114 Y129.590 E0.04647 ; skirt
G1 X55.868 Y128.081 E0.05475 ; skirt
G1 X55.777 Y126.980 E0.03953 ; skirt
G1 X55.775 Y74.765 E1.86935 ; skirt
G1 X55.824 Y72.665 E0.07519 ; skirt
G1 X56.553 Y69.736 E0.10808 ; skirt
G1 X58.898 Y65.058 E0.18732 ; skirt
G1 X60.978 Y62.614 E0.11491 ; skirt
G1 X61.289 Y62.920 F6000.000 ; move to first skirt point
G1 X62.861 Y61.785 E0.06943 F1050.000 ; skirt
G1 X64.146 Y61.065 E0.05274 ; skirt
G1 X65.416 Y60.534 E0.04928 ; skirt
G1 X66.504 Y60.188 E0.04085 ; skirt
G1 X67.633 Y59.936 E0.04143 ; skirt
G1 X68.571 Y59.799 E0.03393 ; skirt
G1 X69.612 Y59.723 E0.03737 ; skirt
G1 X70.077 Y59.707 E0.01668 ; skirt
G1 X127.264 Y59.715 E2.04733 ; skirt
G1 X130.307 Y59.721 E0.10895 F1050.000 ; skirt
G1 X130.879 Y59.750 E0.02051 ; skirt
G1 X131.837 Y59.841 E0.03444 ; skirt
G1 X132.661 Y59.973 E0.02988 ; skirt
G1 X133.562 Y60.179 E0.03306 ; skirt
G1 X134.404 Y60.433 E0.03152 ; skirt
G1 X135.248 Y60.751 E0.03229 ; skirt
G1 X135.861 Y61.019 E0.02396 ; skirt
G1 X136.663 Y61.421 E0.03211 ; skirt
G1 X137.395 Y61.851 E0.03038 ; skirt
G1 X138.144 Y62.359 E0.03239 ; skirt
G1 X138.797 Y62.866 E0.02962 ; skirt
G1 X139.492 Y63.482 E0.03323 ; skirt
G1 X140.092 Y64.088 E0.03056 ; skirt
G1 X140.728 Y64.822 E0.03476 ; skirt
G1 X141.259 Y65.528 E0.03163 ; skirt
G1 X141.826 Y66.400 E0.03721 ; skirt
G1 X142.290 Y67.247 E0.03460 ; skirt
G1 X142.767 Y68.297 E0.04129 ; skirt
G1 X143.141 Y69.356 E0.04021 ; skirt
G1 X143.482 Y70.679 E0.04888 ; skirt
G1 X143.677 Y71.956 E0.04625 ; skirt
G1 X143.771 Y73.771 E0.06508 ; skirt
G1 X143.772 Y126.168 E1.87584 ; skirt
G1 X143.088 Y129.056 E0.10627 ; skirt
G1 X139.918 Y135.381 E0.25330 ; skirt
G1 X138.565 Y137.195 E0.08100 ; skirt
G1 X137.296 Y138.122 E0.05626 ; skirt
G1 X135.903 Y138.900 E0.05712 ; skirt
G1 X134.747 Y139.404 E0.04514 ; skirt
G1 X133.550 Y139.792 E0.04508 ; skirt
G1 X132.529 Y140.033 E0.03754 ; skirt
G1 X131.443 Y140.198 E0.03932 ; skirt
G1 X130.617 Y140.269 E0.02970 ; skirt
G1 X129.461 Y140.293 E0.04139 ; skirt
G1 X70.267 Y140.284 E2.11917 ; skirt
G1 X69.072 Y140.249 E0.04283 ; skirt
G1 X68.289 Y140.176 E0.02815 ; skirt
G1 X67.358 Y140.031 E0.03372 ; skirt
G1 X66.556 Y139.853 E0.02942 ; skirt
G1 X65.680 Y139.599 E0.03266 ; skirt
G1 X64.923 Y139.328 E0.02877 ; skirt
G1 X64.098 Y138.972 E0.03217 ; skirt
G1 X63.387 Y138.612 E0.02854 ; skirt
G1 X62.611 Y138.157 E0.03218 ; skirt
G1 X61.946 Y137.709 E0.02871 ; skirt
G1 X61.222 Y137.153 E0.03270 ; skirt
G1 X60.606 Y136.615 E0.02929 ; skirt
G1 X59.936 Y135.949 E0.03380 ; skirt
G1 X59.354 Y135.287 E0.03154 ; skirt
G1 X58.748 Y134.494 E0.03573 ; skirt
G1 X58.245 Y133.727 E0.03287 ; skirt
G1 X57.716 Y132.780 E0.03882 ; skirt
G1 X57.288 Y131.849 E0.03669 ; skirt
G1 X56.865 Y130.691 E0.04412 ; skirt
G1 X56.557 Y129.518 E0.04344 ; skirt
G1 X56.310 Y128.008 E0.05475 ; skirt
G1 X56.226 Y126.980 E0.03696 ; skirt
G1 X56.223 Y74.776 E1.86895 ; skirt
G1 X56.272 Y72.676 E0.07519 ; skirt
G1 X56.954 Y69.937 E0.10105 ; skirt
G1 X59.299 Y65.259 E0.18732 ; skirt
G1 X61.240 Y62.978 E0.10726 ; skirt
G1 E-4.00000 F1800.00000 ; retract
G1 X65.064 Y68.149 F6000.000 ; move to first support material point
G1 E4.00000 F1800.00000 ; unretract
G1 X62.719 Y72.826 E0.18732 F1050.000 ; support material
G1 X62.670 Y74.926 F6000.000 ; move to first support material point
G1 X66.636 Y67.013 E0.31686 F1050.000 ; support material
G1 X67.906 Y66.482 E0.04928 ; support material
G1 X62.670 Y76.928 E0.41831 ; support material
G1 X62.670 Y78.930 E0.07167 ; support material
G1 X69.035 Y66.230 E0.50855 ; support material
G1 X70.076 Y66.155 E0.03737 ; support material
G1 X62.670 Y80.932 E0.59173 ; support material
G1 X62.670 Y82.933 E0.07167 ; support material
G1 X71.079 Y66.155 E0.67189 ; support material
G1 X72.083 Y66.156 E0.03592 ; support material
G1 X62.670 Y84.935 E0.75205 ; support material
G1 X62.670 Y86.937 E0.07167 ; support material
G1 X73.086 Y66.156 E0.83221 ; support material
G1 X74.089 Y66.156 E0.03592 ; support material
G1 X62.670 Y88.939 E0.91237 ; support material
G1 X62.670 Y90.941 E0.07167 ; support material
G1 X75.092 Y66.156 E0.99253 ; support material
G1 X76.096 Y66.156 E0.03592 ; support material
G1 X62.670 Y92.943 E1.07269 ; support material
G1 X62.670 Y94.945 E0.07167 ; support material
G1 X77.099 Y66.156 E1.15285 ; support material
G1 X78.102 Y66.156 E0.03592 ; support material
G1 X63.573 Y95.145 E1.16089 ; support material
G1 X64.576 Y95.145 E0.03592 ; support material
G1 X79.106 Y66.157 E1.16088 ; support material
G1 X80.109 Y66.157 E0.03592 ; support material
G1 X65.580 Y95.145 E1.16088 ; support material
G1 X66.583 Y95.145 E0.03592 ; support material
G1 X81.112 Y66.157 E1.16087 ; support material
G1 X82.115 Y66.157 E0.03592 ; support material
G1 X67.586 Y95.145 E1.16087 ; support material
G1 X68.590 Y95.145 E0.03592 ; support material
G1 X83.119 Y66.157 E1.16086 ; support material
G1 X84.122 Y66.157 E0.03592 ; support material
G1 X69.593 Y95.145 E1.16085 ; support material
G1 X70.596 Y95.145 E0.03592 ; support material
G1 X85.125 Y66.158 E1.16085 ; support material
G1 X86.129 Y66.158 E0.03592 ; support material
G1 X71.600 Y95.145 E1.16084 ; support material
G1 X72.603 Y95.145 E0.03592 ; support material
G1 X87.132 Y66.158 E1.16084 ; support material
G1 X88.135 Y66.158 E0.03592 ; support material
G1 X73.606 Y95.145 E1.16083 ; support material
G1 X74.610 Y95.145 E0.03592 ; support material
G1 X89.138 Y66.158 E1.16082 ; support material
G1 X90.142 Y66.158 E0.03592 ; support material
G1 X75.613 Y95.145 E1.16082 ; support material
G1 X76.616 Y95.145 E0.03592 ; support material
G1 X91.145 Y66.158 E1.16081 ; support material
G1 X92.148 Y66.159 E0.03592 ; support material
G1 X77.620 Y95.145 E1.16081 ; support material
G1 X78.623 Y95.145 E0.03592 ; support material
G1 X93.151 Y66.159 E1.16080 ; support material
G1 X94.155 Y66.159 E0.03592 ; support material
G1 X79.627 Y95.145 E1.16080 ; support material
G1 X80.630 Y95.145 E0.03592 ; support material
G1 X95.158 Y66.159 E1.16079 ; support material
G1 X96.161 Y66.159 E0.03592 ; support material
G1 X81.633 Y95.145 E1.16078 ; support material
G1 X82.637 Y95.145 E0.03592 ; support material
G1 X97.165 Y66.159 E1.16078 ; support material
G1 X98.168 Y66.159 E0.03592 ; support material
G1 X83.640 Y95.145 E1.16077 ; support material
G1 X84.643 Y95.145 E0.03592 ; support material
G1 X99.171 Y66.160 E1.16077 ; support material
G1 X100.174 Y66.160 E0.03592 ; support material
G1 X85.647 Y95.145 E1.16076 ; support material
G1 X86.650 Y95.145 E0.03592 ; support material
G1 X101.178 Y66.160 E1.16076 ; support material
G1 X102.181 Y66.160 E0.03592 ; support material
G1 X87.653 Y95.145 E1.16075 ; support material
G1 X88.657 Y95.145 E0.03592 ; support material
G1 X103.184 Y66.160 E1.16074 ; support material
G1 X104.187 Y66.160 E0.03592 ; support material
G1 X89.660 Y95.145 E1.16074 ; support material
G1 X90.663 Y95.145 E0.03592 ; support material
G1 X105.191 Y66.160 E1.16073 ; support material
G1 X106.194 Y66.161 E0.03592 ; support material
G1 X91.667 Y95.145 E1.16073 ; support material
G1 X92.670 Y95.145 E0.03592 ; support material
G1 X107.197 Y66.161 E1.16072 ; support material
G1 X108.201 Y66.161 E0.03592 ; support material
G1 X93.673 Y95.145 E1.16071 ; support material
G1 X94.677 Y95.145 E0.03592 ; support material
G1 X109.204 Y66.161 E1.16071 ; support material
G1 X110.207 Y66.161 E0.03592 ; support material
G1 X95.680 Y95.145 E1.16070 ; support material
G1 X96.683 Y95.145 E0.03592 ; support material
G1 X111.210 Y66.161 E1.16070 ; support material
G1 X112.214 Y66.161 E0.03592 ; support material
G1 X97.687 Y95.145 E1.16069 ; support material
G1 X98.690 Y95.145 E0.03592 ; support material
G1 X113.217 Y66.162 E1.16069 ; support material
G1 X114.220 Y66.162 E0.03592 ; support material
G1 X99.694 Y95.145 E1.16068 ; support material
G1 X100.697 Y95.145 E0.03592 ; support material
G1 X115.224 Y66.162 E1.16067 ; support material
G1 X116.227 Y66.162 E0.03592 ; support material
G1 X101.700 Y95.145 E1.16067 ; support material
G1 X102.704 Y95.145 E0.03592 ; support material
G1 X117.230 Y66.162 E1.16066 ; support material
G1 X118.233 Y66.162 E0.03592 ; support material
G1 X103.707 Y95.145 E1.16066 ; support material
G1 X104.710 Y95.145 E0.03592 ; support material
G1 X119.237 Y66.162 E1.16065 ; support material
G1 X120.240 Y66.163 E0.03592 ; support material
G1 X105.714 Y95.145 E1.16064 ; support material
G1 X106.717 Y95.145 E0.03592 ; support material
G1 X121.243 Y66.163 E1.16064 ; support material
G1 X122.246 Y66.163 E0.03592 ; support material
G1 X107.720 Y95.145 E1.16063 ; support material
G1 X108.724 Y95.145 E0.03592 ; support material
G1 X123.250 Y66.163 E1.16063 ; support material
G1 X124.253 Y66.163 E0.03592 ; support material
G1 X109.727 Y95.145 E1.16062 ; support material
G1 X110.730 Y95.145 E0.03592 ; support material
G1 X125.256 Y66.163 E1.16062 ; support material
G1 X126.260 Y66.163 E0.03592 ; support material
G1 X111.734 Y95.145 E1.16061 ; support material
G1 X112.737 Y95.145 E0.03592 ; support material
G1 X127.263 Y66.164 E1.16060 ; support material
G1 X128.266 Y66.164 E0.03592 ; support material
G1 X113.740 Y95.145 E1.16060 ; support material
G1 X114.744 Y95.145 E0.03592 ; support material
G1 X129.269 Y66.164 E1.16059 ; support material
G1 X130.270 Y66.170 E0.03582 ; support material
G1 X115.747 Y95.145 E1.16036 ; support material
G1 X116.750 Y95.145 E0.03592 ; support material
G1 X131.228 Y66.261 E1.15672 ; support material
G1 X132.128 Y66.466 E0.03306 ; support material
G1 X117.754 Y95.145 E1.14850 ; support material
G1 X118.757 Y95.145 E0.03592 ; support material
G1 X132.972 Y66.784 E1.13575 ; support material
G1 X133.774 Y67.186 E0.03211 ; support material
G1 X119.760 Y95.145 E1.11965 ; support material
G1 X120.764 Y95.145 E0.03592 ; support material
G1 X134.522 Y67.694 E1.09930 ; support material
G1 X135.217 Y68.310 E0.03323 ; support material
G1 X121.767 Y95.145 E1.07466 ; support material
G1 X122.771 Y95.145 E0.03592 ; support material
G1 X135.853 Y69.044 E1.04527 ; support material
G1 X136.419 Y69.915 E0.03721 ; support material
G1 X123.774 Y95.145 E1.01038 ; support material
G1 X124.777 Y95.145 E0.03592 ; support material
G1 X136.897 Y70.965 E0.96833 ; support material
G1 X137.237 Y72.287 E0.04888 ; support material
G1 X125.781 Y95.145 E0.91538 ; support material
G1 X126.784 Y95.145 E0.03592 ; support material
G1 X137.331 Y74.103 E0.84268 ; support material
G1 X137.330 Y76.105 E0.07169 ; support material
G1 X127.787 Y95.145 E0.76249 ; support material
G1 X128.791 Y95.145 E0.03592 ; support material
G1 X137.330 Y78.108 E0.68230 ; support material
G1 X137.330 Y80.110 E0.07169 ; support material
G1 X129.794 Y95.145 E0.60211 ; support material
G1 X130.797 Y95.145 E0.03592 ; support material
G1 X137.330 Y82.112 E0.52192 ; support material
G1 X137.329 Y84.115 E0.07169 ; support material
G1 X131.801 Y95.145 E0.44173 ; support material
G1 X132.804 Y95.145 E0.03592 ; support material
G1 X137.329 Y86.117 E0.36154 ; support material
G1 X137.329 Y88.120 E0.07169 ; support material
G1 X133.807 Y95.145 E0.28135 ; support material
G1 X134.811 Y95.145 E0.03592 ; support material
G1 X137.328 Y90.122 E0.20116 ; support material
G1 X137.328 Y92.125 E0.07169 ; support material
G1 X135.814 Y95.145 E0.12097 ; support material
G1 X137.328 Y94.127 E0.06531 ; support material
G1 X136.817 Y95.145 E0.04078 ; support material
G1 E-4.00000 F1800.00000 ; retract
G1 X131.607 Y97.533 F6000.000 ; move to first support material point
G1 E4.00000 F1800.00000 ; unretract
G1 X132.053 Y96.645 E0.03556 F1050.000 ; support material
G1 X133.056 Y96.645 E0.03592 ; support material
G1 X131.607 Y99.536 E0.11578 ; support material
G1 X131.606 Y101.539 E0.07172 ; support material
G1 X134.059 Y96.645 E0.19600 ; support material
G1 X135.063 Y96.645 E0.03592 ; support material
G1 X131.605 Y103.543 E0.27623 ; support material
G1 X132.191 Y104.375 E0.03645 ; support material
G1 X136.066 Y96.645 E0.30957 ; support material
G1 X136.268 Y98.244 E0.05771 ; support material
G1 X133.195 Y104.375 E0.24554 ; support material
G1 X134.198 Y104.376 E0.03592 ; support material
G1 X136.267 Y100.247 E0.16532 ; support material
G1 X136.266 Y102.251 E0.07172 ; support material
G1 X135.201 Y104.376 E0.08510 ; support material
G1 E-4.00000 F1800.00000 ; retract
G1 X134.153 Y132.492 F6000.000 ; move to first support material point
G1 E4.00000 F1800.00000 ; unretract
G1 X137.323 Y126.167 E0.25330 F1050.000 ; support material
G1 X137.323 Y124.164 E0.07169 ; support material
G1 X132.760 Y133.270 E0.36463 ; support material
G1 X131.562 Y133.658 E0.04508 ; support material
G1 X137.324 Y122.162 E0.46037 ; support material
G1 X137.324 Y120.159 E0.07169 ; support material
G1 X130.476 Y133.822 E0.54715 ; support material
G1 X129.462 Y133.845 E0.03633 ; support material
G1 X137.324 Y118.157 E0.62823 ; support material
G1 X137.325 Y116.154 E0.07169 ; support material
G1 X128.458 Y133.844 E0.70842 ; support material
