; generated by Slic3r 1.2.9 on 2016-07-30 at 18:51:01

; external perimeters extrusion width = 0.50mm
; perimeters extrusion width = 0.50mm
; infill extrusion width = 0.50mm
; solid infill extrusion width = 0.50mm
; top infill extrusion width = 0.50mm

M107 ; disable fan
M190 S57 ; set bed temperature
M104 S185 ; set temperature

M109 S185 ; wait for temperature to be reached
G21 ; set units to millimeters
G90 ; use absolute coordinates
M83 ; use relative distances for extrusion
G1 E-4.00000 F1800.00000 ; retract
G1 Z0.240 F6000.000 ; move to next layer (0)
G1 X61.043 Y64.269 F6000.000 ; move to first skirt point
G1 E4.00000 F1800.00000 ; unretract
G1 X61.550 Y63.803 E0.02467 F1050.000 ; skirt
G1 X61.990 Y63.438 E0.02046 ; skirt
G1 X62.616 Y62.972 E0.02794 ; skirt
G1 X63.146 Y62.623 E0.02271 ; skirt
G1 X64.134 Y62.061 E0.04073 ; skirt
G1 X64.648 Y61.812 E0.02044 ; skirt
G1 X65.367 Y61.510 E0.02791 ; skirt
G1 X66.099 Y61.253 E0.02775 ; skirt
G1 X66.707 Y61.078 E0.02267 ; skirt
G1 X67.827 Y60.834 E0.04104 ; skirt
G1 X68.393 Y60.749 E0.02048 ; skirt
G1 X69.164 Y60.676 E0.02773 ; skirt
G1 X70.359 Y60.649 E0.04279 ; skirt
G1 X130.002 Y60.657 E2.13528 F1050.000 ; skirt
G1 X130.729 Y60.678 E0.02601 ; skirt
G1 X131.495 Y60.744 E0.02755 ; skirt
G1 X132.116 Y60.833 E0.02245 ; skirt
G1 X133.205 Y61.062 E0.03983 ; skirt
G1 X133.778 Y61.223 E0.02133 ; skirt
G1 X134.506 Y61.470 E0.02751 ; skirt
G1 X135.463 Y61.873 E0.03716 ; skirt
G1 X135.934 Y62.103 E0.01876 ; skirt
G1 X136.606 Y62.478 E0.02755 ; skirt
G1 X137.264 Y62.897 E0.02793 ; skirt
G1 X137.787 Y63.275 E0.02310 ; skirt
G1 X138.668 Y64.006 E0.04099 ; skirt
G1 X139.053 Y64.368 E0.01892 ; skirt
G1 X139.576 Y64.915 E0.02709 ; skirt
G1 X140.256 Y65.735 E0.03815 ; skirt
G1 X140.533 Y66.113 E0.01678 ; skirt
G1 X140.950 Y66.742 E0.02702 ; skirt
G1 X141.502 Y67.722 E0.04026 ; skirt
G1 X141.983 Y68.789 E0.04189 ; skirt
G1 X142.368 Y69.902 E0.04218 ; skirt
G1 X142.572 Y70.680 E0.02879 ; skirt
G1 X142.775 Y71.795 E0.04058 ; skirt
G1 X142.858 Y72.569 E0.02787 ; skirt
G1 X142.884 Y72.986 E0.01493 ; skirt
G1 X142.898 Y73.556 E0.02043 ; skirt
G1 X142.890 Y126.456 E1.89387 ; skirt
G1 X142.876 Y127.027 E0.02043 ; skirt
G1 X142.818 Y127.804 E0.02789 ; skirt
G1 X142.713 Y128.575 E0.02788 ; skirt
G1 X142.638 Y128.985 E0.01493 ; skirt
G1 X142.462 Y129.744 E0.02788 ; skirt
G1 X142.241 Y130.490 E0.02785 ; skirt
G1 X141.836 Y131.558 E0.04089 ; skirt
G1 X141.506 Y132.264 E0.02791 ; skirt
G1 X141.309 Y132.637 E0.01511 ; skirt
G1 X140.918 Y133.305 E0.02769 ; skirt
G1 X140.487 Y133.949 E0.02776 ; skirt
G1 X139.781 Y134.850 E0.04097 ; skirt
G1 X139.256 Y135.426 E0.02789 ; skirt
G1 X138.698 Y135.969 E0.02789 ; skirt
G1 X138.107 Y136.477 E0.02789 ; skirt
G1 X137.779 Y136.734 E0.01491 ; skirt
G1 X136.840 Y137.382 E0.04086 ; skirt
G1 X136.483 Y137.597 E0.01492 ; skirt
G1 X135.799 Y137.969 E0.02788 ; skirt
G1 X134.758 Y138.437 E0.04085 ; skirt
G1 X134.025 Y138.703 E0.02791 ; skirt
G1 X133.287 Y138.922 E0.02758 ; skirt
G1 X132.874 Y139.024 E0.01520 ; skirt
G1 X131.752 Y139.229 E0.04086 ; skirt
G1 X130.978 Y139.312 E0.02788 ; skirt
G1 X130.562 Y139.337 E0.01492 ; skirt
G1 X129.992 Y139.351 E0.02040 ; skirt
G1 X69.991 Y139.343 E2.14809 ; skirt
G1 X69.417 Y139.328 E0.02056 ; skirt
G1 X68.635 Y139.269 E0.02807 ; skirt
G1 X67.884 Y139.167 E0.02712 ; skirt
G1 X67.446 Y139.087 E0.01595 ; skirt
G1 X66.331 Y138.810 E0.04112 ; skirt
G1 X65.931 Y138.685 E0.01501 ; skirt
G1 X65.195 Y138.415 E0.02807 ; skirt
G1 X64.149 Y137.941 E0.04113 ; skirt
G1 X63.484 Y137.578 E0.02711 ; skirt
G1 X63.103 Y137.346 E0.01596 ; skirt
G1 X62.161 Y136.690 E0.04111 ; skirt
G1 X61.832 Y136.430 E0.01502 ; skirt
G1 X61.240 Y135.916 E0.02806 ; skirt
G1 X60.432 Y135.099 E0.04112 ; skirt
G1 X59.924 Y134.502 E0.02806 ; skirt
G1 X59.667 Y134.171 E0.01502 ; skirt
G1 X59.217 Y133.529 E0.02806 ; skirt
G1 X58.806 Y132.861 E0.02806 ; skirt
G1 X58.280 Y131.840 E0.04112 ; skirt
G1 X58.111 Y131.457 E0.01501 ; skirt
G1 X57.828 Y130.725 E0.02807 ; skirt
G1 X57.591 Y129.978 E0.02807 ; skirt
G1 X57.399 Y129.218 E0.02805 ; skirt
G1 X57.202 Y128.087 E0.04113 ; skirt
G1 X57.126 Y127.306 E0.02807 ; skirt
G1 X57.103 Y126.749 E0.01998 ; skirt
G1 X57.103 Y73.545 E1.90475 ; skirt
G1 X57.134 Y72.660 E0.03170 ; skirt
G1 X57.186 Y72.090 E0.02048 ; skirt
G1 X57.296 Y71.329 E0.02751 ; skirt
G1 X57.507 Y70.348 E0.03592 ; skirt
G1 X57.660 Y69.799 E0.02042 ; skirt
G1 X57.906 Y69.069 E0.02757 ; skirt
G1 X58.290 Y68.142 E0.03593 ; skirt
G1 X58.540 Y67.630 E0.02040 ; skirt
G1 X58.914 Y66.957 E0.02758 ; skirt
G1 X59.460 Y66.115 E0.03590 ; skirt
G1 X59.798 Y65.657 E0.02041 ; skirt
G1 X60.288 Y65.060 E0.02764 ; skirt
G1 X60.988 Y64.321 E0.03645 ; skirt
G1 X61.350 Y64.596 F6000.000 ; move to first skirt point
G1 X61.841 Y64.145 E0.02387 F1050.000 ; skirt
G1 X62.270 Y63.788 E0.01998 ; skirt
G1 X62.875 Y63.339 E0.02697 ; skirt
G1 X63.389 Y63.000 E0.02205 ; skirt
G1 X64.335 Y62.462 E0.03894 ; skirt
G1 X64.836 Y62.219 E0.01996 ; skirt
G1 X65.530 Y61.928 E0.02694 ; skirt
G1 X66.236 Y61.680 E0.02677 ; skirt
G1 X66.827 Y61.510 E0.02204 ; skirt
G1 X67.898 Y61.277 E0.03924 ; skirt
G1 X68.451 Y61.194 E0.02000 ; skirt
G1 X69.195 Y61.123 E0.02676 ; skirt
G1 X70.359 Y61.097 E0.04170 ; skirt
G1 X130.002 Y61.106 E2.13528 F1050.000 ; skirt
G1 X130.705 Y61.126 E0.02516 ; skirt
G1 X131.445 Y61.190 E0.02659 ; skirt
G1 X132.049 Y61.277 E0.02184 ; skirt
G1 X133.090 Y61.496 E0.03809 ; skirt
G1 X133.649 Y61.653 E0.02079 ; skirt
G1 X134.351 Y61.891 E0.02656 ; skirt
G1 X135.268 Y62.277 E0.03562 ; skirt
G1 X135.729 Y62.502 E0.01836 ; skirt
G1 X136.378 Y62.864 E0.02661 ; skirt
G1 X137.013 Y63.269 E0.02696 ; skirt
G1 X137.521 Y63.636 E0.02244 ; skirt
G1 X138.363 Y64.334 E0.03918 ; skirt
G1 X138.740 Y64.690 E0.01853 ; skirt
G1 X139.245 Y65.218 E0.02617 ; skirt
G1 X139.896 Y66.003 E0.03651 ; skirt
G1 X140.170 Y66.375 E0.01653 ; skirt
G1 X140.572 Y66.983 E0.02610 ; skirt
G1 X141.100 Y67.920 E0.03849 ; skirt
G1 X141.569 Y68.960 E0.04085 ; skirt
G1 X141.937 Y70.023 E0.04028 ; skirt
G1 X142.133 Y70.774 E0.02778 ; skirt
G1 X142.332 Y71.863 E0.03961 ; skirt
G1 X142.435 Y72.999 E0.04086 ; skirt
G1 X142.449 Y73.556 E0.01994 ; skirt
G1 X142.441 Y126.456 E1.89387 ; skirt
G1 X142.427 Y127.013 E0.01995 ; skirt
G1 X142.371 Y127.763 E0.02692 ; skirt
G1 X142.199 Y128.891 E0.04086 ; skirt
G1 X142.030 Y129.623 E0.02691 ; skirt
G1 X141.817 Y130.344 E0.02688 ; skirt
G1 X141.421 Y131.386 E0.03991 ; skirt
G1 X140.919 Y132.417 E0.04107 ; skirt
G1 X140.542 Y133.061 E0.02671 ; skirt
G1 X140.126 Y133.683 E0.02680 ; skirt
G1 X139.437 Y134.563 E0.03999 ; skirt
G1 X138.930 Y135.118 E0.02692 ; skirt
G1 X138.390 Y135.642 E0.02692 ; skirt
G1 X137.514 Y136.372 E0.04085 ; skirt
G1 X136.597 Y137.005 E0.03989 ; skirt
G1 X135.603 Y137.566 E0.04085 ; skirt
G1 X134.587 Y138.023 E0.03988 ; skirt
G1 X133.879 Y138.279 E0.02694 ; skirt
G1 X132.780 Y138.585 E0.04083 ; skirt
G1 X131.684 Y138.786 E0.03989 ; skirt
G1 X130.548 Y138.889 E0.04085 ; skirt
G1 X129.992 Y138.903 E0.01992 ; skirt
G1 X69.991 Y138.894 E2.14809 ; skirt
G1 X69.430 Y138.880 E0.02007 ; skirt
G1 X68.676 Y138.823 E0.02710 ; skirt
G1 X67.541 Y138.649 E0.04112 ; skirt
G1 X66.452 Y138.379 E0.04014 ; skirt
G1 X65.368 Y138.001 E0.04111 ; skirt
G1 X64.346 Y137.538 E0.04016 ; skirt
G1 X63.348 Y136.971 E0.04111 ; skirt
G1 X62.428 Y136.330 E0.04013 ; skirt
G1 X61.549 Y135.591 E0.04112 ; skirt
G1 X60.760 Y134.794 E0.04015 ; skirt
G1 X60.030 Y133.907 E0.04112 ; skirt
G1 X59.595 Y133.288 E0.02709 ; skirt
G1 X59.199 Y132.644 E0.02709 ; skirt
G1 X58.685 Y131.647 E0.04015 ; skirt
G1 X58.253 Y130.583 E0.04112 ; skirt
G1 X58.024 Y129.861 E0.02709 ; skirt
G1 X57.838 Y129.128 E0.02708 ; skirt
G1 X57.646 Y128.023 E0.04015 ; skirt
G1 X57.573 Y127.270 E0.02710 ; skirt
G1 X57.552 Y126.749 E0.01868 ; skirt
G1 X57.552 Y73.545 E1.90475 ; skirt
G1 X57.570 Y72.889 E0.02348 ; skirt
G1 X57.658 Y71.930 E0.03448 ; skirt
G1 X57.740 Y71.392 E0.01949 ; skirt
G1 X57.893 Y70.654 E0.02700 ; skirt
G1 X58.153 Y69.725 E0.03452 ; skirt
G1 X58.331 Y69.212 E0.01944 ; skirt
G1 X58.614 Y68.514 E0.02697 ; skirt
G1 X59.039 Y67.647 E0.03457 ; skirt
G1 X59.306 Y67.175 E0.01941 ; skirt
G1 X59.711 Y66.539 E0.02698 ; skirt
G1 X60.154 Y65.929 E0.02700 ; skirt
G1 X60.550 Y65.445 E0.02236 ; skirt
G1 X61.296 Y64.648 E0.03910 ; skirt
G1 E-4.00000 F1800.00000 ; retract
G1 X127.744 Y129.315 F6000.000 ; move to first perimeter point
G1 E4.00000 F1800.00000 ; unretract
G1 X127.385 Y129.010 E0.01688 F1350.000 ; perimeter
G1 X126.950 Y128.475 E0.02468 ; perimeter
G1 X126.627 Y127.871 E0.02452 ; perimeter
G1 X126.422 Y127.219 E0.02449 ; perimeter
G1 X126.342 Y126.539 E0.02449 ; perimeter
G1 X126.390 Y125.857 E0.02449 ; perimeter
G1 X126.565 Y125.196 E0.02449 ; perimeter
G1 X126.859 Y124.579 E0.02449 ; perimeter
G1 X127.264 Y124.027 E0.02449 ; perimeter
G1 X127.764 Y123.561 E0.02449 ; perimeter
G1 X128.343 Y123.196 E0.02449 ; perimeter
G1 X128.980 Y122.945 E0.02452 ; perimeter
G1 X129.658 Y122.818 E0.02468 F1350.000 ; perimeter
G1 X130.309 Y122.818 E0.02330 ; perimeter
G1 X130.700 Y122.874 E0.01417 ; perimeter
G1 X131.331 Y123.056 E0.02352 ; perimeter
G1 X131.941 Y123.366 E0.02449 ; perimeter
G1 X132.483 Y123.783 E0.02449 ; perimeter
G1 X132.938 Y124.294 E0.02449 ; perimeter
G1 X133.289 Y124.881 E0.02449 ; perimeter
G1 X133.524 Y125.523 E0.02449 ; perimeter
G1 X133.632 Y126.173 E0.02356 ; perimeter
G1 X133.640 Y126.574 E0.01437 ; perimeter
G1 X133.564 Y127.220 E0.02329 ; perimeter
G1 X133.358 Y127.872 E0.02448 ; perimeter
G1 X133.035 Y128.475 E0.02449 ; perimeter
G1 X132.605 Y129.007 E0.02449 ; perimeter
G1 X132.083 Y129.449 E0.02449 ; perimeter
G1 X131.488 Y129.786 E0.02449 ; perimeter
G1 X130.841 Y130.007 E0.02449 ; perimeter
G1 X130.164 Y130.102 E0.02449 ; perimeter
G1 X129.480 Y130.070 E0.02449 ; perimeter
G1 X128.815 Y129.911 E0.02449 ; perimeter
G1 X128.216 Y129.642 E0.02352 ; perimeter
G1 X127.802 Y129.364 E0.01787 ; perimeter
G1 X128.034 Y128.973 F6000.000 ; move to first perimeter point
G1 X127.707 Y128.695 E0.01538 F1350.000 ; perimeter
G1 X127.326 Y128.225 E0.02166 ; perimeter
G1 X127.042 Y127.696 E0.02149 ; perimeter
G1 X126.862 Y127.124 E0.02147 ; perimeter
G1 X126.792 Y126.529 E0.02147 ; perimeter
G1 X126.834 Y125.931 E0.02147 ; perimeter
G1 X126.987 Y125.351 E0.02147 ; perimeter
G1 X127.246 Y124.810 E0.02147 ; perimeter
G1 X127.601 Y124.327 E0.02147 ; perimeter
G1 X128.039 Y123.918 E0.02147 ; perimeter
G1 X128.546 Y123.598 E0.02147 ; perimeter
G1 X129.105 Y123.378 E0.02149 ; perimeter
G1 X129.699 Y123.266 E0.02166 F1350.000 ; perimeter
G1 X130.277 Y123.267 E0.02067 ; perimeter
G1 X130.606 Y123.314 E0.01191 ; perimeter
G1 X131.166 Y123.476 E0.02088 ; perimeter
G1 X131.701 Y123.747 E0.02147 ; perimeter
G1 X132.176 Y124.113 E0.02147 ; perimeter
G1 X132.574 Y124.561 E0.02147 ; perimeter
G1 X132.882 Y125.075 E0.02147 ; perimeter
G1 X133.089 Y125.638 E0.02147 ; perimeter
G1 X133.184 Y126.214 E0.02090 ; perimeter
G1 X133.191 Y126.552 E0.01210 ; perimeter
G1 X133.123 Y127.125 E0.02067 ; perimeter
G1 X132.943 Y127.697 E0.02146 ; perimeter
G1 X132.660 Y128.226 E0.02147 ; perimeter
G1 X132.283 Y128.692 E0.02147 ; perimeter
G1 X131.825 Y129.080 E0.02147 ; perimeter
G1 X131.304 Y129.375 E0.02147 ; perimeter
G1 X130.736 Y129.568 E0.02147 ; perimeter
G1 X130.142 Y129.652 E0.02147 ; perimeter
G1 X129.544 Y129.624 E0.02147 ; perimeter
G1 X128.960 Y129.485 E0.02147 ; perimeter
G1 X128.428 Y129.246 E0.02088 ; perimeter
G1 X128.092 Y129.021 E0.01449 ; perimeter
G1 X128.324 Y128.631 F6000.000 ; move to first perimeter point
G1 X128.029 Y128.380 E0.01388 F1350.000 ; perimeter
G1 X127.701 Y127.976 E0.01863 ; perimeter
G1 X127.457 Y127.522 E0.01845 ; perimeter
G1 X127.303 Y127.030 E0.01845 ; perimeter
G1 X127.243 Y126.518 E0.01845 ; perimeter
G1 X127.279 Y126.004 E0.01845 ; perimeter
G1 X127.410 Y125.506 E0.01845 ; perimeter
G1 X127.632 Y125.041 E0.01845 ; perimeter
G1 X127.937 Y124.626 E0.01845 ; perimeter
G1 X128.314 Y124.275 E0.01845 ; perimeter
G1 X128.750 Y124.000 E0.01845 ; perimeter
G1 X129.230 Y123.811 E0.01845 ; perimeter
G1 X129.741 Y123.715 E0.01863 F1350.000 ; perimeter
G1 X130.245 Y123.715 E0.01804 ; perimeter
G1 X130.512 Y123.753 E0.00965 ; perimeter
G1 X131.001 Y123.895 E0.01823 ; perimeter
G1 X131.461 Y124.128 E0.01845 ; perimeter
G1 X131.869 Y124.442 E0.01845 ; perimeter
G1 X132.211 Y124.827 E0.01845 ; perimeter
G1 X132.476 Y125.269 E0.01845 ; perimeter
G1 X132.653 Y125.753 E0.01845 ; perimeter
G1 X132.736 Y126.256 E0.01824 ; perimeter
G1 X132.742 Y126.531 E0.00984 ; perimeter
G1 X132.683 Y127.031 E0.01804 ; perimeter
G1 X132.528 Y127.522 E0.01844 ; perimeter
G1 X132.285 Y127.976 E0.01845 ; perimeter
G1 X131.961 Y128.377 E0.01845 ; perimeter
G1 X131.568 Y128.710 E0.01845 ; perimeter
G1 X131.119 Y128.964 E0.01845 ; perimeter
G1 X130.632 Y129.130 E0.01845 ; perimeter
G1 X130.121 Y129.202 E0.01845 ; perimeter
G1 X129.607 Y129.178 E0.01845 ; perimeter
G1 X129.106 Y129.058 E0.01845 ; perimeter
G1 X128.641 Y128.850 E0.01823 ; perimeter
G1 X128.382 Y128.679 E0.01112 ; perimeter
G1 X127.964 Y128.773 F6000.000 ; move inwards before travel
G1 X73.620 Y126.846 F6000.000 ; move to first perimeter point
G1 X73.556 Y127.237 E0.01418 F1350.000 ; perimeter
G1 X73.358 Y127.863 E0.02352 ; perimeter
G1 X73.035 Y128.466 E0.02449 ; perimeter
G1 X72.605 Y128.998 E0.02449 ; perimeter
G1 X72.083 Y129.440 E0.02449 ; perimeter
G1 X71.488 Y129.778 E0.02449 ; perimeter
G1 X70.841 Y129.998 E0.02449 ; perimeter
G1 X70.190 Y130.090 E0.02352 ; perimeter
G1 X69.795 Y130.090 E0.01416 ; perimeter
G1 X69.151 Y129.999 E0.02328 ; perimeter
G1 X68.497 Y129.778 E0.02470 ; perimeter
G1 X67.902 Y129.440 E0.02452 ; perimeter
G1 X67.380 Y128.997 E0.02449 ; perimeter
G1 X66.950 Y128.465 E0.02449 ; perimeter
G1 X66.627 Y127.862 E0.02449 ; perimeter
G1 X66.422 Y127.210 E0.02449 ; perimeter
G1 X66.342 Y126.531 E0.02449 ; perimeter
G1 X66.390 Y125.848 E0.02449 ; perimeter
G1 X66.565 Y125.187 E0.02449 ; perimeter
G1 X66.859 Y124.570 E0.02449 ; perimeter
G1 X67.264 Y124.019 E0.02449 ; perimeter
G1 X67.764 Y123.552 E0.02449 ; perimeter
G1 X68.343 Y123.188 E0.02449 ; perimeter
G1 X68.980 Y122.937 E0.02452 ; perimeter
G1 X69.658 Y122.809 E0.02470 F1350.000 ; perimeter
G1 X70.309 Y122.810 E0.02328 ; perimeter
G1 X70.700 Y122.865 E0.01416 ; perimeter
G1 X71.331 Y123.048 E0.02352 ; perimeter
G1 X71.941 Y123.357 E0.02449 ; perimeter
G1 X72.483 Y123.774 E0.02449 ; perimeter
G1 X72.938 Y124.286 E0.02449 ; perimeter
G1 X73.289 Y124.873 E0.02449 ; perimeter
G1 X73.524 Y125.515 E0.02449 ; perimeter
G1 X73.636 Y126.190 E0.02449 ; perimeter
G1 X73.622 Y126.771 E0.02083 ; perimeter
G1 X73.173 Y126.804 F6000.000 ; move to first perimeter point
G1 X73.118 Y127.132 E0.01191 F1350.000 ; perimeter
G1 X72.943 Y127.689 E0.02088 ; perimeter
G1 X72.660 Y128.217 E0.02147 ; perimeter
G1 X72.283 Y128.683 E0.02147 ; perimeter
G1 X71.825 Y129.071 E0.02147 ; perimeter
G1 X71.304 Y129.367 E0.02147 ; perimeter
G1 X70.736 Y129.560 E0.02147 ; perimeter
G1 X70.159 Y129.641 E0.02088 ; perimeter
G1 X69.826 Y129.641 E0.01191 ; perimeter
G1 X69.255 Y129.561 E0.02066 ; perimeter
G1 X68.682 Y129.366 E0.02167 ; perimeter
G1 X68.160 Y129.070 E0.02149 ; perimeter
G1 X67.702 Y128.682 E0.02147 ; perimeter
G1 X67.325 Y128.216 E0.02147 ; perimeter
G1 X67.042 Y127.688 E0.02147 ; perimeter
G1 X66.862 Y127.116 E0.02147 ; perimeter
G1 X66.792 Y126.520 E0.02147 ; perimeter
G1 X66.834 Y125.922 E0.02147 ; perimeter
G1 X66.987 Y125.342 E0.02147 ; perimeter
G1 X67.246 Y124.801 E0.02147 ; perimeter
G1 X67.601 Y124.318 E0.02147 ; perimeter
G1 X68.039 Y123.909 E0.02147 ; perimeter
G1 X68.546 Y123.589 E0.02147 ; perimeter
G1 X69.105 Y123.370 E0.02149 ; perimeter
G1 X69.700 Y123.258 E0.02167 F1350.000 ; perimeter
G1 X70.277 Y123.258 E0.02065 ; perimeter
G1 X70.606 Y123.305 E0.01191 ; perimeter
G1 X71.166 Y123.467 E0.02088 ; perimeter
G1 X71.701 Y123.738 E0.02147 ; perimeter
G1 X72.176 Y124.104 E0.02147 ; perimeter
G1 X72.574 Y124.552 E0.02147 ; perimeter
G1 X72.882 Y125.067 E0.02147 ; perimeter
