; generated by Slic3r 1.2.9 on 2016-07-25 at 20:56:14

; external perimeters extrusion width = 0.50mm
; perimeters extrusion width = 0.50mm
; infill extrusion width = 0.50mm
; solid infill extrusion width = 0.50mm
; top infill extrusion width = 0.50mm

M107 ; disable fan
M190 S57 ; set bed temperature
M104 S185 ; set temperature

M109 S185 ; wait for temperature to be reached
G21 ; set units to millimeters
G90 ; use absolute coordinates
M83 ; use relative distances for extrusion
G1 E-4.00000 F1800.00000 ; retract
G1 Z0.240 F6000.000 ; move to next layer (0)
G1 X52.619 Y59.904 F6000.000 ; move to first skirt point
G1 E4.00000 F1800.00000 ; unretract
G1 X54.381 Y58.364 E0.08379 F600.000 ; skirt
G1 X56.557 Y57.502 E0.08379 ; skirt
G1 X57.973 Y57.355 E0.05097 ; skirt
G1 X142.027 Y57.353 E3.00921 ; skirt
G1 X144.334 Y57.750 E0.08379 ; skirt
G1 X146.375 Y58.895 E0.08379 F600.000 ; skirt
G1 X147.915 Y60.657 E0.08379 ; skirt
G1 X148.777 Y62.833 E0.08379 ; skirt
G1 X148.924 Y64.249 E0.05097 ; skirt
G1 X148.925 Y88.250 E0.85923 ; skirt
G1 X148.181 Y91.366 E0.11469 ; skirt
G1 X124.127 Y138.866 E1.90618 ; skirt
G1 X122.730 Y140.744 E0.08379 ; skirt
G1 X120.786 Y142.048 E0.08379 ; skirt
G1 X117.974 Y142.647 E0.10295 ; skirt
G1 X113.974 Y142.647 E0.14321 ; skirt
G1 X111.667 Y142.250 E0.08379 ; skirt
G1 X109.804 Y141.244 E0.07579 ; skirt
G1 X53.803 Y98.746 E2.51684 ; skirt
G1 X52.206 Y97.035 E0.08379 ; skirt
G1 X51.273 Y94.889 E0.08379 ; skirt
G1 X51.076 Y93.252 E0.05903 ; skirt
G1 X51.076 Y64.252 E1.03824 ; skirt
G1 X51.474 Y61.945 E0.08379 ; skirt
G1 X52.583 Y59.970 E0.08110 ; skirt
G1 X53.023 Y60.140 F6000.000 ; move to first skirt point
G1 X53.064 Y60.071 E0.00288 F600.000 ; skirt
G1 X54.810 Y58.633 E0.08100 ; skirt
G1 X57.973 Y57.803 E0.11707 ; skirt
G1 X142.027 Y57.801 E3.00921 ; skirt
G1 X144.255 Y58.198 E0.08100 ; skirt
G1 X146.208 Y59.340 E0.08100 F600.000 ; skirt
G1 X147.647 Y61.086 E0.08100 ; skirt
G1 X148.476 Y64.249 E0.11708 ; skirt
G1 X148.476 Y88.250 E0.85923 ; skirt
G1 X147.781 Y91.163 E0.10723 ; skirt
G1 X123.727 Y138.664 E1.90618 ; skirt
G1 X122.366 Y140.471 E0.08100 ; skirt
G1 X120.465 Y141.698 E0.08100 ; skirt
G1 X117.974 Y142.199 E0.09097 ; skirt
G1 X113.974 Y142.199 E0.14321 ; skirt
G1 X111.746 Y141.802 E0.08100 ; skirt
G1 X110.075 Y140.887 E0.06820 ; skirt
G1 X54.074 Y98.389 E2.51684 ; skirt
G1 X52.540 Y96.726 E0.08100 ; skirt
G1 X51.674 Y94.636 E0.08100 ; skirt
G1 X51.524 Y93.252 E0.04983 ; skirt
G1 X51.525 Y64.252 E1.03824 ; skirt
G1 X51.922 Y62.024 E0.08100 ; skirt
G1 X52.985 Y60.205 E0.07544 ; skirt
G1 E-4.00000 F1800.00000 ; retract
G1 X70.253 Y77.228 F6000.000 ; move to first perimeter point
G1 E4.00000 F1800.00000 ; unretract
G1 X69.923 Y77.453 E0.01429 F780.000 ; perimeter
G1 X69.328 Y77.750 E0.02383 ; perimeter
G1 X68.662 Y77.940 E0.02479 ; perimeter
G1 X67.972 Y78.003 E0.02479 ; perimeter
G1 X67.282 Y77.939 E0.02482 ; perimeter
G1 X66.610 Y77.747 E0.02501 ; perimeter
G1 X66.021 Y77.453 E0.02359 ; perimeter
G1 X65.692 Y77.228 E0.01429 ; perimeter
G1 X65.200 Y76.779 E0.02383 ; perimeter
G1 X64.782 Y76.227 E0.02479 ; perimeter
G1 X64.474 Y75.607 E0.02479 ; perimeter
G1 X64.284 Y74.941 E0.02479 ; perimeter
G1 X64.220 Y74.252 E0.02479 ; perimeter
G1 X64.284 Y73.562 E0.02479 ; perimeter
G1 X64.474 Y72.896 E0.02479 ; perimeter
G1 X64.782 Y72.276 E0.02479 ; perimeter
G1 X65.199 Y71.724 E0.02479 ; perimeter
G1 X65.711 Y71.258 E0.02479 ; perimeter
G1 X66.300 Y70.893 E0.02479 ; perimeter
G1 X66.920 Y70.653 E0.02383 ; perimeter
G1 X67.309 Y70.561 E0.01429 ; perimeter
G1 X67.965 Y70.500 E0.02359 F780.000 ; perimeter
G1 X68.661 Y70.563 E0.02501 ; perimeter
G1 X69.327 Y70.753 E0.02482 ; perimeter
G1 X69.947 Y71.062 E0.02479 ; perimeter
G1 X70.500 Y71.479 E0.02482 ; perimeter
G1 X70.970 Y71.996 E0.02501 ; perimeter
G1 X71.317 Y72.557 E0.02359 ; perimeter
G1 X71.478 Y72.922 E0.01429 ; perimeter
G1 X71.660 Y73.562 E0.02383 ; perimeter
G1 X71.724 Y74.251 E0.02479 ; perimeter
G1 X71.660 Y74.941 E0.02479 ; perimeter
G1 X71.471 Y75.607 E0.02479 ; perimeter
G1 X71.162 Y76.227 E0.02482 ; perimeter
G1 X70.740 Y76.784 E0.02500 ; perimeter
G1 X70.308 Y77.177 E0.02091 ; perimeter
G1 X69.974 Y76.875 F6000.000 ; move to first perimeter point
G1 X69.696 Y77.066 E0.01206 F780.000 ; perimeter
G1 X69.165 Y77.330 E0.02123 ; perimeter
G1 X68.579 Y77.497 E0.02181 ; perimeter
G1 X67.972 Y77.553 E0.02181 ; perimeter
G1 X67.365 Y77.497 E0.02183 ; perimeter
G1 X66.774 Y77.327 E0.02202 ; perimeter
G1 X66.249 Y77.066 E0.02100 ; perimeter
G1 X65.971 Y76.875 E0.01206 ; perimeter
G1 X65.532 Y76.476 E0.02123 ; perimeter
G1 X65.165 Y75.990 E0.02181 ; perimeter
G1 X64.894 Y75.444 E0.02181 ; perimeter
G1 X64.727 Y74.858 E0.02181 ; perimeter
G1 X64.671 Y74.252 E0.02181 ; perimeter
G1 X64.727 Y73.645 E0.02181 ; perimeter
G1 X64.894 Y73.059 E0.02181 ; perimeter
G1 X65.165 Y72.514 E0.02181 ; perimeter
G1 X65.532 Y72.027 E0.02181 ; perimeter
G1 X65.982 Y71.617 E0.02181 ; perimeter
G1 X66.500 Y71.296 E0.02181 ; perimeter
G1 X67.053 Y71.082 E0.02123 ; perimeter
G1 X67.381 Y71.005 E0.01206 ; perimeter
G1 X67.965 Y70.950 E0.02100 F780.000 ; perimeter
G1 X68.578 Y71.006 E0.02202 ; perimeter
G1 X69.165 Y71.173 E0.02183 ; perimeter
G1 X69.710 Y71.445 E0.02181 ; perimeter
G1 X70.197 Y71.812 E0.02183 ; perimeter
G1 X70.610 Y72.267 E0.02203 ; perimeter
G1 X70.919 Y72.766 E0.02100 ; perimeter
G1 X71.055 Y73.074 E0.01206 ; perimeter
G1 X71.217 Y73.645 E0.02123 ; perimeter
G1 X71.274 Y74.251 E0.02181 ; perimeter
G1 X71.217 Y74.858 E0.02181 ; perimeter
G1 X71.051 Y75.444 E0.02181 ; perimeter
G1 X70.779 Y75.990 E0.02183 ; perimeter
G1 X70.407 Y76.480 E0.02202 ; perimeter
G1 X70.029 Y76.825 E0.01832 ; perimeter
G1 X69.695 Y76.523 F6000.000 ; move to first perimeter point
G1 X69.468 Y76.678 E0.00984 F780.000 ; perimeter
G1 X69.002 Y76.910 E0.01863 ; perimeter
G1 X68.496 Y77.054 E0.01884 ; perimeter
G1 X67.972 Y77.103 E0.01884 ; perimeter
G1 X67.448 Y77.054 E0.01884 ; perimeter
G1 X66.937 Y76.908 E0.01904 ; perimeter
G1 X66.476 Y76.678 E0.01841 ; perimeter
G1 X66.250 Y76.523 E0.00984 ; perimeter
G1 X65.865 Y76.172 E0.01863 ; perimeter
G1 X65.548 Y75.752 E0.01884 ; perimeter
G1 X65.314 Y75.282 E0.01884 ; perimeter
G1 X65.170 Y74.775 E0.01884 ; perimeter
G1 X65.121 Y74.252 E0.01884 ; perimeter
G1 X65.170 Y73.728 E0.01884 ; perimeter
G1 X65.314 Y73.222 E0.01884 ; perimeter
G1 X65.548 Y72.751 E0.01884 ; perimeter
G1 X65.865 Y72.331 E0.01884 ; perimeter
G1 X66.254 Y71.976 E0.01884 ; perimeter
G1 X66.701 Y71.699 E0.01884 ; perimeter
G1 X67.186 Y71.511 E0.01863 ; perimeter
G1 X67.454 Y71.449 E0.00984 ; perimeter
G1 X67.966 Y71.401 E0.01841 F780.000 ; perimeter
G1 X68.496 Y71.449 E0.01904 ; perimeter
G1 X69.002 Y71.593 E0.01884 ; perimeter
G1 X69.473 Y71.827 E0.01884 ; perimeter
G1 X69.893 Y72.145 E0.01884 ; perimeter
G1 X70.251 Y72.538 E0.01904 ; perimeter
G1 X70.521 Y72.976 E0.01841 ; perimeter
G1 X70.632 Y73.227 E0.00984 ; perimeter
G1 X70.775 Y73.728 E0.01863 ; perimeter
G1 X70.823 Y74.251 E0.01884 ; perimeter
G1 X70.775 Y74.775 E0.01884 ; perimeter
G1 X70.631 Y75.281 E0.01884 ; perimeter
G1 X70.396 Y75.753 E0.01884 ; perimeter
G1 X70.075 Y76.177 E0.01904 ; perimeter
G1 X69.750 Y76.472 E0.01573 ; perimeter
G1 X69.728 Y76.796 F6000.000 ; move inwards before travel
G1 X84.284 Y74.941 F6000.000 ; move to first perimeter point
G1 X84.220 Y74.251 E0.02479 F780.000 ; perimeter
G1 X84.284 Y73.562 E0.02479 ; perimeter
G1 X84.474 Y72.896 E0.02479 ; perimeter
G1 X84.782 Y72.276 E0.02479 ; perimeter
G1 X85.199 Y71.723 E0.02479 ; perimeter
G1 X85.711 Y71.257 E0.02479 ; perimeter
G1 X86.300 Y70.893 E0.02479 ; perimeter
G1 X86.920 Y70.652 E0.02383 ; perimeter
G1 X87.309 Y70.561 E0.01429 ; perimeter
G1 X87.965 Y70.499 E0.02359 F780.000 ; perimeter
G1 X88.661 Y70.563 E0.02501 ; perimeter
G1 X89.327 Y70.752 E0.02482 ; perimeter
G1 X89.947 Y71.061 E0.02479 ; perimeter
G1 X90.500 Y71.479 E0.02482 ; perimeter
G1 X90.970 Y71.996 E0.02501 ; perimeter
G1 X91.317 Y72.556 E0.02359 ; perimeter
G1 X91.478 Y72.921 E0.01429 ; perimeter
G1 X91.660 Y73.562 E0.02383 ; perimeter
G1 X91.724 Y74.251 E0.02479 ; perimeter
G1 X91.660 Y74.940 E0.02479 ; perimeter
G1 X91.471 Y75.606 E0.02479 ; perimeter
G1 X91.162 Y76.227 E0.02482 ; perimeter
G1 X90.740 Y76.784 E0.02501 ; perimeter
G1 X90.253 Y77.227 E0.02359 ; perimeter
G1 X89.923 Y77.453 E0.01429 ; perimeter
G1 X89.328 Y77.750 E0.02383 ; perimeter
G1 X88.662 Y77.939 E0.02479 ; perimeter
G1 X87.983 Y78.002 E0.02440 ; perimeter
G1 X87.375 Y77.957 E0.02181 ; perimeter
G1 X86.945 Y77.856 E0.01582 ; perimeter
G1 X86.586 Y77.735 E0.01357 ; perimeter
G1 X86.021 Y77.453 E0.02262 ; perimeter
G1 X85.692 Y77.227 E0.01429 ; perimeter
G1 X85.200 Y76.779 E0.02383 ; perimeter
G1 X84.782 Y76.226 E0.02479 ; perimeter
G1 X84.474 Y75.606 E0.02479 ; perimeter
G1 X84.305 Y75.013 E0.02210 ; perimeter
G1 X84.727 Y74.858 F6000.000 ; move to first perimeter point
G1 X84.671 Y74.251 E0.02181 F780.000 ; perimeter
G1 X84.727 Y73.644 E0.02181 ; perimeter
G1 X84.894 Y73.058 E0.02181 ; perimeter
G1 X85.165 Y72.513 E0.02181 ; perimeter
G1 X85.532 Y72.027 E0.02181 ; perimeter
G1 X85.982 Y71.616 E0.02181 ; perimeter
G1 X86.500 Y71.296 E0.02181 ; perimeter
G1 X87.053 Y71.081 E0.02123 ; perimeter
G1 X87.381 Y71.004 E0.01206 ; perimeter
G1 X87.965 Y70.950 E0.02100 F780.000 ; perimeter
G1 X88.578 Y71.006 E0.02203 ; perimeter
G1 X89.165 Y71.172 E0.02183 ; perimeter
G1 X89.710 Y71.444 E0.02181 ; perimeter
G1 X90.197 Y71.811 E0.02183 ; perimeter
G1 X90.611 Y72.267 E0.02203 ; perimeter
G1 X90.919 Y72.766 E0.02100 ; perimeter
G1 X91.055 Y73.074 E0.01206 ; perimeter
G1 X91.217 Y73.644 E0.02123 ; perimeter
G1 X91.274 Y74.251 E0.02181 ; perimeter
G1 X91.217 Y74.858 E0.02181 ; perimeter
G1 X91.051 Y75.444 E0.02181 ; perimeter
G1 X90.779 Y75.989 E0.02183 ; perimeter
G1 X90.407 Y76.480 E0.02203 ; perimeter
G1 X89.974 Y76.875 E0.02100 ; perimeter
G1 X89.696 Y77.065 E0.01206 ; perimeter
G1 X89.165 Y77.330 E0.02123 ; perimeter
G1 X88.579 Y77.496 E0.02181 ; perimeter
G1 X87.979 Y77.552 E0.02158 ; perimeter
G1 X87.444 Y77.512 E0.01921 ; perimeter
G1 X87.069 Y77.424 E0.01380 ; perimeter
G1 X86.759 Y77.320 E0.01171 ; perimeter
G1 X86.249 Y77.065 E0.02041 ; perimeter
G1 X85.971 Y76.875 E0.01206 ; perimeter
G1 X85.532 Y76.475 E0.02123 ; perimeter
G1 X85.165 Y75.989 E0.02181 ; perimeter
G1 X84.894 Y75.444 E0.02181 ; perimeter
G1 X84.747 Y74.930 E0.01913 ; perimeter
G1 X85.170 Y74.775 F6000.000 ; move to first perimeter point
G1 X85.121 Y74.251 E0.01884 F780.000 ; perimeter
G1 X85.170 Y73.727 E0.01884 ; perimeter
G1 X85.314 Y73.221 E0.01884 ; perimeter
G1 X85.548 Y72.750 E0.01884 ; perimeter
G1 X85.865 Y72.330 E0.01884 ; perimeter
G1 X86.254 Y71.976 E0.01884 ; perimeter
G1 X86.701 Y71.699 E0.01884 ; perimeter
G1 X87.186 Y71.511 E0.01863 ; perimeter
G1 X87.454 Y71.448 E0.00984 ; perimeter
G1 X87.966 Y71.400 E0.01841 F780.000 ; perimeter
G1 X88.496 Y71.448 E0.01905 ; perimeter
G1 X89.002 Y71.592 E0.01884 ; perimeter
G1 X89.473 Y71.827 E0.01884 ; perimeter
G1 X89.893 Y72.144 E0.01884 ; perimeter
G1 X90.251 Y72.538 E0.01905 ; perimeter
G1 X90.521 Y72.975 E0.01841 ; perimeter
G1 X90.632 Y73.227 E0.00984 ; perimeter
G1 X90.775 Y73.727 E0.01863 ; perimeter
G1 X90.823 Y74.251 E0.01884 ; perimeter
G1 X90.775 Y74.775 E0.01884 ; perimeter
G1 X90.631 Y75.281 E0.01884 ; perimeter
G1 X90.396 Y75.752 E0.01884 ; perimeter
G1 X90.075 Y76.176 E0.01905 ; perimeter
G1 X89.695 Y76.522 E0.01841 ; perimeter
G1 X89.468 Y76.678 E0.00984 ; perimeter
G1 X89.002 Y76.910 E0.01863 ; perimeter
G1 X88.496 Y77.054 E0.01884 ; perimeter
G1 X87.975 Y77.102 E0.01875 ; perimeter
G1 X87.512 Y77.068 E0.01661 ; perimeter
G1 X87.192 Y76.992 E0.01177 ; perimeter
G1 X86.931 Y76.904 E0.00985 ; perimeter
G1 X86.476 Y76.678 E0.01820 ; perimeter
G1 X86.250 Y76.522 E0.00984 ; perimeter
G1 X85.865 Y76.172 E0.01863 ; perimeter
G1 X85.548 Y75.752 E0.01884 ; perimeter
G1 X85.314 Y75.281 E0.01884 ; perimeter
G1 X85.190 Y74.847 E0.01615 ; perimeter
G1 X84.703 Y74.594 F6000.000 ; move inwards before travel
G1 E-4.00000 F1800.00000 ; retract
G1 X104.220 Y74.251 F6000.000 ; move to first perimeter point
G1 E4.00000 F1800.00000 ; unretract
G1 X104.284 Y73.561 E0.02479 F780.000 ; perimeter
G1 X104.474 Y72.895 E0.02479 ; perimeter
G1 X104.782 Y72.275 E0.02479 ; perimeter
G1 X105.199 Y71.723 E0.02479 ; perimeter
G1 X105.711 Y71.256 E0.02479 ; perimeter
G1 X106.300 Y70.892 E0.02479 ; perimeter
G1 X106.920 Y70.651 E0.02383 ; perimeter
G1 X107.309 Y70.560 E0.01429 ; perimeter
G1 X107.938 Y70.501 E0.02262 F780.000 ; perimeter
G1 X108.370 Y70.521 E0.01546 ; perimeter
G1 X108.698 Y70.573 E0.01190 ; perimeter
G1 X109.327 Y70.752 E0.02343 ; perimeter
G1 X109.947 Y71.061 E0.02479 ; perimeter
G1 X110.501 Y71.478 E0.02482 ; perimeter
G1 X110.970 Y71.995 E0.02501 ; perimeter
G1 X111.317 Y72.556 E0.02358 ; perimeter
G1 X111.478 Y72.921 E0.01429 ; perimeter
G1 X111.660 Y73.561 E0.02383 ; perimeter
G1 X111.724 Y74.250 E0.02479 ; perimeter
G1 X111.660 Y74.940 E0.02479 ; perimeter
G1 X111.471 Y75.606 E0.02479 ; perimeter
G1 X111.162 Y76.226 E0.02482 ; perimeter
G1 X110.740 Y76.783 E0.02501 ; perimeter
G1 X110.253 Y77.227 E0.02359 ; perimeter
G1 X109.923 Y77.452 E0.01429 ; perimeter
G1 X109.328 Y77.749 E0.02383 ; perimeter
G1 X108.662 Y77.939 E0.02479 ; perimeter
G1 X107.972 Y78.002 E0.02479 ; perimeter
G1 X107.282 Y77.938 E0.02482 ; perimeter
G1 X106.610 Y77.746 E0.02501 ; perimeter
G1 X106.021 Y77.452 E0.02358 ; perimeter
G1 X105.692 Y77.227 E0.01429 ; perimeter
G1 X105.200 Y76.778 E0.02383 ; perimeter
G1 X104.782 Y76.226 E0.02479 ; perimeter
G1 X104.474 Y75.606 E0.02479 ; perimeter
G1 X104.284 Y74.940 E0.02479 ; perimeter
G1 X104.227 Y74.325 E0.02210 ; perimeter
G1 X104.671 Y74.251 F6000.000 ; move to first perimeter point
G1 X104.727 Y73.644 E0.02181 F780.000 ; perimeter
G1 X104.894 Y73.058 E0.02181 ; perimeter
G1 X105.165 Y72.513 E0.02181 ; perimeter
G1 X105.532 Y72.026 E0.02181 ; perimeter
G1 X105.982 Y71.616 E0.02181 ; perimeter
G1 X106.500 Y71.295 E0.02181 ; perimeter
G1 X107.053 Y71.081 E0.02123 ; perimeter
G1 X107.381 Y71.004 E0.01206 ; perimeter
G1 X107.949 Y70.951 E0.02041 F780.000 ; perimeter
G1 X108.324 Y70.967 E0.01344 ; perimeter
G1 X108.601 Y71.012 E0.01003 ; perimeter
G1 X109.165 Y71.172 E0.02099 ; perimeter
G1 X109.710 Y71.443 E0.02181 ; perimeter
G1 X110.197 Y71.811 E0.02183 ; perimeter
G1 X110.611 Y72.266 E0.02203 ; perimeter
G1 X110.919 Y72.765 E0.02099 ; perimeter
G1 X111.055 Y73.073 E0.01206 ; perimeter
G1 X111.217 Y73.644 E0.02123 ; perimeter
G1 X111.274 Y74.250 E0.02181 ; perimeter
G1 X111.217 Y74.857 E0.02181 ; perimeter
G1 X111.051 Y75.443 E0.02181 ; perimeter
G1 X110.779 Y75.989 E0.02183 ; perimeter
G1 X110.407 Y76.479 E0.02203 ; perimeter
G1 X109.974 Y76.874 E0.02100 ; perimeter
G1 X109.696 Y77.065 E0.01206 ; perimeter
G1 X109.165 Y77.329 E0.02123 ; perimeter
G1 X108.579 Y77.496 E0.02181 ; perimeter
G1 X107.972 Y77.552 E0.02181 ; perimeter
G1 X107.365 Y77.496 E0.02183 ; perimeter
G1 X106.773 Y77.326 E0.02203 ; perimeter
G1 X106.249 Y77.065 E0.02100 ; perimeter
G1 X105.971 Y76.874 E0.01206 ; perimeter
G1 X105.532 Y76.475 E0.02123 ; perimeter
G1 X105.165 Y75.989 E0.02181 ; perimeter
G1 X104.894 Y75.443 E0.02181 ; perimeter
G1 X104.727 Y74.857 E0.02181 ; perimeter
G1 X104.678 Y74.325 E0.01913 ; perimeter
G1 X105.121 Y74.251 F6000.000 ; move to first perimeter point
G1 X105.170 Y73.727 E0.01884 F780.000 ; perimeter
G1 X105.314 Y73.221 E0.01884 ; perimeter
G1 X105.548 Y72.750 E0.01884 ; perimeter
G1 X105.865 Y72.330 E0.01884 ; perimeter
G1 X106.254 Y71.975 E0.01884 ; perimeter
G1 X106.701 Y71.698 E0.01884 ; perimeter
G1 X107.186 Y71.510 E0.01863 ; perimeter
G1 X107.454 Y71.447 E0.00984 ; perimeter
G1 X107.960 Y71.400 E0.01820 F780.000 ; perimeter
G1 X108.279 Y71.414 E0.01143 ; perimeter
G1 X108.504 Y71.450 E0.00816 ; perimeter
G1 X109.002 Y71.592 E0.01854 ; perimeter
G1 X109.473 Y71.826 E0.01884 ; perimeter
G1 X109.893 Y72.144 E0.01884 ; perimeter
G1 X110.251 Y72.537 E0.01905 ; perimeter
G1 X110.521 Y72.975 E0.01841 ; perimeter
