; generated by Slic3r 1.2.9 on 2016-07-25 at 20:55:33

; external perimeters extrusion width = 0.50mm
; perimeters extrusion width = 0.50mm
; infill extrusion width = 0.50mm
; solid infill extrusion width = 0.50mm
; top infill extrusion width = 0.50mm

M107 ; disable fan
M190 S57 ; set bed temperature
M104 S185 ; set temperature

M109 S185 ; wait for temperature to be reached
G21 ; set units to millimeters
G90 ; use absolute coordinates
M83 ; use relative distances for extrusion
G1 E-4.00000 F1800.00000 ; retract
G1 Z0.240 F6000.000 ; move to next layer (0)
G1 X58.896 Y53.653 F6000.000 ; move to first skirt point
G1 E4.00000 F1800.00000 ; unretract
G1 X60.658 Y52.112 E0.08379 F600.000 ; skirt
G1 X62.834 Y51.250 E0.08379 ; skirt
G1 X64.250 Y51.103 E0.05098 ; skirt
G1 X99.750 Y51.103 E1.27093 ; skirt
G1 X102.056 Y51.500 E0.08379 ; skirt
G1 X104.627 Y53.123 E0.10883 F600.000 ; skirt
G1 X140.627 Y89.123 E1.82268 ; skirt
G1 X141.977 Y91.035 E0.08379 ; skirt
G1 X142.647 Y94.000 E0.10883 ; skirt
G1 X142.647 Y98.000 E0.14320 ; skirt
G1 X142.250 Y100.306 E0.08379 ; skirt
G1 X140.437 Y103.060 E0.11802 ; skirt
G1 X92.937 Y147.060 E2.31802 ; skirt
G1 X90.975 Y148.336 E0.08379 ; skirt
G1 X88.250 Y148.897 E0.09960 ; skirt
G1 X64.250 Y148.897 E0.85922 ; skirt
G1 X61.944 Y148.500 E0.08379 ; skirt
G1 X59.903 Y147.354 E0.08379 ; skirt
G1 X58.362 Y145.592 E0.08379 ; skirt
G1 X57.500 Y143.416 E0.08379 ; skirt
G1 X57.353 Y142.000 E0.05098 ; skirt
G1 X57.353 Y58.000 E3.00727 ; skirt
G1 X57.750 Y55.694 E0.08379 ; skirt
G1 X58.859 Y53.718 E0.08110 ; skirt
G1 X59.300 Y53.889 F6000.000 ; move to first skirt point
G1 X59.340 Y53.819 E0.00288 F600.000 ; skirt
G1 X61.086 Y52.381 E0.08100 ; skirt
G1 X64.250 Y51.552 E0.11708 ; skirt
G1 X99.750 Y51.552 E1.27093 ; skirt
G1 X101.977 Y51.948 E0.08100 ; skirt
G1 X104.310 Y53.440 E0.09912 F600.000 ; skirt
G1 X140.310 Y89.440 E1.82268 ; skirt
G1 X141.604 Y91.296 E0.08100 ; skirt
G1 X142.198 Y94.000 E0.09912 ; skirt
G1 X142.198 Y98.000 E0.14320 ; skirt
G1 X141.802 Y100.227 E0.08100 ; skirt
G1 X140.132 Y102.731 E0.10772 ; skirt
G1 X92.632 Y146.731 E2.31802 ; skirt
G1 X90.728 Y147.953 E0.08100 ; skirt
G1 X88.250 Y148.448 E0.09048 ; skirt
G1 X64.250 Y148.448 E0.85922 ; skirt
G1 X62.023 Y148.052 E0.08100 ; skirt
G1 X60.069 Y146.910 E0.08100 ; skirt
G1 X58.631 Y145.164 E0.08100 ; skirt
G1 X57.802 Y142.000 E0.11708 ; skirt
G1 X57.802 Y58.000 E3.00727 ; skirt
G1 X58.198 Y55.773 E0.08100 ; skirt
G1 X59.262 Y53.954 E0.07544 ; skirt
G1 E-4.00000 F1800.00000 ; retract
G1 X77.749 Y126.645 F6000.000 ; move to first perimeter point
G1 E4.00000 F1800.00000 ; unretract
G1 X77.938 Y127.311 E0.02479 F780.000 ; perimeter
G1 X78.002 Y128.000 E0.02479 ; perimeter
G1 X77.938 Y128.689 E0.02479 ; perimeter
G1 X77.749 Y129.355 E0.02479 ; perimeter
G1 X77.440 Y129.975 E0.02479 ; perimeter
G1 X77.023 Y130.528 E0.02479 ; perimeter
G1 X76.531 Y130.976 E0.02383 ; perimeter
G1 X76.202 Y131.202 E0.01429 ; perimeter
G1 X75.612 Y131.496 E0.02358 ; perimeter
G1 X74.940 Y131.688 E0.02502 ; perimeter
G1 X74.250 Y131.752 E0.02482 ; perimeter
G1 X73.561 Y131.688 E0.02479 ; perimeter
G1 X72.920 Y131.506 E0.02383 ; perimeter
G1 X72.555 Y131.345 E0.01429 ; perimeter
G1 X71.995 Y130.998 E0.02358 ; perimeter
G1 X71.478 Y130.528 E0.02501 ; perimeter
G1 X71.060 Y129.975 E0.02482 ; perimeter
G1 X70.751 Y129.355 E0.02479 ; perimeter
G1 X70.562 Y128.689 E0.02479 ; perimeter
G1 X70.498 Y128.000 E0.02479 ; perimeter
G1 X70.562 Y127.311 E0.02479 ; perimeter
G1 X70.751 Y126.645 E0.02479 ; perimeter
G1 X71.060 Y126.025 E0.02479 ; perimeter
G1 X71.477 Y125.472 E0.02479 ; perimeter
G1 X71.989 Y125.006 E0.02479 ; perimeter
G1 X72.578 Y124.641 E0.02479 ; perimeter
G1 X73.198 Y124.401 E0.02383 ; perimeter
G1 X73.587 Y124.310 E0.01429 ; perimeter
G1 X74.243 Y124.248 E0.02358 F780.000 ; perimeter
G1 X74.938 Y124.312 E0.02501 ; perimeter
G1 X75.605 Y124.501 E0.02482 ; perimeter
G1 X76.225 Y124.810 E0.02479 ; perimeter
G1 X76.778 Y125.227 E0.02479 ; perimeter
G1 X77.226 Y125.719 E0.02383 ; perimeter
G1 X77.452 Y126.049 E0.01430 ; perimeter
G1 X77.715 Y126.578 E0.02115 ; perimeter
G1 X77.329 Y126.807 F6000.000 ; move to first perimeter point
G1 X77.495 Y127.393 E0.02181 F780.000 ; perimeter
G1 X77.551 Y128.000 E0.02181 ; perimeter
G1 X77.495 Y128.607 E0.02181 ; perimeter
G1 X77.329 Y129.193 E0.02181 ; perimeter
G1 X77.057 Y129.738 E0.02181 ; perimeter
G1 X76.690 Y130.224 E0.02181 ; perimeter
G1 X76.252 Y130.624 E0.02123 ; perimeter
G1 X75.974 Y130.814 E0.01206 ; perimeter
G1 X75.449 Y131.076 E0.02099 ; perimeter
G1 X74.857 Y131.245 E0.02203 ; perimeter
G1 X74.250 Y131.301 E0.02183 ; perimeter
G1 X73.643 Y131.245 E0.02181 ; perimeter
G1 X73.073 Y131.083 E0.02123 ; perimeter
G1 X72.765 Y130.947 E0.01206 ; perimeter
G1 X72.266 Y130.639 E0.02099 ; perimeter
G1 X71.811 Y130.225 E0.02203 ; perimeter
G1 X71.443 Y129.738 E0.02183 ; perimeter
G1 X71.171 Y129.193 E0.02181 ; perimeter
G1 X71.005 Y128.607 E0.02181 ; perimeter
G1 X70.949 Y128.000 E0.02181 ; perimeter
G1 X71.005 Y127.393 E0.02181 ; perimeter
G1 X71.171 Y126.807 E0.02181 ; perimeter
G1 X71.443 Y126.262 E0.02181 ; perimeter
G1 X71.810 Y125.776 E0.02181 ; perimeter
G1 X72.260 Y125.365 E0.02181 ; perimeter
G1 X72.778 Y125.045 E0.02181 ; perimeter
G1 X73.331 Y124.830 E0.02123 ; perimeter
G1 X73.659 Y124.753 E0.01206 ; perimeter
G1 X74.243 Y124.699 E0.02099 F780.000 ; perimeter
G1 X74.856 Y124.755 E0.02203 ; perimeter
G1 X75.443 Y124.921 E0.02183 ; perimeter
G1 X75.988 Y125.193 E0.02181 ; perimeter
G1 X76.474 Y125.560 E0.02181 ; perimeter
G1 X76.874 Y125.998 E0.02123 ; perimeter
G1 X77.064 Y126.277 E0.01207 ; perimeter
G1 X77.295 Y126.740 E0.01854 ; perimeter
G1 X76.909 Y126.970 F6000.000 ; move to first perimeter point
G1 X77.053 Y127.476 E0.01884 F780.000 ; perimeter
G1 X77.101 Y128.000 E0.01884 ; perimeter
G1 X77.053 Y128.524 E0.01884 ; perimeter
G1 X76.909 Y129.030 E0.01884 ; perimeter
G1 X76.674 Y129.501 E0.01884 ; perimeter
G1 X76.357 Y129.921 E0.01884 ; perimeter
G1 X75.972 Y130.271 E0.01863 ; perimeter
G1 X75.746 Y130.427 E0.00984 ; perimeter
G1 X75.286 Y130.656 E0.01840 ; perimeter
G1 X74.774 Y130.803 E0.01905 ; perimeter
G1 X74.250 Y130.851 E0.01884 ; perimeter
G1 X73.726 Y130.803 E0.01884 ; perimeter
G1 X73.226 Y130.660 E0.01863 ; perimeter
G1 X72.974 Y130.549 E0.00984 ; perimeter
G1 X72.537 Y130.279 E0.01840 ; perimeter
G1 X72.143 Y129.921 E0.01905 ; perimeter
G1 X71.826 Y129.501 E0.01884 ; perimeter
G1 X71.591 Y129.030 E0.01884 ; perimeter
G1 X71.447 Y128.524 E0.01884 ; perimeter
G1 X71.399 Y128.000 E0.01884 ; perimeter
G1 X71.447 Y127.476 E0.01884 ; perimeter
G1 X71.591 Y126.970 E0.01884 ; perimeter
G1 X71.826 Y126.499 E0.01884 ; perimeter
G1 X72.143 Y126.079 E0.01884 ; perimeter
G1 X72.532 Y125.725 E0.01884 ; perimeter
G1 X72.979 Y125.448 E0.01884 ; perimeter
G1 X73.464 Y125.260 E0.01863 ; perimeter
G1 X73.732 Y125.197 E0.00984 ; perimeter
G1 X74.244 Y125.149 E0.01840 F780.000 ; perimeter
G1 X74.774 Y125.197 E0.01905 ; perimeter
G1 X75.280 Y125.341 E0.01884 ; perimeter
G1 X75.751 Y125.576 E0.01884 ; perimeter
G1 X76.171 Y125.893 E0.01884 ; perimeter
G1 X76.521 Y126.278 E0.01863 ; perimeter
G1 X76.677 Y126.504 E0.00984 ; perimeter
G1 X76.875 Y126.903 E0.01594 ; perimeter
G1 X77.400 Y127.062 F6000.000 ; move inwards before travel
G1 X74.939 Y111.688 F6000.000 ; move to first perimeter point
G1 X74.250 Y111.752 E0.02479 F780.000 ; perimeter
G1 X73.561 Y111.688 E0.02479 ; perimeter
G1 X72.895 Y111.499 E0.02479 ; perimeter
G1 X72.274 Y111.189 E0.02482 ; perimeter
G1 X71.717 Y110.767 E0.02501 ; perimeter
G1 X71.274 Y110.280 E0.02358 ; perimeter
G1 X71.048 Y109.951 E0.01429 ; perimeter
G1 X70.751 Y109.355 E0.02383 ; perimeter
G1 X70.562 Y108.689 E0.02479 ; perimeter
G1 X70.498 Y108.000 E0.02479 ; perimeter
G1 X70.562 Y107.311 E0.02479 ; perimeter
G1 X70.751 Y106.645 E0.02479 ; perimeter
G1 X71.060 Y106.025 E0.02479 ; perimeter
G1 X71.477 Y105.472 E0.02479 ; perimeter
G1 X71.989 Y105.006 E0.02479 ; perimeter
G1 X72.578 Y104.641 E0.02479 ; perimeter
G1 X73.198 Y104.401 E0.02383 ; perimeter
G1 X73.587 Y104.310 E0.01429 ; perimeter
G1 X74.243 Y104.248 E0.02358 F780.000 ; perimeter
G1 X74.938 Y104.312 E0.02501 ; perimeter
G1 X75.605 Y104.501 E0.02482 ; perimeter
G1 X76.225 Y104.810 E0.02479 ; perimeter
G1 X76.756 Y105.211 E0.02383 ; perimeter
G1 X77.039 Y105.494 E0.01430 ; perimeter
G1 X77.440 Y106.025 E0.02383 ; perimeter
G1 X77.749 Y106.645 E0.02479 ; perimeter
G1 X77.938 Y107.311 E0.02479 ; perimeter
G1 X78.002 Y108.000 E0.02479 ; perimeter
G1 X77.938 Y108.690 E0.02482 ; perimeter
G1 X77.746 Y109.362 E0.02502 ; perimeter
G1 X77.452 Y109.952 E0.02358 ; perimeter
G1 X77.226 Y110.281 E0.01429 ; perimeter
G1 X76.778 Y110.773 E0.02383 ; perimeter
G1 X76.225 Y111.190 E0.02479 ; perimeter
G1 X75.605 Y111.499 E0.02479 ; perimeter
G1 X75.012 Y111.667 E0.02210 ; perimeter
G1 X74.857 Y111.245 F6000.000 ; move to first perimeter point
G1 X74.250 Y111.301 E0.02181 F780.000 ; perimeter
G1 X73.643 Y111.245 E0.02181 ; perimeter
G1 X73.057 Y111.079 E0.02181 ; perimeter
G1 X72.511 Y110.807 E0.02183 ; perimeter
G1 X72.021 Y110.435 E0.02203 ; perimeter
G1 X71.626 Y110.001 E0.02099 ; perimeter
G1 X71.436 Y109.723 E0.01206 ; perimeter
G1 X71.171 Y109.193 E0.02123 ; perimeter
G1 X71.005 Y108.607 E0.02181 ; perimeter
G1 X70.949 Y108.000 E0.02181 ; perimeter
G1 X71.005 Y107.393 E0.02181 ; perimeter
G1 X71.171 Y106.807 E0.02181 ; perimeter
G1 X71.443 Y106.262 E0.02181 ; perimeter
G1 X71.810 Y105.776 E0.02181 ; perimeter
G1 X72.260 Y105.365 E0.02181 ; perimeter
G1 X72.778 Y105.045 E0.02181 ; perimeter
G1 X73.331 Y104.830 E0.02123 ; perimeter
G1 X73.659 Y104.753 E0.01206 ; perimeter
G1 X74.243 Y104.699 E0.02099 F780.000 ; perimeter
G1 X74.856 Y104.755 E0.02203 ; perimeter
G1 X75.443 Y104.921 E0.02183 ; perimeter
G1 X75.988 Y105.193 E0.02181 ; perimeter
G1 X76.461 Y105.550 E0.02123 ; perimeter
G1 X76.700 Y105.789 E0.01207 ; perimeter
G1 X77.057 Y106.262 E0.02123 ; perimeter
G1 X77.329 Y106.807 E0.02181 ; perimeter
G1 X77.495 Y107.393 E0.02181 ; perimeter
G1 X77.551 Y108.000 E0.02181 ; perimeter
G1 X77.495 Y108.607 E0.02183 ; perimeter
G1 X77.326 Y109.199 E0.02203 ; perimeter
G1 X77.064 Y109.724 E0.02099 ; perimeter
G1 X76.874 Y110.002 E0.01206 ; perimeter
G1 X76.474 Y110.440 E0.02123 ; perimeter
G1 X75.988 Y110.807 E0.02181 ; perimeter
G1 X75.443 Y111.079 E0.02181 ; perimeter
G1 X74.929 Y111.225 E0.01913 ; perimeter
G1 X74.774 Y110.803 F6000.000 ; move to first perimeter point
G1 X74.250 Y110.851 E0.01884 F780.000 ; perimeter
G1 X73.726 Y110.803 E0.01884 ; perimeter
G1 X73.220 Y110.659 E0.01884 ; perimeter
G1 X72.749 Y110.424 E0.01884 ; perimeter
G1 X72.325 Y110.102 E0.01905 ; perimeter
G1 X71.979 Y109.722 E0.01840 ; perimeter
G1 X71.823 Y109.496 E0.00984 ; perimeter
G1 X71.591 Y109.030 E0.01863 ; perimeter
G1 X71.447 Y108.524 E0.01884 ; perimeter
G1 X71.399 Y108.000 E0.01884 ; perimeter
G1 X71.447 Y107.476 E0.01884 ; perimeter
G1 X71.591 Y106.970 E0.01884 ; perimeter
G1 X71.826 Y106.499 E0.01884 ; perimeter
G1 X72.143 Y106.079 E0.01884 ; perimeter
G1 X72.532 Y105.725 E0.01884 ; perimeter
G1 X72.979 Y105.448 E0.01884 ; perimeter
G1 X73.464 Y105.260 E0.01863 ; perimeter
G1 X73.732 Y105.197 E0.00984 ; perimeter
G1 X74.244 Y105.149 E0.01840 F780.000 ; perimeter
G1 X74.774 Y105.197 E0.01905 ; perimeter
G1 X75.280 Y105.341 E0.01884 ; perimeter
G1 X75.751 Y105.576 E0.01884 ; perimeter
G1 X76.166 Y105.890 E0.01863 ; perimeter
G1 X76.360 Y106.084 E0.00984 ; perimeter
G1 X76.674 Y106.499 E0.01863 ; perimeter
G1 X76.909 Y106.970 E0.01884 ; perimeter
G1 X77.053 Y107.476 E0.01884 ; perimeter
G1 X77.101 Y108.000 E0.01884 ; perimeter
G1 X77.053 Y108.524 E0.01884 ; perimeter
G1 X76.906 Y109.036 E0.01905 ; perimeter
G1 X76.677 Y109.496 E0.01840 ; perimeter
G1 X76.521 Y109.722 E0.00984 ; perimeter
G1 X76.171 Y110.107 E0.01863 ; perimeter
G1 X75.751 Y110.424 E0.01884 ; perimeter
G1 X75.280 Y110.659 E0.01884 ; perimeter
G1 X74.846 Y110.782 E0.01615 ; perimeter
G1 X74.593 Y111.269 F6000.000 ; move inwards before travel
G1 E-4.00000 F1800.00000 ; retract
G1 X74.250 Y91.752 F6000.000 ; move to first perimeter point
G1 E4.00000 F1800.00000 ; unretract
G1 X73.561 Y91.688 E0.02479 F780.000 ; perimeter
G1 X72.895 Y91.499 E0.02479 ; perimeter
G1 X72.274 Y91.189 E0.02482 ; perimeter
G1 X71.717 Y90.767 E0.02501 ; perimeter
G1 X71.274 Y90.280 E0.02358 ; perimeter
G1 X71.048 Y89.951 E0.01429 ; perimeter
G1 X70.751 Y89.355 E0.02383 ; perimeter
G1 X70.562 Y88.689 E0.02479 ; perimeter
G1 X70.498 Y88.000 E0.02479 ; perimeter
G1 X70.562 Y87.311 E0.02479 ; perimeter
G1 X70.751 Y86.645 E0.02479 ; perimeter
G1 X71.060 Y86.025 E0.02479 ; perimeter
G1 X71.477 Y85.472 E0.02479 ; perimeter
G1 X71.989 Y85.006 E0.02479 ; perimeter
G1 X72.578 Y84.641 E0.02479 ; perimeter
G1 X73.198 Y84.401 E0.02383 ; perimeter
G1 X73.587 Y84.310 E0.01429 ; perimeter
G1 X74.243 Y84.248 E0.02358 F780.000 ; perimeter
G1 X74.938 Y84.312 E0.02501 ; perimeter
G1 X75.605 Y84.501 E0.02482 ; perimeter
G1 X76.225 Y84.810 E0.02479 ; perimeter
G1 X76.778 Y85.228 E0.02482 ; perimeter
G1 X77.248 Y85.745 E0.02501 ; perimeter
G1 X77.595 Y86.305 E0.02358 ; perimeter
G1 X77.756 Y86.670 E0.01429 ; perimeter
G1 X77.938 Y87.311 E0.02383 ; perimeter
G1 X78.002 Y88.000 E0.02479 ; perimeter
G1 X77.938 Y88.690 E0.02482 ; perimeter
G1 X77.746 Y89.362 E0.02501 ; perimeter
G1 X77.452 Y89.952 E0.02358 ; perimeter
G1 X77.226 Y90.281 E0.01429 ; perimeter
G1 X76.778 Y90.773 E0.02383 ; perimeter
G1 X76.225 Y91.190 E0.02479 ; perimeter
G1 X75.605 Y91.499 E0.02479 ; perimeter
G1 X74.939 Y91.688 E0.02479 ; perimeter
G1 X74.325 Y91.745 E0.02210 ; perimeter
G1 X74.250 Y91.301 F6000.000 ; move to first perimeter point
G1 X73.643 Y91.245 E0.02181 F780.000 ; perimeter
G1 X73.057 Y91.079 E0.02181 ; perimeter
G1 X72.511 Y90.807 E0.02183 ; perimeter
G1 X72.021 Y90.435 E0.02203 ; perimeter
G1 X71.626 Y90.001 E0.02099 ; perimeter
G1 X71.436 Y89.723 E0.01206 ; perimeter
G1 X71.171 Y89.193 E0.02123 ; perimeter
G1 X71.005 Y88.607 E0.02181 ; perimeter
G1 X70.949 Y88.000 E0.02181 ; perimeter
G1 X71.005 Y87.393 E0.02181 ; perimeter
G1 X71.171 Y86.807 E0.02181 ; perimeter
G1 X71.443 Y86.262 E0.02181 ; perimeter
G1 X71.810 Y85.776 E0.02181 ; perimeter
G1 X72.260 Y85.365 E0.02181 ; perimeter
G1 X72.778 Y85.045 E0.02181 ; perimeter
G1 X73.331 Y84.830 E0.02123 ; perimeter
G1 X73.659 Y84.753 E0.01206 ; perimeter
G1 X74.243 Y84.699 E0.02099 F780.000 ; perimeter
G1 X74.856 Y84.755 E0.02203 ; perimeter
G1 X75.443 Y84.921 E0.02183 ; perimeter
G1 X75.988 Y85.193 E0.02181 ; perimeter
G1 X76.475 Y85.561 E0.02183 ; perimeter
G1 X76.889 Y86.016 E0.02203 ; perimeter
G1 X77.197 Y86.515 E0.02099 ; perimeter
G1 X77.333 Y86.823 E0.01206 ; perimeter
G1 X77.495 Y87.393 E0.02123 ; perimeter
G1 X77.551 Y88.000 E0.02181 ; perimeter
G1 X77.495 Y88.607 E0.02183 ; perimeter
G1 X77.326 Y89.199 E0.02203 ; perimeter
G1 X77.064 Y89.724 E0.02099 ; perimeter
G1 X76.874 Y90.002 E0.01206 ; perimeter
G1 X76.474 Y90.440 E0.02123 ; perimeter
G1 X75.988 Y90.807 E0.02181 ; perimeter
G1 X75.443 Y91.079 E0.02181 ; perimeter
G1 X74.857 Y91.245 E0.02181 ; perimeter
G1 X74.325 Y91.295 E0.01913 ; perimeter
G1 X74.250 Y90.851 F6000.000 ; move to first perimeter point
G1 X73.726 Y90.803 E0.01884 F780.000 ; perimeter
G1 X73.220 Y90.659 E0.01884 ; perimeter
G1 X72.749 Y90.424 E0.01884 ; perimeter
G1 X72.325 Y90.102 E0.01905 ; perimeter
G1 X71.979 Y89.722 E0.01840 ; perimeter
G1 X71.823 Y89.496 E0.00984 ; perimeter
G1 X71.591 Y89.030 E0.01863 ; perimeter
G1 X71.447 Y88.524 E0.01884 ; perimeter
G1 X71.399 Y88.000 E0.01884 ; perimeter
G1 X71.447 Y87.476 E0.01884 ; perimeter
G1 X71.591 Y86.970 E0.01884 ; perimeter
G1 X71.826 Y86.499 E0.01884 ; perimeter
G1 X72.143 Y86.079 E0.01884 ; perimeter
G1 X72.532 Y85.725 E0.01884 ; perimeter
G1 X72.979 Y85.448 E0.01884 ; perimeter
G1 X73.464 Y85.260 E0.01863 ; perimeter
G1 X73.732 Y85.197 E0.00984 ; perimeter
G1 X74.244 Y85.149 E0.01840 F780.000 ; perimeter
G1 X74.774 Y85.197 E0.01905 ; perimeter
G1 X75.280 Y85.341 E0.01884 ; perimeter
