; generated by Slic3r 1.2.9 on 2016-07-25 at 20:18:00

; external perimeters extrusion width = 0.50mm
; perimeters extrusion width = 0.50mm
; infill extrusion width = 0.50mm
; solid infill extrusion width = 0.50mm
; top infill extrusion width = 0.50mm

M107 ; disable fan
M190 S57 ; set bed temperature
M104 S185 ; set temperature

M109 S185 ; wait for temperature to be reached
G21 ; set units to millimeters
G90 ; use absolute coordinates
M83 ; use relative distances for extrusion
G1 E-4.00000 F1800.00000 ; retract
G1 Z0.240 F6000.000 ; move to next layer (0)
G1 X67.149 Y67.149 F6000.000 ; move to first skirt point
G1 E4.00000 F1800.00000 ; unretract
G1 X67.441 Y66.875 E0.01433 F600.000 ; skirt
G1 X67.683 Y66.680 E0.01113 ; skirt
G1 X68.089 Y66.394 E0.01778 ; skirt
G1 X68.450 Y66.188 E0.01487 ; skirt
G1 X68.811 Y66.011 E0.01439 ; skirt
G1 X69.161 Y65.873 E0.01346 ; skirt
G1 X69.778 Y65.692 E0.02305 ; skirt
G1 X70.357 Y65.590 E0.02103 ; skirt
G1 X70.916 Y65.552 E0.02008 ; skirt
G1 X129.081 Y65.552 E2.08235 ; skirt
G1 X129.634 Y65.589 E0.01985 F600.000 ; skirt
G1 X130.091 Y65.664 E0.01654 ; skirt
G1 X130.436 Y65.745 E0.01271 ; skirt
G1 X130.965 Y65.920 E0.01995 ; skirt
G1 X131.551 Y66.188 E0.02305 ; skirt
G1 X131.902 Y66.389 E0.01451 ; skirt
G1 X132.210 Y66.600 E0.01334 ; skirt
G1 X132.552 Y66.869 E0.01558 ; skirt
G1 X132.804 Y67.102 E0.01227 ; skirt
G1 X133.124 Y67.440 E0.01668 ; skirt
G1 X133.400 Y67.790 E0.01598 ; skirt
G1 X133.610 Y68.097 E0.01329 ; skirt
G1 X133.812 Y68.450 E0.01456 ; skirt
G1 X134.080 Y69.035 E0.02304 ; skirt
G1 X134.256 Y69.565 E0.01999 ; skirt
G1 X134.336 Y69.909 E0.01267 ; skirt
G1 X134.411 Y70.366 E0.01656 ; skirt
G1 X134.448 Y71.000 E0.02274 ; skirt
G1 X134.448 Y89.586 E0.66539 ; skirt
G1 X134.431 Y90.005 E0.01503 ; skirt
G1 X134.329 Y90.711 E0.02553 ; skirt
G1 X134.136 Y91.399 E0.02557 ; skirt
G1 X133.836 Y92.092 E0.02706 ; skirt
G1 X133.419 Y92.772 E0.02854 ; skirt
G1 X133.137 Y93.129 E0.01632 ; skirt
G1 X132.853 Y93.438 E0.01503 ; skirt
G1 X93.438 Y132.853 E1.99554 ; skirt
G1 X93.129 Y133.137 E0.01503 ; skirt
G1 X92.764 Y133.424 E0.01664 ; skirt
G1 X92.558 Y133.564 E0.00891 ; skirt
G1 X91.936 Y133.914 E0.02556 ; skirt
G1 X91.282 Y134.176 E0.02521 ; skirt
G1 X90.711 Y134.329 E0.02118 ; skirt
G1 X90.460 Y134.377 E0.00913 ; skirt
G1 X89.795 Y134.444 E0.02393 ; skirt
G1 X71.000 Y134.448 E0.67288 ; skirt
G1 X70.357 Y134.410 E0.02306 ; skirt
G1 X69.909 Y134.336 E0.01624 ; skirt
G1 X69.565 Y134.256 E0.01267 ; skirt
G1 X69.161 Y134.127 E0.01519 ; skirt
G1 X68.810 Y133.989 E0.01348 ; skirt
G1 X68.450 Y133.812 E0.01437 ; skirt
G1 X68.097 Y133.610 E0.01456 ; skirt
G1 X67.683 Y133.320 E0.01809 ; skirt
G1 X67.440 Y133.124 E0.01118 ; skirt
G1 X67.102 Y132.804 E0.01668 ; skirt
G1 X66.869 Y132.552 E0.01227 ; skirt
G1 X66.600 Y132.210 E0.01558 ; skirt
G1 X66.389 Y131.902 E0.01334 ; skirt
G1 X66.188 Y131.551 E0.01451 ; skirt
G1 X66.015 Y131.197 E0.01409 ; skirt
G1 X65.873 Y130.839 E0.01378 ; skirt
G1 X65.745 Y130.436 E0.01515 ; skirt
G1 X65.664 Y130.091 E0.01271 ; skirt
G1 X65.589 Y129.634 E0.01654 ; skirt
G1 X65.552 Y129.000 E0.02275 ; skirt
G1 X65.552 Y70.916 E2.07944 ; skirt
G1 X65.590 Y70.357 E0.02008 ; skirt
G1 X65.692 Y69.778 E0.02103 ; skirt
G1 X65.873 Y69.161 E0.02305 ; skirt
G1 X66.011 Y68.811 E0.01346 ; skirt
G1 X66.188 Y68.450 E0.01439 ; skirt
G1 X66.394 Y68.089 E0.01487 ; skirt
G1 X66.680 Y67.683 E0.01778 ; skirt
G1 X67.096 Y67.202 E0.02276 ; skirt
G1 E-4.00000 F1800.00000 ; retract
G1 X83.006 Y121.103 F6000.000 ; move to first perimeter point
G1 E4.00000 F1800.00000 ; unretract
G1 X82.754 Y121.629 E0.02088 F780.000 ; perimeter
G1 X82.570 Y121.906 E0.01191 ; perimeter
G1 X82.187 Y122.338 E0.02068 ; perimeter
G1 X81.708 Y122.708 E0.02165 ; perimeter
G1 X81.173 Y122.979 E0.02148 ; perimeter
G1 X80.597 Y123.145 E0.02147 ; perimeter
G1 X80.000 Y123.202 E0.02147 ; perimeter
G1 X79.403 Y123.145 E0.02147 ; perimeter
G1 X78.827 Y122.979 E0.02147 ; perimeter
G1 X78.292 Y122.708 E0.02147 ; perimeter
G1 X77.817 Y122.342 E0.02147 ; perimeter
G1 X77.419 Y121.894 E0.02147 ; perimeter
G1 X77.111 Y121.379 E0.02147 ; perimeter
G1 X76.904 Y120.816 E0.02148 ; perimeter
G1 X76.806 Y120.219 E0.02165 ; perimeter
G1 X76.820 Y119.642 E0.02068 ; perimeter
G1 X76.874 Y119.314 E0.01191 ; perimeter
G1 X77.049 Y118.757 E0.02088 ; perimeter
G1 X77.333 Y118.229 E0.02147 ; perimeter
G1 X77.710 Y117.763 E0.02147 ; perimeter
G1 X78.167 Y117.375 E0.02147 ; perimeter
G1 X78.689 Y117.079 E0.02147 ; perimeter
G1 X79.256 Y116.886 E0.02147 ; perimeter
G1 X79.850 Y116.802 E0.02147 F780.000 ; perimeter
G1 X80.449 Y116.830 E0.02147 ; perimeter
G1 X81.032 Y116.969 E0.02147 ; perimeter
G1 X81.564 Y117.208 E0.02088 ; perimeter
G1 X81.846 Y117.386 E0.01191 ; perimeter
G1 X82.290 Y117.763 E0.02088 ; perimeter
G1 X82.667 Y118.229 E0.02147 ; perimeter
G1 X82.951 Y118.757 E0.02147 ; perimeter
G1 X83.131 Y119.329 E0.02147 ; perimeter
G1 X83.201 Y119.925 E0.02147 ; perimeter
G1 X83.159 Y120.523 E0.02147 ; perimeter
G1 X83.025 Y121.030 E0.01878 ; perimeter
G1 X82.583 Y120.948 F6000.000 ; move to first perimeter point
G1 X82.363 Y121.407 E0.01823 F780.000 ; perimeter
G1 X82.214 Y121.632 E0.00965 ; perimeter
G1 X81.879 Y122.009 E0.01805 ; perimeter
G1 X81.468 Y122.327 E0.01862 ; perimeter
G1 X81.008 Y122.560 E0.01845 ; perimeter
G1 X80.513 Y122.703 E0.01845 ; perimeter
G1 X80.000 Y122.751 E0.01845 ; perimeter
G1 X79.487 Y122.703 E0.01845 ; perimeter
G1 X78.992 Y122.560 E0.01845 ; perimeter
G1 X78.532 Y122.327 E0.01845 ; perimeter
G1 X78.124 Y122.013 E0.01845 ; perimeter
G1 X77.782 Y121.627 E0.01845 ; perimeter
G1 X77.517 Y121.185 E0.01845 ; perimeter
G1 X77.340 Y120.701 E0.01845 ; perimeter
G1 X77.256 Y120.188 E0.01862 ; perimeter
G1 X77.268 Y119.684 E0.01805 ; perimeter
G1 X77.312 Y119.418 E0.00965 ; perimeter
G1 X77.465 Y118.932 E0.01823 ; perimeter
G1 X77.708 Y118.478 E0.01845 ; perimeter
G1 X78.032 Y118.078 E0.01845 ; perimeter
G1 X78.425 Y117.744 E0.01845 ; perimeter
G1 X78.873 Y117.490 E0.01845 ; perimeter
G1 X79.361 Y117.324 E0.01845 ; perimeter
G1 X79.871 Y117.252 E0.01845 F780.000 ; perimeter
G1 X80.386 Y117.276 E0.01845 ; perimeter
G1 X80.887 Y117.396 E0.01845 ; perimeter
G1 X81.352 Y117.604 E0.01823 ; perimeter
G1 X81.580 Y117.748 E0.00965 ; perimeter
G1 X81.968 Y118.078 E0.01823 ; perimeter
G1 X82.292 Y118.478 E0.01845 ; perimeter
G1 X82.535 Y118.932 E0.01845 ; perimeter
G1 X82.690 Y119.424 E0.01845 ; perimeter
G1 X82.750 Y119.936 E0.01845 ; perimeter
G1 X82.714 Y120.449 E0.01845 ; perimeter
G1 X82.602 Y120.875 E0.01576 ; perimeter
G1 X82.891 Y121.341 F6000.000 ; move inwards before travel
G1 E-4.00000 F1800.00000 ; retract
G1 X80.597 Y103.145 F6000.000 ; move to first perimeter point
G1 E4.00000 F1800.00000 ; unretract
G1 X80.000 Y103.202 E0.02147 F780.000 ; perimeter
G1 X79.403 Y103.145 E0.02147 ; perimeter
G1 X78.827 Y102.979 E0.02147 ; perimeter
G1 X78.292 Y102.708 E0.02147 ; perimeter
G1 X77.817 Y102.342 E0.02147 ; perimeter
G1 X77.419 Y101.894 E0.02147 ; perimeter
G1 X77.111 Y101.379 E0.02147 ; perimeter
G1 X76.904 Y100.816 E0.02149 ; perimeter
G1 X76.806 Y100.217 E0.02172 ; perimeter
G1 X76.820 Y99.642 E0.02060 ; perimeter
G1 X76.874 Y99.314 E0.01190 ; perimeter
G1 X77.049 Y98.757 E0.02088 ; perimeter
G1 X77.333 Y98.229 E0.02147 ; perimeter
G1 X77.710 Y97.763 E0.02147 ; perimeter
G1 X78.167 Y97.375 E0.02147 ; perimeter
G1 X78.689 Y97.079 E0.02147 ; perimeter
G1 X79.256 Y96.886 E0.02147 ; perimeter
G1 X79.850 Y96.802 E0.02147 F780.000 ; perimeter
G1 X80.449 Y96.830 E0.02147 ; perimeter
G1 X81.032 Y96.969 E0.02146 ; perimeter
G1 X81.557 Y97.204 E0.02059 ; perimeter
G1 X81.845 Y97.385 E0.01217 ; perimeter
G1 X82.290 Y97.763 E0.02091 ; perimeter
G1 X82.667 Y98.229 E0.02147 ; perimeter
G1 X82.951 Y98.757 E0.02147 ; perimeter
G1 X83.131 Y99.329 E0.02147 ; perimeter
G1 X83.201 Y99.925 E0.02147 ; perimeter
G1 X83.159 Y100.524 E0.02149 ; perimeter
G1 X83.003 Y101.110 E0.02172 ; perimeter
G1 X82.754 Y101.629 E0.02060 ; perimeter
G1 X82.570 Y101.906 E0.01190 ; perimeter
G1 X82.183 Y102.342 E0.02088 ; perimeter
G1 X81.708 Y102.708 E0.02147 ; perimeter
G1 X81.173 Y102.979 E0.02147 ; perimeter
G1 X80.669 Y103.125 E0.01878 ; perimeter
G1 X80.513 Y102.703 F6000.000 ; move to first perimeter point
G1 X80.000 Y102.751 E0.01845 F780.000 ; perimeter
G1 X79.487 Y102.703 E0.01845 ; perimeter
G1 X78.992 Y102.560 E0.01845 ; perimeter
G1 X78.532 Y102.327 E0.01845 ; perimeter
G1 X78.124 Y102.013 E0.01845 ; perimeter
G1 X77.782 Y101.627 E0.01845 ; perimeter
G1 X77.517 Y101.185 E0.01845 ; perimeter
G1 X77.340 Y100.701 E0.01846 ; perimeter
G1 X77.256 Y100.186 E0.01870 ; perimeter
G1 X77.268 Y99.684 E0.01797 ; perimeter
G1 X77.312 Y99.418 E0.00965 ; perimeter
G1 X77.465 Y98.932 E0.01823 ; perimeter
G1 X77.708 Y98.478 E0.01845 ; perimeter
G1 X78.032 Y98.078 E0.01845 ; perimeter
G1 X78.425 Y97.744 E0.01845 ; perimeter
G1 X78.873 Y97.490 E0.01845 ; perimeter
G1 X79.361 Y97.324 E0.01845 ; perimeter
G1 X79.871 Y97.252 E0.01845 F780.000 ; perimeter
G1 X80.386 Y97.276 E0.01845 ; perimeter
G1 X80.887 Y97.396 E0.01844 ; perimeter
G1 X81.345 Y97.601 E0.01797 ; perimeter
G1 X81.579 Y97.748 E0.00991 ; perimeter
G1 X81.968 Y98.078 E0.01825 ; perimeter
G1 X82.292 Y98.478 E0.01845 ; perimeter
G1 X82.535 Y98.932 E0.01845 ; perimeter
G1 X82.690 Y99.424 E0.01845 ; perimeter
G1 X82.750 Y99.936 E0.01845 ; perimeter
G1 X82.714 Y100.450 E0.01846 ; perimeter
G1 X82.580 Y100.954 E0.01870 ; perimeter
G1 X82.363 Y101.407 E0.01797 ; perimeter
G1 X82.214 Y101.632 E0.00965 ; perimeter
G1 X81.876 Y102.013 E0.01823 ; perimeter
G1 X81.468 Y102.327 E0.01845 ; perimeter
G1 X81.008 Y102.560 E0.01845 ; perimeter
G1 X80.585 Y102.682 E0.01576 ; perimeter
G1 X80.333 Y103.170 F6000.000 ; move inwards before travel
G1 X89.302 Y102.703 F6000.000 ; move to first perimeter point
G1 X89.302 Y97.386 E0.19035 F900.000 ; perimeter
G1 X89.322 Y97.128 E0.00927 ; perimeter
G1 X89.459 Y96.682 E0.01668 ; perimeter
G1 X89.744 Y96.261 E0.01824 ; perimeter
G1 X90.103 Y95.967 E0.01660 ; perimeter
G1 X90.349 Y95.843 E0.00986 ; perimeter
G1 X90.611 Y95.757 E0.00986 ; perimeter
G1 X91.072 Y95.710 E0.01660 F900.000 ; perimeter
G1 X91.573 Y95.807 E0.01825 ; perimeter
G1 X91.984 Y96.026 E0.01666 ; perimeter
G1 X92.181 Y96.193 E0.00927 ; perimeter
G1 X102.305 Y106.317 E0.51257 ; perimeter
G1 X102.465 Y106.503 E0.00877 ; perimeter
G1 X102.682 Y106.898 E0.01615 ; perimeter
G1 X102.787 Y107.382 E0.01774 ; perimeter
G1 X102.755 Y107.832 E0.01615 ; perimeter
G1 X102.680 Y108.090 E0.00963 ; perimeter
G1 X102.564 Y108.344 E0.00999 ; perimeter
G1 X102.322 Y108.666 E0.01443 ; perimeter
G1 X92.163 Y118.825 E0.51432 ; perimeter
G1 X91.794 Y119.095 E0.01637 ; perimeter
G1 X91.357 Y119.250 E0.01660 ; perimeter
G1 X91.056 Y119.288 E0.01087 ; perimeter
G1 X90.574 Y119.237 E0.01735 ; perimeter
G1 X90.146 Y119.059 E0.01660 ; perimeter
G1 X89.900 Y118.885 E0.01076 ; perimeter
G1 X89.606 Y118.562 E0.01564 ; perimeter
G1 X89.451 Y118.293 E0.01113 ; perimeter
G1 X89.322 Y117.872 E0.01576 ; perimeter
G1 X89.302 Y117.614 E0.00927 ; perimeter
G1 X89.302 Y102.778 E0.53115 ; perimeter
G1 X89.750 Y102.703 F6000.000 ; move to first perimeter point
G1 X89.750 Y97.404 E0.18970 F900.000 ; perimeter
G1 X89.766 Y97.213 E0.00688 ; perimeter
G1 X89.868 Y96.878 E0.01252 ; perimeter
G1 X90.079 Y96.566 E0.01347 ; perimeter
G1 X90.349 Y96.346 E0.01249 ; perimeter
G1 X90.521 Y96.259 E0.00692 ; perimeter
G1 X90.705 Y96.198 E0.00692 ; perimeter
G1 X91.052 Y96.163 E0.01249 F900.000 ; perimeter
G1 X91.422 Y96.235 E0.01349 ; perimeter
G1 X91.730 Y96.399 E0.01251 ; perimeter
G1 X91.877 Y96.523 E0.00688 ; perimeter
G1 X101.976 Y106.623 E0.51133 ; perimeter
G1 X102.094 Y106.760 E0.00648 ; perimeter
G1 X102.257 Y107.057 E0.01214 ; perimeter
G1 X102.335 Y107.415 E0.01311 ; perimeter
G1 X102.311 Y107.753 E0.01214 ; perimeter
G1 X102.259 Y107.934 E0.00673 ; perimeter
G1 X102.176 Y108.113 E0.00707 ; perimeter
G1 X101.982 Y108.371 E0.01157 ; perimeter
G1 X91.870 Y118.483 E0.51196 ; perimeter
G1 X91.582 Y118.694 E0.01279 ; perimeter
G1 X91.254 Y118.811 E0.01249 ; perimeter
G1 X91.052 Y118.836 E0.00728 ; perimeter
G1 X90.686 Y118.798 E0.01316 ; perimeter
G1 X90.364 Y118.664 E0.01249 ; perimeter
G1 X90.199 Y118.547 E0.00724 ; perimeter
G1 X89.971 Y118.296 E0.01215 ; perimeter
G1 X89.865 Y118.113 E0.00756 ; perimeter
G1 X89.766 Y117.787 E0.01220 ; perimeter
G1 X89.750 Y117.596 E0.00688 ; perimeter
G1 X89.750 Y102.778 E0.53050 ; perimeter
G1 X89.317 Y102.453 F6000.000 ; move inwards before travel
G1 E-4.00000 F1800.00000 ; retract
G1 X98.245 Y94.221 F6000.000 ; move to first perimeter point
G1 E4.00000 F1800.00000 ; unretract
G1 X96.044 Y92.017 E0.11148 F900.000 ; perimeter
G1 X95.819 Y91.596 E0.01710 ; perimeter
G1 X95.738 Y91.295 E0.01116 ; perimeter
G1 X95.716 Y90.832 E0.01659 ; perimeter
G1 X95.838 Y90.347 E0.01790 ; perimeter
G1 X96.096 Y89.917 E0.01794 ; perimeter
G1 X96.467 Y89.581 E0.01795 ; perimeter
G1 X96.920 Y89.367 E0.01794 ; perimeter
G1 X97.363 Y89.302 E0.01602 ; perimeter
G1 X117.614 Y89.302 E0.72501 F900.000 ; perimeter
G1 X117.872 Y89.322 E0.00927 ; perimeter
G1 X118.293 Y89.451 E0.01574 ; perimeter
G1 X118.562 Y89.606 E0.01114 ; perimeter
G1 X118.886 Y89.901 E0.01565 ; perimeter
G1 X119.059 Y90.147 E0.01079 ; perimeter
G1 X119.241 Y90.586 E0.01700 ; perimeter
G1 X119.287 Y91.058 E0.01700 ; perimeter
G1 X119.250 Y91.357 E0.01079 ; perimeter
G1 X119.095 Y91.794 E0.01661 ; perimeter
G1 X118.825 Y92.163 E0.01637 ; perimeter
G1 X108.666 Y102.322 E0.51432 ; perimeter
G1 X108.344 Y102.564 E0.01443 ; perimeter
G1 X108.090 Y102.680 E0.00999 ; perimeter
G1 X107.832 Y102.755 E0.00963 ; perimeter
G1 X107.382 Y102.787 E0.01615 ; perimeter
G1 X106.898 Y102.682 E0.01774 ; perimeter
G1 X106.503 Y102.465 E0.01615 ; perimeter
G1 X106.317 Y102.305 E0.00878 ; perimeter
G1 X98.298 Y94.274 E0.40631 ; perimeter
G1 E-4.00000 F1800.00000 ; retract
G1 X96.257 Y90.521 F6000.000 ; move to first perimeter point
G1 E4.00000 F1800.00000 ; unretract
G1 X96.446 Y90.205 E0.01317 F900.000 ; perimeter
G1 X96.719 Y89.958 E0.01318 ; perimeter
G1 X97.052 Y89.801 E0.01317 ; perimeter
G1 X97.396 Y89.750 E0.01246 ; perimeter
G1 X117.596 Y89.750 E0.72318 ; perimeter
G1 X117.787 Y89.766 E0.00688 ; perimeter
G1 X118.113 Y89.865 E0.01218 ; perimeter
G1 X118.296 Y89.971 E0.00758 ; perimeter
G1 X118.547 Y90.199 E0.01215 ; perimeter
G1 X118.664 Y90.365 E0.00724 ; perimeter
G1 X118.801 Y90.696 E0.01283 ; perimeter
G1 X118.836 Y91.052 E0.01283 ; perimeter
G1 X118.811 Y91.253 E0.00725 ; perimeter
G1 X118.694 Y91.582 E0.01250 ; perimeter
G1 X118.483 Y91.870 E0.01279 ; perimeter
G1 X108.371 Y101.982 E0.51196 ; perimeter
G1 X108.113 Y102.176 E0.01157 ; perimeter
G1 X107.934 Y102.259 E0.00707 ; perimeter
G1 X107.753 Y102.311 E0.00673 ; perimeter
G1 X107.415 Y102.335 E0.01214 ; perimeter
G1 X107.057 Y102.257 E0.01311 ; perimeter
G1 X106.760 Y102.094 E0.01214 ; perimeter
G1 X106.623 Y101.976 E0.00648 ; perimeter
G1 X96.409 Y91.747 E0.51751 ; perimeter
G1 X96.239 Y91.430 E0.01288 ; perimeter
G1 X96.184 Y91.225 E0.00758 ; perimeter
G1 X96.168 Y90.877 E0.01249 ; perimeter
G1 X96.239 Y90.593 E0.01047 ; perimeter
G1 X96.048 Y90.218 F6000.000 ; move inwards before travel
G1 X98.827 Y82.979 F6000.000 ; move to first perimeter point
G1 X98.292 Y82.708 E0.02147 F780.000 ; perimeter
G1 X97.817 Y82.342 E0.02147 ; perimeter
G1 X97.419 Y81.894 E0.02147 ; perimeter
G1 X97.111 Y81.379 E0.02147 ; perimeter
G1 X96.904 Y80.816 E0.02149 ; perimeter
G1 X96.806 Y80.217 E0.02172 ; perimeter
G1 X96.820 Y79.642 E0.02060 ; perimeter
G1 X96.874 Y79.314 E0.01190 ; perimeter
G1 X97.049 Y78.757 E0.02088 ; perimeter
G1 X97.333 Y78.229 E0.02147 ; perimeter
G1 X97.710 Y77.763 E0.02147 ; perimeter
G1 X98.167 Y77.375 E0.02147 ; perimeter
G1 X98.689 Y77.079 E0.02147 ; perimeter
G1 X99.256 Y76.886 E0.02147 ; perimeter
G1 X99.850 Y76.802 E0.02147 F780.000 ; perimeter
G1 X100.432 Y76.829 E0.02088 ; perimeter
G1 X100.759 Y76.891 E0.01190 ; perimeter
G1 X101.304 Y77.076 E0.02060 ; perimeter
G1 X101.832 Y77.375 E0.02172 ; perimeter
