; generated by Slic3r 1.2.9 on 2016-07-25 at 20:25:20

; external perimeters extrusion width = 0.50mm
; perimeters extrusion width = 0.50mm
; infill extrusion width = 0.50mm
; solid infill extrusion width = 0.50mm
; top infill extrusion width = 0.50mm

M107 ; disable fan
M190 S57 ; set bed temperature
M104 S185 ; set temperature

M109 S185 ; wait for temperature to be reached
G21 ; set units to millimeters
G90 ; use absolute coordinates
M83 ; use relative distances for extrusion
G1 E-4.00000 F1800.00000 ; retract
G1 Z0.240 F6000.000 ; move to next layer (0)
G1 X65.417 Y65.417 F6000.000 ; move to first skirt point
G1 E4.00000 F1800.00000 ; unretract
G1 X65.851 Y65.013 E0.02121 F600.000 ; skirt
G1 X66.542 Y64.482 E0.03122 ; skirt
G1 X67.167 Y64.098 E0.02627 ; skirt
G1 X67.832 Y63.767 E0.02657 ; skirt
G1 X68.596 Y63.478 E0.02926 ; skirt
G1 X69.269 Y63.297 E0.02496 ; skirt
G1 X70.083 Y63.157 E0.02955 ; skirt
G1 X70.864 Y63.104 E0.02804 ; skirt
G1 X129.126 Y63.104 E2.08582 ; skirt
G1 X129.743 Y63.139 E0.02214 F600.000 ; skirt
G1 X130.283 Y63.208 E0.01947 ; skirt
G1 X131.061 Y63.377 E0.02852 ; skirt
G1 X131.701 Y63.581 E0.02403 ; skirt
G1 X132.176 Y63.770 E0.01833 ; skirt
G1 X132.833 Y64.098 E0.02627 ; skirt
G1 X133.458 Y64.482 E0.02628 ; skirt
G1 X133.961 Y64.857 E0.02244 ; skirt
G1 X134.541 Y65.376 E0.02788 ; skirt
G1 X134.980 Y65.842 E0.02292 ; skirt
G1 X135.356 Y66.317 E0.02167 ; skirt
G1 X135.683 Y66.794 E0.02072 ; skirt
G1 X136.094 Y67.532 E0.03026 ; skirt
G1 X136.311 Y68.017 E0.01899 ; skirt
G1 X136.523 Y68.601 E0.02227 ; skirt
G1 X136.703 Y69.270 E0.02478 ; skirt
G1 X136.843 Y70.083 E0.02955 ; skirt
G1 X136.896 Y70.877 E0.02849 ; skirt
G1 X136.889 Y89.909 E0.68137 ; skirt
G1 X136.846 Y90.479 E0.02044 ; skirt
G1 X136.791 Y90.871 E0.01420 ; skirt
G1 X136.645 Y91.564 E0.02534 ; skirt
G1 X136.455 Y92.186 E0.02328 ; skirt
G1 X136.022 Y93.196 E0.03935 ; skirt
G1 X135.804 Y93.595 E0.01628 ; skirt
G1 X135.416 Y94.189 E0.02540 ; skirt
G1 X134.975 Y94.747 E0.02547 ; skirt
G1 X134.584 Y95.170 E0.02060 ; skirt
G1 X94.937 Y134.806 E2.00706 ; skirt
G1 X94.497 Y135.184 E0.02075 ; skirt
G1 X94.063 Y135.504 E0.01931 ; skirt
G1 X93.593 Y135.805 E0.01997 ; skirt
G1 X93.019 Y136.110 E0.02329 ; skirt
G1 X92.186 Y136.455 E0.03227 ; skirt
G1 X91.562 Y136.646 E0.02336 ; skirt
G1 X90.871 Y136.791 E0.02526 ; skirt
G1 X90.479 Y136.846 E0.01420 ; skirt
G1 X89.909 Y136.889 E0.02044 ; skirt
G1 X71.000 Y136.897 E0.67697 ; skirt
G1 X70.092 Y136.844 E0.03257 ; skirt
G1 X69.384 Y136.728 E0.02568 ; skirt
G1 X68.595 Y136.522 E0.02918 ; skirt
G1 X68.027 Y136.315 E0.02166 ; skirt
G1 X67.532 Y136.094 E0.01938 ; skirt
G1 X66.993 Y135.804 E0.02192 ; skirt
G1 X66.544 Y135.519 E0.01905 ; skirt
G1 X66.047 Y135.150 E0.02216 ; skirt
G1 X65.643 Y134.801 E0.01913 ; skirt
G1 X65.012 Y134.149 E0.03247 ; skirt
G1 X64.644 Y133.683 E0.02125 ; skirt
G1 X64.320 Y133.212 E0.02047 ; skirt
G1 X63.904 Y132.465 E0.03060 ; skirt
G1 X63.686 Y131.975 E0.01923 ; skirt
G1 X63.477 Y131.401 E0.02187 ; skirt
G1 X63.331 Y130.879 E0.01941 ; skirt
G1 X63.207 Y130.278 E0.02197 ; skirt
G1 X63.139 Y129.743 E0.01928 ; skirt
G1 X63.103 Y129.000 E0.02664 ; skirt
G1 X63.104 Y70.864 E2.08131 ; skirt
G1 X63.157 Y70.083 E0.02804 ; skirt
G1 X63.272 Y69.384 E0.02536 ; skirt
G1 X63.476 Y68.602 E0.02892 ; skirt
G1 X63.690 Y68.015 E0.02238 ; skirt
G1 X63.907 Y67.530 E0.01899 ; skirt
G1 X64.321 Y66.787 E0.03049 ; skirt
G1 X64.851 Y66.047 E0.03257 ; skirt
G1 X65.365 Y65.471 E0.02764 ; skirt
G1 X65.735 Y65.735 F6000.000 ; move to first skirt point
G1 X66.143 Y65.353 E0.02001 F600.000 ; skirt
G1 X66.797 Y64.851 E0.02950 ; skirt
G1 X67.382 Y64.491 E0.02461 ; skirt
G1 X68.011 Y64.178 E0.02515 ; skirt
G1 X68.734 Y63.905 E0.02766 ; skirt
G1 X69.365 Y63.735 E0.02340 ; skirt
G1 X70.133 Y63.603 E0.02791 ; skirt
G1 X70.873 Y63.553 E0.02654 ; skirt
G1 X129.118 Y63.553 E2.08523 ; skirt
G1 X129.703 Y63.586 E0.02099 F600.000 ; skirt
G1 X130.209 Y63.651 E0.01826 ; skirt
G1 X130.945 Y63.810 E0.02697 ; skirt
G1 X131.544 Y64.001 E0.02250 ; skirt
G1 X131.997 Y64.181 E0.01745 ; skirt
G1 X132.618 Y64.491 E0.02485 ; skirt
G1 X133.204 Y64.852 E0.02462 ; skirt
G1 X133.681 Y65.207 E0.02129 ; skirt
G1 X134.224 Y65.693 E0.02610 ; skirt
G1 X134.640 Y66.135 E0.02172 ; skirt
G1 X134.997 Y66.585 E0.02057 ; skirt
G1 X135.304 Y67.032 E0.01941 ; skirt
G1 X135.692 Y67.730 E0.02859 ; skirt
G1 X135.895 Y68.184 E0.01779 ; skirt
G1 X136.097 Y68.739 E0.02113 ; skirt
G1 X136.265 Y69.365 E0.02322 ; skirt
G1 X136.398 Y70.142 E0.02823 ; skirt
G1 X136.448 Y71.000 E0.03077 ; skirt
G1 X136.441 Y89.888 E0.67621 ; skirt
G1 X136.400 Y90.429 E0.01940 ; skirt
G1 X136.349 Y90.796 E0.01329 ; skirt
G1 X136.211 Y91.452 E0.02400 ; skirt
G1 X136.030 Y92.042 E0.02208 ; skirt
G1 X135.621 Y92.994 E0.03710 ; skirt
G1 X135.417 Y93.367 E0.01523 ; skirt
G1 X135.050 Y93.929 E0.02405 ; skirt
G1 X134.637 Y94.452 E0.02383 ; skirt
G1 X134.267 Y94.853 E0.01955 ; skirt
G1 X94.635 Y134.475 E2.00631 ; skirt
G1 X94.218 Y134.833 E0.01969 ; skirt
G1 X93.810 Y135.133 E0.01812 ; skirt
G1 X93.365 Y135.418 E0.01893 ; skirt
G1 X92.820 Y135.708 E0.02208 ; skirt
G1 X92.042 Y136.030 E0.03017 ; skirt
G1 X91.450 Y136.211 E0.02216 ; skirt
G1 X90.796 Y136.349 E0.02392 ; skirt
G1 X90.429 Y136.400 E0.01329 ; skirt
G1 X89.888 Y136.441 E0.01940 ; skirt
G1 X71.000 Y136.448 E0.67621 ; skirt
G1 X70.142 Y136.398 E0.03077 ; skirt
G1 X69.479 Y136.290 E0.02405 ; skirt
G1 X68.733 Y136.095 E0.02762 ; skirt
G1 X68.194 Y135.899 E0.02052 ; skirt
G1 X67.730 Y135.692 E0.01818 ; skirt
G1 X67.220 Y135.417 E0.02077 ; skirt
G1 X66.798 Y135.150 E0.01785 ; skirt
G1 X66.327 Y134.800 E0.02101 ; skirt
G1 X65.948 Y134.473 E0.01793 ; skirt
G1 X65.352 Y133.856 E0.03069 ; skirt
G1 X65.003 Y133.415 E0.02016 ; skirt
G1 X64.700 Y132.974 E0.01915 ; skirt
G1 X64.307 Y132.267 E0.02894 ; skirt
G1 X64.102 Y131.807 E0.01803 ; skirt
G1 X63.904 Y131.263 E0.02072 ; skirt
G1 X63.767 Y130.774 E0.01821 ; skirt
G1 X63.650 Y130.204 E0.02083 ; skirt
G1 X63.586 Y129.703 E0.01808 ; skirt
G1 X63.552 Y129.000 E0.02520 ; skirt
G1 X63.553 Y70.873 E2.08101 ; skirt
G1 X63.603 Y70.133 E0.02654 ; skirt
G1 X63.710 Y69.479 E0.02373 ; skirt
G1 X63.903 Y68.739 E0.02736 ; skirt
G1 X64.106 Y68.182 E0.02124 ; skirt
G1 X64.309 Y67.728 E0.01780 ; skirt
G1 X64.701 Y67.025 E0.02882 ; skirt
G1 X65.201 Y66.327 E0.03074 ; skirt
G1 X65.682 Y65.788 E0.02586 ; skirt
G1 E-4.00000 F1800.00000 ; retract
G1 X83.429 Y121.258 F6000.000 ; move to first perimeter point
G1 E4.00000 F1800.00000 ; unretract
G1 X83.145 Y121.851 E0.02352 F780.000 ; perimeter
G1 X82.927 Y122.180 E0.01417 ; perimeter
G1 X82.494 Y122.667 E0.02331 ; perimeter
G1 X81.949 Y123.089 E0.02467 ; perimeter
G1 X81.338 Y123.398 E0.02452 ; perimeter
G1 X80.681 Y123.588 E0.02449 ; perimeter
G1 X80.000 Y123.652 E0.02449 ; perimeter
G1 X79.319 Y123.588 E0.02449 ; perimeter
G1 X78.662 Y123.398 E0.02449 ; perimeter
G1 X78.052 Y123.089 E0.02449 ; perimeter
G1 X77.510 Y122.672 E0.02449 ; perimeter
G1 X77.056 Y122.160 E0.02449 ; perimeter
G1 X76.704 Y121.574 E0.02449 ; perimeter
G1 X76.468 Y120.931 E0.02452 ; perimeter
G1 X76.357 Y120.251 E0.02467 ; perimeter
G1 X76.372 Y119.600 E0.02331 ; perimeter
G1 X76.437 Y119.209 E0.01417 ; perimeter
G1 X76.634 Y118.583 E0.02352 ; perimeter
G1 X76.958 Y117.980 E0.02449 ; perimeter
G1 X77.388 Y117.448 E0.02449 ; perimeter
G1 X77.909 Y117.006 E0.02449 ; perimeter
G1 X78.504 Y116.668 E0.02449 ; perimeter
G1 X79.152 Y116.448 E0.02449 ; perimeter
G1 X79.829 Y116.352 E0.02449 F780.000 ; perimeter
G1 X80.512 Y116.384 E0.02449 ; perimeter
G1 X81.151 Y116.537 E0.02352 ; perimeter
G1 X81.519 Y116.682 E0.01417 ; perimeter
G1 X82.086 Y117.002 E0.02331 ; perimeter
G1 X82.612 Y117.447 E0.02467 ; perimeter
G1 X83.043 Y117.980 E0.02452 ; perimeter
G1 X83.366 Y118.583 E0.02449 ; perimeter
G1 X83.571 Y119.235 E0.02449 ; perimeter
G1 X83.651 Y119.914 E0.02449 ; perimeter
G1 X83.603 Y120.597 E0.02449 ; perimeter
G1 X83.448 Y121.185 E0.02180 ; perimeter
G1 X83.006 Y121.103 F6000.000 ; move to first perimeter point
G1 X82.754 Y121.629 E0.02088 F780.000 ; perimeter
G1 X82.570 Y121.906 E0.01191 ; perimeter
G1 X82.187 Y122.338 E0.02068 ; perimeter
G1 X81.708 Y122.708 E0.02165 ; perimeter
G1 X81.173 Y122.979 E0.02148 ; perimeter
G1 X80.597 Y123.145 E0.02147 ; perimeter
G1 X80.000 Y123.202 E0.02147 ; perimeter
G1 X79.403 Y123.145 E0.02147 ; perimeter
G1 X78.827 Y122.979 E0.02147 ; perimeter
G1 X78.292 Y122.708 E0.02147 ; perimeter
G1 X77.817 Y122.342 E0.02147 ; perimeter
G1 X77.419 Y121.894 E0.02147 ; perimeter
G1 X77.111 Y121.379 E0.02147 ; perimeter
G1 X76.904 Y120.816 E0.02148 ; perimeter
G1 X76.806 Y120.219 E0.02165 ; perimeter
G1 X76.820 Y119.642 E0.02068 ; perimeter
G1 X76.874 Y119.314 E0.01191 ; perimeter
G1 X77.049 Y118.757 E0.02088 ; perimeter
G1 X77.333 Y118.229 E0.02147 ; perimeter
G1 X77.710 Y117.763 E0.02147 ; perimeter
G1 X78.167 Y117.375 E0.02147 ; perimeter
G1 X78.689 Y117.079 E0.02147 ; perimeter
G1 X79.256 Y116.886 E0.02147 ; perimeter
G1 X79.850 Y116.802 E0.02147 F780.000 ; perimeter
G1 X80.449 Y116.830 E0.02147 ; perimeter
G1 X81.016 Y116.966 E0.02088 ; perimeter
G1 X81.326 Y117.087 E0.01191 ; perimeter
G1 X81.828 Y117.372 E0.02068 ; perimeter
G1 X82.290 Y117.762 E0.02165 ; perimeter
G1 X82.667 Y118.229 E0.02148 ; perimeter
G1 X82.951 Y118.757 E0.02147 ; perimeter
G1 X83.131 Y119.329 E0.02147 ; perimeter
G1 X83.201 Y119.925 E0.02147 ; perimeter
G1 X83.159 Y120.523 E0.02147 ; perimeter
G1 X83.025 Y121.030 E0.01878 ; perimeter
G1 X82.583 Y120.948 F6000.000 ; move to first perimeter point
G1 X82.363 Y121.407 E0.01823 F780.000 ; perimeter
G1 X82.214 Y121.632 E0.00965 ; perimeter
G1 X81.879 Y122.009 E0.01805 ; perimeter
G1 X81.468 Y122.327 E0.01862 ; perimeter
G1 X81.008 Y122.560 E0.01845 ; perimeter
G1 X80.513 Y122.703 E0.01845 ; perimeter
G1 X80.000 Y122.751 E0.01845 ; perimeter
G1 X79.487 Y122.703 E0.01845 ; perimeter
G1 X78.992 Y122.560 E0.01845 ; perimeter
G1 X78.532 Y122.327 E0.01845 ; perimeter
G1 X78.124 Y122.013 E0.01845 ; perimeter
G1 X77.782 Y121.627 E0.01845 ; perimeter
G1 X77.517 Y121.185 E0.01845 ; perimeter
G1 X77.340 Y120.701 E0.01845 ; perimeter
G1 X77.256 Y120.188 E0.01862 ; perimeter
G1 X77.268 Y119.684 E0.01805 ; perimeter
G1 X77.312 Y119.418 E0.00965 ; perimeter
G1 X77.465 Y118.932 E0.01823 ; perimeter
G1 X77.708 Y118.478 E0.01845 ; perimeter
G1 X78.032 Y118.078 E0.01845 ; perimeter
G1 X78.425 Y117.744 E0.01845 ; perimeter
G1 X78.873 Y117.490 E0.01845 ; perimeter
G1 X79.361 Y117.324 E0.01845 ; perimeter
G1 X79.871 Y117.252 E0.01845 F780.000 ; perimeter
G1 X80.386 Y117.276 E0.01845 ; perimeter
G1 X80.881 Y117.394 E0.01823 ; perimeter
G1 X81.132 Y117.493 E0.00965 ; perimeter
G1 X81.571 Y117.742 E0.01805 ; perimeter
G1 X81.968 Y118.077 E0.01862 ; perimeter
G1 X82.292 Y118.478 E0.01845 ; perimeter
G1 X82.535 Y118.932 E0.01845 ; perimeter
G1 X82.690 Y119.424 E0.01845 ; perimeter
G1 X82.750 Y119.936 E0.01845 ; perimeter
G1 X82.714 Y120.449 E0.01845 ; perimeter
G1 X82.602 Y120.875 E0.01576 ; perimeter
G1 X82.891 Y121.341 F6000.000 ; move inwards before travel
G1 E-4.00000 F1800.00000 ; retract
G1 X80.681 Y103.588 F6000.000 ; move to first perimeter point
G1 E4.00000 F1800.00000 ; unretract
G1 X80.000 Y103.652 E0.02449 F780.000 ; perimeter
G1 X79.319 Y103.588 E0.02449 ; perimeter
G1 X78.662 Y103.398 E0.02449 ; perimeter
G1 X78.052 Y103.089 E0.02449 ; perimeter
G1 X77.510 Y102.672 E0.02449 ; perimeter
G1 X77.056 Y102.160 E0.02449 ; perimeter
G1 X76.704 Y101.574 E0.02449 ; perimeter
G1 X76.469 Y100.931 E0.02449 ; perimeter
G1 X76.357 Y100.255 E0.02453 ; perimeter
G1 X76.374 Y99.564 E0.02475 ; perimeter
G1 X76.511 Y98.930 E0.02322 ; perimeter
G1 X76.647 Y98.559 E0.01416 ; perimeter
G1 X76.958 Y97.980 E0.02352 ; perimeter
G1 X77.388 Y97.448 E0.02449 ; perimeter
G1 X77.909 Y97.006 E0.02449 ; perimeter
G1 X78.504 Y96.668 E0.02449 ; perimeter
G1 X79.152 Y96.448 E0.02449 ; perimeter
G1 X79.829 Y96.352 E0.02449 F780.000 ; perimeter
G1 X80.512 Y96.384 E0.02449 ; perimeter
G1 X81.177 Y96.543 E0.02449 ; perimeter
G1 X81.777 Y96.812 E0.02352 ; perimeter
G1 X82.111 Y97.023 E0.01418 ; perimeter
G1 X82.612 Y97.448 E0.02352 ; perimeter
G1 X83.043 Y97.980 E0.02449 ; perimeter
G1 X83.366 Y98.583 E0.02449 ; perimeter
G1 X83.571 Y99.235 E0.02449 ; perimeter
G1 X83.651 Y99.914 E0.02449 ; perimeter
G1 X83.603 Y100.597 E0.02449 ; perimeter
G1 X83.428 Y101.259 E0.02453 ; perimeter
G1 X83.129 Y101.882 E0.02475 ; perimeter
G1 X82.745 Y102.405 E0.02322 ; perimeter
G1 X82.469 Y102.688 E0.01416 ; perimeter
G1 X81.948 Y103.089 E0.02352 ; perimeter
G1 X81.338 Y103.398 E0.02449 ; perimeter
G1 X80.753 Y103.567 E0.02180 ; perimeter
G1 X80.597 Y103.145 F6000.000 ; move to first perimeter point
G1 X80.000 Y103.202 E0.02147 F780.000 ; perimeter
G1 X79.403 Y103.145 E0.02147 ; perimeter
G1 X78.827 Y102.979 E0.02147 ; perimeter
G1 X78.292 Y102.708 E0.02147 ; perimeter
G1 X77.817 Y102.342 E0.02147 ; perimeter
G1 X77.419 Y101.894 E0.02147 ; perimeter
G1 X77.111 Y101.379 E0.02147 ; perimeter
G1 X76.904 Y100.817 E0.02147 ; perimeter
G1 X76.806 Y100.224 E0.02149 ; perimeter
G1 X76.822 Y99.618 E0.02172 ; perimeter
G1 X76.943 Y99.055 E0.02060 ; perimeter
G1 X77.057 Y98.743 E0.01190 ; perimeter
G1 X77.333 Y98.229 E0.02088 ; perimeter
G1 X77.710 Y97.763 E0.02147 ; perimeter
G1 X78.167 Y97.375 E0.02147 ; perimeter
G1 X78.689 Y97.079 E0.02147 ; perimeter
G1 X79.256 Y96.886 E0.02147 ; perimeter
G1 X79.850 Y96.802 E0.02147 F780.000 ; perimeter
G1 X80.449 Y96.830 E0.02147 ; perimeter
G1 X81.032 Y96.969 E0.02147 ; perimeter
G1 X81.564 Y97.208 E0.02088 ; perimeter
G1 X81.846 Y97.386 E0.01191 ; perimeter
G1 X82.290 Y97.763 E0.02088 ; perimeter
G1 X82.667 Y98.229 E0.02147 ; perimeter
G1 X82.951 Y98.758 E0.02147 ; perimeter
G1 X83.131 Y99.329 E0.02147 ; perimeter
G1 X83.201 Y99.925 E0.02147 ; perimeter
G1 X83.159 Y100.523 E0.02147 ; perimeter
G1 X83.005 Y101.104 E0.02149 ; perimeter
G1 X82.743 Y101.651 E0.02172 ; perimeter
G1 X82.402 Y102.114 E0.02060 ; perimeter
G1 X82.170 Y102.352 E0.01190 ; perimeter
G1 X81.708 Y102.708 E0.02088 ; perimeter
G1 X81.173 Y102.979 E0.02147 ; perimeter
G1 X80.669 Y103.125 E0.01878 ; perimeter
G1 X80.513 Y102.703 F6000.000 ; move to first perimeter point
G1 X80.000 Y102.751 E0.01845 F780.000 ; perimeter
G1 X79.487 Y102.703 E0.01845 ; perimeter
G1 X78.992 Y102.560 E0.01845 ; perimeter
G1 X78.532 Y102.327 E0.01845 ; perimeter
G1 X78.124 Y102.013 E0.01845 ; perimeter
G1 X77.782 Y101.627 E0.01845 ; perimeter
G1 X77.517 Y101.185 E0.01845 ; perimeter
G1 X77.340 Y100.702 E0.01845 ; perimeter
G1 X77.256 Y100.193 E0.01846 ; perimeter
G1 X77.269 Y99.671 E0.01870 ; perimeter
G1 X77.374 Y99.180 E0.01797 ; perimeter
G1 X77.467 Y98.927 E0.00965 ; perimeter
G1 X77.708 Y98.478 E0.01823 ; perimeter
G1 X78.032 Y98.078 E0.01845 ; perimeter
G1 X78.425 Y97.744 E0.01845 ; perimeter
G1 X78.873 Y97.490 E0.01845 ; perimeter
G1 X79.361 Y97.324 E0.01845 ; perimeter
G1 X79.871 Y97.252 E0.01845 F780.000 ; perimeter
G1 X80.386 Y97.276 E0.01845 ; perimeter
G1 X80.887 Y97.396 E0.01845 ; perimeter
G1 X81.351 Y97.604 E0.01823 ; perimeter
G1 X81.580 Y97.748 E0.00965 ; perimeter
G1 X81.968 Y98.078 E0.01823 ; perimeter
G1 X82.292 Y98.478 E0.01845 ; perimeter
G1 X82.535 Y98.932 E0.01845 ; perimeter
G1 X82.690 Y99.424 E0.01845 ; perimeter
G1 X82.750 Y99.936 E0.01845 ; perimeter
G1 X82.714 Y100.449 E0.01845 ; perimeter
G1 X82.583 Y100.948 E0.01846 ; perimeter
G1 X82.357 Y101.419 E0.01870 ; perimeter
G1 X82.059 Y101.823 E0.01797 ; perimeter
G1 X81.871 Y102.016 E0.00965 ; perimeter
G1 X81.468 Y102.327 E0.01823 ; perimeter
G1 X81.008 Y102.560 E0.01845 ; perimeter
G1 X80.585 Y102.682 E0.01576 ; perimeter
G1 X80.333 Y103.170 F6000.000 ; move inwards before travel
G1 X88.853 Y102.703 F6000.000 ; move to first perimeter point
G1 X88.853 Y97.368 E0.19100 F900.000 ; perimeter
G1 X88.879 Y97.043 E0.01166 ; perimeter
G1 X89.049 Y96.487 E0.02083 ; perimeter
G1 X89.410 Y95.955 E0.02300 ; perimeter
G1 X89.858 Y95.589 E0.02071 ; perimeter
G1 X90.177 Y95.428 E0.01281 ; perimeter
G1 X90.517 Y95.316 E0.01281 ; perimeter
