; generated by Slic3r 1.2.9 on 2016-07-12 at 22:22:45

; external perimeters extrusion width = 0.50mm
; perimeters extrusion width = 0.50mm
; infill extrusion width = 0.50mm
; solid infill extrusion width = 0.50mm
; top infill extrusion width = 0.50mm

M107
M190 S57 ; set bed temperature
M104 S185 ; set temperature

M109 S185 ; wait for temperature to be reached
G21 ; set units to millimeters
G90 ; use absolute coordinates
M83 ; use relative distances for extrusion
G1 E-4.00000 F1800.00000
G1 Z0.240 F6000.000
G1 X68.940 Y77.625 F6000.000
G1 E4.00000 F1800.00000
G1 X69.290 Y77.350 E0.01595 F600.000
G1 X69.597 Y77.140 E0.01331
G1 X69.949 Y76.938 E0.01454
G1 X70.535 Y76.670 E0.02305
G1 X71.064 Y76.494 E0.01997
G1 X71.410 Y76.414 E0.01269
G1 X71.866 Y76.339 E0.01656
G1 X72.416 Y76.302 E0.01975
G1 X127.581 Y76.302 E1.97495
G1 X128.134 Y76.339 E0.01985 F600.000
G1 X128.591 Y76.414 E0.01654
G1 X128.936 Y76.495 E0.01271
G1 X129.465 Y76.670 E0.01995
G1 X130.051 Y76.938 E0.02305
G1 X130.402 Y77.139 E0.01451
G1 X130.710 Y77.350 E0.01334
G1 X131.052 Y77.619 E0.01558
G1 X131.304 Y77.852 E0.01227
G1 X131.624 Y78.190 E0.01668
G1 X131.900 Y78.540 E0.01598
G1 X132.110 Y78.847 E0.01329
G1 X132.312 Y79.200 E0.01456
G1 X132.580 Y79.785 E0.02304
G1 X132.756 Y80.315 E0.01999
G1 X132.836 Y80.659 E0.01267
G1 X132.911 Y81.116 E0.01656
G1 X132.948 Y81.750 E0.02274
G1 X132.948 Y100.336 E0.66539
G1 X132.931 Y100.755 E0.01503
G1 X132.876 Y101.219 E0.01673
G1 X132.829 Y101.461 E0.00881
G1 X132.636 Y102.149 E0.02557
G1 X132.359 Y102.796 E0.02521
G1 X132.064 Y103.308 E0.02117
G1 X131.637 Y103.879 E0.02554
G1 X131.353 Y104.188 E0.01503
G1 X113.289 Y122.245 E0.91439
G1 X112.771 Y122.670 E0.02398
G1 X112.558 Y122.814 E0.00920
G1 X112.046 Y123.109 E0.02117
G1 X111.399 Y123.386 E0.02522
G1 X110.711 Y123.579 E0.02557
G1 X110.469 Y123.626 E0.00882
G1 X110.005 Y123.681 E0.01672
G1 X109.586 Y123.698 E0.01503
G1 X90.205 Y123.694 E0.69386
G1 X89.540 Y123.627 E0.02393
G1 X89.289 Y123.579 E0.00913
G1 X88.718 Y123.426 E0.02118
G1 X88.064 Y123.164 E0.02521
G1 X87.442 Y122.814 E0.02556
G1 X87.236 Y122.675 E0.00890
G1 X86.871 Y122.387 E0.01665
G1 X86.562 Y122.103 E0.01503
G1 X68.444 Y103.972 E0.91762
G1 X68.080 Y103.520 E0.02078
G1 X67.936 Y103.308 E0.00917
G1 X67.586 Y102.686 E0.02556
G1 X67.324 Y102.032 E0.02521
G1 X67.171 Y101.461 E0.02118
G1 X67.123 Y101.209 E0.00918
G1 X67.061 Y100.633 E0.02076
G1 X67.052 Y81.669 E0.67892
G1 X67.090 Y81.107 E0.02016
G1 X67.192 Y80.528 E0.02104
G1 X67.373 Y79.911 E0.02304
G1 X67.515 Y79.553 E0.01378
G1 X67.752 Y79.082 E0.01888
G1 X68.100 Y78.540 E0.02304
G1 X68.375 Y78.190 E0.01595
G1 X68.885 Y77.676 E0.02593
G1 E-4.00000 F1800.00000
G1 X101.997 Y111.905 F6000.000
G1 E4.00000 F1800.00000
G1 X101.602 Y112.164 E0.01690 F780.000
G1 X101.224 Y112.341 E0.01495
G1 X100.827 Y112.470 E0.01495
G1 X100.417 Y112.549 E0.01495
G1 X100.000 Y112.575 E0.01495
G1 X99.583 Y112.549 E0.01495
G1 X99.173 Y112.470 E0.01495
G1 X98.776 Y112.341 E0.01495
G1 X98.398 Y112.164 E0.01495
G1 X98.046 Y111.940 E0.01495
G1 X97.724 Y111.674 E0.01495
G1 X97.438 Y111.369 E0.01495
G1 X97.193 Y111.032 E0.01495
G1 X96.992 Y110.666 E0.01495
G1 X96.838 Y110.277 E0.01495
G1 X96.734 Y109.873 E0.01495
G1 X96.682 Y109.459 E0.01495
G1 X96.682 Y109.041 E0.01495
G1 X96.734 Y108.627 E0.01495
G1 X96.838 Y108.222 E0.01498
G1 X96.995 Y107.827 E0.01519
G1 X97.193 Y107.468 E0.01467
G1 X97.438 Y107.131 E0.01495
G1 X97.724 Y106.826 E0.01495
G1 X98.046 Y106.560 E0.01495
G1 X98.398 Y106.336 E0.01495
G1 X98.776 Y106.159 E0.01495
G1 X99.173 Y106.030 E0.01495
G1 X99.583 Y105.951 E0.01495
G1 X99.992 Y105.926 E0.01467 F780.000
G1 X100.416 Y105.951 E0.01519
G1 X100.827 Y106.030 E0.01498
G1 X101.224 Y106.159 E0.01495
G1 X101.602 Y106.336 E0.01495
G1 X101.954 Y106.560 E0.01495
G1 X102.276 Y106.826 E0.01495
G1 X102.562 Y107.131 E0.01495
G1 X102.807 Y107.468 E0.01495
G1 X103.008 Y107.834 E0.01495
G1 X103.162 Y108.223 E0.01495
G1 X103.266 Y108.627 E0.01495
G1 X103.318 Y109.041 E0.01495
G1 X103.318 Y109.459 E0.01495
G1 X103.266 Y109.873 E0.01495
G1 X103.162 Y110.277 E0.01495
G1 X103.008 Y110.666 E0.01495
G1 X102.807 Y111.032 E0.01498
G1 X102.556 Y111.375 E0.01519
G1 X102.276 Y111.674 E0.01467
G1 X102.054 Y111.857 E0.01030
G1 X101.711 Y111.559 F6000.000
G1 X101.385 Y111.770 E0.01388 F780.000
G1 X101.059 Y111.924 E0.01293
G1 X100.715 Y112.035 E0.01293
G1 X100.360 Y112.103 E0.01293
G1 X100.000 Y112.125 E0.01293
G1 X99.640 Y112.103 E0.01293
G1 X99.285 Y112.035 E0.01293
G1 X98.941 Y111.924 E0.01293
G1 X98.615 Y111.770 E0.01293
G1 X98.310 Y111.576 E0.01293
G1 X98.032 Y111.346 E0.01293
G1 X97.784 Y111.083 E0.01293
G1 X97.572 Y110.791 E0.01293
G1 X97.398 Y110.474 E0.01293
G1 X97.265 Y110.139 E0.01293
G1 X97.175 Y109.789 E0.01293
G1 X97.130 Y109.431 E0.01293
G1 X97.130 Y109.069 E0.01293
G1 X97.175 Y108.711 E0.01293
G1 X97.265 Y108.361 E0.01294
G1 X97.402 Y108.019 E0.01317
G1 X97.572 Y107.709 E0.01267
G1 X97.784 Y107.417 E0.01293
G1 X98.032 Y107.154 E0.01293
G1 X98.310 Y106.924 E0.01293
G1 X98.615 Y106.730 E0.01293
G1 X98.941 Y106.576 E0.01293
G1 X99.285 Y106.465 E0.01293
G1 X99.640 Y106.397 E0.01293
G1 X99.993 Y106.375 E0.01267 F780.000
G1 X100.360 Y106.397 E0.01317
G1 X100.715 Y106.465 E0.01294
G1 X101.059 Y106.576 E0.01293
G1 X101.385 Y106.730 E0.01293
G1 X101.690 Y106.924 E0.01293
G1 X101.968 Y107.154 E0.01293
G1 X102.216 Y107.417 E0.01293
G1 X102.428 Y107.709 E0.01293
G1 X102.602 Y108.026 E0.01293
G1 X102.735 Y108.361 E0.01293
G1 X102.825 Y108.711 E0.01293
G1 X102.870 Y109.069 E0.01293
G1 X102.870 Y109.431 E0.01293
G1 X102.825 Y109.789 E0.01293
G1 X102.735 Y110.139 E0.01293
G1 X102.602 Y110.474 E0.01293
G1 X102.428 Y110.791 E0.01294
G1 X102.211 Y111.088 E0.01317
G1 X101.968 Y111.346 E0.01267
G1 X101.769 Y111.511 E0.00929
G1 X101.745 Y111.945 F6000.000
G1 E-4.00000 F1800.00000
G1 X83.922 Y93.026 F6000.000
G1 E4.00000 F1800.00000
G1 X83.618 Y93.312 E0.01495 F780.000
G1 X83.280 Y93.557 E0.01495
G1 X82.914 Y93.758 E0.01495
G1 X82.526 Y93.912 E0.01495
G1 X82.122 Y94.016 E0.01495
G1 X81.707 Y94.068 E0.01495
G1 X81.290 Y94.068 E0.01495
G1 X80.883 Y94.017 E0.01467
G1 X80.472 Y93.912 E0.01519
G1 X80.083 Y93.758 E0.01498
G1 X79.717 Y93.557 E0.01495
G1 X79.379 Y93.312 E0.01495
G1 X79.075 Y93.026 E0.01495
G1 X78.809 Y92.704 E0.01495
G1 X78.585 Y92.352 E0.01495
G1 X78.407 Y91.974 E0.01495
G1 X78.278 Y91.576 E0.01498
G1 X78.199 Y91.159 E0.01519
G1 X78.174 Y90.750 E0.01467
G1 X78.200 Y90.333 E0.01495
G1 X78.278 Y89.923 E0.01495
G1 X78.407 Y89.526 E0.01495
G1 X78.585 Y89.148 E0.01495
G1 X78.809 Y88.796 E0.01495
G1 X79.075 Y88.474 E0.01495
G1 X79.379 Y88.188 E0.01495
G1 X79.717 Y87.943 E0.01495
G1 X80.083 Y87.742 E0.01495
G1 X80.471 Y87.588 E0.01495
G1 X80.876 Y87.484 E0.01495
G1 X81.290 Y87.432 E0.01495
G1 X81.707 Y87.432 E0.01495 F780.000
G1 X82.114 Y87.483 E0.01467
G1 X82.525 Y87.588 E0.01519
G1 X82.914 Y87.742 E0.01498
G1 X83.273 Y87.939 E0.01467
G1 X83.617 Y88.188 E0.01519
G1 X83.922 Y88.474 E0.01498
G1 X84.189 Y88.796 E0.01495
G1 X84.412 Y89.148 E0.01495
G1 X84.590 Y89.526 E0.01495
G1 X84.719 Y89.924 E0.01498
G1 X84.798 Y90.341 E0.01519
G1 X84.823 Y90.750 E0.01467
G1 X84.797 Y91.167 E0.01495
G1 X84.719 Y91.577 E0.01495
G1 X84.590 Y91.974 E0.01495
G1 X84.412 Y92.352 E0.01495
G1 X84.189 Y92.704 E0.01495
G1 X83.970 Y92.968 E0.01226
G1 X83.595 Y92.718 F6000.000
G1 X83.332 Y92.966 E0.01293 F780.000
G1 X83.039 Y93.178 E0.01293
G1 X82.723 Y93.352 E0.01293
G1 X82.387 Y93.485 E0.01293
G1 X82.037 Y93.575 E0.01293
G1 X81.679 Y93.620 E0.01293
G1 X81.318 Y93.620 E0.01293
G1 X80.967 Y93.575 E0.01267
G1 X80.610 Y93.485 E0.01317
G1 X80.274 Y93.352 E0.01294
G1 X79.958 Y93.178 E0.01293
G1 X79.666 Y92.966 E0.01293
G1 X79.402 Y92.718 E0.01293
G1 X79.172 Y92.440 E0.01293
G1 X78.979 Y92.135 E0.01293
G1 X78.825 Y91.809 E0.01293
G1 X78.713 Y91.465 E0.01294
G1 X78.645 Y91.103 E0.01317
G1 X78.623 Y90.750 E0.01267
G1 X78.646 Y90.390 E0.01293
G1 X78.713 Y90.035 E0.01293
G1 X78.825 Y89.691 E0.01293
G1 X78.979 Y89.365 E0.01293
G1 X79.172 Y89.060 E0.01293
G1 X79.402 Y88.782 E0.01293
G1 X79.666 Y88.534 E0.01293
G1 X79.958 Y88.322 E0.01293
G1 X80.274 Y88.148 E0.01293
G1 X80.610 Y88.015 E0.01293
G1 X80.960 Y87.925 E0.01293
G1 X81.318 Y87.880 E0.01293
G1 X81.679 Y87.880 E0.01293 F780.000
G1 X82.030 Y87.925 E0.01267
G1 X82.387 Y88.015 E0.01317
G1 X82.723 Y88.148 E0.01294
G1 X83.033 Y88.319 E0.01267
G1 X83.331 Y88.534 E0.01317
G1 X83.595 Y88.782 E0.01294
G1 X83.825 Y89.060 E0.01293
G1 X84.018 Y89.365 E0.01293
G1 X84.172 Y89.691 E0.01293
G1 X84.284 Y90.035 E0.01294
G1 X84.352 Y90.397 E0.01317
G1 X84.374 Y90.750 E0.01267
G1 X84.351 Y91.110 E0.01293
G1 X84.284 Y91.465 E0.01293
G1 X84.172 Y91.809 E0.01293
G1 X84.018 Y92.135 E0.01293
G1 X83.825 Y92.440 E0.01293
G1 X83.643 Y92.661 E0.01024
G1 X83.692 Y93.066 F6000.000
G1 X115.176 Y90.750 F6000.000
G1 X115.203 Y90.333 E0.01495 F780.000
G1 X115.281 Y89.923 E0.01495
G1 X115.410 Y89.526 E0.01495
G1 X115.588 Y89.148 E0.01495
G1 X115.811 Y88.796 E0.01495
G1 X116.078 Y88.474 E0.01495
G1 X116.382 Y88.188 E0.01495
G1 X116.713 Y87.947 E0.01467
G1 X117.085 Y87.742 E0.01519
G1 X117.474 Y87.588 E0.01498
G1 X117.871 Y87.486 E0.01467
G1 X118.292 Y87.432 E0.01519
G1 X118.710 Y87.432 E0.01498 F780.000
G1 X119.124 Y87.484 E0.01495
G1 X119.529 Y87.588 E0.01495
G1 X119.917 Y87.742 E0.01495
G1 X120.276 Y87.939 E0.01467
G1 X120.620 Y88.188 E0.01519
G1 X120.925 Y88.474 E0.01498
G1 X121.191 Y88.796 E0.01495
G1 X121.415 Y89.148 E0.01495
G1 X121.593 Y89.526 E0.01495
G1 X121.722 Y89.924 E0.01498
G1 X121.801 Y90.341 E0.01520
G1 X121.826 Y90.750 E0.01467
G1 X121.800 Y91.167 E0.01495
G1 X121.722 Y91.577 E0.01495
G1 X121.593 Y91.974 E0.01495
G1 X121.415 Y92.352 E0.01495
G1 X121.191 Y92.704 E0.01495
G1 X120.925 Y93.026 E0.01495
G1 X120.621 Y93.312 E0.01495
G1 X120.289 Y93.553 E0.01467
G1 X119.918 Y93.758 E0.01520
G1 X119.529 Y93.912 E0.01498
G1 X119.124 Y94.016 E0.01495
G1 X118.710 Y94.068 E0.01495
G1 X118.293 Y94.068 E0.01495
G1 X117.878 Y94.016 E0.01495
G1 X117.474 Y93.912 E0.01495
G1 X117.093 Y93.761 E0.01467
G1 X116.721 Y93.558 E0.01519
G1 X116.382 Y93.312 E0.01498
G1 X116.078 Y93.026 E0.01495
G1 X115.811 Y92.704 E0.01495
G1 X115.588 Y92.352 E0.01495
G1 X115.410 Y91.974 E0.01495
G1 X115.281 Y91.577 E0.01495
G1 X115.203 Y91.167 E0.01495
G1 X115.181 Y90.825 E0.01226
G1 X115.626 Y90.750 F6000.000
G1 X115.649 Y90.390 E0.01293 F780.000
G1 X115.716 Y90.035 E0.01293
G1 X115.828 Y89.691 E0.01293
G1 X115.982 Y89.365 E0.01293
G1 X116.175 Y89.060 E0.01293
G1 X116.405 Y88.782 E0.01293
G1 X116.668 Y88.534 E0.01293
G1 X116.955 Y88.326 E0.01267
G1 X117.277 Y88.148 E0.01317
G1 X117.613 Y88.015 E0.01294
G1 X117.956 Y87.927 E0.01267
G1 X118.320 Y87.880 E0.01317
G1 X118.682 Y87.880 E0.01294 F780.000
G1 X119.040 Y87.925 E0.01293
G1 X119.390 Y88.015 E0.01293
G1 X119.726 Y88.148 E0.01293
G1 X120.036 Y88.319 E0.01267
G1 X120.334 Y88.534 E0.01317
G1 X120.598 Y88.782 E0.01294
G1 X120.828 Y89.060 E0.01293
G1 X121.021 Y89.365 E0.01293
G1 X121.175 Y89.691 E0.01293
G1 X121.287 Y90.035 E0.01294
G1 X121.355 Y90.397 E0.01317
G1 X121.377 Y90.750 E0.01267
G1 X121.354 Y91.110 E0.01293
G1 X121.287 Y91.465 E0.01293
G1 X121.175 Y91.809 E0.01293
G1 X121.021 Y92.135 E0.01293
G1 X120.828 Y92.440 E0.01293
G1 X120.598 Y92.718 E0.01293
G1 X120.334 Y92.966 E0.01293
G1 X120.048 Y93.174 E0.01267
G1 X119.726 Y93.352 E0.01317
G1 X119.390 Y93.485 E0.01294
G1 X119.040 Y93.575 E0.01293
G1 X118.682 Y93.620 E0.01293
G1 X118.321 Y93.620 E0.01293
G1 X117.963 Y93.575 E0.01293
G1 X117.613 Y93.485 E0.01293
G1 X117.284 Y93.354 E0.01267
G1 X116.961 Y93.178 E0.01317
G1 X116.668 Y92.966 E0.01294
G1 X116.405 Y92.718 E0.01293
G1 X116.175 Y92.440 E0.01293
G1 X115.982 Y92.135 E0.01293
G1 X115.828 Y91.809 E0.01293
G1 X115.716 Y91.465 E0.01293
G1 X115.649 Y91.110 E0.01293
G1 X115.631 Y90.825 E0.01024
G1 X115.317 Y90.563 F6000.000
G1 X72.416 Y81.468 F6000.000
G1 X72.551 Y81.448 E0.00487 F900.000
G1 X127.476 Y81.449 E1.96639
G1 X127.618 Y81.480 E0.00519
G1 X127.696 Y81.531 E0.00333
G1 X127.777 Y81.624 E0.00441
G1 X127.801 Y81.797 E0.00628
G1 X127.802 Y100.290 E0.66206
G1 X127.780 Y100.452 E0.00584
G1 X127.681 Y100.581 E0.00584
G1 X109.831 Y118.431 E0.90373
G1 X109.702 Y118.530 E0.00584
G1 X109.540 Y118.552 E0.00584
G1 X90.460 Y118.552 E0.68309
G1 X90.298 Y118.530 E0.00584
G1 X90.169 Y118.431 E0.00584
G1 X72.319 Y100.581 E0.90373
G1 X72.220 Y100.452 E0.00584
G1 X72.198 Y100.290 E0.00584
G1 X72.199 Y81.799 E0.66201
G1 X72.218 Y81.666 E0.00479
G1 X72.262 Y81.570 E0.00381
G1 X72.348 Y81.499 E0.00396
G1 X72.351 Y81.024 F6000.000
G1 X72.518 Y81.000 E0.00603 F900.000
G1 X127.493 Y81.000 E1.96815
G1 X127.600 Y81.008 E0.00384 F900.000
G1 X127.806 Y81.068 E0.00767
G1 X127.993 Y81.188 E0.00796
G1 X128.133 Y81.350 E0.00766
G1 X128.180 Y81.436 E0.00351
G1 X128.217 Y81.536 E0.00382
G1 X128.250 Y81.766 E0.00831
G1 X128.250 Y100.319 E0.66425
G1 X128.222 Y100.537 E0.00784
G1 X128.192 Y100.623 E0.00325
G1 X128.152 Y100.704 E0.00325
G1 X128.019 Y100.878 E0.00784
G1 X110.128 Y118.769 E0.90583
G1 X109.954 Y118.902 E0.00784
G1 X109.873 Y118.942 E0.00325
G1 X109.787 Y118.972 E0.00325
G1 X109.569 Y119.000 E0.00784
G1 X90.431 Y119.000 E0.68519
G1 X90.213 Y118.972 E0.00784
G1 X90.127 Y118.942 E0.00325
G1 X90.046 Y118.902 E0.00325
G1 X89.872 Y118.769 E0.00784
G1 X71.981 Y100.878 E0.90583
G1 X71.848 Y100.704 E0.00784
G1 X71.808 Y100.623 E0.00325
G1 X71.778 Y100.537 E0.00325
G1 X71.750 Y100.319 E0.00784
G1 X71.750 Y81.766 E0.66423
G1 X71.784 Y81.537 E0.00827
G1 X71.877 Y81.335 E0.00796
G1 X71.931 Y81.264 E0.00321
G1 X72.093 Y81.123 E0.00769
G1 X72.278 Y81.038 E0.00729
G1 X72.465 Y81.148 F6000.000
G1 X78.013 Y91.711 F6000.000
G1 X72.465 Y86.163 E0.28235 F900.000
G1 X72.465 Y85.525 E0.02294
G1 X77.915 Y90.976 E0.27737
G1 X77.940 Y90.363 E0.02207
G1 X72.465 Y84.888 E0.27863
G1 X72.465 Y84.250 E0.02294
G1 X78.052 Y89.838 E0.28435
G1 X78.222 Y89.370 E0.01791
G1 X72.465 Y83.612 E0.29297
G1 X72.465 Y82.975 E0.02294
G1 X78.439 Y88.949 E0.30403
G1 X78.699 Y88.572 E0.01649
G1 X72.465 Y82.337 E0.31726
G1 X72.492 Y81.727 E0.02198
G1 X78.999 Y88.234 E0.33114
G1 X79.338 Y87.936 E0.01625
G1 X73.117 Y81.715 E0.31660
G1 X73.754 Y81.715 E0.02294
G1 X79.717 Y87.678 E0.30346
G1 X80.140 Y87.463 E0.01707
G1 X74.392 Y81.715 E0.29254
G1 X75.029 Y81.715 E0.02294
G1 X80.613 Y87.298 E0.28414
G1 X81.145 Y87.193 E0.01953
G1 X75.667 Y81.715 E0.27879
G1 X76.304 Y81.715 E0.02294
G1 X81.755 Y87.166 E0.27740
G1 X82.509 Y87.282 E0.02744
G1 X76.942 Y81.715 E0.28330
G1 X77.579 Y81.715 E0.02294
G1 X83.674 Y87.809 E0.31014
G1 X84.445 Y88.580 F6000.000
G1 X102.166 Y106.302 E0.90184 F900.000
G1 X102.948 Y107.083 F6000.000
G1 X111.889 Y116.024 E0.45502 F900.000
G1 X112.208 Y115.706 E0.01622
G1 X78.217 Y81.715 E1.72976
G1 X78.854 Y81.715 E0.02294
G1 X112.527 Y115.387 E1.71354
G1 X112.845 Y115.068 E0.01622
G1 X79.492 Y81.715 E1.69732
G1 X80.129 Y81.715 E0.02294
G1 X113.164 Y114.749 E1.68110
G1 X113.483 Y114.431 E0.01622
G1 X80.767 Y81.715 E1.66488
G1 X81.404 Y81.715 E0.02294
G1 X113.802 Y114.112 E1.64866
G1 X114.120 Y113.793 E0.01622
G1 X82.042 Y81.715 E1.63244
G1 X82.679 Y81.715 E0.02294
G1 X114.439 Y113.474 E1.61622
G1 X114.758 Y113.156 E0.01622
G1 X83.317 Y81.715 E1.59999
G1 X83.954 Y81.715 E0.02294
G1 X115.077 Y112.837 E1.58377
G1 X115.395 Y112.518 E0.01622
G1 X84.592 Y81.715 E1.56755
G1 X85.229 Y81.715 E0.02294
G1 X115.714 Y112.199 E1.55133
G1 X116.033 Y111.881 E0.01622
G1 X85.867 Y81.715 E1.53511
G1 X86.504 Y81.715 E0.02294
G1 X116.352 Y111.562 E1.51889
G1 X116.670 Y111.243 E0.01622
G1 X87.142 Y81.715 E1.50267
G1 X87.779 Y81.715 E0.02294
G1 X116.989 Y110.924 E1.48645
G1 X117.308 Y110.605 E0.01622
G1 X88.417 Y81.715 E1.47023
G1 X89.054 Y81.715 E0.02294
G1 X117.627 Y110.287 E1.45400
G1 X117.945 Y109.968 E0.01622
G1 X89.692 Y81.715 E1.43778
G1 X90.329 Y81.715 E0.02294
G1 X118.264 Y109.649 E1.42156
G1 X118.583 Y109.330 E0.01622
G1 X90.967 Y81.715 E1.40534
G1 X91.605 Y81.715 E0.02294
G1 X118.902 Y109.012 E1.38912
G1 X119.220 Y108.693 E0.01622
G1 X92.242 Y81.715 E1.37290
G1 X92.880 Y81.715 E0.02294
G1 X119.539 Y108.374 E1.35668
