; generated by Slic3r 1.2.9 on 2016-07-30 at 18:51:45

; external perimeters extrusion width = 0.50mm
; perimeters extrusion width = 0.50mm
; infill extrusion width = 0.50mm
; solid infill extrusion width = 0.50mm
; top infill extrusion width = 0.50mm

M107 ; disable fan
M190 S57 ; set bed temperature
M104 S185 ; set temperature

M109 S185 ; wait for temperature to be reached
G21 ; set units to millimeters
G90 ; use absolute coordinates
M83 ; use relative distances for extrusion
G1 E-4.00000 F1800.00000 ; retract
G1 Z0.240 F6000.000 ; move to next layer (0)
G1 X64.272 Y61.044 F6000.000 ; move to first skirt point
G1 E4.00000 F1800.00000 ; unretract
G1 X64.610 Y60.706 E0.01711 F1050.000 ; skirt
G1 X65.192 Y60.181 E0.02806 ; skirt
G1 X66.101 Y59.477 E0.04115 ; skirt
G1 X66.754 Y59.045 E0.02805 ; skirt
G1 X67.114 Y58.830 E0.01502 ; skirt
G1 X68.135 Y58.303 E0.04111 ; skirt
G1 X68.856 Y57.996 E0.02807 ; skirt
G1 X69.250 Y57.851 E0.01502 ; skirt
G1 X70.348 Y57.517 E0.04111 ; skirt
G1 X70.757 Y57.420 E0.01502 ; skirt
G1 X71.526 Y57.275 E0.02805 ; skirt
G1 X72.668 Y57.146 E0.04114 ; skirt
G1 X73.226 Y57.124 E0.01997 ; skirt
G1 X126.534 Y57.092 E1.90849 ; skirt
G1 X127.106 Y57.109 E0.02048 F1050.000 ; skirt
G1 X127.872 Y57.172 E0.02750 ; skirt
G1 X128.971 Y57.345 E0.03985 ; skirt
G1 X129.627 Y57.493 E0.02407 ; skirt
G1 X130.176 Y57.646 E0.02039 ; skirt
G1 X130.916 Y57.895 E0.02798 ; skirt
G1 X131.521 Y58.138 E0.02334 ; skirt
G1 X132.544 Y58.630 E0.04063 ; skirt
G1 X133.027 Y58.903 E0.01987 ; skirt
G1 X133.687 Y59.323 E0.02801 ; skirt
G1 X134.497 Y59.922 E0.03604 ; skirt
G1 X134.924 Y60.279 E0.01994 ; skirt
G1 X135.497 Y60.811 E0.02799 ; skirt
G1 X136.185 Y61.546 E0.03602 ; skirt
G1 X136.539 Y61.972 E0.01984 ; skirt
G1 X137.003 Y62.595 E0.02783 ; skirt
G1 X137.428 Y63.242 E0.02771 ; skirt
G1 X137.749 Y63.799 E0.02300 ; skirt
G1 X138.259 Y64.837 E0.04140 ; skirt
G1 X138.470 Y65.349 E0.01982 ; skirt
G1 X138.729 Y66.088 E0.02804 ; skirt
G1 X138.940 Y66.828 E0.02757 ; skirt
G1 X139.079 Y67.446 E0.02267 ; skirt
G1 X139.255 Y68.580 E0.04106 ; skirt
G1 X139.306 Y69.150 E0.02051 ; skirt
G1 X139.333 Y69.923 E0.02767 ; skirt
G1 X139.361 Y129.986 E2.15032 ; skirt
G1 X139.320 Y130.988 E0.03590 ; skirt
G1 X139.272 Y131.495 E0.01822 ; skirt
G1 X139.162 Y132.240 E0.02697 ; skirt
G1 X138.956 Y133.193 E0.03493 ; skirt
G1 X138.802 Y133.741 E0.02037 ; skirt
G1 X138.597 Y134.356 E0.02319 ; skirt
G1 X138.268 Y135.182 E0.03185 ; skirt
G1 X137.818 Y136.103 E0.03670 ; skirt
G1 X137.382 Y136.850 E0.03095 ; skirt
G1 X136.997 Y137.429 E0.02489 ; skirt
G1 X136.709 Y137.821 E0.01743 ; skirt
G1 X136.022 Y138.646 E0.03845 ; skirt
G1 X135.699 Y138.990 E0.01687 ; skirt
G1 X135.163 Y139.509 E0.02673 ; skirt
G1 X134.290 Y140.239 E0.04073 ; skirt
G1 X133.616 Y140.719 E0.02963 ; skirt
G1 X132.646 Y141.306 E0.04059 ; skirt
G1 X131.590 Y141.822 E0.04205 ; skirt
G1 X130.504 Y142.235 E0.04160 ; skirt
G1 X129.366 Y142.554 E0.04233 ; skirt
G1 X128.582 Y142.709 E0.02861 ; skirt
G1 X127.454 Y142.846 E0.04068 ; skirt
G1 X126.431 Y142.886 E0.03665 ; skirt
G1 X73.569 Y142.910 E1.89249 ; skirt
G1 X72.589 Y142.871 E0.03513 ; skirt
G1 X71.450 Y142.734 E0.04108 ; skirt
G1 X70.686 Y142.583 E0.02787 ; skirt
G1 X69.932 Y142.386 E0.02789 ; skirt
G1 X69.191 Y142.144 E0.02790 ; skirt
G1 X68.795 Y141.994 E0.01517 ; skirt
G1 X68.091 Y141.689 E0.02748 ; skirt
G1 X67.397 Y141.339 E0.02781 ; skirt
G1 X66.723 Y140.945 E0.02796 ; skirt
G1 X66.076 Y140.512 E0.02785 ; skirt
G1 X65.174 Y139.806 E0.04103 ; skirt
G1 X64.598 Y139.281 E0.02790 ; skirt
G1 X64.060 Y138.729 E0.02762 ; skirt
G1 X63.778 Y138.411 E0.01519 ; skirt
G1 X63.289 Y137.806 E0.02787 ; skirt
G1 X62.643 Y136.871 E0.04069 ; skirt
G1 X62.246 Y136.193 E0.02812 ; skirt
G1 X61.894 Y135.500 E0.02784 ; skirt
G1 X61.723 Y135.120 E0.01490 ; skirt
G1 X61.436 Y134.396 E0.02790 ; skirt
G1 X61.098 Y133.313 E0.04060 ; skirt
G1 X60.919 Y132.546 E0.02818 ; skirt
G1 X60.790 Y131.779 E0.02787 ; skirt
G1 X60.707 Y131.012 E0.02760 ; skirt
G1 X60.681 Y130.589 E0.01517 ; skirt
G1 X60.667 Y130.019 E0.02043 ; skirt
G1 X60.639 Y70.015 E2.14817 ; skirt
G1 X60.653 Y69.444 E0.02046 ; skirt
G1 X60.712 Y68.662 E0.02806 ; skirt
G1 X60.818 Y67.886 E0.02807 ; skirt
G1 X60.893 Y67.473 E0.01502 ; skirt
G1 X61.170 Y66.358 E0.04113 ; skirt
G1 X61.414 Y65.614 E0.02805 ; skirt
G1 X61.564 Y65.222 E0.01503 ; skirt
G1 X62.038 Y64.176 E0.04111 ; skirt
G1 X62.233 Y63.805 E0.01502 ; skirt
G1 X62.632 Y63.130 E0.02806 ; skirt
G1 X63.287 Y62.187 E0.04112 ; skirt
G1 X63.782 Y61.578 E0.02808 ; skirt
G1 X64.220 Y61.098 E0.02327 ; skirt
G1 X64.597 Y61.353 F6000.000 ; move to first skirt point
G1 X64.916 Y61.034 E0.01614 F1050.000 ; skirt
G1 X65.477 Y60.527 E0.02708 ; skirt
G1 X66.364 Y59.840 E0.04017 ; skirt
G1 X67.332 Y59.222 E0.04110 ; skirt
G1 X68.328 Y58.708 E0.04013 ; skirt
G1 X69.393 Y58.276 E0.04113 ; skirt
G1 X70.465 Y57.950 E0.04013 ; skirt
G1 X71.590 Y57.719 E0.04111 ; skirt
G1 X72.705 Y57.593 E0.04016 ; skirt
G1 X73.226 Y57.572 E0.01867 ; skirt
G1 X126.528 Y57.541 E1.90825 ; skirt
G1 X127.086 Y57.558 E0.01999 F1050.000 ; skirt
G1 X127.824 Y57.618 E0.02653 ; skirt
G1 X128.878 Y57.783 E0.03816 ; skirt
G1 X129.513 Y57.927 E0.02331 ; skirt
G1 X130.048 Y58.076 E0.01991 ; skirt
G1 X130.763 Y58.317 E0.02700 ; skirt
G1 X131.350 Y58.553 E0.02264 ; skirt
G1 X132.329 Y59.024 E0.03890 ; skirt
G1 X132.800 Y59.290 E0.01939 ; skirt
G1 X133.437 Y59.696 E0.02703 ; skirt
G1 X134.214 Y60.270 E0.03458 ; skirt
G1 X134.631 Y60.618 E0.01945 ; skirt
G1 X135.184 Y61.132 E0.02702 ; skirt
G1 X135.843 Y61.837 E0.03456 ; skirt
G1 X136.189 Y62.252 E0.01935 ; skirt
G1 X136.637 Y62.854 E0.02686 ; skirt
G1 X137.051 Y63.486 E0.02704 ; skirt
G1 X137.359 Y64.019 E0.02204 ; skirt
G1 X137.846 Y65.013 E0.03961 ; skirt
G1 X138.052 Y65.512 E0.01933 ; skirt
G1 X138.302 Y66.225 E0.02706 ; skirt
G1 X138.506 Y66.940 E0.02660 ; skirt
G1 X138.640 Y67.541 E0.02204 ; skirt
G1 X138.809 Y68.624 E0.03925 ; skirt
G1 X138.859 Y69.181 E0.02002 ; skirt
G1 X138.885 Y69.926 E0.02670 ; skirt
G1 X138.912 Y129.986 E2.15019 ; skirt
G1 X138.879 Y130.885 E0.03221 ; skirt
G1 X138.827 Y131.444 E0.02008 ; skirt
G1 X138.742 Y132.031 E0.02123 ; skirt
G1 X138.570 Y132.885 E0.03122 ; skirt
G1 X138.293 Y133.863 E0.03637 ; skirt
G1 X138.134 Y134.321 E0.01737 ; skirt
G1 X137.858 Y135.001 E0.02627 ; skirt
G1 X137.429 Y135.881 E0.03503 ; skirt
G1 X137.006 Y136.606 E0.03007 ; skirt
G1 X136.634 Y137.166 E0.02406 ; skirt
G1 X136.350 Y137.552 E0.01714 ; skirt
G1 X135.693 Y138.342 E0.03679 ; skirt
G1 X135.375 Y138.680 E0.01662 ; skirt
G1 X134.856 Y139.182 E0.02584 ; skirt
G1 X134.022 Y139.879 E0.03893 ; skirt
G1 X133.372 Y140.343 E0.02857 ; skirt
G1 X132.425 Y140.915 E0.03962 ; skirt
G1 X131.417 Y141.408 E0.04016 ; skirt
G1 X130.358 Y141.811 E0.04058 ; skirt
G1 X129.270 Y142.115 E0.04042 ; skirt
G1 X128.514 Y142.266 E0.02761 ; skirt
G1 X127.413 Y142.400 E0.03971 ; skirt
G1 X126.430 Y142.437 E0.03524 ; skirt
G1 X73.569 Y142.461 E1.89245 ; skirt
G1 X72.629 Y142.425 E0.03368 ; skirt
G1 X71.517 Y142.290 E0.04010 ; skirt
G1 X70.780 Y142.145 E0.02690 ; skirt
G1 X70.052 Y141.954 E0.02692 ; skirt
G1 X68.967 Y141.580 E0.04112 ; skirt
G1 X68.287 Y141.286 E0.02652 ; skirt
G1 X67.617 Y140.948 E0.02685 ; skirt
G1 X66.966 Y140.568 E0.02699 ; skirt
G1 X66.342 Y140.151 E0.02688 ; skirt
G1 X65.461 Y139.461 E0.04005 ; skirt
G1 X64.905 Y138.955 E0.02693 ; skirt
G1 X64.386 Y138.421 E0.02665 ; skirt
G1 X63.650 Y137.540 E0.04111 ; skirt
G1 X63.021 Y136.629 E0.03964 ; skirt
G1 X62.636 Y135.973 E0.02722 ; skirt
G1 X62.137 Y134.948 E0.04079 ; skirt
G1 X61.860 Y134.249 E0.02693 ; skirt
G1 X61.530 Y133.193 E0.03963 ; skirt
G1 X61.358 Y132.452 E0.02721 ; skirt
G1 X61.233 Y131.711 E0.02690 ; skirt
G1 X61.129 Y130.575 E0.04083 ; skirt
G1 X61.115 Y130.018 E0.01995 ; skirt
G1 X61.088 Y70.015 E2.14816 ; skirt
G1 X61.102 Y69.457 E0.01998 ; skirt
G1 X61.158 Y68.703 E0.02708 ; skirt
G1 X61.332 Y67.568 E0.04112 ; skirt
G1 X61.602 Y66.479 E0.04016 ; skirt
G1 X61.978 Y65.394 E0.04111 ; skirt
G1 X62.440 Y64.373 E0.04013 ; skirt
G1 X63.007 Y63.374 E0.04112 ; skirt
G1 X63.647 Y62.454 E0.04014 ; skirt
G1 X64.125 Y61.867 E0.02710 ; skirt
G1 X64.545 Y61.407 E0.02230 ; skirt
G1 E-4.00000 F1800.00000 ; retract
G1 X77.199 Y129.669 F6000.000 ; move to first perimeter point
G1 E4.00000 F1800.00000 ; unretract
G1 X77.200 Y130.354 E0.02452 F1350.000 ; perimeter
G1 X77.071 Y131.031 E0.02467 ; perimeter
G1 X76.832 Y131.637 E0.02332 ; perimeter
G1 X76.637 Y131.981 E0.01417 ; perimeter
G1 X76.236 Y132.502 E0.02352 ; perimeter
G1 X75.725 Y132.956 E0.02449 ; perimeter
G1 X75.139 Y133.308 E0.02448 ; perimeter
G1 X74.497 Y133.544 E0.02449 ; perimeter
G1 X73.822 Y133.656 E0.02449 ; perimeter
G1 X73.138 Y133.640 E0.02449 ; perimeter
G1 X72.469 Y133.497 E0.02449 ; perimeter
G1 X71.838 Y133.232 E0.02452 ; perimeter
G1 X71.265 Y132.850 E0.02465 ; perimeter
G1 X70.803 Y132.399 E0.02311 ; perimeter
G1 X70.561 Y132.087 E0.01415 ; perimeter
G1 X70.233 Y131.511 E0.02372 ; perimeter
G1 X70.012 Y130.863 E0.02452 ; perimeter
G1 X69.916 Y130.186 E0.02449 ; perimeter
G1 X69.947 Y129.502 E0.02449 ; perimeter
G1 X70.106 Y128.837 E0.02449 ; perimeter
G1 X70.386 Y128.213 E0.02449 ; perimeter
G1 X70.777 Y127.652 E0.02449 ; perimeter
G1 X71.266 Y127.174 E0.02449 ; perimeter
G1 X71.836 Y126.795 E0.02449 ; perimeter
G1 X72.467 Y126.529 E0.02452 ; perimeter
G1 X73.141 Y126.386 E0.02467 ; perimeter
G1 X73.792 Y126.370 E0.02332 F1350.000 ; perimeter
G1 X74.185 Y126.416 E0.01417 ; perimeter
G1 X74.820 Y126.584 E0.02352 ; perimeter
G1 X75.437 Y126.878 E0.02449 ; perimeter
G1 X75.989 Y127.282 E0.02449 ; perimeter
G1 X76.456 Y127.783 E0.02449 ; perimeter
G1 X76.821 Y128.361 E0.02449 ; perimeter
G1 X77.072 Y128.997 E0.02449 ; perimeter
G1 X77.185 Y129.595 E0.02180 ; perimeter
G1 X76.751 Y129.712 F6000.000 ; move to first perimeter point
G1 X76.751 Y130.312 E0.02148 F1350.000 ; perimeter
G1 X76.638 Y130.905 E0.02164 ; perimeter
G1 X76.426 Y131.443 E0.02069 ; perimeter
G1 X76.262 Y131.732 E0.01191 ; perimeter
G1 X75.907 Y132.195 E0.02088 ; perimeter
G1 X75.459 Y132.593 E0.02147 ; perimeter
G1 X74.944 Y132.901 E0.02146 ; perimeter
G1 X74.382 Y133.108 E0.02147 ; perimeter
G1 X73.790 Y133.206 E0.02147 ; perimeter
G1 X73.191 Y133.193 E0.02147 ; perimeter
G1 X72.604 Y133.067 E0.02147 ; perimeter
G1 X72.051 Y132.835 E0.02148 ; perimeter
G1 X71.548 Y132.500 E0.02163 ; perimeter
G1 X71.138 Y132.100 E0.02050 ; perimeter
G1 X70.935 Y131.837 E0.01190 ; perimeter
G1 X70.644 Y131.326 E0.02107 ; perimeter
G1 X70.450 Y130.758 E0.02148 ; perimeter
G1 X70.366 Y130.164 E0.02147 ; perimeter
G1 X70.393 Y129.565 E0.02147 ; perimeter
G1 X70.532 Y128.982 E0.02147 ; perimeter
G1 X70.778 Y128.435 E0.02147 ; perimeter
G1 X71.121 Y127.943 E0.02147 ; perimeter
G1 X71.550 Y127.524 E0.02147 ; perimeter
G1 X72.049 Y127.192 E0.02147 ; perimeter
G1 X72.602 Y126.959 E0.02148 ; perimeter
G1 X73.193 Y126.833 E0.02164 ; perimeter
G1 X73.771 Y126.819 E0.02069 F1350.000 ; perimeter
G1 X74.101 Y126.858 E0.01191 ; perimeter
G1 X74.665 Y127.007 E0.02088 ; perimeter
G1 X75.206 Y127.265 E0.02147 ; perimeter
G1 X75.690 Y127.619 E0.02147 ; perimeter
G1 X76.099 Y128.058 E0.02147 ; perimeter
G1 X76.419 Y128.565 E0.02147 ; perimeter
G1 X76.639 Y129.122 E0.02147 ; perimeter
G1 X76.737 Y129.638 E0.01878 ; perimeter
G1 X76.302 Y129.754 F6000.000 ; move to first perimeter point
G1 X76.303 Y130.269 E0.01845 F1350.000 ; perimeter
G1 X76.205 Y130.780 E0.01862 ; perimeter
G1 X76.020 Y131.249 E0.01806 ; perimeter
G1 X75.888 Y131.484 E0.00965 ; perimeter
G1 X75.577 Y131.888 E0.01823 ; perimeter
G1 X75.192 Y132.230 E0.01845 ; perimeter
G1 X74.750 Y132.495 E0.01845 ; perimeter
G1 X74.266 Y132.673 E0.01845 ; perimeter
G1 X73.758 Y132.757 E0.01845 ; perimeter
G1 X73.243 Y132.745 E0.01845 ; perimeter
G1 X72.739 Y132.637 E0.01845 ; perimeter
G1 X72.264 Y132.438 E0.01845 ; perimeter
G1 X71.831 Y132.150 E0.01861 ; perimeter
G1 X71.474 Y131.801 E0.01788 ; perimeter
G1 X71.309 Y131.588 E0.00964 ; perimeter
G1 X71.054 Y131.141 E0.01841 ; perimeter
G1 X70.888 Y130.653 E0.01845 ; perimeter
G1 X70.816 Y130.143 E0.01845 ; perimeter
G1 X70.839 Y129.628 E0.01845 ; perimeter
G1 X70.959 Y129.127 E0.01845 ; perimeter
G1 X71.170 Y128.657 E0.01845 ; perimeter
G1 X71.465 Y128.234 E0.01845 ; perimeter
G1 X71.833 Y127.874 E0.01845 ; perimeter
G1 X72.262 Y127.589 E0.01845 ; perimeter
G1 X72.737 Y127.389 E0.01845 ; perimeter
G1 X73.246 Y127.280 E0.01862 ; perimeter
G1 X73.750 Y127.269 E0.01806 F1350.000 ; perimeter
G1 X74.018 Y127.300 E0.00965 ; perimeter
G1 X74.510 Y127.430 E0.01824 ; perimeter
G1 X74.975 Y127.651 E0.01845 ; perimeter
G1 X75.391 Y127.956 E0.01845 ; perimeter
G1 X75.742 Y128.333 E0.01845 ; perimeter
G1 X76.017 Y128.768 E0.01845 ; perimeter
G1 X76.206 Y129.248 E0.01845 ; perimeter
G1 X76.288 Y129.680 E0.01576 ; perimeter
G1 X76.750 Y129.976 F6000.000 ; move inwards before travel
G1 X120.814 Y129.965 F6000.000 ; move to first perimeter point
G1 X120.871 Y129.347 E0.02222 F1350.000 ; perimeter
G1 X120.960 Y128.967 E0.01397 ; perimeter
G1 X121.194 Y128.364 E0.02317 ; perimeter
G1 X121.531 Y127.818 E0.02297 ; perimeter
G1 X121.783 Y127.513 E0.01413 ; perimeter
G1 X122.242 Y127.094 E0.02225 ; perimeter
G1 X122.564 Y126.874 E0.01397 ; perimeter
G1 X123.119 Y126.597 E0.02222 ; perimeter
G1 X123.489 Y126.473 E0.01397 ; perimeter
G1 X124.102 Y126.358 E0.02235 ; perimeter
G1 X124.475 Y126.343 E0.01337 ; perimeter
G1 X126.514 Y126.342 E0.07300 F1350.000 ; perimeter
G1 X127.097 Y126.395 E0.02093 ; perimeter
G1 X127.486 Y126.485 E0.01430 ; perimeter
G1 X128.091 Y126.720 E0.02323 ; perimeter
G1 X128.634 Y127.055 E0.02285 ; perimeter
G1 X128.942 Y127.310 E0.01430 ; perimeter
G1 X129.379 Y127.790 E0.02325 ; perimeter
G1 X129.734 Y128.363 E0.02415 ; perimeter
G1 X129.967 Y128.968 E0.02320 ; perimeter
G1 X130.056 Y129.347 E0.01395 ; perimeter
G1 X130.115 Y129.982 E0.02283 ; perimeter
G1 X130.055 Y130.653 E0.02411 ; perimeter
G1 X129.871 Y131.302 E0.02415 ; perimeter
G1 X129.571 Y131.907 E0.02415 ; perimeter
G1 X129.166 Y132.445 E0.02415 ; perimeter
G1 X128.686 Y132.884 E0.02325 ; perimeter
G1 X128.356 Y133.109 E0.01430 ; perimeter
G1 X127.807 Y133.382 E0.02195 ; perimeter
G1 X127.429 Y133.508 E0.01427 ; perimeter
G1 X126.802 Y133.625 E0.02284 ; perimeter
G1 X124.128 Y133.626 E0.09575 ; perimeter
G1 X123.461 Y133.501 E0.02429 ; perimeter
G1 X122.862 Y133.269 E0.02298 ; perimeter
G1 X122.521 Y133.079 E0.01396 ; perimeter
G1 X122.005 Y132.690 E0.02317 ; perimeter
G1 X121.550 Y132.192 E0.02412 ; perimeter
G1 X121.209 Y131.642 E0.02317 ; perimeter
G1 X121.062 Y131.309 E0.01302 ; perimeter
G1 X120.947 Y130.964 E0.01302 ; perimeter
G1 X120.832 Y130.355 E0.02221 ; perimeter
G1 X120.818 Y130.040 E0.01128 ; perimeter
G1 X121.264 Y129.975 F6000.000 ; move to first perimeter point
G1 X121.315 Y129.419 E0.01999 F1350.000 ; perimeter
G1 X121.390 Y129.100 E0.01174 ; perimeter
G1 X121.597 Y128.564 E0.02057 ; perimeter
G1 X121.896 Y128.080 E0.02039 ; perimeter
G1 X122.108 Y127.823 E0.01190 ; perimeter
G1 X122.521 Y127.447 E0.02001 ; perimeter
G1 X122.791 Y127.261 E0.01174 ; perimeter
G1 X123.291 Y127.012 E0.01999 ; perimeter
G1 X123.602 Y126.908 E0.01174 ; perimeter
G1 X124.153 Y126.805 E0.02007 ; perimeter
G1 X124.485 Y126.791 E0.01188 ; perimeter
G1 X126.494 Y126.790 E0.07194 F1350.000 ; perimeter
G1 X127.025 Y126.839 E0.01909 ; perimeter
G1 X127.353 Y126.915 E0.01206 ; perimeter
G1 X127.890 Y127.123 E0.02061 ; perimeter
G1 X128.372 Y127.420 E0.02026 ; perimeter
G1 X128.632 Y127.635 E0.01206 ; perimeter
G1 X129.019 Y128.061 E0.02062 ; perimeter
G1 X129.330 Y128.564 E0.02117 ; perimeter
G1 X129.538 Y129.100 E0.02059 ; perimeter
G1 X129.612 Y129.419 E0.01173 ; perimeter
G1 X129.665 Y129.983 E0.02025 ; perimeter
G1 X129.612 Y130.571 E0.02115 ; perimeter
G1 X129.451 Y131.140 E0.02117 ; perimeter
G1 X129.188 Y131.670 E0.02118 ; perimeter
G1 X128.832 Y132.142 E0.02117 ; perimeter
G1 X128.407 Y132.531 E0.02062 ; perimeter
G1 X128.129 Y132.721 E0.01206 ; perimeter
G1 X127.636 Y132.966 E0.01972 ; perimeter
