; generated by Slic3r 1.0.1 on 2014-07-28 at 20:13:15

; layer_height = 0.24
; perimeters = 2
; top_solid_layers = 3
; bottom_solid_layers = 3
; fill_density = 0.25
; perimeter_speed = 30
; infill_speed = 30
; travel_speed = 100
; nozzle_diameter = 0.5
; filament_diameter = 1.75
; extrusion_multiplier = 1
; perimeters extrusion width = 0.50mm
; infill extrusion width = 0.50mm
; solid infill extrusion width = 0.50mm
; top infill extrusion width = 0.50mm
; first layer extrusion width = 0.50mm

G21 ; set units to millimeters
M107 ; disable fan
M190 S57 ; wait for bed temperature to be reached
M104 S200 ; set temperature

M109 S200 ; wait for temperature to be reached
G90 ; use absolute coordinates
M83 ; use relative distances for extrusion
G1 F1800.000 E-2.40000 ; retract
G1 Z0.240 F6000.000 ; move to next layer (0)
G1 X72.820 Y89.670 F6000.000 ; move to first skirt point
G1 E2.40000 F1800.000 ; compensate retraction
G1 X73.750 Y88.950 E0.05868 F900.000 ; skirt
G1 X74.840 Y88.500 E0.05883 ; skirt
G1 X76.000 Y88.350 E0.05835 ; skirt
G1 X124.000 Y88.350 E2.39473 ; skirt
G1 X125.160 Y88.500 E0.05835 ; skirt
G1 X126.250 Y88.950 E0.05883 ; skirt
G1 X127.180 Y89.670 E0.05868 ; skirt
G1 X127.900 Y90.600 E0.05868 ; skirt
G1 X128.350 Y91.690 E0.05883 ; skirt
G1 X128.500 Y92.850 E0.05835 ; skirt
G1 X128.500 Y96.350 E0.17462 ; skirt
G1 X128.470 Y96.890 E0.02698 ; skirt
G1 X128.370 Y97.420 E0.02691 ; skirt
G1 X126.080 Y106.760 E0.47978 ; skirt
G1 X125.680 Y107.810 E0.05606 ; skirt
G1 X125.040 Y108.720 E0.05550 ; skirt
G1 X124.190 Y109.450 E0.05590 ; skirt
G1 X123.180 Y109.940 E0.05601 ; skirt
G1 X122.090 Y110.170 E0.05558 ; skirt
G1 X104.390 Y111.650 E0.88614 ; skirt
G1 X101.230 Y111.650 E0.15765 ; skirt
G1 X81.680 Y110.970 E0.97594 ; skirt
G1 X80.560 Y110.780 E0.05668 ; skirt
G1 X79.520 Y110.330 E0.05653 ; skirt
G1 X78.630 Y109.620 E0.05680 ; skirt
G1 X77.940 Y108.720 E0.05658 ; skirt
G1 X72.100 Y98.600 E0.58293 ; skirt
G1 X71.650 Y97.510 E0.05883 ; skirt
G1 X71.500 Y96.350 E0.05835 ; skirt
G1 X71.500 Y92.850 E0.17462 ; skirt
G1 X71.650 Y91.690 E0.05835 ; skirt
G1 X72.100 Y90.600 E0.05883 ; skirt
G1 X72.774 Y89.729 E0.05494 ; skirt
G1 F1800.000 E-2.40000 ; retract
G1 X76.250 Y93.100 F6000.000 ; move to first perimeter point
G1 E2.40000 F1800.000 ; compensate retraction
G1 X123.750 Y93.100 E2.36978 F900.000 ; perimeter
G1 X123.750 Y96.320 E0.16064 ; perimeter
G1 X121.519 Y105.440 E0.46842 ; perimeter
G1 X118.718 Y105.440 E0.13973 ; perimeter
G1 X120.993 Y96.100 E0.47960 ; perimeter
G1 X104.150 Y96.100 E0.84030 ; perimeter
G1 X104.150 Y106.900 E0.53881 ; perimeter
G1 X101.650 Y106.900 E0.12473 ; perimeter
G1 X101.650 Y96.100 E0.53881 ; perimeter
G1 X79.297 Y96.100 E1.11521 ; perimeter
G1 X85.139 Y106.220 E0.58300 ; perimeter
G1 X81.987 Y106.220 E0.15727 ; perimeter
G1 X76.250 Y96.283 E0.57245 ; perimeter
G1 X76.250 Y93.175 E0.15506 ; perimeter
G1 X76.683 Y93.350 F6000.000 ; move inwards before travel
G1 X76.750 Y93.600 F6000.000 ; move to first perimeter point
G1 X123.250 Y93.600 E2.31989 F900.000 ; perimeter
G1 X123.250 Y96.260 E0.13269 ; perimeter
G1 X121.127 Y104.940 E0.44584 ; perimeter
G1 X119.355 Y104.940 E0.08841 ; perimeter
G1 X121.629 Y95.600 E0.47960 ; perimeter
G1 X103.650 Y95.600 E0.89699 ; perimeter
G1 X103.650 Y106.400 E0.53881 ; perimeter
G1 X102.150 Y106.400 E0.07484 ; perimeter
G1 X102.150 Y95.600 E0.53881 ; perimeter
G1 X78.431 Y95.600 E1.18336 ; perimeter
G1 X84.273 Y105.720 E0.58300 ; perimeter
G1 X82.276 Y105.720 E0.09966 ; perimeter
G1 X76.750 Y96.149 E0.55137 ; perimeter
G1 X76.750 Y93.675 E0.12343 ; perimeter
G1 F1800.000 E-2.40000 ; retract
G1 X77.102 Y95.718 F6000.000 ; move to first fill point
G1 E2.40000 F1800.000 ; compensate retraction
G1 X79.443 Y98.058 E0.16568 F900.000 ; fill
G1 X78.581 Y98.615 F6000.000 ; move to first fill point
G1 X81.381 Y101.415 E0.19827 F900.000 ; fill
G1 X80.519 Y101.973 F6000.000 ; move to first fill point
G1 X83.320 Y104.773 E0.19827 F900.000 ; fill
G1 X82.495 Y105.368 F6000.000 ; move to first fill point
G1 X82.458 Y105.330 E0.00264 F900.000 ; fill
G1 X83.205 Y105.368 E0.03744 ; fill
G1 X81.488 Y103.651 E0.12150 ; fill
G1 X82.350 Y103.094 F6000.000 ; move to first fill point
G1 X79.550 Y100.294 E0.19827 F900.000 ; fill
G1 X80.412 Y99.737 F6000.000 ; move to first fill point
G1 X77.611 Y96.936 E0.19827 F900.000 ; fill
G1 X78.473 Y96.379 F6000.000 ; move to first fill point
G1 X77.102 Y95.008 E0.09706 F900.000 ; fill
G1 X77.102 Y94.298 E0.03552 ; fill
G1 X78.052 Y95.248 E0.06719 ; fill
G1 X78.761 Y95.248 E0.03552 ; fill
G1 X77.466 Y93.952 E0.09169 ; fill
G1 X78.176 Y93.952 E0.03552 ; fill
G1 X79.471 Y95.248 E0.09169 ; fill
G1 X80.180 Y95.248 E0.03552 ; fill
G1 X78.885 Y93.952 E0.09169 ; fill
G1 X79.595 Y93.952 E0.03552 ; fill
G1 X80.890 Y95.248 E0.09169 ; fill
G1 X81.599 Y95.248 E0.03552 ; fill
G1 X80.304 Y93.952 E0.09169 ; fill
G1 X81.014 Y93.952 E0.03552 ; fill
G1 X82.309 Y95.248 E0.09169 ; fill
G1 X83.018 Y95.248 E0.03552 ; fill
G1 X81.723 Y93.952 E0.09169 ; fill
G1 X82.433 Y93.952 E0.03552 ; fill
G1 X83.728 Y95.248 E0.09169 ; fill
G1 X84.437 Y95.248 E0.03552 ; fill
G1 X83.142 Y93.952 E0.09169 ; fill
G1 X83.852 Y93.952 E0.03552 ; fill
G1 X85.147 Y95.248 E0.09169 ; fill
G1 X85.857 Y95.248 E0.03552 ; fill
G1 X84.562 Y93.952 E0.09169 ; fill
G1 X85.271 Y93.952 E0.03552 ; fill
G1 X86.566 Y95.248 E0.09169 ; fill
G1 X87.276 Y95.248 E0.03552 ; fill
G1 X85.981 Y93.952 E0.09169 ; fill
G1 X86.690 Y93.952 E0.03552 ; fill
G1 X87.985 Y95.248 E0.09169 ; fill
G1 X88.695 Y95.248 E0.03552 ; fill
G1 X87.400 Y93.952 E0.09169 ; fill
G1 X88.109 Y93.952 E0.03552 ; fill
G1 X89.404 Y95.248 E0.09169 ; fill
G1 X90.114 Y95.248 E0.03552 ; fill
G1 X88.819 Y93.952 E0.09169 ; fill
G1 X89.528 Y93.952 E0.03552 ; fill
G1 X90.823 Y95.248 E0.09169 ; fill
G1 X91.533 Y95.248 E0.03552 ; fill
G1 X90.238 Y93.952 E0.09169 ; fill
G1 X90.948 Y93.952 E0.03552 ; fill
G1 X92.243 Y95.248 E0.09169 ; fill
G1 X92.952 Y95.248 E0.03552 ; fill
G1 X91.657 Y93.952 E0.09169 ; fill
G1 X92.367 Y93.952 E0.03552 ; fill
G1 X93.662 Y95.248 E0.09169 ; fill
G1 X94.371 Y95.248 E0.03552 ; fill
G1 X93.076 Y93.952 E0.09169 ; fill
G1 X93.786 Y93.952 E0.03552 ; fill
G1 X95.081 Y95.248 E0.09169 ; fill
G1 X95.790 Y95.248 E0.03552 ; fill
G1 X94.495 Y93.952 E0.09169 ; fill
G1 X95.205 Y93.952 E0.03552 ; fill
G1 X96.500 Y95.248 E0.09169 ; fill
G1 X97.209 Y95.248 E0.03552 ; fill
G1 X95.914 Y93.952 E0.09169 ; fill
G1 X96.624 Y93.952 E0.03552 ; fill
G1 X97.919 Y95.248 E0.09169 ; fill
G1 X98.629 Y95.248 E0.03552 ; fill
G1 X97.334 Y93.952 E0.09169 ; fill
G1 X98.043 Y93.952 E0.03552 ; fill
G1 X99.338 Y95.248 E0.09169 ; fill
G1 X100.048 Y95.248 E0.03552 ; fill
G1 X98.753 Y93.952 E0.09169 ; fill
G1 X99.462 Y93.952 E0.03552 ; fill
G1 X100.757 Y95.248 E0.09169 ; fill
G1 X101.467 Y95.248 E0.03552 ; fill
G1 X100.172 Y93.952 E0.09169 ; fill
G1 X100.881 Y93.952 E0.03552 ; fill
G1 X103.298 Y96.369 E0.17107 ; fill
G1 X103.298 Y95.659 E0.03552 ; fill
G1 X101.591 Y93.952 E0.12083 ; fill
G1 X102.300 Y93.952 E0.03552 ; fill
G1 X103.595 Y95.248 E0.09169 ; fill
G1 X104.305 Y95.248 E0.03552 ; fill
G1 X103.010 Y93.952 E0.09169 ; fill
G1 X103.720 Y93.952 E0.03552 ; fill
G1 X105.015 Y95.248 E0.09169 ; fill
G1 X105.724 Y95.248 E0.03552 ; fill
G1 X104.429 Y93.952 E0.09169 ; fill
G1 X105.139 Y93.952 E0.03552 ; fill
G1 X106.434 Y95.248 E0.09169 ; fill
G1 X107.143 Y95.248 E0.03552 ; fill
G1 X105.848 Y93.952 E0.09169 ; fill
G1 X106.558 Y93.952 E0.03552 ; fill
G1 X107.853 Y95.248 E0.09169 ; fill
G1 X108.562 Y95.248 E0.03552 ; fill
G1 X107.267 Y93.952 E0.09169 ; fill
G1 X107.977 Y93.952 E0.03552 ; fill
G1 X109.272 Y95.248 E0.09169 ; fill
G1 X109.981 Y95.248 E0.03552 ; fill
G1 X108.686 Y93.952 E0.09169 ; fill
G1 X109.396 Y93.952 E0.03552 ; fill
G1 X110.691 Y95.248 E0.09169 ; fill
G1 X111.401 Y95.248 E0.03552 ; fill
G1 X110.106 Y93.952 E0.09169 ; fill
G1 X110.815 Y93.952 E0.03552 ; fill
G1 X112.110 Y95.248 E0.09169 ; fill
G1 X112.820 Y95.248 E0.03552 ; fill
G1 X111.525 Y93.952 E0.09169 ; fill
G1 X112.234 Y93.952 E0.03552 ; fill
G1 X113.529 Y95.248 E0.09169 ; fill
G1 X114.239 Y95.248 E0.03552 ; fill
G1 X112.944 Y93.952 E0.09169 ; fill
G1 X113.653 Y93.952 E0.03552 ; fill
G1 X114.948 Y95.248 E0.09169 ; fill
G1 X115.658 Y95.248 E0.03552 ; fill
G1 X114.363 Y93.952 E0.09169 ; fill
G1 X115.072 Y93.952 E0.03552 ; fill
G1 X116.367 Y95.248 E0.09169 ; fill
G1 X117.077 Y95.248 E0.03552 ; fill
G1 X115.782 Y93.952 E0.09169 ; fill
G1 X116.492 Y93.952 E0.03552 ; fill
G1 X117.787 Y95.248 E0.09169 ; fill
G1 X118.496 Y95.248 E0.03552 ; fill
G1 X117.201 Y93.952 E0.09169 ; fill
G1 X117.911 Y93.952 E0.03552 ; fill
G1 X119.206 Y95.248 E0.09169 ; fill
G1 X119.915 Y95.248 E0.03552 ; fill
G1 X118.620 Y93.952 E0.09169 ; fill
G1 X119.330 Y93.952 E0.03552 ; fill
G1 X120.625 Y95.248 E0.09169 ; fill
G1 X121.334 Y95.248 E0.03552 ; fill
G1 X120.039 Y93.952 E0.09169 ; fill
G1 X120.749 Y93.952 E0.03552 ; fill
G1 X122.898 Y96.101 E0.15212 ; fill
G1 X122.781 Y96.694 E0.03025 ; fill
G1 X121.932 Y95.846 E0.06008 ; fill
G1 X121.793 Y96.416 E0.02940 ; fill
G1 X122.641 Y97.264 E0.06004 ; fill
G1 X122.502 Y97.834 E0.02938 ; fill
G1 X121.654 Y96.987 E0.06001 ; fill
G1 X121.515 Y97.557 E0.02940 ; fill
G1 X122.362 Y98.404 E0.05997 ; fill
G1 X122.223 Y98.974 E0.02938 ; fill
G1 X121.376 Y98.128 E0.05994 ; fill
G1 X121.237 Y98.698 E0.02940 ; fill
G1 X122.084 Y99.545 E0.05990 ; fill
G1 X121.944 Y100.115 E0.02938 ; fill
G1 X121.099 Y99.269 E0.05987 ; fill
G1 X120.960 Y99.840 E0.02940 ; fill
G1 X121.805 Y100.685 E0.05983 ; fill
G1 X121.665 Y101.255 E0.02938 ; fill
G1 X120.821 Y100.410 E0.05980 ; fill
G1 X120.682 Y100.981 E0.02940 ; fill
G1 X121.526 Y101.825 E0.05976 ; fill
G1 X121.386 Y102.395 E0.02938 ; fill
G1 X120.543 Y101.551 E0.05973 ; fill
G1 X120.404 Y102.122 E0.02940 ; fill
G1 X121.247 Y102.965 E0.05969 ; fill
G1 X121.107 Y103.535 E0.02938 ; fill
G1 X120.265 Y102.693 E0.05966 ; fill
G1 X120.126 Y103.263 E0.02940 ; fill
G1 X120.968 Y104.105 E0.05962 ; fill
G1 X120.741 Y104.588 E0.02669 ; fill
G1 X119.987 Y103.834 E0.05337 ; fill
G1 X119.848 Y104.404 E0.02940 ; fill
G1 X120.031 Y104.588 E0.01297 ; fill
G1 F1800.000 E-2.40000 ; retract
G1 X122.898 Y95.392 F6000.000 ; move to first fill point
G1 E2.40000 F1800.000 ; compensate retraction
G1 X121.458 Y93.952 E0.10189 F900.000 ; fill
G1 X122.168 Y93.952 E0.03552 ; fill
G1 X122.898 Y94.682 E0.05165 ; fill
G1 X122.898 Y93.972 E0.03552 ; fill
G1 X122.878 Y93.952 E0.00142 ; fill
G1 F1800.000 E-2.40000 ; retract
G1 X103.298 Y97.078 F6000.000 ; move to first fill point
G1 E2.40000 F1800.000 ; compensate retraction
G1 X102.502 Y96.283 E0.05629 F900.000 ; fill
G1 X102.502 Y96.993 E0.03552 ; fill
G1 X103.298 Y97.788 E0.05629 ; fill
G1 X103.298 Y98.497 E0.03552 ; fill
G1 X102.502 Y97.702 E0.05629 ; fill
G1 X102.502 Y98.412 E0.03552 ; fill
G1 X103.298 Y99.207 E0.05629 ; fill
G1 X103.298 Y99.916 E0.03552 ; fill
G1 X102.502 Y99.121 E0.05629 ; fill
G1 X102.502 Y99.831 E0.03552 ; fill
G1 X103.298 Y100.626 E0.05629 ; fill
G1 X103.298 Y101.336 E0.03552 ; fill
G1 X102.502 Y100.541 E0.05629 ; fill
G1 X102.502 Y101.250 E0.03552 ; fill
G1 X103.298 Y102.045 E0.05629 ; fill
G1 X103.298 Y102.755 E0.03552 ; fill
G1 X102.502 Y101.960 E0.05629 ; fill
G1 X102.502 Y102.669 E0.03552 ; fill
G1 X103.298 Y103.464 E0.05629 ; fill
G1 X103.298 Y104.174 E0.03552 ; fill
G1 X102.502 Y103.379 E0.05629 ; fill
G1 X102.502 Y104.088 E0.03552 ; fill
G1 X103.298 Y104.883 E0.05629 ; fill
G1 X103.298 Y105.593 E0.03552 ; fill
G1 X102.502 Y104.798 E0.05629 ; fill
G1 X102.502 Y105.507 E0.03552 ; fill
G1 X103.043 Y106.048 E0.03824 ; fill
M104 S190 ; set temperature
G1 F1800.000 E-2.40000 ; retract
G1 Z0.480 F6000.000 ; move to next layer (1)
G1 X104.150 Y106.900 F6000.000 ; move to first perimeter point
G1 E2.40000 F1800.000 ; compensate retraction
G1 X101.650 Y106.900 E0.12473 F1800 ; perimeter
G1 X101.650 Y96.100 E0.53881 ; perimeter
G1 X79.297 Y96.100 E1.11521 ; perimeter
G1 X85.139 Y106.220 E0.58300 ; perimeter
G1 X81.987 Y106.220 E0.15727 ; perimeter
G1 X76.250 Y96.283 E0.57245 ; perimeter
G1 X76.250 Y93.100 E0.15880 ; perimeter
G1 X123.750 Y93.100 E2.36978 ; perimeter
G1 X123.750 Y96.320 E0.16064 ; perimeter
G1 X121.519 Y105.440 E0.46842 ; perimeter
G1 X118.718 Y105.440 E0.13973 ; perimeter
G1 X120.993 Y96.100 E0.47960 ; perimeter
G1 X104.150 Y96.100 E0.84030 ; perimeter
G1 X104.150 Y106.825 E0.53507 ; perimeter
G1 X103.717 Y106.650 F6000.000 ; move inwards before travel
G1 X103.650 Y106.400 F6000.000 ; move to first perimeter point
G1 X102.150 Y106.400 E0.07484 F1800 ; perimeter
G1 X102.150 Y95.600 E0.53881 ; perimeter
G1 X78.431 Y95.600 E1.18336 ; perimeter
G1 X84.273 Y105.720 E0.58300 ; perimeter
G1 X82.276 Y105.720 E0.09966 ; perimeter
G1 X76.750 Y96.149 E0.55137 ; perimeter
G1 X76.750 Y93.600 E0.12717 ; perimeter
G1 X123.250 Y93.600 E2.31989 ; perimeter
G1 X123.250 Y96.260 E0.13269 ; perimeter
G1 X121.127 Y104.940 E0.44584 ; perimeter
G1 X119.355 Y104.940 E0.08841 ; perimeter
G1 X121.629 Y95.600 E0.47960 ; perimeter
G1 X103.650 Y95.600 E0.89699 ; perimeter
G1 X103.650 Y106.325 E0.53507 ; perimeter
G1 X103.298 Y105.676 F6000.000 ; move to first fill point
G1 X102.926 Y106.048 E0.02653 F1800 ; fill
G1 X102.502 Y105.756 E0.02594 ; fill
G1 X103.298 Y104.961 E0.05673 ; fill
G1 X103.298 Y104.246 E0.03608 ; fill
G1 X102.502 Y105.041 E0.05673 ; fill
G1 X102.502 Y104.326 E0.03608 ; fill
G1 X103.298 Y103.531 E0.05673 ; fill
G1 X103.298 Y102.815 E0.03608 ; fill
G1 X102.502 Y103.610 E0.05673 ; fill
G1 X102.502 Y102.895 E0.03608 ; fill
G1 X103.298 Y102.100 E0.05673 ; fill
G1 X103.298 Y101.385 E0.03608 ; fill
G1 X102.502 Y102.180 E0.05673 ; fill
G1 X102.502 Y101.465 E0.03608 ; fill
G1 X103.298 Y100.670 E0.05673 ; fill
G1 X103.298 Y99.955 E0.03608 ; fill
G1 X102.502 Y100.750 E0.05673 ; fill
G1 X102.502 Y100.035 E0.03608 ; fill
G1 X103.298 Y99.240 E0.05673 ; fill
G1 X103.298 Y98.525 E0.03608 ; fill
G1 X102.502 Y99.320 E0.05673 ; fill
G1 X102.502 Y98.605 E0.03608 ; fill
G1 X103.298 Y97.810 E0.05673 ; fill
G1 X103.298 Y97.095 E0.03608 ; fill
G1 X102.502 Y97.890 E0.05673 ; fill
G1 X102.502 Y97.175 E0.03608 ; fill
G1 X103.298 Y96.380 E0.05673 ; fill
G1 X103.298 Y95.665 E0.03608 ; fill
G1 X102.502 Y96.460 E0.05673 ; fill
G1 F1800.000 E-2.40000 ; retract
G1 X120.856 Y104.564 F6000.000 ; move to first fill point
G1 E2.40000 F1800.000 ; compensate retraction
G1 X120.832 Y104.588 E0.00169 F1800 ; fill
G1 X120.117 Y104.588 E0.03608 ; fill
G1 X121.087 Y103.617 E0.06923 ; fill
G1 X121.319 Y102.671 E0.04917 ; fill
G1 X119.932 Y104.057 E0.09892 ; fill
G1 X120.163 Y103.112 E0.04909 ; fill
G1 X121.550 Y101.724 E0.09902 ; fill
G1 X121.782 Y100.777 E0.04917 ; fill
G1 X120.393 Y102.167 E0.09911 ; fill
G1 X120.623 Y101.221 E0.04909 ; fill
G1 X122.014 Y99.831 E0.09921 ; fill
G1 X122.245 Y98.884 E0.04917 ; fill
G1 X120.853 Y100.276 E0.09930 ; fill
G1 X121.084 Y99.331 E0.04909 ; fill
G1 X122.477 Y97.938 E0.09940 ; fill
G1 X122.708 Y96.991 E0.04917 ; fill
G1 X121.314 Y98.385 E0.09949 ; fill
G1 X121.544 Y97.440 E0.04909 ; fill
G1 X122.898 Y96.087 E0.09657 ; fill
G1 X122.898 Y95.371 E0.03608 ; fill
G1 X121.774 Y96.495 E0.08015 ; fill
G1 X122.004 Y95.550 E0.04909 ; fill
G1 X122.898 Y94.656 E0.06372 ; fill
G1 X122.882 Y93.957 E0.03530 ; fill
G1 X121.591 Y95.248 E0.09208 ; fill
G1 X120.876 Y95.248 E0.03608 ; fill
G1 X122.171 Y93.952 E0.09240 ; fill
G1 X121.456 Y93.952 E0.03608 ; fill
G1 X120.161 Y95.248 E0.09240 ; fill
G1 X119.446 Y95.248 E0.03608 ; fill
G1 X120.741 Y93.952 E0.09240 ; fill
G1 X120.026 Y93.952 E0.03608 ; fill
G1 X118.731 Y95.248 E0.09240 ; fill
G1 X118.016 Y95.248 E0.03608 ; fill
G1 X119.311 Y93.952 E0.09240 ; fill
G1 X118.596 Y93.952 E0.03608 ; fill
G1 X117.301 Y95.248 E0.09240 ; fill
G1 X116.586 Y95.248 E0.03608 ; fill
G1 X117.881 Y93.952 E0.09240 ; fill
G1 X117.166 Y93.952 E0.03608 ; fill
G1 X115.871 Y95.248 E0.09240 ; fill
G1 X115.156 Y95.248 E0.03608 ; fill
G1 X116.451 Y93.952 E0.09240 ; fill
G1 X115.736 Y93.952 E0.03608 ; fill
G1 X114.441 Y95.248 E0.09240 ; fill
G1 X113.726 Y95.248 E0.03608 ; fill
