; generated by Slic3r 1.0.1 on 2014-07-27 at 22:15:46

; layer_height = 0.24
; perimeters = 2
; top_solid_layers = 3
; bottom_solid_layers = 3
; fill_density = 0.25
; perimeter_speed = 30
; infill_speed = 30
; travel_speed = 100
; nozzle_diameter = 0.5
; filament_diameter = 1.75
; extrusion_multiplier = 1
; perimeters extrusion width = 0.50mm
; infill extrusion width = 0.50mm
; solid infill extrusion width = 0.50mm
; top infill extrusion width = 0.50mm
; first layer extrusion width = 0.50mm

G21 ; set units to millimeters
M107 ; disable fan
M190 S57 ; wait for bed temperature to be reached
M104 S200 ; set temperature

M109 S200 ; wait for temperature to be reached
G90 ; use absolute coordinates
M83 ; use relative distances for extrusion
G1 F1800.000 E-2.40000 ; retract
G1 Z0.240 F6000.000 ; move to next layer (0)
G1 X89.171 Y71.820 F6000.000 ; move to first skirt point
G1 E2.40000 F1800.000 ; compensate retraction
G1 X90.101 Y71.100 E0.05868 F900.000 ; skirt
G1 X91.191 Y70.650 E0.05883 ; skirt
G1 X92.351 Y70.500 E0.05835 ; skirt
G1 X101.361 Y70.500 E0.44951 ; skirt
G1 X102.521 Y70.650 E0.05835 ; skirt
G1 X103.611 Y71.100 E0.05883 ; skirt
G1 X104.541 Y71.820 E0.05868 ; skirt
G1 X111.551 Y78.820 E0.49424 ; skirt
G1 X112.271 Y79.750 E0.05868 ; skirt
G1 X112.721 Y80.830 E0.05837 ; skirt
G1 X112.871 Y82.000 E0.05885 ; skirt
G1 X112.871 Y118.000 E1.79605 ; skirt
G1 X112.721 Y119.170 E0.05885 ; skirt
G1 X112.271 Y120.250 E0.05837 ; skirt
G1 X111.551 Y121.180 E0.05868 ; skirt
G1 X104.541 Y128.180 E0.49424 ; skirt
G1 X103.611 Y128.900 E0.05868 ; skirt
G1 X102.521 Y129.350 E0.05883 ; skirt
G1 X101.361 Y129.500 E0.05835 ; skirt
G1 X92.351 Y129.500 E0.44951 ; skirt
G1 X91.191 Y129.350 E0.05835 ; skirt
G1 X90.101 Y128.900 E0.05883 ; skirt
G1 X89.171 Y128.180 E0.05868 ; skirt
G1 X88.451 Y127.250 E0.05868 ; skirt
G1 X88.001 Y126.160 E0.05883 ; skirt
G1 X87.851 Y125.000 E0.05835 ; skirt
G1 X87.851 Y75.000 E2.49451 ; skirt
G1 X88.001 Y73.840 E0.05835 ; skirt
G1 X88.451 Y72.750 E0.05883 ; skirt
G1 X89.125 Y71.879 E0.05494 ; skirt
G1 F1800.000 E-2.40000 ; retract
G1 X92.601 Y75.250 F6000.000 ; move to first perimeter point
G1 E2.40000 F1800.000 ; compensate retraction
G1 X101.260 Y75.250 E0.43199 F900.000 ; perimeter
G1 X108.123 Y82.104 E0.48389 ; perimeter
G1 X108.123 Y117.896 E1.78570 ; perimeter
G1 X101.260 Y124.750 E0.48389 ; perimeter
G1 X92.601 Y124.750 E0.43199 ; perimeter
G1 X92.601 Y75.325 E2.46582 ; perimeter
G1 X93.034 Y75.500 F6000.000 ; move inwards before travel
G1 X93.101 Y75.750 F6000.000 ; move to first perimeter point
G1 X101.053 Y75.750 E0.39673 F900.000 ; perimeter
G1 X107.623 Y82.311 E0.46323 ; perimeter
G1 X107.623 Y117.689 E1.76502 ; perimeter
G1 X101.053 Y124.250 E0.46323 ; perimeter
G1 X93.101 Y124.250 E0.39673 ; perimeter
G1 X93.101 Y75.825 E2.41593 ; perimeter
G1 F1800.000 E-2.40000 ; retract
G1 X98.863 Y105.614 F6000.000 ; move to first perimeter point
G1 E2.40000 F1800.000 ; compensate retraction
G1 X99.368 Y105.548 E0.02542 F780.000 ; perimeter
G1 X99.874 Y105.614 E0.02543 ; perimeter
G1 X100.345 Y105.809 E0.02543 ; perimeter
G1 X100.749 Y106.120 E0.02542 ; perimeter
G1 X101.059 Y106.524 E0.02542 ; perimeter
G1 X101.254 Y106.995 E0.02542 ; perimeter
G1 X101.321 Y107.500 E0.02542 ; perimeter
G1 X101.254 Y108.005 E0.02543 ; perimeter
G1 X101.059 Y108.476 E0.02542 ; perimeter
G1 X100.749 Y108.880 E0.02542 ; perimeter
G1 X100.345 Y109.191 E0.02543 ; perimeter
G1 X99.874 Y109.386 E0.02542 ; perimeter
G1 X99.368 Y109.452 E0.02543 ; perimeter
G1 X98.863 Y109.386 E0.02542 ; perimeter
G1 X98.392 Y109.191 E0.02542 ; perimeter
G1 X97.988 Y108.880 E0.02542 ; perimeter
G1 X97.678 Y108.476 E0.02543 ; perimeter
G1 X97.483 Y108.005 E0.02542 ; perimeter
G1 X97.416 Y107.500 E0.02542 ; perimeter
G1 X97.483 Y106.995 E0.02542 ; perimeter
G1 X97.678 Y106.524 E0.02543 ; perimeter
G1 X97.988 Y106.120 E0.02543 ; perimeter
G1 X98.392 Y105.809 E0.02542 ; perimeter
G1 X98.794 Y105.643 E0.02168 ; perimeter
G1 X99.014 Y105.138 F6000.000 ; move inwards before travel
G1 X99.262 Y105.058 F6000.000 ; move to first perimeter point
G1 X99.368 Y105.044 E0.00537 F780.000 ; perimeter
G1 X100.004 Y105.127 E0.03199 ; perimeter
G1 X100.597 Y105.373 E0.03199 ; perimeter
G1 X101.105 Y105.763 E0.03199 ; perimeter
G1 X101.496 Y106.272 E0.03199 ; perimeter
G1 X101.741 Y106.864 E0.03199 ; perimeter
G1 X101.825 Y107.500 E0.03199 ; perimeter
G1 X101.741 Y108.136 E0.03200 ; perimeter
G1 X101.496 Y108.728 E0.03199 ; perimeter
G1 X101.105 Y109.237 E0.03199 ; perimeter
G1 X100.597 Y109.627 E0.03199 ; perimeter
G1 X100.004 Y109.873 E0.03199 ; perimeter
G1 X99.368 Y109.956 E0.03200 ; perimeter
G1 X98.733 Y109.873 E0.03199 ; perimeter
G1 X98.140 Y109.627 E0.03199 ; perimeter
G1 X97.631 Y109.237 E0.03199 ; perimeter
G1 X97.241 Y108.728 E0.03199 ; perimeter
G1 X96.996 Y108.136 E0.03199 ; perimeter
G1 X96.912 Y107.500 E0.03199 ; perimeter
G1 X96.996 Y106.864 E0.03199 ; perimeter
G1 X97.241 Y106.272 E0.03200 ; perimeter
G1 X97.632 Y105.763 E0.03199 ; perimeter
G1 X98.140 Y105.373 E0.03199 ; perimeter
G1 X98.733 Y105.127 E0.03199 ; perimeter
G1 X99.187 Y105.067 E0.02288 ; perimeter
G1 F1800.000 E-2.40000 ; retract
G1 X99.368 Y94.452 F6000.000 ; move to first perimeter point
G1 E2.40000 F1800.000 ; compensate retraction
G1 X98.863 Y94.386 E0.02543 F780.000 ; perimeter
G1 X98.392 Y94.191 E0.02542 ; perimeter
G1 X97.988 Y93.880 E0.02542 ; perimeter
G1 X97.678 Y93.476 E0.02543 ; perimeter
G1 X97.483 Y93.005 E0.02542 ; perimeter
G1 X97.416 Y92.500 E0.02542 ; perimeter
G1 X97.483 Y91.995 E0.02542 ; perimeter
G1 X97.678 Y91.524 E0.02543 ; perimeter
G1 X97.988 Y91.120 E0.02543 ; perimeter
G1 X98.392 Y90.809 E0.02542 ; perimeter
G1 X98.863 Y90.614 E0.02542 ; perimeter
G1 X99.368 Y90.548 E0.02542 ; perimeter
G1 X99.874 Y90.614 E0.02543 ; perimeter
G1 X100.306 Y90.793 E0.02334 ; perimeter
G1 X100.749 Y91.120 E0.02745 ; perimeter
G1 X101.059 Y91.524 E0.02542 ; perimeter
G1 X101.254 Y91.995 E0.02542 ; perimeter
G1 X101.321 Y92.500 E0.02542 ; perimeter
G1 X101.254 Y93.005 E0.02543 ; perimeter
G1 X101.059 Y93.476 E0.02542 ; perimeter
G1 X100.749 Y93.880 E0.02542 ; perimeter
G1 X100.345 Y94.191 E0.02542 ; perimeter
G1 X99.874 Y94.386 E0.02543 ; perimeter
G1 X99.443 Y94.442 E0.02168 ; perimeter
G1 X99.100 Y94.874 F6000.000 ; move inwards before travel
G1 X99.262 Y94.942 F6000.000 ; move to first perimeter point
G1 X98.733 Y94.873 E0.02662 F780.000 ; perimeter
G1 X98.140 Y94.627 E0.03199 ; perimeter
G1 X97.631 Y94.237 E0.03199 ; perimeter
G1 X97.241 Y93.728 E0.03200 ; perimeter
G1 X96.996 Y93.136 E0.03199 ; perimeter
G1 X96.912 Y92.500 E0.03199 ; perimeter
G1 X96.996 Y91.864 E0.03199 ; perimeter
G1 X97.241 Y91.272 E0.03200 ; perimeter
G1 X97.632 Y90.763 E0.03200 ; perimeter
G1 X98.140 Y90.373 E0.03199 ; perimeter
G1 X98.733 Y90.127 E0.03199 ; perimeter
G1 X99.368 Y90.044 E0.03199 ; perimeter
G1 X100.004 Y90.127 E0.03200 ; perimeter
G1 X100.497 Y90.331 E0.02662 ; perimeter
G1 X100.597 Y90.373 E0.00537 ; perimeter
G1 X101.105 Y90.763 E0.03199 ; perimeter
G1 X101.496 Y91.272 E0.03199 ; perimeter
G1 X101.741 Y91.864 E0.03199 ; perimeter
G1 X101.825 Y92.500 E0.03199 ; perimeter
G1 X101.741 Y93.136 E0.03200 ; perimeter
G1 X101.496 Y93.728 E0.03199 ; perimeter
G1 X101.105 Y94.237 E0.03199 ; perimeter
G1 X100.597 Y94.627 E0.03199 ; perimeter
G1 X100.004 Y94.873 E0.03199 ; perimeter
G1 X99.336 Y94.952 E0.03357 ; perimeter
G1 F1800.000 E-2.40000 ; retract
G1 X101.853 Y91.214 F6000.000 ; move to first fill point
G1 E2.40000 F1800.000 ; compensate retraction
G1 X107.271 Y96.631 E0.38270 F900.000 ; fill
G1 X107.271 Y97.339 E0.03537 ; fill
G1 X102.142 Y92.211 E0.36228 ; fill
G1 X102.127 Y92.904 E0.03462 ; fill
G1 X107.271 Y98.047 E0.36335 ; fill
G1 X107.271 Y98.755 E0.03537 ; fill
G1 X101.985 Y93.469 E0.37342 ; fill
G1 X101.765 Y93.957 E0.02674 ; fill
G1 X107.271 Y99.463 E0.38897 ; fill
G1 X107.271 Y100.171 E0.03537 ; fill
G1 X101.457 Y94.358 E0.41068 ; fill
G1 X101.087 Y94.695 E0.02503 ; fill
G1 X107.271 Y100.879 E0.43683 ; fill
G1 X107.271 Y101.587 E0.03537 ; fill
G1 X100.664 Y94.981 E0.46668 ; fill
G1 X100.164 Y95.188 E0.02707 ; fill
G1 X107.271 Y102.295 E0.50205 ; fill
G1 X107.271 Y103.003 E0.03537 ; fill
G1 X99.555 Y95.287 E0.54505 ; fill
G1 X98.796 Y95.237 E0.03799 ; fill
G1 X107.271 Y103.711 E0.59865 ; fill
G1 X107.271 Y104.419 E0.03537 ; fill
G1 X93.454 Y90.602 E0.97608 ; fill
G1 X93.454 Y91.310 E0.03537 ; fill
G1 X107.271 Y105.127 E0.97608 ; fill
G1 X107.271 Y105.835 E0.03537 ; fill
G1 X93.454 Y92.018 E0.97608 ; fill
G1 X93.454 Y92.726 E0.03537 ; fill
G1 X107.271 Y106.543 E0.97608 ; fill
G1 X107.271 Y107.251 E0.03537 ; fill
G1 X93.454 Y93.434 E0.97608 ; fill
G1 X93.454 Y94.142 E0.03537 ; fill
G1 X107.271 Y107.959 E0.97608 ; fill
G1 X107.271 Y108.667 E0.03537 ; fill
G1 X93.454 Y94.850 E0.97608 ; fill
G1 X93.454 Y95.558 E0.03537 ; fill
G1 X107.271 Y109.375 E0.97608 ; fill
G1 X107.271 Y110.083 E0.03537 ; fill
G1 X93.454 Y96.266 E0.97608 ; fill
G1 X93.454 Y96.974 E0.03537 ; fill
G1 X107.271 Y110.791 E0.97608 ; fill
G1 X107.271 Y111.499 E0.03537 ; fill
G1 X93.454 Y97.682 E0.97608 ; fill
G1 X93.454 Y98.390 E0.03537 ; fill
G1 X99.810 Y104.746 E0.44903 ; fill
G1 X99.082 Y104.726 E0.03640 ; fill
G1 X93.454 Y99.098 E0.39758 ; fill
G1 X93.454 Y99.806 E0.03537 ; fill
G1 X98.493 Y104.845 E0.35599 ; fill
G1 X97.992 Y105.052 E0.02707 ; fill
G1 X93.454 Y100.514 E0.32062 ; fill
G1 X93.454 Y101.222 E0.03537 ; fill
G1 X97.586 Y105.354 E0.29190 ; fill
G1 X97.230 Y105.707 E0.02501 ; fill
G1 X93.454 Y101.930 E0.26681 ; fill
G1 X93.454 Y102.638 E0.03537 ; fill
G1 X96.926 Y106.110 E0.24532 ; fill
G1 X96.719 Y106.611 E0.02707 ; fill
G1 X93.454 Y103.346 E0.23067 ; fill
G1 X93.454 Y104.054 E0.03537 ; fill
G1 X96.596 Y107.197 E0.22201 ; fill
G1 X96.612 Y107.920 E0.03614 ; fill
G1 X93.454 Y104.762 E0.22310 ; fill
G1 X93.454 Y105.470 E0.03537 ; fill
G1 X106.392 Y118.408 E0.91399 ; fill
G1 X106.038 Y118.762 E0.02501 ; fill
G1 X93.454 Y106.178 E0.88898 ; fill
G1 X93.454 Y106.886 E0.03537 ; fill
G1 X105.684 Y119.116 E0.86397 ; fill
G1 X105.330 Y119.470 E0.02501 ; fill
G1 X93.454 Y107.594 E0.83896 ; fill
G1 X93.454 Y108.302 E0.03537 ; fill
G1 X104.976 Y119.824 E0.81396 ; fill
G1 X104.622 Y120.178 E0.02501 ; fill
G1 X93.454 Y109.010 E0.78895 ; fill
G1 X93.454 Y109.718 E0.03537 ; fill
G1 X104.268 Y120.532 E0.76394 ; fill
G1 X103.914 Y120.886 E0.02501 ; fill
G1 X93.454 Y110.426 E0.73893 ; fill
G1 X93.454 Y111.134 E0.03537 ; fill
G1 X103.560 Y121.240 E0.71393 ; fill
G1 X103.206 Y121.594 E0.02501 ; fill
G1 X93.454 Y111.842 E0.68892 ; fill
G1 X93.454 Y112.550 E0.03537 ; fill
G1 X102.852 Y121.948 E0.66391 ; fill
G1 X102.498 Y122.302 E0.02501 ; fill
G1 X93.454 Y113.258 E0.63890 ; fill
G1 X93.454 Y113.966 E0.03537 ; fill
G1 X102.144 Y122.656 E0.61390 ; fill
G1 X101.790 Y123.010 E0.02501 ; fill
G1 X93.454 Y114.674 E0.58889 ; fill
G1 X93.454 Y115.382 E0.03537 ; fill
G1 X101.436 Y123.364 E0.56388 ; fill
G1 X101.082 Y123.718 E0.02501 ; fill
G1 X93.454 Y116.090 E0.53887 ; fill
G1 X93.454 Y116.798 E0.03537 ; fill
G1 X100.554 Y123.898 E0.50156 ; fill
G1 X99.846 Y123.898 E0.03537 ; fill
G1 X93.454 Y117.506 E0.45155 ; fill
G1 X93.454 Y118.214 E0.03537 ; fill
G1 X99.138 Y123.898 E0.40153 ; fill
G1 X98.430 Y123.898 E0.03537 ; fill
G1 X93.454 Y118.922 E0.35152 ; fill
G1 X93.454 Y119.630 E0.03537 ; fill
G1 X97.722 Y123.898 E0.30150 ; fill
G1 X97.014 Y123.898 E0.03537 ; fill
G1 X93.454 Y120.338 E0.25149 ; fill
G1 X93.454 Y121.046 E0.03537 ; fill
G1 X96.306 Y123.898 E0.20147 ; fill
G1 X95.598 Y123.898 E0.03537 ; fill
G1 X93.454 Y121.754 E0.15146 ; fill
G1 X93.454 Y122.462 E0.03537 ; fill
G1 X94.890 Y123.898 E0.10144 ; fill
G1 X94.182 Y123.898 E0.03537 ; fill
G1 X93.454 Y123.170 E0.05143 ; fill
G1 X93.454 Y123.878 E0.03537 ; fill
G1 X93.474 Y123.898 E0.00141 ; fill
G1 F1800.000 E-2.40000 ; retract
G1 X98.949 Y110.257 F6000.000 ; move to first fill point
G1 E2.40000 F1800.000 ; compensate retraction
G1 X106.746 Y118.054 E0.55081 F900.000 ; fill
G1 X107.100 Y117.700 E0.02501 ; fill
G1 X99.672 Y110.272 E0.52472 ; fill
G1 X100.257 Y110.149 E0.02988 ; fill
G1 X107.271 Y117.163 E0.49545 ; fill
G1 X107.271 Y116.455 E0.03537 ; fill
G1 X100.758 Y109.942 E0.46008 ; fill
G1 X101.162 Y109.638 E0.02525 ; fill
G1 X107.271 Y115.747 E0.43155 ; fill
G1 X107.271 Y115.039 E0.03537 ; fill
G1 X101.515 Y109.283 E0.40663 ; fill
G1 X101.816 Y108.876 E0.02528 ; fill
G1 X107.271 Y114.331 E0.38533 ; fill
G1 X107.271 Y113.623 E0.03537 ; fill
G1 X102.023 Y108.376 E0.37068 ; fill
G1 X102.143 Y107.787 E0.03001 ; fill
G1 X107.271 Y112.915 E0.36226 ; fill
G1 X107.271 Y112.207 E0.03537 ; fill
G1 X102.122 Y107.059 E0.36370 ; fill
G1 F1800.000 E-2.40000 ; retract
G1 X100.655 Y90.015 F6000.000 ; move to first fill point
G1 E2.40000 F1800.000 ; compensate retraction
G1 X93.454 Y82.814 E0.50871 F900.000 ; fill
G1 X93.454 Y82.106 E0.03537 ; fill
G1 X107.271 Y95.923 E0.97608 ; fill
G1 X107.271 Y95.215 E0.03537 ; fill
G1 X93.454 Y81.398 E0.97608 ; fill
G1 X93.454 Y80.690 E0.03537 ; fill
G1 X107.271 Y94.507 E0.97608 ; fill
G1 X107.271 Y93.799 E0.03537 ; fill
G1 X93.454 Y79.982 E0.97608 ; fill
G1 X93.454 Y79.274 E0.03537 ; fill
G1 X107.271 Y93.091 E0.97608 ; fill
G1 X107.271 Y92.383 E0.03537 ; fill
G1 X93.454 Y78.566 E0.97608 ; fill
G1 X93.454 Y77.858 E0.03537 ; fill
G1 X107.271 Y91.675 E0.97608 ; fill
G1 X107.271 Y90.967 E0.03537 ; fill
G1 X93.454 Y77.150 E0.97608 ; fill
G1 X93.454 Y76.442 E0.03537 ; fill
G1 X107.271 Y90.259 E0.97608 ; fill
G1 X107.271 Y89.551 E0.03537 ; fill
G1 X93.822 Y76.102 E0.95006 ; fill
G1 X94.530 Y76.102 E0.03537 ; fill
G1 X107.271 Y88.843 E0.90005 ; fill
G1 X107.271 Y88.135 E0.03537 ; fill
G1 X95.238 Y76.102 E0.85003 ; fill
G1 X95.946 Y76.102 E0.03537 ; fill
G1 X107.271 Y87.427 E0.80002 ; fill
G1 X107.271 Y86.719 E0.03537 ; fill
G1 X96.654 Y76.102 E0.75000 ; fill
G1 X97.362 Y76.102 E0.03537 ; fill
G1 X107.271 Y86.011 E0.69999 ; fill
G1 X107.271 Y85.303 E0.03537 ; fill
G1 X98.070 Y76.102 E0.64997 ; fill
G1 X98.778 Y76.102 E0.03537 ; fill
G1 X107.271 Y84.595 E0.59996 ; fill
G1 X107.271 Y83.887 E0.03537 ; fill
G1 X99.486 Y76.102 E0.54994 ; fill
G1 X100.194 Y76.102 E0.03537 ; fill
G1 X107.271 Y83.179 E0.49993 ; fill
G1 X107.271 Y82.471 E0.03537 ; fill
G1 X100.902 Y76.102 E0.44991 ; fill
G1 F1800.000 E-2.40000 ; retract
G1 X93.454 Y83.522 F6000.000 ; move to first fill point
G1 E2.40000 F1800.000 ; compensate retraction
G1 X99.658 Y89.726 E0.43828 F900.000 ; fill
G1 X98.965 Y89.741 E0.03462 ; fill
G1 X93.454 Y84.230 E0.38932 ; fill
G1 X93.454 Y84.938 E0.03537 ; fill
G1 X98.399 Y89.884 E0.34938 ; fill
G1 X97.912 Y90.104 E0.02674 ; fill
G1 X93.454 Y85.646 E0.31492 ; fill
G1 X93.454 Y86.354 E0.03537 ; fill
G1 X97.511 Y90.411 E0.28662 ; fill
G1 X97.173 Y90.781 E0.02503 ; fill
G1 X93.454 Y87.062 E0.26275 ; fill
G1 X93.454 Y87.770 E0.03537 ; fill
G1 X96.888 Y91.204 E0.24259 ; fill
G1 X96.680 Y91.705 E0.02707 ; fill
G1 X93.454 Y88.478 E0.22794 ; fill
G1 X93.454 Y89.186 E0.03537 ; fill
G1 X96.581 Y92.313 E0.22093 ; fill
G1 X96.632 Y93.072 E0.03799 ; fill
G1 X93.454 Y89.894 E0.22451 ; fill
M104 S190 ; set temperature
G1 F1800.000 E-2.40000 ; retract
G1 Z0.480 F6000.000 ; move to next layer (1)
G1 X92.589 Y76.725 F6000.000 ; move to first perimeter point
G1 E2.40000 F1800.000 ; compensate retraction
G1 X92.589 Y75.250 E0.07357 F1800 ; perimeter
G1 X101.248 Y75.250 E0.43199 ; perimeter
G1 X108.111 Y82.104 E0.48389 ; perimeter
G1 X108.111 Y117.896 E1.78570 ; perimeter
G1 X101.248 Y124.750 E0.48389 ; perimeter
G1 X92.589 Y124.750 E0.43199 ; perimeter
G1 X92.589 Y76.800 E2.39225 ; perimeter
G1 X93.022 Y76.475 F6000.000 ; move inwards before travel
G1 X93.089 Y76.474 F6000.000 ; move to first perimeter point
G1 X93.089 Y75.750 E0.03614 F1800 ; perimeter
G1 X101.041 Y75.750 E0.39673 ; perimeter
G1 X107.611 Y82.311 E0.46323 ; perimeter
G1 X107.611 Y117.689 E1.76502 ; perimeter
G1 X101.041 Y124.250 E0.46323 ; perimeter
G1 X93.089 Y124.250 E0.39673 ; perimeter
G1 X93.089 Y76.549 E2.37980 ; perimeter
G1 F1800.000 E-2.40000 ; retract
