; generated by Slic3r 1.0.1 on 2014-07-28 at 20:29:56

; layer_height = 0.24
; perimeters = 2
; top_solid_layers = 3
; bottom_solid_layers = 3
; fill_density = 0.25
; perimeter_speed = 30
; infill_speed = 30
; travel_speed = 100
; nozzle_diameter = 0.5
; filament_diameter = 1.75
; extrusion_multiplier = 1
; perimeters extrusion width = 0.50mm
; infill extrusion width = 0.50mm
; solid infill extrusion width = 0.50mm
; top infill extrusion width = 0.50mm
; support material extrusion width = 0.50mm
; first layer extrusion width = 0.50mm

G21 ; set units to millimeters
M107 ; disable fan
M190 S57 ; wait for bed temperature to be reached
M104 S200 ; set temperature

M109 S200 ; wait for temperature to be reached
G90 ; use absolute coordinates
M83 ; use relative distances for extrusion
G1 F1800.000 E-2.40000 ; retract
G1 Z0.240 F6000.000 ; move to next layer (0)
G1 X128.921 Y19.330 F6000.000 ; move to first skirt point
G1 E2.40000 F1800.000 ; compensate retraction
G1 X129.481 Y18.630 E0.04472 F900.000 ; skirt
G1 X130.171 Y18.050 E0.04497 ; skirt
G1 X133.711 Y15.630 E0.21394 ; skirt
G1 X134.761 Y15.090 E0.05891 ; skirt
G1 X135.911 Y14.850 E0.05861 ; skirt
G1 X140.111 Y14.530 E0.21015 ; skirt
G1 X140.451 Y14.520 E0.01697 ; skirt
G1 X141.531 Y14.630 E0.05416 ; skirt
G1 X142.471 Y14.960 E0.04970 ; skirt
G1 X146.331 Y16.810 E0.21355 ; skirt
G1 X147.321 Y17.450 E0.05881 ; skirt
G1 X148.101 Y18.330 E0.05867 ; skirt
G1 X150.521 Y21.870 E0.21394 ; skirt
G1 X151.061 Y22.920 E0.05891 ; skirt
G1 X151.301 Y24.070 E0.05861 ; skirt
G1 X151.621 Y28.350 E0.21413 ; skirt
G1 X151.631 Y28.750 E0.01996 ; skirt
G1 X151.611 Y29.150 E0.01998 ; skirt
G1 X143.341 Y110.400 E4.07452 ; skirt
G1 X143.291 Y110.750 E0.01764 ; skirt
G1 X130.791 Y178.800 E3.45183 ; skirt
G1 X130.481 Y179.800 E0.05223 ; skirt
G1 X129.961 Y180.690 E0.05143 ; skirt
G1 X129.241 Y181.450 E0.05223 ; skirt
G1 X128.371 Y182.020 E0.05189 ; skirt
G1 X127.391 Y182.370 E0.05192 ; skirt
G1 X126.361 Y182.490 E0.05173 ; skirt
G1 X125.091 Y182.490 E0.06336 ; skirt
G1 X124.701 Y182.470 E0.01948 ; skirt
G1 X52.641 Y176.270 E3.60837 ; skirt
G1 X51.561 Y176.040 E0.05509 ; skirt
G1 X50.561 Y175.550 E0.05556 ; skirt
G1 X49.711 Y174.830 E0.05558 ; skirt
G1 X49.071 Y173.930 E0.05510 ; skirt
G1 X48.671 Y172.890 E0.05559 ; skirt
G1 X48.531 Y171.790 E0.05532 ; skirt
G1 X48.531 Y146.150 E1.27918 ; skirt
G1 X48.711 Y144.890 E0.06350 ; skirt
G1 X49.241 Y143.720 E0.06408 ; skirt
G1 X128.881 Y19.393 E7.36614 ; skirt
G1 F1800.000 E-2.40000 ; retract
G1 X101.001 Y126.761 F6000.000 ; move to first perimeter point
G1 E2.40000 F1800.000 ; compensate retraction
G1 X101.001 Y146.619 E0.99069 F900.000 ; perimeter
G1 X114.866 Y147.958 E0.69493 ; perimeter
G1 X116.788 Y148.324 E0.09763 ; perimeter
G1 X118.600 Y149.033 E0.09705 ; perimeter
G1 X119.583 Y149.645 E0.05780 ; perimeter
G1 X120.251 Y150.061 E0.03925 ; perimeter
G1 X121.686 Y151.375 E0.09705 ; perimeter
G1 X122.855 Y152.929 E0.09705 ; perimeter
G1 X123.720 Y154.672 E0.09705 ; perimeter
G1 X124.251 Y156.543 E0.09705 ; perimeter
G1 X124.431 Y158.491 E0.09763 ; perimeter
G1 X124.431 Y173.119 E0.72977 ; perimeter
G1 X114.691 Y173.119 E0.48593 ; perimeter
G1 X114.691 Y161.812 E0.56411 ; perimeter
G1 X115.506 Y161.483 E0.04385 ; perimeter
G1 X115.833 Y161.277 E0.01927 ; perimeter
G1 X116.361 Y160.811 E0.03515 ; perimeter
G1 X116.615 Y160.520 E0.01927 ; perimeter
G1 X116.959 Y159.905 E0.03515 ; perimeter
G1 X117.120 Y159.554 E0.01927 ; perimeter
G1 X117.294 Y158.476 E0.05446 ; perimeter
G1 X117.088 Y157.306 E0.05930 ; perimeter
G1 X116.492 Y156.273 E0.05950 ; perimeter
G1 X115.578 Y155.506 E0.05950 ; perimeter
G1 X114.458 Y155.098 E0.05950 ; perimeter
G1 X113.265 Y155.098 E0.05950 ; perimeter
G1 X112.144 Y155.506 E0.05950 ; perimeter
G1 X111.231 Y156.273 E0.05950 ; perimeter
G1 X110.635 Y157.306 E0.05950 ; perimeter
G1 X110.428 Y158.476 E0.05930 ; perimeter
G1 X110.603 Y159.554 E0.05446 ; perimeter
G1 X110.764 Y159.905 E0.01927 ; perimeter
G1 X111.107 Y160.520 E0.03515 ; perimeter
G1 X111.361 Y160.811 E0.01927 ; perimeter
G1 X111.890 Y161.277 E0.03515 ; perimeter
G1 X112.216 Y161.483 E0.01927 ; perimeter
G1 X113.031 Y161.812 E0.04385 ; perimeter
G1 X113.031 Y173.120 E0.56414 ; perimeter
G1 X105.547 Y173.142 E0.37337 ; perimeter
G1 X87.611 Y172.800 E0.89500 ; perimeter
G1 X87.611 Y171.550 E0.06235 ; perimeter
G1 X53.291 Y171.550 E1.71223 ; perimeter
G1 X53.291 Y146.410 E1.25424 ; perimeter
G1 X84.133 Y146.410 E1.53871 ; perimeter
G1 X84.133 Y127.128 E0.96200 ; perimeter
G1 X84.817 Y127.488 E0.03858 ; perimeter
G1 X86.226 Y128.110 E0.07679 ; perimeter
G1 X87.688 Y128.600 E0.07694 ; perimeter
G1 X89.277 Y128.965 E0.08137 ; perimeter
G1 X90.716 Y129.166 E0.07249 ; perimeter
G1 X92.257 Y129.237 E0.07694 ; perimeter
G1 X93.797 Y129.166 E0.07694 ; perimeter
G1 X95.325 Y128.953 E0.07694 ; perimeter
G1 X96.826 Y128.600 E0.07694 ; perimeter
G1 X98.288 Y128.110 E0.07694 ; perimeter
G1 X99.699 Y127.487 E0.07694 ; perimeter
G1 X100.936 Y126.798 E0.07064 ; perimeter
G1 X100.828 Y127.230 F6000.000 ; move inwards before travel
G1 X100.501 Y127.612 F6000.000 ; move to first perimeter point
G1 X100.501 Y147.073 E0.97090 F900.000 ; perimeter
G1 X114.795 Y148.453 E0.71643 ; perimeter
G1 X116.649 Y148.807 E0.09417 ; perimeter
G1 X118.375 Y149.482 E0.09244 ; perimeter
G1 X119.319 Y150.070 E0.05549 ; perimeter
G1 X119.947 Y150.461 E0.03694 ; perimeter
G1 X121.314 Y151.712 E0.09244 ; perimeter
G1 X122.428 Y153.193 E0.09244 ; perimeter
G1 X123.252 Y154.853 E0.09244 ; perimeter
G1 X123.758 Y156.635 E0.09244 ; perimeter
G1 X123.931 Y158.515 E0.09417 ; perimeter
G1 X123.931 Y172.619 E0.70368 ; perimeter
G1 X115.191 Y172.619 E0.43604 ; perimeter
G1 X115.191 Y162.150 E0.52232 ; perimeter
G1 X115.736 Y161.930 E0.02929 ; perimeter
G1 X116.134 Y161.678 E0.02351 ; perimeter
G1 X116.716 Y161.164 E0.03874 ; perimeter
G1 X117.026 Y160.809 E0.02351 ; perimeter
G1 X117.405 Y160.131 E0.03874 ; perimeter
G1 X117.602 Y159.703 E0.02352 ; perimeter
G1 X117.801 Y158.468 E0.06239 ; perimeter
G1 X117.565 Y157.132 E0.06770 ; perimeter
G1 X116.881 Y155.946 E0.06829 ; perimeter
G1 X115.832 Y155.066 E0.06829 ; perimeter
G1 X114.546 Y154.598 E0.06829 ; perimeter
G1 X113.177 Y154.598 E0.06829 ; perimeter
G1 X111.890 Y155.066 E0.06829 ; perimeter
G1 X110.842 Y155.946 E0.06829 ; perimeter
G1 X110.157 Y157.132 E0.06829 ; perimeter
G1 X109.922 Y158.468 E0.06770 ; perimeter
G1 X110.121 Y159.703 E0.06239 ; perimeter
G1 X110.318 Y160.131 E0.02352 ; perimeter
G1 X110.696 Y160.809 E0.03874 ; perimeter
G1 X111.006 Y161.164 E0.02351 ; perimeter
G1 X111.589 Y161.678 E0.03874 ; perimeter
G1 X111.987 Y161.930 E0.02351 ; perimeter
G1 X112.531 Y162.150 E0.02929 ; perimeter
G1 X112.531 Y172.621 E0.52243 ; perimeter
G1 X105.552 Y172.642 E0.34822 ; perimeter
G1 X88.111 Y172.309 E0.87026 ; perimeter
G1 X88.111 Y171.050 E0.06282 ; perimeter
G1 X53.791 Y171.050 E1.71223 ; perimeter
G1 X53.791 Y146.910 E1.20435 ; perimeter
G1 X84.633 Y146.910 E1.53871 ; perimeter
G1 X84.633 Y127.953 E0.94576 ; perimeter
G1 X86.045 Y128.576 E0.07698 ; perimeter
G1 X87.551 Y129.081 E0.07924 ; perimeter
G1 X89.097 Y129.445 E0.07925 ; perimeter
G1 X90.670 Y129.664 E0.07925 ; perimeter
G1 X92.257 Y129.738 E0.07924 ; perimeter
G1 X93.843 Y129.664 E0.07925 ; perimeter
G1 X95.417 Y129.445 E0.07924 ; perimeter
G1 X96.963 Y129.081 E0.07924 ; perimeter
G1 X98.469 Y128.576 E0.07924 ; perimeter
G1 X99.922 Y127.935 E0.07924 ; perimeter
G1 X100.436 Y127.649 E0.02934 ; perimeter
G1 F1800.000 E-2.40000 ; retract
G1 X70.480 Y154.361 F6000.000 ; move to first perimeter point
G1 E2.40000 F1800.000 ; compensate retraction
G1 X71.518 Y155.714 E0.08507 F900.000 ; perimeter
G1 X72.171 Y157.289 E0.08507 ; perimeter
G1 X72.393 Y158.980 E0.08507 ; perimeter
G1 X72.171 Y160.671 E0.08507 ; perimeter
G1 X71.518 Y162.246 E0.08507 ; perimeter
G1 X70.480 Y163.599 E0.08507 ; perimeter
G1 X69.127 Y164.637 E0.08507 ; perimeter
G1 X67.552 Y165.290 E0.08507 ; perimeter
G1 X65.861 Y165.512 E0.08507 ; perimeter
G1 X64.171 Y165.290 E0.08507 ; perimeter
G1 X62.595 Y164.637 E0.08507 ; perimeter
G1 X61.242 Y163.599 E0.08507 ; perimeter
G1 X60.204 Y162.246 E0.08507 ; perimeter
G1 X59.552 Y160.671 E0.08507 ; perimeter
G1 X59.329 Y158.980 E0.08507 ; perimeter
G1 X59.552 Y157.289 E0.08507 ; perimeter
G1 X59.808 Y156.670 E0.03342 ; perimeter
G1 X60.204 Y155.714 E0.05165 ; perimeter
G1 X61.242 Y154.361 E0.08507 ; perimeter
G1 X62.595 Y153.323 E0.08507 ; perimeter
G1 X64.171 Y152.670 E0.08507 ; perimeter
G1 X65.861 Y152.448 E0.08507 ; perimeter
G1 X67.552 Y152.670 E0.08507 ; perimeter
G1 X69.127 Y153.323 E0.08507 ; perimeter
G1 X70.421 Y154.315 E0.08133 ; perimeter
G1 X70.968 Y154.253 F6000.000 ; move inwards before travel
G1 X70.837 Y154.004 F6000.000 ; move to first perimeter point
G1 X71.955 Y155.462 E0.09164 F900.000 ; perimeter
G1 X72.658 Y157.159 E0.09164 ; perimeter
G1 X72.898 Y158.980 E0.09164 ; perimeter
G1 X72.658 Y160.801 E0.09164 ; perimeter
G1 X71.955 Y162.498 E0.09164 ; perimeter
G1 X70.837 Y163.955 E0.09164 ; perimeter
G1 X69.380 Y165.074 E0.09164 ; perimeter
G1 X67.682 Y165.777 E0.09164 ; perimeter
G1 X65.861 Y166.016 E0.09164 ; perimeter
G1 X64.040 Y165.777 E0.09164 ; perimeter
G1 X62.343 Y165.074 E0.09164 ; perimeter
G1 X60.886 Y163.955 E0.09164 ; perimeter
G1 X59.768 Y162.498 E0.09164 ; perimeter
G1 X59.065 Y160.801 E0.09164 ; perimeter
G1 X58.825 Y158.980 E0.09164 ; perimeter
G1 X59.065 Y157.159 E0.09164 ; perimeter
G1 X59.346 Y156.479 E0.03670 ; perimeter
G1 X59.768 Y155.462 E0.05494 ; perimeter
G1 X60.886 Y154.004 E0.09164 ; perimeter
G1 X62.343 Y152.886 E0.09164 ; perimeter
G1 X64.040 Y152.183 E0.09164 ; perimeter
G1 X65.861 Y151.943 E0.09164 ; perimeter
G1 X67.682 Y152.183 E0.09164 ; perimeter
G1 X69.258 Y152.836 E0.08510 ; perimeter
G1 X69.274 Y152.805 E0.00172 ; perimeter
G1 X70.777 Y153.959 E0.09454 ; perimeter
G1 F1800.000 E-2.40000 ; retract
G1 X79.552 Y157.289 F6000.000 ; move to first perimeter point
G1 E2.40000 F1800.000 ; compensate retraction
G1 X80.204 Y155.714 E0.08507 F900.000 ; perimeter
G1 X81.242 Y154.361 E0.08507 ; perimeter
G1 X82.595 Y153.323 E0.08507 ; perimeter
G1 X84.171 Y152.670 E0.08507 ; perimeter
G1 X85.861 Y152.448 E0.08507 ; perimeter
G1 X87.552 Y152.670 E0.08507 ; perimeter
G1 X89.127 Y153.323 E0.08507 ; perimeter
G1 X90.480 Y154.361 E0.08507 ; perimeter
G1 X91.518 Y155.714 E0.08507 ; perimeter
G1 X92.171 Y157.289 E0.08507 ; perimeter
G1 X92.393 Y158.980 E0.08507 ; perimeter
G1 X92.171 Y160.671 E0.08507 ; perimeter
G1 X91.518 Y162.246 E0.08507 ; perimeter
G1 X90.480 Y163.599 E0.08507 ; perimeter
G1 X89.127 Y164.637 E0.08507 ; perimeter
G1 X87.552 Y165.290 E0.08507 ; perimeter
G1 X85.861 Y165.512 E0.08507 ; perimeter
G1 X84.171 Y165.290 E0.08507 ; perimeter
G1 X82.595 Y164.637 E0.08507 ; perimeter
G1 X81.242 Y163.599 E0.08507 ; perimeter
G1 X80.204 Y162.246 E0.08507 ; perimeter
G1 X79.552 Y160.671 E0.08507 ; perimeter
G1 X79.329 Y158.980 E0.08507 ; perimeter
G1 X79.542 Y157.364 E0.08133 ; perimeter
G1 X79.214 Y156.921 F6000.000 ; move inwards before travel
G1 X79.065 Y157.159 F6000.000 ; move to first perimeter point
G1 X79.768 Y155.462 E0.09164 F900.000 ; perimeter
G1 X80.886 Y154.004 E0.09164 ; perimeter
G1 X82.343 Y152.886 E0.09164 ; perimeter
G1 X84.040 Y152.183 E0.09164 ; perimeter
G1 X85.861 Y151.943 E0.09164 ; perimeter
G1 X87.682 Y152.183 E0.09164 ; perimeter
G1 X89.380 Y152.886 E0.09164 ; perimeter
G1 X90.837 Y154.004 E0.09164 ; perimeter
G1 X91.955 Y155.462 E0.09164 ; perimeter
G1 X92.695 Y157.247 E0.09643 ; perimeter
G1 X92.670 Y157.247 E0.00125 ; perimeter
G1 X92.898 Y158.980 E0.08718 ; perimeter
G1 X92.658 Y160.801 E0.09164 ; perimeter
G1 X91.955 Y162.498 E0.09164 ; perimeter
G1 X90.837 Y163.955 E0.09164 ; perimeter
G1 X89.380 Y165.074 E0.09164 ; perimeter
G1 X87.682 Y165.777 E0.09164 ; perimeter
G1 X85.861 Y166.016 E0.09164 ; perimeter
G1 X84.040 Y165.777 E0.09164 ; perimeter
G1 X82.343 Y165.074 E0.09164 ; perimeter
G1 X80.886 Y163.955 E0.09164 ; perimeter
G1 X79.768 Y162.498 E0.09164 ; perimeter
G1 X79.065 Y160.801 E0.09164 ; perimeter
G1 X78.825 Y158.980 E0.09164 ; perimeter
G1 X79.055 Y157.233 E0.08790 ; perimeter
G1 F1800.000 E-2.40000 ; retract
G1 X79.005 Y161.579 F6000.000 ; move to first fill point
G1 E2.40000 F1800.000 ; compensate retraction
G1 X64.689 Y147.262 E1.01068 F900.000 ; fill
G1 X65.396 Y147.262 E0.03532 ; fill
G1 X78.675 Y160.541 E0.93740 ; fill
G1 X78.568 Y159.726 E0.04102 ; fill
G1 X66.104 Y147.262 E0.87988 ; fill
G1 X66.811 Y147.262 E0.03532 ; fill
G1 X78.476 Y158.927 E0.82349 ; fill
G1 X78.558 Y158.302 E0.03148 ; fill
G1 X67.519 Y147.262 E0.77935 ; fill
G1 X68.226 Y147.262 E0.03532 ; fill
G1 X78.641 Y157.677 E0.73522 ; fill
G1 X78.726 Y157.055 E0.03135 ; fill
G1 X68.934 Y147.262 E0.69129 ; fill
G1 X69.641 Y147.262 E0.03532 ; fill
G1 X78.933 Y156.555 E0.65598 ; fill
G1 X79.141 Y156.054 E0.02703 ; fill
G1 X70.349 Y147.262 E0.62066 ; fill
G1 X71.056 Y147.262 E0.03532 ; fill
G1 X79.348 Y155.554 E0.58534 ; fill
G1 X79.601 Y155.100 E0.02596 ; fill
G1 X71.764 Y147.262 E0.55327 ; fill
G1 X72.471 Y147.262 E0.03532 ; fill
G1 X79.908 Y154.699 E0.52501 ; fill
G1 X80.215 Y154.299 E0.02519 ; fill
G1 X73.179 Y147.262 E0.49675 ; fill
G1 X73.886 Y147.262 E0.03532 ; fill
G1 X80.522 Y153.899 E0.46849 ; fill
G1 X80.889 Y153.558 E0.02499 ; fill
G1 X74.594 Y147.262 E0.44441 ; fill
G1 X75.301 Y147.262 E0.03532 ; fill
G1 X81.289 Y153.251 E0.42273 ; fill
G1 X81.690 Y152.943 E0.02519 ; fill
G1 X76.009 Y147.262 E0.40104 ; fill
G1 X76.716 Y147.262 E0.03532 ; fill
G1 X82.090 Y152.636 E0.37936 ; fill
G1 X82.571 Y152.410 E0.02655 ; fill
G1 X77.424 Y147.262 E0.36340 ; fill
G1 X78.131 Y147.262 E0.03532 ; fill
G1 X83.072 Y152.203 E0.34877 ; fill
G1 X83.572 Y151.996 E0.02703 ; fill
G1 X78.839 Y147.262 E0.33414 ; fill
G1 X79.546 Y147.262 E0.03532 ; fill
G1 X84.103 Y151.819 E0.32170 ; fill
G1 X84.728 Y151.737 E0.03148 ; fill
G1 X80.254 Y147.262 E0.31589 ; fill
G1 X80.961 Y147.262 E0.03532 ; fill
G1 X85.353 Y151.655 E0.31008 ; fill
G1 X86.014 Y151.608 E0.03307 ; fill
G1 X81.669 Y147.262 E0.30678 ; fill
G1 X82.376 Y147.262 E0.03532 ; fill
G1 X86.829 Y151.715 E0.31435 ; fill
G1 X87.644 Y151.823 E0.04102 ; fill
G1 X83.084 Y147.262 E0.32192 ; fill
G1 X83.791 Y147.262 E0.03532 ; fill
G1 X88.789 Y152.260 E0.35279 ; fill
G1 F1800.000 E-2.40000 ; retract
G1 X90.663 Y153.426 F6000.000 ; move to first fill point
G1 E2.40000 F1800.000 ; compensate retraction
G1 X84.499 Y147.262 E0.43515 F900.000 ; fill
G1 X84.986 Y147.042 E0.02669 ; fill
G1 X110.219 Y172.276 E1.78134 ; fill
G1 X109.514 Y172.278 E0.03521 ; fill
G1 X91.415 Y154.179 E1.27769 ; fill
G1 F1800.000 E-2.40000 ; retract
G1 X92.581 Y156.053 F6000.000 ; move to first fill point
G1 E2.40000 F1800.000 ; compensate retraction
G1 X108.808 Y172.280 E1.14554 F900.000 ; fill
G1 X108.103 Y172.282 E0.03521 ; fill
G1 X93.082 Y157.260 E1.06042 ; fill
G1 X93.126 Y158.012 E0.03759 ; fill
G1 X107.398 Y172.284 E1.00750 ; fill
G1 X106.692 Y172.286 E0.03521 ; fill
G1 X93.233 Y158.827 E0.95013 ; fill
G1 X93.186 Y159.488 E0.03307 ; fill
G1 X105.987 Y172.288 E0.90363 ; fill
G1 X105.275 Y172.284 E0.03552 ; fill
G1 X93.104 Y160.113 E0.85920 ; fill
G1 X93.022 Y160.738 E0.03148 ; fill
G1 X104.554 Y172.270 E0.81410 ; fill
G1 X103.833 Y172.256 E0.03601 ; fill
G1 X92.846 Y161.269 E0.77562 ; fill
G1 X92.638 Y161.770 E0.02703 ; fill
G1 X103.111 Y172.243 E0.73934 ; fill
G1 X102.390 Y172.229 E0.03601 ; fill
G1 X92.431 Y162.270 E0.70305 ; fill
G1 X92.205 Y162.751 E0.02655 ; fill
G1 X101.669 Y172.215 E0.66809 ; fill
G1 X100.948 Y172.201 E0.03601 ; fill
G1 X91.898 Y163.152 E0.63886 ; fill
G1 X91.591 Y163.552 E0.02519 ; fill
G1 X100.226 Y172.188 E0.60963 ; fill
G1 X99.505 Y172.174 E0.03601 ; fill
G1 X91.284 Y163.952 E0.58040 ; fill
G1 X90.942 Y164.319 E0.02499 ; fill
G1 X98.784 Y172.160 E0.55356 ; fill
G1 X98.063 Y172.146 E0.03601 ; fill
G1 X90.542 Y164.626 E0.53090 ; fill
G1 X90.142 Y164.933 E0.02519 ; fill
G1 X97.341 Y172.133 E0.50825 ; fill
G1 X96.620 Y172.119 E0.03601 ; fill
G1 X89.741 Y165.240 E0.48559 ; fill
