; generated by Slic3r 1.0.1 on 2014-09-21 at 17:29:39

; layer_height = 0.24
; perimeters = 2
; top_solid_layers = 4
; bottom_solid_layers = 3
; fill_density = 0.25
; perimeter_speed = 30
; infill_speed = 30
; travel_speed = 100
; nozzle_diameter = 0.5
; filament_diameter = 1.75
; extrusion_multiplier = 1
; perimeters extrusion width = 0.50mm
; infill extrusion width = 0.50mm
; solid infill extrusion width = 0.50mm
; top infill extrusion width = 0.50mm
; first layer extrusion width = 0.80mm

G21 ; set units to millimeters
M107 ; disable fan
M190 S57 ; wait for bed temperature to be reached
M104 S200 ; set temperature

M109 S200 ; wait for temperature to be reached
G90 ; use absolute coordinates
M83 ; use relative distances for extrusion
G1 F1800.000 E-2.40000 ; retract
G1 Z0.240 F6000.000 ; move to next layer (0)
G1 X85.890 Y93.196 F6000.000 ; move to first skirt point
G1 E2.40000 F1800.000 ; compensate retraction
G1 X86.880 Y92.446 E0.09276 F900.000 ; skirt
G1 X88.020 Y91.966 E0.09238 ; skirt
G1 X89.250 Y91.806 E0.09264 ; skirt
G1 X110.750 Y91.806 E1.60573 ; skirt
G1 X111.980 Y91.966 E0.09264 ; skirt
G1 X113.120 Y92.446 E0.09238 ; skirt
G1 X114.110 Y93.196 E0.09276 ; skirt
G1 X114.860 Y94.186 E0.09276 ; skirt
G1 X115.340 Y95.326 E0.09238 ; skirt
G1 X115.500 Y96.556 E0.09264 ; skirt
G1 X115.500 Y103.816 E0.54221 ; skirt
G1 X115.340 Y105.046 E0.09264 ; skirt
G1 X114.860 Y106.186 E0.09238 ; skirt
G1 X114.110 Y107.176 E0.09276 ; skirt
G1 X113.120 Y107.926 E0.09276 ; skirt
G1 X111.980 Y108.406 E0.09238 ; skirt
G1 X110.750 Y108.566 E0.09264 ; skirt
G1 X89.250 Y108.566 E1.60573 ; skirt
G1 X88.020 Y108.406 E0.09264 ; skirt
G1 X86.880 Y107.926 E0.09238 ; skirt
G1 X85.890 Y107.176 E0.09276 ; skirt
G1 X85.140 Y106.186 E0.09276 ; skirt
G1 X84.660 Y105.046 E0.09238 ; skirt
G1 X84.500 Y103.816 E0.09264 ; skirt
G1 X84.500 Y96.556 E0.54221 ; skirt
G1 X84.660 Y95.326 E0.09264 ; skirt
G1 X85.140 Y94.186 E0.09238 ; skirt
G1 X85.822 Y93.286 E0.08437 ; skirt
G1 F1800.000 E-2.40000 ; retract
G1 X103.650 Y96.961 F6000.000 ; move to first perimeter point
G1 E2.40000 F1800.000 ; compensate retraction
G1 X109.925 Y96.960 E0.46866 F780.000 ; perimeter
G1 X109.997 Y97.237 E0.02135 ; perimeter
G1 X109.200 Y97.681 E0.06808 ; perimeter
G1 X108.975 Y97.835 E0.02038 ; perimeter
G1 X108.765 Y98.009 E0.02038 ; perimeter
G1 X108.572 Y98.202 E0.02038 ; perimeter
G1 X108.397 Y98.411 E0.02038 ; perimeter
G1 X108.243 Y98.636 E0.02038 ; perimeter
G1 X108.099 Y98.898 E0.02228 ; perimeter
G1 X107.913 Y99.383 E0.03882 ; perimeter
G1 X107.846 Y99.674 E0.02228 ; perimeter
G1 X107.800 Y100.191 E0.03881 ; perimeter
G1 X107.846 Y100.709 E0.03881 ; perimeter
G1 X107.913 Y101.000 E0.02228 ; perimeter
G1 X108.099 Y101.485 E0.03882 ; perimeter
G1 X108.243 Y101.746 E0.02228 ; perimeter
G1 X108.397 Y101.971 E0.02038 ; perimeter
G1 X108.572 Y102.181 E0.02038 ; perimeter
G1 X108.765 Y102.374 E0.02038 ; perimeter
G1 X108.975 Y102.548 E0.02038 ; perimeter
G1 X109.200 Y102.702 E0.02038 ; perimeter
G1 X109.997 Y103.146 E0.06812 ; perimeter
G1 X109.926 Y103.422 E0.02134 ; perimeter
G1 X103.650 Y103.421 E0.46870 ; perimeter
G1 X103.650 Y97.074 E0.47405 ; perimeter
G1 X104.298 Y97.336 F6000.000 ; move inwards before travel
G1 X104.398 Y97.708 F6000.000 ; move to first perimeter point
G1 X107.909 Y97.707 E0.26218 F780.000 ; perimeter
G1 X107.440 Y98.539 E0.07127 ; perimeter
G1 X107.301 Y98.852 E0.02559 ; perimeter
G1 X107.192 Y99.177 E0.02559 ; perimeter
G1 X107.114 Y99.510 E0.02559 ; perimeter
G1 X107.066 Y99.850 E0.02559 ; perimeter
G1 X107.050 Y100.191 E0.02555 ; perimeter
G1 X107.066 Y100.533 E0.02556 ; perimeter
G1 X107.114 Y100.873 E0.02559 ; perimeter
G1 X107.192 Y101.206 E0.02559 ; perimeter
G1 X107.301 Y101.531 E0.02559 ; perimeter
G1 X107.440 Y101.844 E0.02559 ; perimeter
G1 X107.909 Y102.675 E0.07122 ; perimeter
G1 X104.398 Y102.675 E0.26215 ; perimeter
G1 X104.398 Y97.820 E0.36258 ; perimeter
G1 F1800.000 E-2.40000 ; retract
G1 X106.982 Y98.257 F6000.000 ; move to first fill point
G1 E2.40000 F1800.000 ; compensate retraction
G1 X106.965 Y98.239 E0.00208 F900.000 ; fill
G1 X105.781 Y98.238 E0.09887 ; fill
G1 X106.659 Y99.117 E0.10373 ; fill
G1 X106.519 Y100.160 E0.08784 ; fill
G1 X104.931 Y98.572 E0.18742 ; fill
G1 X104.931 Y99.756 E0.09879 ; fill
G1 X106.756 Y101.581 E0.21548 ; fill
G1 X106.134 Y102.142 E0.06994 ; fill
G1 X104.931 Y100.939 E0.14206 ; fill
G1 X104.931 Y102.122 E0.09879 ; fill
G1 X104.951 Y102.142 E0.00236 ; fill
G1 F1800.000 E-2.40000 ; retract
G1 X96.350 Y103.421 F6000.000 ; move to first perimeter point
G1 E2.40000 F1800.000 ; compensate retraction
G1 X90.075 Y103.422 E0.46869 F780.000 ; perimeter
G1 X90.003 Y103.146 E0.02135 ; perimeter
G1 X90.788 Y102.708 E0.06714 ; perimeter
G1 X91.035 Y102.540 E0.02228 ; perimeter
G1 X91.244 Y102.365 E0.02038 ; perimeter
G1 X91.437 Y102.172 E0.02037 ; perimeter
G1 X91.750 Y101.757 E0.03882 ; perimeter
G1 X91.896 Y101.497 E0.02228 ; perimeter
G1 X92.005 Y101.247 E0.02038 ; perimeter
G1 X92.091 Y100.987 E0.02038 ; perimeter
G1 X92.186 Y100.477 E0.03882 ; perimeter
G1 X92.200 Y100.179 E0.02228 ; perimeter
G1 X92.152 Y99.661 E0.03882 ; perimeter
G1 X92.083 Y99.371 E0.02228 ; perimeter
G1 X91.896 Y98.886 E0.03882 ; perimeter
G1 X91.750 Y98.626 E0.02228 ; perimeter
G1 X91.437 Y98.211 E0.03882 ; perimeter
G1 X91.244 Y98.018 E0.02038 ; perimeter
G1 X91.035 Y97.843 E0.02038 ; perimeter
G1 X90.788 Y97.675 E0.02228 ; perimeter
G1 X90.000 Y97.235 E0.06740 ; perimeter
G1 X90.072 Y96.957 E0.02150 ; perimeter
G1 X96.350 Y96.962 E0.46884 ; perimeter
G1 X96.350 Y103.309 E0.47402 ; perimeter
G1 X95.702 Y103.047 F6000.000 ; move inwards before travel
G1 X95.602 Y102.675 F6000.000 ; move to first perimeter point
G1 X92.097 Y102.675 E0.26172 F780.000 ; perimeter
G1 X92.545 Y101.871 E0.06874 ; perimeter
G1 X92.708 Y101.503 E0.03006 ; perimeter
G1 X92.815 Y101.177 E0.02559 ; perimeter
G1 X92.891 Y100.843 E0.02558 ; perimeter
G1 X92.935 Y100.504 E0.02558 ; perimeter
G1 X92.948 Y100.161 E0.02559 ; perimeter
G1 X92.935 Y99.879 E0.02110 ; perimeter
G1 X92.891 Y99.539 E0.02558 ; perimeter
G1 X92.815 Y99.206 E0.02558 ; perimeter
G1 X92.708 Y98.880 E0.02559 ; perimeter
G1 X92.545 Y98.512 E0.03006 ; perimeter
G1 X92.096 Y97.705 E0.06897 ; perimeter
G1 X95.602 Y97.709 E0.26183 ; perimeter
G1 X95.602 Y102.563 E0.36248 ; perimeter
G1 F1800.000 E-2.40000 ; retract
G1 X93.033 Y102.142 F6000.000 ; move to first fill point
G1 E2.40000 F1800.000 ; compensate retraction
G1 X93.015 Y102.125 E0.00208 F900.000 ; fill
G1 X93.341 Y101.267 E0.07663 ; fill
G1 X94.216 Y102.142 E0.10340 ; fill
G1 X95.069 Y101.811 E0.07637 ; fill
G1 X93.479 Y100.221 E0.18773 ; fill
G1 X93.243 Y98.802 E0.12014 ; fill
G1 X95.069 Y100.628 E0.21558 ; fill
G1 X95.069 Y99.444 E0.09883 ; fill
G1 X93.863 Y98.238 E0.14239 ; fill
G1 X95.049 Y98.241 E0.09901 ; fill
G1 X95.069 Y98.261 E0.00236 ; fill
M104 S190 ; set temperature
G1 F1800.000 E-2.40000 ; retract
G1 Z0.480 F6000.000 ; move to next layer (1)
G1 X103.500 Y96.123 F6000.000 ; move to first perimeter point
G1 E2.40000 F1800.000 ; compensate retraction
G1 X110.500 Y96.123 E0.57143 F1560 ; perimeter
G1 X110.500 Y96.562 E0.03582 ; perimeter
G1 X110.500 Y97.402 E0.04189 F853.458 ; perimeter
G1 X109.990 Y97.496 E0.02587 ; perimeter
G1 X109.744 Y97.578 E0.01293 ; perimeter
G1 X109.478 Y97.698 E0.01455 ; perimeter
G1 X109.066 Y97.954 E0.02421 ; perimeter
G1 X108.867 Y98.119 E0.01293 ; perimeter
G1 X108.517 Y98.501 E0.02583 ; perimeter
G1 X108.244 Y98.941 E0.02583 ; perimeter
G1 X108.129 Y99.209 E0.01455 ; perimeter
G1 X107.998 Y99.676 E0.02421 ; perimeter
G1 X107.950 Y100.191 E0.02582 ; perimeter
G1 X107.998 Y100.707 E0.02582 ; perimeter
G1 X108.129 Y101.174 E0.02421 ; perimeter
G1 X108.244 Y101.442 E0.01455 ; perimeter
G1 X108.517 Y101.881 E0.02583 ; perimeter
G1 X108.867 Y102.264 E0.02583 ; perimeter
G1 X109.066 Y102.429 E0.01293 ; perimeter
G1 X109.478 Y102.685 E0.02421 ; perimeter
G1 X109.744 Y102.805 E0.01455 ; perimeter
G1 X109.990 Y102.886 E0.01293 ; perimeter
G1 X110.500 Y102.981 E0.02587 ; perimeter
G1 X110.500 Y103.820 E0.04186 ; perimeter
G1 X110.500 Y104.260 E0.03588 F1560 ; perimeter
G1 X108.607 Y104.263 E0.15453 ; perimeter
G1 X103.500 Y104.260 E0.41690 ; perimeter
G1 X103.500 Y103.820 E0.03588 ; perimeter
G1 X103.500 Y96.563 E0.36207 F853.458 ; perimeter
G1 X103.500 Y96.198 E0.02976 F1560 ; perimeter
G1 X103.933 Y96.373 F6000.000 ; move inwards before travel
G1 X104.000 Y96.622 F6000.000 ; move to first perimeter point
G1 X110.130 Y96.623 E0.30583 F853.458 ; perimeter
G1 X110.176 Y96.906 E0.01433 ; perimeter
G1 X109.567 Y97.110 E0.03202 ; perimeter
G1 X109.288 Y97.233 E0.01525 ; perimeter
G1 X109.020 Y97.381 E0.01525 ; perimeter
G1 X108.767 Y97.553 E0.01525 ; perimeter
G1 X108.532 Y97.747 E0.01525 ; perimeter
G1 X108.315 Y97.963 E0.01525 ; perimeter
G1 X108.119 Y98.198 E0.01525 ; perimeter
G1 X107.946 Y98.450 E0.01525 ; perimeter
G1 X107.797 Y98.717 E0.01525 ; perimeter
G1 X107.655 Y99.049 E0.01802 ; perimeter
G1 X107.576 Y99.286 E0.01247 ; perimeter
G1 X107.506 Y99.583 E0.01525 ; perimeter
G1 X107.463 Y99.886 E0.01525 ; perimeter
G1 X107.449 Y100.191 E0.01524 ; perimeter
G1 X107.463 Y100.496 E0.01524 ; perimeter
G1 X107.506 Y100.799 E0.01525 ; perimeter
G1 X107.576 Y101.097 E0.01525 ; perimeter
G1 X107.655 Y101.334 E0.01247 ; perimeter
G1 X107.797 Y101.666 E0.01802 ; perimeter
G1 X107.946 Y101.933 E0.01525 ; perimeter
G1 X108.119 Y102.185 E0.01525 ; perimeter
G1 X108.315 Y102.420 E0.01525 ; perimeter
G1 X108.532 Y102.635 E0.01525 ; perimeter
G1 X108.767 Y102.830 E0.01525 ; perimeter
G1 X109.020 Y103.002 E0.01525 ; perimeter
G1 X109.288 Y103.150 E0.01525 ; perimeter
G1 X109.567 Y103.273 E0.01525 ; perimeter
G1 X110.176 Y103.477 E0.03205 ; perimeter
G1 X110.131 Y103.760 E0.01432 ; perimeter
G1 X104.000 Y103.760 E0.30585 ; perimeter
G1 X104.000 Y96.697 E0.35239 ; perimeter
G1 X104.372 Y96.975 F6000.000 ; move to first fill point
G1 X104.352 Y96.995 E0.00146 F984.759 ; fill
G1 X104.352 Y97.728 E0.03797 ; fill
G1 X105.106 Y96.975 E0.05516 ; fill
G1 X105.840 Y96.975 E0.03797 ; fill
G1 X104.352 Y98.462 E0.10885 ; fill
G1 X104.352 Y99.195 E0.03797 ; fill
G1 X106.573 Y96.975 E0.16255 ; fill
G1 X107.308 Y96.974 E0.03801 ; fill
G1 X104.352 Y99.929 E0.21631 ; fill
G1 X104.352 Y100.663 E0.03797 ; fill
G1 X108.042 Y96.973 E0.27009 ; fill
G1 X108.776 Y96.973 E0.03798 ; fill
G1 X104.352 Y101.396 E0.32380 ; fill
G1 X104.352 Y102.130 E0.03797 ; fill
G1 X107.219 Y99.263 E0.20983 ; fill
G1 X107.100 Y100.116 E0.04457 ; fill
G1 X104.352 Y102.863 E0.20110 ; fill
G1 X104.541 Y103.408 E0.02984 ; fill
G1 X107.150 Y100.800 E0.19093 ; fill
G1 X107.300 Y101.383 E0.03118 ; fill
G1 X105.275 Y103.408 E0.14822 ; fill
G1 X106.009 Y103.408 E0.03797 ; fill
G1 X107.521 Y101.895 E0.11072 ; fill
G1 X107.803 Y102.347 E0.02757 ; fill
G1 X106.742 Y103.408 E0.07763 ; fill
G1 X107.476 Y103.408 E0.03797 ; fill
G1 X108.143 Y102.740 E0.04885 ; fill
G1 X108.210 Y103.408 E0.03471 ; fill
G1 X108.529 Y103.089 E0.02337 ; fill
G1 X108.943 Y103.408 E0.02707 ; fill
G1 X108.960 Y103.391 E0.00126 ; fill
G1 F1800.000 E-2.40000 ; retract
G1 X96.500 Y104.260 F6000.000 ; move to first perimeter point
G1 E2.40000 F1800.000 ; compensate retraction
G1 X89.500 Y104.260 E0.57143 F1560 ; perimeter
G1 X89.500 Y103.820 E0.03588 ; perimeter
G1 X89.500 Y102.981 E0.04186 F853.458 ; perimeter
G1 X90.025 Y102.882 E0.02668 ; perimeter
G1 X90.271 Y102.799 E0.01293 ; perimeter
G1 X90.705 Y102.583 E0.02421 ; perimeter
G1 X90.946 Y102.419 E0.01455 ; perimeter
G1 X91.145 Y102.252 E0.01293 ; perimeter
G1 X91.492 Y101.868 E0.02583 ; perimeter
G1 X91.748 Y101.456 E0.02421 ; perimeter
G1 X91.866 Y101.189 E0.01455 ; perimeter
G1 X92.005 Y100.691 E0.02583 ; perimeter
G1 X92.050 Y100.208 E0.02421 ; perimeter
G1 X92.005 Y99.692 E0.02582 ; perimeter
G1 X91.938 Y99.408 E0.01455 ; perimeter
G1 X91.763 Y98.956 E0.02421 ; perimeter
G1 X91.492 Y98.514 E0.02583 ; perimeter
G1 X91.145 Y98.130 E0.02583 ; perimeter
G1 X90.946 Y97.964 E0.01293 ; perimeter
G1 X90.705 Y97.800 E0.01455 ; perimeter
G1 X90.271 Y97.584 E0.02421 ; perimeter
G1 X90.025 Y97.501 E0.01293 ; perimeter
G1 X89.500 Y97.402 E0.02668 ; perimeter
G1 X89.500 Y96.561 E0.04193 ; perimeter
G1 X89.500 Y96.123 E0.03580 F1560 ; perimeter
G1 X93.420 Y96.120 E0.31997 ; perimeter
G1 X96.500 Y96.123 E0.25146 ; perimeter
G1 X96.500 Y96.562 E0.03583 ; perimeter
G1 X96.500 Y103.820 E0.36209 F853.458 ; perimeter
G1 X96.500 Y104.185 E0.02976 F1560 ; perimeter
G1 X96.067 Y104.010 F6000.000 ; move inwards before travel
G1 X96.000 Y103.760 F6000.000 ; move to first perimeter point
G1 X89.877 Y103.760 E0.30547 F853.458 ; perimeter
G1 X89.830 Y103.493 E0.01354 ; perimeter
G1 X90.458 Y103.263 E0.03338 ; perimeter
G1 X90.737 Y103.138 E0.01525 ; perimeter
G1 X91.003 Y102.987 E0.01525 ; perimeter
G1 X91.254 Y102.813 E0.01525 ; perimeter
G1 X91.488 Y102.616 E0.01525 ; perimeter
G1 X91.703 Y102.399 E0.01525 ; perimeter
G1 X91.897 Y102.162 E0.01525 ; perimeter
G1 X92.068 Y101.909 E0.01525 ; perimeter
G1 X92.215 Y101.641 E0.01525 ; perimeter
G1 X92.415 Y101.123 E0.02770 ; perimeter
G1 X92.498 Y100.772 E0.01802 ; perimeter
G1 X92.538 Y100.469 E0.01525 ; perimeter
G1 X92.550 Y100.164 E0.01525 ; perimeter
G1 X92.498 Y99.611 E0.02770 ; perimeter
G1 X92.431 Y99.313 E0.01525 ; perimeter
G1 X92.336 Y99.022 E0.01525 ; perimeter
G1 X92.189 Y98.692 E0.01802 ; perimeter
G1 X91.897 Y98.220 E0.02770 ; perimeter
G1 X91.703 Y97.984 E0.01525 ; perimeter
G1 X91.488 Y97.766 E0.01525 ; perimeter
G1 X91.254 Y97.570 E0.01525 ; perimeter
G1 X91.003 Y97.395 E0.01525 ; perimeter
G1 X90.737 Y97.245 E0.01525 ; perimeter
G1 X90.458 Y97.120 E0.01525 ; perimeter
G1 X89.825 Y96.888 E0.03366 ; perimeter
G1 X89.872 Y96.620 E0.01359 ; perimeter
G1 X96.000 Y96.623 E0.30571 ; perimeter
G1 X96.000 Y103.685 E0.35236 ; perimeter
G1 X95.648 Y103.388 F6000.000 ; move to first fill point
G1 X95.628 Y103.408 E0.00146 F984.759 ; fill
G1 X94.894 Y103.408 E0.03801 ; fill
G1 X95.648 Y102.654 E0.05522 ; fill
G1 X95.648 Y101.920 E0.03801 ; fill
G1 X94.160 Y103.408 E0.10898 ; fill
G1 X93.426 Y103.408 E0.03801 ; fill
G1 X95.648 Y101.186 E0.16273 ; fill
G1 X95.648 Y100.452 E0.03801 ; fill
G1 X92.692 Y103.408 E0.21649 ; fill
G1 X91.958 Y103.408 E0.03801 ; fill
G1 X95.648 Y99.718 E0.27025 ; fill
G1 X95.648 Y98.984 E0.03801 ; fill
G1 X91.224 Y103.408 E0.32400 ; fill
G1 F1800.000 E-2.40000 ; retract
G1 X92.779 Y101.119 F6000.000 ; move to first fill point
G1 E2.40000 F1800.000 ; compensate retraction
G1 X95.648 Y98.250 E0.21011 F984.759 ; fill
G1 X95.648 Y97.516 E0.03801 ; fill
G1 X92.899 Y100.265 E0.20133 ; fill
G1 X92.850 Y99.580 E0.03556 ; fill
G1 X95.455 Y96.975 E0.19081 ; fill
G1 X94.722 Y96.974 E0.03797 ; fill
G1 X92.698 Y98.997 E0.14819 ; fill
G1 X92.476 Y98.485 E0.02889 ; fill
G1 X93.989 Y96.973 E0.11079 ; fill
G1 X93.255 Y96.972 E0.03798 ; fill
G1 X92.195 Y98.032 E0.07766 ; fill
G1 X91.856 Y97.637 E0.02696 ; fill
G1 X92.521 Y96.972 E0.04872 ; fill
G1 X91.787 Y96.972 E0.03801 ; fill
G1 X91.469 Y97.290 E0.02328 ; fill
G1 X91.053 Y96.972 E0.02712 ; fill
G1 X91.036 Y96.989 E0.00126 ; fill
G1 F1800.000 E-2.40000 ; retract
G1 Z0.720 F6000.000 ; move to next layer (2)
G1 X103.500 Y95.674 F6000.000 ; move to first perimeter point
G1 E2.40000 F1800.000 ; compensate retraction
G1 X110.500 Y95.674 E0.57143 F1560 ; perimeter
G1 X110.500 Y95.873 E0.01626 ; perimeter
G1 X110.500 Y97.402 E0.07625 F942.164 ; perimeter
G1 X109.993 Y97.496 E0.02573 ; perimeter
G1 X109.509 Y97.681 E0.02585 ; perimeter
G1 X109.068 Y97.953 E0.02585 ; perimeter
G1 X108.684 Y98.301 E0.02585 ; perimeter
G1 X108.371 Y98.714 E0.02585 ; perimeter
G1 X108.140 Y99.177 E0.02585 ; perimeter
G1 X107.998 Y99.676 E0.02585 ; perimeter
G1 X107.950 Y100.191 E0.02584 ; perimeter
G1 X107.998 Y100.707 E0.02584 ; perimeter
G1 X108.140 Y101.205 E0.02585 ; perimeter
G1 X108.371 Y101.669 E0.02585 ; perimeter
G1 X108.684 Y102.082 E0.02585 ; perimeter
G1 X109.068 Y102.430 E0.02585 ; perimeter
G1 X109.509 Y102.702 E0.02585 ; perimeter
