; generated by Slic3r 1.0.1 on 2014-09-23 at 22:15:04

; layer_height = 0.24
; perimeters = 2
; top_solid_layers = 4
; bottom_solid_layers = 3
; fill_density = 0.25
; perimeter_speed = 30
; infill_speed = 30
; travel_speed = 100
; nozzle_diameter = 0.5
; filament_diameter = 1.75
; extrusion_multiplier = 1
; perimeters extrusion width = 0.50mm
; infill extrusion width = 0.50mm
; solid infill extrusion width = 0.50mm
; top infill extrusion width = 0.50mm
; first layer extrusion width = 0.80mm

G21 ; set units to millimeters
M107 ; disable fan
M190 S57 ; wait for bed temperature to be reached
M104 S200 ; set temperature

M109 S200 ; wait for temperature to be reached
G90 ; use absolute coordinates
M83 ; use relative distances for extrusion
G1 F1800.000 E-2.40000 ; retract
G1 Z0.240 F6000.000 ; move to next layer (0)
G1 X92.890 Y93.196 F6000.000 ; move to first skirt point
G1 E2.40000 F1800.000 ; compensate retraction
G1 X93.880 Y92.446 E0.09276 F900.000 ; skirt
G1 X95.020 Y91.966 E0.09238 ; skirt
G1 X96.250 Y91.806 E0.09264 ; skirt
G1 X103.750 Y91.806 E0.56014 ; skirt
G1 X104.980 Y91.966 E0.09264 ; skirt
G1 X106.120 Y92.446 E0.09238 ; skirt
G1 X107.110 Y93.196 E0.09276 ; skirt
G1 X107.860 Y94.186 E0.09276 ; skirt
G1 X108.340 Y95.326 E0.09238 ; skirt
G1 X108.500 Y96.556 E0.09264 ; skirt
G1 X108.500 Y103.816 E0.54221 ; skirt
G1 X108.340 Y105.046 E0.09264 ; skirt
G1 X107.860 Y106.186 E0.09238 ; skirt
G1 X107.110 Y107.176 E0.09276 ; skirt
G1 X106.120 Y107.926 E0.09276 ; skirt
G1 X104.980 Y108.406 E0.09238 ; skirt
G1 X103.750 Y108.566 E0.09264 ; skirt
G1 X96.250 Y108.566 E0.56014 ; skirt
G1 X95.020 Y108.406 E0.09264 ; skirt
G1 X93.880 Y107.926 E0.09238 ; skirt
G1 X92.890 Y107.176 E0.09276 ; skirt
G1 X92.140 Y106.186 E0.09276 ; skirt
G1 X91.660 Y105.046 E0.09238 ; skirt
G1 X91.500 Y103.816 E0.09264 ; skirt
G1 X91.500 Y96.556 E0.54221 ; skirt
G1 X91.660 Y95.326 E0.09264 ; skirt
G1 X92.140 Y94.186 E0.09238 ; skirt
G1 X92.822 Y93.286 E0.08437 ; skirt
G1 F1800.000 E-2.40000 ; retract
G1 X96.650 Y96.961 F6000.000 ; move to first perimeter point
G1 E2.40000 F1800.000 ; compensate retraction
G1 X102.925 Y96.960 E0.46866 F780.000 ; perimeter
G1 X102.997 Y97.237 E0.02135 ; perimeter
G1 X102.200 Y97.681 E0.06808 ; perimeter
G1 X101.975 Y97.835 E0.02038 ; perimeter
G1 X101.765 Y98.009 E0.02038 ; perimeter
G1 X101.572 Y98.202 E0.02038 ; perimeter
G1 X101.397 Y98.411 E0.02038 ; perimeter
G1 X101.243 Y98.636 E0.02038 ; perimeter
G1 X101.099 Y98.898 E0.02228 ; perimeter
G1 X100.913 Y99.383 E0.03882 ; perimeter
G1 X100.846 Y99.674 E0.02228 ; perimeter
G1 X100.800 Y100.191 E0.03881 ; perimeter
G1 X100.846 Y100.709 E0.03881 ; perimeter
G1 X100.913 Y101.000 E0.02228 ; perimeter
G1 X101.099 Y101.485 E0.03882 ; perimeter
G1 X101.243 Y101.746 E0.02228 ; perimeter
G1 X101.397 Y101.971 E0.02038 ; perimeter
G1 X101.572 Y102.181 E0.02038 ; perimeter
G1 X101.765 Y102.374 E0.02038 ; perimeter
G1 X101.975 Y102.548 E0.02038 ; perimeter
G1 X102.200 Y102.702 E0.02038 ; perimeter
G1 X102.997 Y103.146 E0.06812 ; perimeter
G1 X102.926 Y103.422 E0.02134 ; perimeter
G1 X96.650 Y103.421 E0.46870 ; perimeter
G1 X96.650 Y97.074 E0.47405 ; perimeter
G1 X97.298 Y97.336 F6000.000 ; move inwards before travel
G1 X97.398 Y97.708 F6000.000 ; move to first perimeter point
G1 X100.909 Y97.707 E0.26218 F780.000 ; perimeter
G1 X100.440 Y98.539 E0.07127 ; perimeter
G1 X100.301 Y98.852 E0.02559 ; perimeter
G1 X100.192 Y99.177 E0.02559 ; perimeter
G1 X100.114 Y99.510 E0.02559 ; perimeter
G1 X100.066 Y99.850 E0.02559 ; perimeter
G1 X100.050 Y100.191 E0.02555 ; perimeter
G1 X100.066 Y100.533 E0.02556 ; perimeter
G1 X100.114 Y100.873 E0.02559 ; perimeter
G1 X100.192 Y101.206 E0.02559 ; perimeter
G1 X100.301 Y101.531 E0.02559 ; perimeter
G1 X100.440 Y101.844 E0.02559 ; perimeter
G1 X100.909 Y102.675 E0.07122 ; perimeter
G1 X97.398 Y102.675 E0.26215 ; perimeter
G1 X97.398 Y97.820 E0.36258 ; perimeter
G1 F1800.000 E-2.40000 ; retract
G1 X99.982 Y98.257 F6000.000 ; move to first fill point
G1 E2.40000 F1800.000 ; compensate retraction
G1 X99.965 Y98.239 E0.00208 F900.000 ; fill
G1 X98.781 Y98.238 E0.09887 ; fill
G1 X99.659 Y99.117 E0.10373 ; fill
G1 X99.519 Y100.160 E0.08784 ; fill
G1 X97.931 Y98.572 E0.18742 ; fill
G1 X97.931 Y99.756 E0.09879 ; fill
G1 X99.756 Y101.581 E0.21548 ; fill
G1 X99.134 Y102.142 E0.06994 ; fill
G1 X97.931 Y100.939 E0.14206 ; fill
G1 X97.931 Y102.122 E0.09879 ; fill
G1 X97.951 Y102.142 E0.00236 ; fill
M104 S190 ; set temperature
G1 F1800.000 E-2.40000 ; retract
G1 Z0.480 F6000.000 ; move to next layer (1)
G1 X98.451 Y104.263 F6000.000 ; move to first perimeter point
G1 E2.40000 F1800.000 ; compensate retraction
G1 X96.500 Y104.260 E0.15925 F1560 ; perimeter
G1 X96.500 Y103.820 E0.03588 ; perimeter
G1 X96.500 Y96.563 E0.36207 F600.000 ; perimeter
G1 X96.500 Y96.123 E0.03588 F1560 ; perimeter
G1 X98.306 Y96.120 E0.14743 ; perimeter
G1 X103.500 Y96.123 E0.42399 ; perimeter
G1 X103.500 Y96.562 E0.03582 ; perimeter
G1 X103.500 Y97.402 E0.04189 F600.000 ; perimeter
G1 X102.990 Y97.496 E0.02587 ; perimeter
G1 X102.744 Y97.578 E0.01293 ; perimeter
G1 X102.478 Y97.698 E0.01455 ; perimeter
G1 X102.066 Y97.954 E0.02421 ; perimeter
G1 X101.867 Y98.119 E0.01293 ; perimeter
G1 X101.517 Y98.501 E0.02583 ; perimeter
G1 X101.244 Y98.941 E0.02583 ; perimeter
G1 X101.129 Y99.209 E0.01455 ; perimeter
G1 X100.998 Y99.676 E0.02421 ; perimeter
G1 X100.950 Y100.191 E0.02582 ; perimeter
G1 X100.998 Y100.707 E0.02582 ; perimeter
G1 X101.129 Y101.174 E0.02421 ; perimeter
G1 X101.244 Y101.442 E0.01455 ; perimeter
G1 X101.517 Y101.881 E0.02583 ; perimeter
G1 X101.867 Y102.264 E0.02583 ; perimeter
G1 X102.066 Y102.429 E0.01293 ; perimeter
G1 X102.478 Y102.685 E0.02421 ; perimeter
G1 X102.744 Y102.805 E0.01455 ; perimeter
G1 X102.990 Y102.886 E0.01293 ; perimeter
G1 X103.500 Y102.981 E0.02587 ; perimeter
G1 X103.500 Y103.820 E0.04186 ; perimeter
G1 X103.500 Y104.260 E0.03588 F1560 ; perimeter
G1 X98.526 Y104.263 E0.40605 ; perimeter
G1 X98.201 Y103.830 F6000.000 ; move inwards before travel
G1 X98.451 Y103.763 F6000.000 ; move to first perimeter point
G1 X97.000 Y103.760 E0.07239 F600.000 ; perimeter
G1 X97.000 Y96.622 E0.35613 ; perimeter
G1 X103.130 Y96.623 E0.30583 ; perimeter
G1 X103.176 Y96.906 E0.01433 ; perimeter
G1 X102.567 Y97.110 E0.03202 ; perimeter
G1 X102.288 Y97.233 E0.01525 ; perimeter
G1 X102.020 Y97.381 E0.01525 ; perimeter
G1 X101.767 Y97.553 E0.01525 ; perimeter
G1 X101.532 Y97.747 E0.01525 ; perimeter
G1 X101.315 Y97.963 E0.01525 ; perimeter
G1 X101.119 Y98.198 E0.01525 ; perimeter
G1 X100.946 Y98.450 E0.01525 ; perimeter
G1 X100.797 Y98.717 E0.01525 ; perimeter
G1 X100.655 Y99.049 E0.01802 ; perimeter
G1 X100.576 Y99.286 E0.01247 ; perimeter
G1 X100.506 Y99.583 E0.01525 ; perimeter
G1 X100.463 Y99.886 E0.01525 ; perimeter
G1 X100.449 Y100.191 E0.01524 ; perimeter
G1 X100.463 Y100.496 E0.01524 ; perimeter
G1 X100.506 Y100.799 E0.01525 ; perimeter
G1 X100.576 Y101.097 E0.01525 ; perimeter
G1 X100.655 Y101.334 E0.01247 ; perimeter
G1 X100.797 Y101.666 E0.01802 ; perimeter
G1 X100.946 Y101.933 E0.01525 ; perimeter
G1 X101.119 Y102.185 E0.01525 ; perimeter
G1 X101.315 Y102.420 E0.01525 ; perimeter
G1 X101.532 Y102.635 E0.01525 ; perimeter
G1 X101.767 Y102.830 E0.01525 ; perimeter
G1 X102.020 Y103.002 E0.01525 ; perimeter
G1 X102.288 Y103.150 E0.01525 ; perimeter
G1 X102.567 Y103.273 E0.01525 ; perimeter
G1 X103.176 Y103.477 E0.03205 ; perimeter
G1 X103.131 Y103.760 E0.01432 ; perimeter
G1 X98.526 Y103.763 E0.22973 ; perimeter
G1 F1800.000 E-2.40000 ; retract
G1 X101.960 Y103.391 F6000.000 ; move to first fill point
G1 E2.40000 F1800.000 ; compensate retraction
G1 X101.943 Y103.408 E0.00126 F600.000 ; fill
G1 X101.529 Y103.089 E0.02707 ; fill
G1 X101.210 Y103.408 E0.02337 ; fill
G1 X101.143 Y102.740 E0.03471 ; fill
G1 X100.476 Y103.408 E0.04885 ; fill
G1 X99.742 Y103.408 E0.03797 ; fill
G1 X100.803 Y102.347 E0.07763 ; fill
G1 X100.521 Y101.895 E0.02757 ; fill
G1 X99.009 Y103.408 E0.11072 ; fill
G1 X98.275 Y103.408 E0.03797 ; fill
G1 X100.300 Y101.383 E0.14822 ; fill
G1 X100.150 Y100.800 E0.03118 ; fill
G1 X97.541 Y103.408 E0.19093 ; fill
G1 X97.352 Y102.863 E0.02984 ; fill
G1 X100.100 Y100.116 E0.20110 ; fill
G1 X100.219 Y99.263 E0.04457 ; fill
G1 X97.352 Y102.130 E0.20983 ; fill
G1 X97.352 Y101.396 E0.03797 ; fill
G1 X101.776 Y96.973 E0.32380 ; fill
G1 X101.042 Y96.973 E0.03798 ; fill
G1 X97.352 Y100.663 E0.27009 ; fill
G1 X97.352 Y99.929 E0.03797 ; fill
G1 X100.308 Y96.974 E0.21631 ; fill
G1 X99.573 Y96.975 E0.03801 ; fill
G1 X97.352 Y99.195 E0.16255 ; fill
G1 X97.352 Y98.462 E0.03797 ; fill
G1 X98.840 Y96.975 E0.10885 ; fill
G1 X98.106 Y96.975 E0.03797 ; fill
G1 X97.352 Y97.728 E0.05516 ; fill
G1 X97.352 Y96.995 E0.03797 ; fill
G1 X97.372 Y96.975 E0.00146 ; fill
G1 F1800.000 E-2.40000 ; retract
G1 Z0.720 F6000.000 ; move to next layer (2)
G1 X96.500 Y95.674 F6000.000 ; move to first perimeter point
G1 E2.40000 F1800.000 ; compensate retraction
G1 X103.500 Y95.674 E0.57143 F1560 ; perimeter
G1 X103.500 Y95.873 E0.01626 ; perimeter
G1 X103.500 Y97.402 E0.07625 F600.000 ; perimeter
G1 X102.993 Y97.496 E0.02573 ; perimeter
G1 X102.509 Y97.681 E0.02585 ; perimeter
G1 X102.068 Y97.953 E0.02585 ; perimeter
G1 X101.684 Y98.301 E0.02585 ; perimeter
G1 X101.371 Y98.714 E0.02585 ; perimeter
G1 X101.140 Y99.177 E0.02585 ; perimeter
G1 X100.998 Y99.676 E0.02585 ; perimeter
G1 X100.950 Y100.191 E0.02584 ; perimeter
G1 X100.998 Y100.707 E0.02584 ; perimeter
G1 X101.140 Y101.205 E0.02585 ; perimeter
G1 X101.371 Y101.669 E0.02585 ; perimeter
G1 X101.684 Y102.082 E0.02585 ; perimeter
G1 X102.068 Y102.430 E0.02585 ; perimeter
G1 X102.509 Y102.702 E0.02585 ; perimeter
G1 X102.993 Y102.887 E0.02585 ; perimeter
G1 X103.500 Y102.981 E0.02573 ; perimeter
G1 X103.500 Y104.509 E0.07623 ; perimeter
G1 X103.500 Y104.709 E0.01630 F1560 ; perimeter
G1 X100.678 Y104.713 E0.23037 ; perimeter
G1 X96.500 Y104.709 E0.34106 ; perimeter
G1 X96.500 Y104.509 E0.01630 ; perimeter
G1 X96.500 Y95.874 E0.43083 F600.000 ; perimeter
G1 X96.500 Y95.749 E0.01017 F1560 ; perimeter
G1 X96.933 Y95.924 F6000.000 ; move inwards before travel
G1 X97.000 Y96.173 F6000.000 ; move to first perimeter point
G1 X103.000 Y96.173 E0.29934 F600.000 ; perimeter
G1 X103.000 Y96.969 E0.03970 ; perimeter
G1 X102.570 Y97.109 E0.02256 ; perimeter
G1 X102.290 Y97.231 E0.01526 ; perimeter
G1 X102.022 Y97.379 E0.01526 ; perimeter
G1 X101.769 Y97.551 E0.01526 ; perimeter
G1 X101.533 Y97.746 E0.01526 ; perimeter
G1 X101.316 Y97.962 E0.01526 ; perimeter
G1 X101.120 Y98.197 E0.01526 ; perimeter
G1 X100.947 Y98.449 E0.01526 ; perimeter
G1 X100.769 Y98.779 E0.01873 ; perimeter
G1 X100.576 Y99.285 E0.02702 ; perimeter
G1 X100.496 Y99.652 E0.01872 ; perimeter
G1 X100.449 Y100.191 E0.02701 ; perimeter
G1 X100.496 Y100.731 E0.02701 ; perimeter
G1 X100.576 Y101.097 E0.01873 ; perimeter
G1 X100.769 Y101.603 E0.02702 ; perimeter
G1 X100.947 Y101.934 E0.01873 ; perimeter
G1 X101.120 Y102.186 E0.01526 ; perimeter
G1 X101.316 Y102.421 E0.01526 ; perimeter
G1 X101.533 Y102.637 E0.01526 ; perimeter
G1 X101.769 Y102.831 E0.01526 ; perimeter
G1 X102.022 Y103.003 E0.01526 ; perimeter
G1 X102.290 Y103.151 E0.01526 ; perimeter
G1 X102.570 Y103.274 E0.01526 ; perimeter
G1 X103.000 Y103.414 E0.02256 ; perimeter
G1 X103.000 Y104.209 E0.03971 ; perimeter
G1 X97.000 Y104.209 E0.29934 ; perimeter
G1 X97.000 Y96.248 E0.39719 ; perimeter
G1 F1800.000 E-2.40000 ; retract
G1 X101.744 Y96.524 F6000.000 ; move to first fill point
G1 E2.40000 F1800.000 ; compensate retraction
G1 X101.770 Y96.549 E0.00184 F600.000 ; fill
G1 X101.497 Y97.008 E0.02754 ; fill
G1 X101.012 Y96.523 E0.03537 ; fill
G1 X100.280 Y96.523 E0.03778 ; fill
G1 X101.062 Y97.305 E0.05711 ; fill
G1 X100.628 Y97.603 E0.02716 ; fill
G1 X99.549 Y96.524 E0.07876 ; fill
G1 X98.818 Y96.524 E0.03773 ; fill
G1 X100.615 Y98.321 E0.13116 ; fill
G1 X100.378 Y98.815 E0.02830 ; fill
G1 X98.087 Y96.525 E0.16720 ; fill
G1 X97.364 Y96.533 E0.03732 ; fill
G1 X100.198 Y99.366 E0.20680 ; fill
G1 X100.111 Y100.011 E0.03359 ; fill
G1 X97.352 Y97.253 E0.20136 ; fill
G1 X97.352 Y97.985 E0.03776 ; fill
G1 X100.146 Y100.778 E0.20394 ; fill
G1 X100.519 Y101.882 F6000.000 ; move to first fill point
G1 X97.352 Y98.716 E0.23113 F600.000 ; fill
G1 X97.352 Y99.448 E0.03776 ; fill
G1 X101.754 Y103.849 E0.32126 ; fill
G1 X101.030 Y103.857 E0.03734 ; fill
G1 X97.352 Y100.179 E0.26846 ; fill
G1 X97.352 Y100.911 E0.03776 ; fill
G1 X100.299 Y103.857 E0.21506 ; fill
G1 X99.567 Y103.857 E0.03776 ; fill
G1 X97.352 Y101.642 E0.16166 ; fill
G1 X97.352 Y102.374 E0.03776 ; fill
G1 X98.836 Y103.857 E0.10826 ; fill
G1 X98.104 Y103.857 E0.03776 ; fill
G1 X97.352 Y103.105 E0.05486 ; fill
G1 X97.352 Y103.837 E0.03776 ; fill
G1 X97.372 Y103.857 E0.00146 ; fill
G1 F1800.000 E-2.40000 ; retract
G1 X102.227 Y103.853 F6000.000 ; move to first fill point
G1 E2.40000 F1800.000 ; compensate retraction
G1 X102.634 Y103.654 E0.01935 F600.000 ; fill
G1 X102.660 Y103.680 E0.00156 F600.000 ; fill
G1 X102.245 Y103.870 F6000.000 ; move to first fill point
G1 X102.227 Y103.853 E0.00109 F600.000 ; fill
G1 F1800.000 E-2.40000 ; retract
G1 X102.338 Y96.839 F6000.000 ; move to first fill point
G1 E2.40000 F1800.000 ; compensate retraction
G1 X102.315 Y96.816 E0.00142 F600.000 ; fill
G1 X102.640 Y96.513 E0.01968 F600.000 ; fill
G1 X102.660 Y96.533 E0.00125 F600.000 ; fill
M106 S255 ; enable fan
G1 F1800.000 E-2.40000 ; retract
G1 Z0.960 F6000.000 ; move to next layer (3)
G1 X102.938 Y97.513 F6000.000 ; move to first perimeter point
G1 E2.40000 F1800.000 ; compensate retraction
G1 X102.511 Y97.680 E0.02285 F600.000 ; perimeter
G1 X102.070 Y97.951 E0.02587 ; perimeter
G1 X101.685 Y98.300 E0.02587 ; perimeter
G1 X101.372 Y98.713 E0.02587 ; perimeter
G1 X101.140 Y99.177 E0.02587 ; perimeter
G1 X101.043 Y99.481 E0.01596 ; perimeter
G1 X100.962 Y99.932 E0.02285 ; perimeter
G1 X100.962 Y100.451 E0.02586 ; perimeter
G1 X101.057 Y100.960 E0.02587 ; perimeter
G1 X101.245 Y101.443 E0.02587 ; perimeter
G1 X101.519 Y101.884 E0.02587 ; perimeter
G1 X101.826 Y102.224 E0.02285 ; perimeter
G1 X102.070 Y102.431 E0.01596 ; perimeter
G1 X102.511 Y102.703 E0.02587 ; perimeter
G1 X102.996 Y102.888 E0.02587 ; perimeter
G1 X103.500 Y102.981 E0.02559 ; perimeter
G1 X103.500 Y104.958 E0.09864 ; perimeter
M106 S255 ; enable fan
G1 X103.500 Y105.056 E0.00800 F1560 ; perimeter
G1 X102.422 Y105.058 E0.08796 ; perimeter
G1 X96.500 Y105.056 E0.48346 ; perimeter
G1 X96.500 Y104.958 E0.00800 ; perimeter
M106 S255 ; enable fan
G1 X96.500 Y95.424 E0.47567 F600.000 ; perimeter
M106 S255 ; enable fan
G1 X96.500 Y95.326 E0.00798 F1560 ; perimeter
G1 X97.524 Y95.325 E0.08357 ; perimeter
G1 X103.500 Y95.326 E0.48786 ; perimeter
G1 X103.500 Y95.424 E0.00797 ; perimeter
M106 S255 ; enable fan
G1 X103.500 Y97.401 E0.09866 F600.000 ; perimeter
G1 X103.010 Y97.491 E0.02487 ; perimeter
G1 X102.792 Y97.377 F6000.000 ; move inwards before travel
G1 X102.783 Y97.037 F6000.000 ; move to first perimeter point
G1 X102.292 Y97.230 E0.02634 F600.000 ; perimeter
G1 X102.024 Y97.378 E0.01527 ; perimeter
G1 X101.771 Y97.550 E0.01527 ; perimeter
G1 X101.475 Y97.803 E0.01943 ; perimeter
G1 X101.121 Y98.196 E0.02634 ; perimeter
G1 X100.947 Y98.448 E0.01527 ; perimeter
G1 X100.798 Y98.715 E0.01527 ; perimeter
G1 X100.647 Y99.074 E0.01943 ; perimeter
G1 X100.506 Y99.583 E0.02634 ; perimeter
G1 X100.463 Y99.886 E0.01527 ; perimeter
G1 X100.449 Y100.191 E0.01526 ; perimeter
G1 X100.463 Y100.497 E0.01526 ; perimeter
G1 X100.506 Y100.800 E0.01527 ; perimeter
G1 X100.647 Y101.309 E0.02634 ; perimeter
G1 X100.798 Y101.668 E0.01943 ; perimeter
G1 X100.947 Y101.935 E0.01527 ; perimeter
G1 X101.121 Y102.187 E0.01527 ; perimeter
G1 X101.317 Y102.422 E0.01527 ; perimeter
G1 X101.534 Y102.638 E0.01527 ; perimeter
G1 X101.771 Y102.833 E0.01527 ; perimeter
G1 X102.024 Y103.005 E0.01527 ; perimeter
G1 X102.292 Y103.152 E0.01527 ; perimeter
G1 X102.572 Y103.275 E0.01527 ; perimeter
G1 X103.000 Y103.413 E0.02242 ; perimeter
