; generated by Slic3r 1.0.1 on 2014-09-21 at 17:25:14

; layer_height = 0.24
; perimeters = 2
; top_solid_layers = 4
; bottom_solid_layers = 3
; fill_density = 0.25
; perimeter_speed = 30
; infill_speed = 30
; travel_speed = 100
; nozzle_diameter = 0.5
; filament_diameter = 1.75
; extrusion_multiplier = 1
; perimeters extrusion width = 0.50mm
; infill extrusion width = 0.50mm
; solid infill extrusion width = 0.50mm
; top infill extrusion width = 0.50mm
; first layer extrusion width = 0.80mm

G21 ; set units to millimeters
M107 ; disable fan
M190 S57 ; wait for bed temperature to be reached
M104 S200 ; set temperature

M109 S200 ; wait for temperature to be reached
G90 ; use absolute coordinates
M83 ; use relative distances for extrusion
G1 F1800.000 E-2.40000 ; retract
G1 Z0.240 F6000.000 ; move to next layer (0)
G1 X42.000 Y58.276 F6000.000 ; move to first skirt point
G1 E2.40000 F1800.000 ; compensate retraction
G1 X43.390 Y57.516 E0.11832 F900.000 ; skirt
G1 X44.950 Y57.246 E0.11824 ; skirt
G1 X159.150 Y57.246 E8.52905 ; skirt
G1 X159.730 Y57.286 E0.04342 ; skirt
G1 X160.300 Y57.386 E0.04322 ; skirt
G1 X168.300 Y59.386 E0.61587 ; skirt
G1 X169.450 Y59.846 E0.09250 ; skirt
G1 X170.450 Y60.576 E0.09247 ; skirt
G1 X171.220 Y61.546 E0.09250 ; skirt
G1 X171.710 Y62.686 E0.09267 ; skirt
G1 X171.900 Y63.906 E0.09221 ; skirt
G1 X172.600 Y102.906 E2.91319 ; skirt
G1 X172.600 Y137.996 E2.62070 ; skirt
G1 X172.440 Y139.226 E0.09264 ; skirt
G1 X171.960 Y140.366 E0.09238 ; skirt
G1 X171.210 Y141.356 E0.09276 ; skirt
G1 X170.220 Y142.106 E0.09276 ; skirt
G1 X169.080 Y142.586 E0.09238 ; skirt
G1 X167.850 Y142.746 E0.09264 ; skirt
G1 X40.150 Y142.746 E9.53730 ; skirt
G1 X39.570 Y142.706 E0.04342 ; skirt
G1 X39.000 Y142.606 E0.04322 ; skirt
G1 X31.000 Y140.606 E0.61587 ; skirt
G1 X29.830 Y140.136 E0.09417 ; skirt
G1 X28.830 Y139.386 E0.09336 ; skirt
G1 X28.050 Y138.396 E0.09413 ; skirt
G1 X27.570 Y137.236 E0.09376 ; skirt
G1 X27.400 Y135.996 E0.09348 ; skirt
G1 X27.400 Y104.996 E2.31524 ; skirt
G1 X29.450 Y72.036 E2.46638 ; skirt
G1 X29.530 Y71.386 E0.04891 ; skirt
G1 X29.660 Y70.736 E0.04951 ; skirt
G1 X29.890 Y69.926 E0.06289 ; skirt
G1 X30.330 Y68.846 E0.08710 ; skirt
G1 X30.610 Y68.286 E0.04676 ; skirt
G1 X30.950 Y67.716 E0.04957 ; skirt
G1 X31.270 Y67.246 E0.04247 ; skirt
G1 X31.700 Y66.706 E0.05155 ; skirt
G1 X32.160 Y66.196 E0.05129 ; skirt
G1 X32.640 Y65.736 E0.04965 ; skirt
G1 X33.140 Y65.316 E0.04877 ; skirt
G1 X41.912 Y58.346 E0.83678 ; skirt
G1 F1800.000 E-2.40000 ; retract
G1 X40.550 Y103.396 F6000.000 ; move to first perimeter point
G1 E2.40000 F1800.000 ; compensate retraction
G1 X60.799 Y103.396 E1.51235 F900.000 ; perimeter
G1 X60.799 Y111.497 E0.60496 ; perimeter
G1 X71.599 Y111.497 E0.80660 ; perimeter
G1 X71.599 Y103.396 E0.60496 ; perimeter
G1 X78.800 Y103.396 E0.53776 ; perimeter
G1 X78.800 Y105.396 E0.14937 ; perimeter
G1 X87.600 Y105.396 E0.65723 ; perimeter
G1 X87.600 Y103.396 E0.14937 ; perimeter
G1 X128.450 Y103.396 E3.05086 ; perimeter
G1 X128.450 Y111.497 E0.60496 ; perimeter
G1 X139.250 Y111.497 E0.80660 ; perimeter
G1 X139.250 Y103.396 E0.60496 ; perimeter
G1 X146.450 Y103.396 E0.53776 ; perimeter
G1 X146.450 Y105.396 E0.14937 ; perimeter
G1 X155.250 Y105.396 E0.65723 ; perimeter
G1 X155.250 Y103.396 E0.14937 ; perimeter
G1 X167.450 Y103.396 E0.91118 ; perimeter
G1 X167.450 Y110.996 E0.56760 ; perimeter
G1 X166.767 Y110.996 E0.05100 ; perimeter
G1 X166.465 Y110.587 E0.03803 ; perimeter
G1 X166.231 Y110.309 E0.02711 ; perimeter
G1 X165.979 Y110.048 E0.02711 ; perimeter
G1 X165.445 Y109.593 E0.05244 ; perimeter
G1 X165.127 Y109.372 E0.02885 ; perimeter
G1 X164.816 Y109.186 E0.02711 ; perimeter
G1 X164.493 Y109.021 E0.02710 ; perimeter
G1 X163.840 Y108.763 E0.05244 ; perimeter
G1 X163.468 Y108.657 E0.02885 ; perimeter
G1 X163.113 Y108.581 E0.02711 ; perimeter
G1 X162.392 Y108.502 E0.05418 ; perimeter
G1 X161.667 Y108.518 E0.05418 ; perimeter
G1 X161.307 Y108.561 E0.02711 ; perimeter
G1 X160.621 Y108.713 E0.05244 ; perimeter
G1 X160.254 Y108.833 E0.02885 ; perimeter
G1 X159.918 Y108.970 E0.02710 ; perimeter
G1 X159.275 Y109.307 E0.05419 ; perimeter
G1 X158.973 Y109.507 E0.02710 ; perimeter
G1 X158.426 Y109.949 E0.05245 ; perimeter
G1 X158.151 Y110.220 E0.02885 ; perimeter
G1 X157.911 Y110.492 E0.02710 ; perimeter
G1 X157.689 Y110.779 E0.02711 ; perimeter
G1 X157.316 Y111.374 E0.05245 ; perimeter
G1 X157.143 Y111.719 E0.02884 ; perimeter
G1 X157.004 Y112.054 E0.02710 ; perimeter
G1 X156.799 Y112.726 E0.05245 ; perimeter
G1 X156.727 Y113.081 E0.02710 ; perimeter
G1 X156.676 Y113.464 E0.02885 ; perimeter
G1 X156.652 Y113.827 E0.02711 ; perimeter
G1 X156.676 Y114.528 E0.05244 ; perimeter
G1 X156.723 Y114.888 E0.02711 ; perimeter
G1 X156.887 Y115.595 E0.05417 ; perimeter
G1 X157.004 Y115.938 E0.02711 ; perimeter
G1 X157.153 Y116.295 E0.02884 ; perimeter
G1 X157.316 Y116.619 E0.02711 ; perimeter
G1 X157.689 Y117.214 E0.05244 ; perimeter
G1 X157.911 Y117.501 E0.02711 ; perimeter
G1 X158.168 Y117.790 E0.02885 ; perimeter
G1 X158.683 Y118.266 E0.05244 ; perimeter
G1 X158.972 Y118.486 E0.02711 ; perimeter
G1 X159.275 Y118.686 E0.02711 ; perimeter
G1 X159.612 Y118.876 E0.02885 ; perimeter
G1 X160.254 Y119.159 E0.05244 ; perimeter
G1 X160.599 Y119.273 E0.02711 ; perimeter
G1 X160.950 Y119.364 E0.02709 ; perimeter
G1 X161.330 Y119.435 E0.02885 ; perimeter
G1 X162.029 Y119.495 E0.05244 ; perimeter
G1 X162.392 Y119.491 E0.02711 ; perimeter
G1 X163.113 Y119.411 E0.05418 ; perimeter
G1 X163.468 Y119.336 E0.02711 ; perimeter
G1 X163.840 Y119.230 E0.02885 ; perimeter
G1 X164.493 Y118.972 E0.05243 ; perimeter
G1 X164.816 Y118.807 E0.02711 ; perimeter
G1 X165.127 Y118.621 E0.02711 ; perimeter
G1 X165.445 Y118.400 E0.02885 ; perimeter
G1 X165.979 Y117.945 E0.05244 ; perimeter
G1 X166.231 Y117.683 E0.02710 ; perimeter
G1 X166.465 Y117.406 E0.02711 ; perimeter
G1 X166.767 Y116.996 E0.03802 ; perimeter
G1 X167.450 Y116.996 E0.05100 ; perimeter
G1 X167.450 Y124.003 E0.52332 ; perimeter
G1 X166.779 Y124.003 E0.05010 ; perimeter
G1 X166.477 Y123.592 E0.03816 ; perimeter
G1 X166.242 Y123.314 E0.02717 ; perimeter
G1 X165.990 Y123.052 E0.02716 ; perimeter
G1 X165.455 Y122.595 E0.05256 ; perimeter
G1 X165.137 Y122.373 E0.02891 ; perimeter
G1 X164.825 Y122.186 E0.02716 ; perimeter
G1 X164.501 Y122.020 E0.02717 ; perimeter
G1 X163.847 Y121.761 E0.05256 ; perimeter
G1 X163.475 Y121.655 E0.02891 ; perimeter
G1 X163.119 Y121.579 E0.02717 ; perimeter
G1 X162.396 Y121.499 E0.05430 ; perimeter
G1 X161.669 Y121.514 E0.05430 ; perimeter
G1 X161.308 Y121.558 E0.02717 ; perimeter
G1 X160.621 Y121.710 E0.05255 ; perimeter
G1 X160.253 Y121.830 E0.02892 ; perimeter
G1 X159.916 Y121.967 E0.02716 ; perimeter
G1 X159.272 Y122.305 E0.05431 ; perimeter
G1 X158.968 Y122.505 E0.02716 ; perimeter
G1 X158.421 Y122.947 E0.05256 ; perimeter
G1 X158.145 Y123.219 E0.02892 ; perimeter
G1 X157.904 Y123.491 E0.02717 ; perimeter
G1 X157.682 Y123.779 E0.02716 ; perimeter
G1 X157.307 Y124.375 E0.05256 ; perimeter
G1 X157.135 Y124.721 E0.02891 ; perimeter
G1 X156.995 Y125.057 E0.02716 ; perimeter
G1 X156.789 Y125.730 E0.05256 ; perimeter
G1 X156.717 Y126.086 E0.02717 ; perimeter
G1 X156.666 Y126.470 E0.02891 ; perimeter
G1 X156.642 Y126.833 E0.02717 ; perimeter
G1 X156.643 Y127.197 E0.02716 ; perimeter
G1 X156.713 Y127.897 E0.05256 ; perimeter
G1 X156.878 Y128.605 E0.05431 ; perimeter
G1 X156.995 Y128.950 E0.02716 ; perimeter
G1 X157.144 Y129.307 E0.02891 ; perimeter
G1 X157.479 Y129.926 E0.05256 ; perimeter
G1 X157.682 Y130.228 E0.02717 ; perimeter
G1 X157.904 Y130.516 E0.02716 ; perimeter
G1 X158.161 Y130.805 E0.02891 ; perimeter
G1 X158.679 Y131.282 E0.05256 ; perimeter
G1 X158.969 Y131.502 E0.02717 ; perimeter
G1 X159.272 Y131.702 E0.02716 ; perimeter
G1 X159.609 Y131.893 E0.02891 ; perimeter
G1 X160.253 Y132.177 E0.05256 ; perimeter
G1 X160.599 Y132.291 E0.02717 ; perimeter
G1 X160.951 Y132.381 E0.02717 ; perimeter
G1 X161.331 Y132.452 E0.02891 ; perimeter
G1 X162.033 Y132.512 E0.05256 ; perimeter
G1 X162.396 Y132.508 E0.02717 ; perimeter
G1 X163.119 Y132.427 E0.05430 ; perimeter
G1 X163.475 Y132.352 E0.02716 ; perimeter
G1 X163.847 Y132.245 E0.02892 ; perimeter
G1 X164.501 Y131.986 E0.05256 ; perimeter
G1 X164.825 Y131.820 E0.02717 ; perimeter
G1 X165.137 Y131.633 E0.02716 ; perimeter
G1 X165.455 Y131.412 E0.02891 ; perimeter
G1 X165.990 Y130.955 E0.05256 ; perimeter
G1 X166.242 Y130.693 E0.02717 ; perimeter
G1 X166.477 Y130.415 E0.02717 ; perimeter
G1 X166.779 Y130.003 E0.03815 ; perimeter
G1 X167.450 Y130.003 E0.05010 ; perimeter
G1 X167.450 Y137.604 E0.56762 ; perimeter
G1 X155.250 Y137.604 E0.91118 ; perimeter
G1 X155.250 Y135.604 E0.14937 ; perimeter
G1 X146.450 Y135.604 E0.65723 ; perimeter
G1 X146.450 Y137.604 E0.14937 ; perimeter
G1 X87.600 Y137.604 E4.39522 ; perimeter
G1 X87.600 Y135.604 E0.14937 ; perimeter
G1 X78.800 Y135.604 E0.65723 ; perimeter
G1 X78.800 Y137.604 E0.14937 ; perimeter
G1 X40.550 Y137.604 E2.85671 ; perimeter
G1 X40.550 Y135.604 E0.14937 ; perimeter
G1 X32.550 Y135.604 E0.59749 ; perimeter
G1 X32.550 Y105.396 E2.25602 ; perimeter
G1 X40.550 Y105.396 E0.59749 ; perimeter
G1 X40.550 Y103.509 E0.14099 ; perimeter
G1 X41.198 Y103.771 F6000.000 ; move inwards before travel
G1 F1800.000 E-2.40000 ; retract
G1 X162.454 Y120.319 F6000.000 ; move to first perimeter point
G1 E2.40000 F1800.000 ; compensate retraction
G1 X163.685 Y120.053 E0.09410 F780.000 ; perimeter
G1 X164.424 Y119.816 E0.05799 ; perimeter
G1 X164.803 Y119.654 E0.03078 ; perimeter
G1 X165.171 Y119.466 E0.03082 ; perimeter
G1 X165.565 Y119.229 E0.03437 ; perimeter
G1 X165.903 Y118.992 E0.03080 ; perimeter
G1 X166.702 Y118.355 E0.07629 ; perimeter
G1 X166.702 Y122.633 E0.31945 ; perimeter
G1 X165.875 Y121.974 E0.07894 ; perimeter
G1 X165.535 Y121.739 E0.03088 ; perimeter
G1 X165.180 Y121.527 E0.03084 ; perimeter
G1 X164.477 Y121.194 E0.05811 ; perimeter
G1 X164.043 Y121.038 E0.03444 ; perimeter
G1 X163.645 Y120.926 E0.03085 ; perimeter
G1 X162.453 Y120.670 E0.09106 ; perimeter
G1 X162.454 Y120.431 E0.01783 ; perimeter
G1 X161.871 Y120.298 F6000.000 ; move to first perimeter point
G1 X161.871 Y120.692 E0.02936 F900.000 ; perimeter
G1 X160.778 Y120.897 E0.08303 ; perimeter
G1 X160.031 Y121.115 E0.05811 ; perimeter
G1 X159.647 Y121.267 E0.03085 ; perimeter
G1 X159.274 Y121.445 E0.03086 ; perimeter
G1 X158.914 Y121.647 E0.03087 ; perimeter
G1 X158.567 Y121.872 E0.03085 ; perimeter
G1 X158.199 Y122.149 E0.03444 ; perimeter
G1 X157.627 Y122.677 E0.05811 ; perimeter
G1 X157.321 Y123.022 E0.03444 ; perimeter
G1 X156.864 Y123.652 E0.05811 ; perimeter
G1 X156.632 Y124.050 E0.03444 ; perimeter
G1 X156.449 Y124.421 E0.03087 ; perimeter
G1 X156.291 Y124.803 E0.03085 ; perimeter
G1 X156.063 Y125.546 E0.05810 ; perimeter
G1 X155.973 Y125.999 E0.03445 ; perimeter
G1 X155.896 Y126.773 E0.05811 ; perimeter
G1 X155.896 Y127.234 E0.03444 ; perimeter
G1 X155.973 Y128.008 E0.05810 ; perimeter
G1 X156.052 Y128.414 E0.03087 ; perimeter
G1 X156.159 Y128.813 E0.03086 ; perimeter
G1 X156.291 Y129.204 E0.03085 ; perimeter
G1 X156.449 Y129.586 E0.03085 ; perimeter
G1 X156.632 Y129.957 E0.03086 ; perimeter
G1 X156.839 Y130.314 E0.03086 ; perimeter
G1 X157.069 Y130.658 E0.03087 ; perimeter
G1 X157.321 Y130.985 E0.03085 ; perimeter
G1 X157.594 Y131.295 E0.03086 ; perimeter
G1 X157.887 Y131.586 E0.03087 ; perimeter
G1 X158.199 Y131.857 E0.03084 ; perimeter
G1 X158.528 Y132.107 E0.03088 ; perimeter
G1 X158.873 Y132.335 E0.03084 ; perimeter
G1 X159.232 Y132.540 E0.03086 ; perimeter
G1 X159.603 Y132.720 E0.03088 ; perimeter
G1 X159.986 Y132.876 E0.03084 ; perimeter
G1 X160.378 Y133.006 E0.03087 ; perimeter
G1 X160.778 Y133.110 E0.03086 ; perimeter
G1 X161.184 Y133.187 E0.03084 ; perimeter
G1 X161.594 Y133.237 E0.03088 ; perimeter
G1 X162.007 Y133.260 E0.03085 ; perimeter
G1 X162.420 Y133.256 E0.03087 ; perimeter
G1 X162.832 Y133.225 E0.03084 ; perimeter
G1 X163.241 Y133.166 E0.03087 ; perimeter
G1 X163.645 Y133.081 E0.03085 ; perimeter
G1 X164.043 Y132.969 E0.03089 ; perimeter
G1 X164.433 Y132.831 E0.03085 ; perimeter
G1 X164.812 Y132.667 E0.03086 ; perimeter
G1 X165.222 Y132.456 E0.03445 ; perimeter
G1 X165.875 Y132.033 E0.05811 ; perimeter
G1 X166.702 Y131.374 E0.07895 ; perimeter
G1 X166.702 Y136.855 E0.40935 ; perimeter
G1 X155.998 Y136.855 E0.79938 ; perimeter
G1 X155.998 Y134.855 E0.14937 ; perimeter
G1 X145.701 Y134.855 E0.76903 ; perimeter
G1 X145.701 Y136.855 E0.14937 ; perimeter
G1 X88.348 Y136.855 E4.28342 ; perimeter
G1 X88.348 Y134.855 E0.14937 ; perimeter
G1 X78.051 Y134.855 E0.76903 ; perimeter
G1 X78.051 Y136.855 E0.14937 ; perimeter
G1 X41.298 Y136.855 E2.74491 ; perimeter
G1 X41.298 Y134.855 E0.14937 ; perimeter
G1 X33.298 Y134.855 E0.59749 ; perimeter
G1 X33.298 Y106.145 E2.14421 ; perimeter
G1 X41.298 Y106.145 E0.59749 ; perimeter
G1 X41.298 Y104.145 E0.14937 ; perimeter
G1 X60.051 Y104.145 E1.40054 ; perimeter
G1 X60.051 Y112.245 E0.60496 ; perimeter
G1 X72.348 Y112.245 E0.91840 ; perimeter
G1 X72.348 Y104.145 E0.60496 ; perimeter
G1 X78.051 Y104.145 E0.42596 ; perimeter
G1 X78.051 Y106.145 E0.14937 ; perimeter
G1 X88.348 Y106.145 E0.76903 ; perimeter
G1 X88.348 Y104.145 E0.14937 ; perimeter
G1 X127.701 Y104.145 E2.93906 ; perimeter
G1 X127.701 Y112.245 E0.60496 ; perimeter
G1 X139.998 Y112.245 E0.91840 ; perimeter
G1 X139.998 Y104.145 E0.60496 ; perimeter
G1 X145.701 Y104.145 E0.42596 ; perimeter
G1 X145.701 Y106.145 E0.14937 ; perimeter
G1 X155.998 Y106.145 E0.76903 ; perimeter
G1 X155.998 Y104.145 E0.14937 ; perimeter
G1 X166.702 Y104.145 E0.79938 ; perimeter
G1 X166.702 Y109.637 E0.41020 ; perimeter
G1 X165.864 Y108.972 E0.07988 ; perimeter
G1 X165.213 Y108.550 E0.05797 ; perimeter
G1 X164.803 Y108.339 E0.03438 ; perimeter
G1 X164.425 Y108.177 E0.03080 ; perimeter
G1 X164.036 Y108.039 E0.03080 ; perimeter
G1 X163.639 Y107.928 E0.03080 ; perimeter
G1 X163.235 Y107.843 E0.03080 ; perimeter
G1 X162.827 Y107.785 E0.03080 ; perimeter
G1 X162.416 Y107.754 E0.03079 ; perimeter
G1 X162.003 Y107.750 E0.03081 ; perimeter
G1 X161.592 Y107.773 E0.03077 ; perimeter
G1 X161.182 Y107.823 E0.03081 ; perimeter
G1 X160.777 Y107.901 E0.03082 ; perimeter
G1 X160.378 Y108.004 E0.03076 ; perimeter
G1 X159.987 Y108.134 E0.03083 ; perimeter
G1 X159.605 Y108.290 E0.03077 ; perimeter
G1 X159.234 Y108.470 E0.03081 ; perimeter
G1 X158.876 Y108.674 E0.03081 ; perimeter
G1 X158.532 Y108.902 E0.03078 ; perimeter
G1 X158.204 Y109.152 E0.03082 ; perimeter
G1 X157.893 Y109.422 E0.03079 ; perimeter
G1 X157.600 Y109.713 E0.03080 ; perimeter
G1 X157.328 Y110.023 E0.03079 ; perimeter
G1 X157.076 Y110.349 E0.03081 ; perimeter
G1 X156.847 Y110.692 E0.03079 ; perimeter
G1 X156.640 Y111.049 E0.03080 ; perimeter
G1 X156.458 Y111.419 E0.03079 ; perimeter
G1 X156.300 Y111.800 E0.03080 ; perimeter
G1 X156.168 Y112.191 E0.03081 ; perimeter
G1 X155.990 Y112.946 E0.05798 ; perimeter
G1 X155.930 Y113.403 E0.03438 ; perimeter
G1 X155.904 Y113.814 E0.03081 ; perimeter
G1 X155.906 Y114.226 E0.03079 ; perimeter
G1 X155.982 Y114.999 E0.05800 ; perimeter
G1 X156.062 Y115.404 E0.03079 ; perimeter
G1 X156.168 Y115.802 E0.03079 ; perimeter
G1 X156.317 Y116.238 E0.03440 ; perimeter
G1 X156.640 Y116.944 E0.05797 ; perimeter
G1 X156.847 Y117.301 E0.03081 ; perimeter
G1 X157.076 Y117.643 E0.03079 ; perimeter
G1 X157.328 Y117.970 E0.03081 ; perimeter
G1 X157.600 Y118.280 E0.03079 ; perimeter
G1 X157.928 Y118.603 E0.03438 ; perimeter
G1 X158.532 Y119.091 E0.05798 ; perimeter
G1 X158.876 Y119.318 E0.03080 ; perimeter
G1 X159.234 Y119.523 E0.03080 ; perimeter
G1 X159.649 Y119.722 E0.03438 ; perimeter
G1 X160.378 Y119.989 E0.05800 ; perimeter
G1 X160.824 Y120.103 E0.03436 ; perimeter
G1 X161.761 Y120.278 E0.07116 ; perimeter
G1 F1800.000 E-2.40000 ; retract
G1 X68.136 Y130.271 F6000.000 ; move to first perimeter point
G1 E2.40000 F1800.000 ; compensate retraction
G1 X68.150 Y130.500 E0.01714 F780.000 ; perimeter
G1 X68.136 Y130.729 E0.01713 ; perimeter
G1 X68.095 Y130.954 E0.01716 ; perimeter
