; generated by Slic3r 1.0.1 on 2014-09-23 at 22:46:13

; layer_height = 0.24
; perimeters = 2
; top_solid_layers = 4
; bottom_solid_layers = 3
; fill_density = 0.25
; perimeter_speed = 30
; infill_speed = 30
; travel_speed = 100
; nozzle_diameter = 0.5
; filament_diameter = 1.75
; extrusion_multiplier = 1
; perimeters extrusion width = 0.50mm
; infill extrusion width = 0.50mm
; solid infill extrusion width = 0.50mm
; top infill extrusion width = 0.50mm
; first layer extrusion width = 0.80mm

G21 ; set units to millimeters
M107 ; disable fan
M190 S57 ; wait for bed temperature to be reached
M104 S200 ; set temperature

M109 S200 ; wait for temperature to be reached
G90 ; use absolute coordinates
M83 ; use relative distances for extrusion
G1 F1800.000 E-2.40000 ; retract
G1 Z0.240 F6000.000 ; move to next layer (0)
G1 X65.000 Y67.106 F6000.000 ; move to first skirt point
G1 E2.40000 F1800.000 ; compensate retraction
G1 X65.530 Y66.656 E0.05193 F900.000 ; skirt
G1 X66.030 Y66.296 E0.04601 ; skirt
G1 X66.580 Y66.006 E0.04644 ; skirt
G1 X67.350 Y65.676 E0.06257 ; skirt
G1 X68.160 Y65.466 E0.06250 ; skirt
G1 X68.690 Y65.376 E0.04015 ; skirt
G1 X69.460 Y65.346 E0.05755 ; skirt
G1 X96.630 Y65.736 E2.02941 ; skirt
G1 X120.540 Y67.136 E1.78878 ; skirt
G1 X121.090 Y67.196 E0.04132 ; skirt
G1 X121.710 Y67.306 E0.04703 ; skirt
G1 X122.320 Y67.456 E0.04692 ; skirt
G1 X122.950 Y67.656 E0.04937 ; skirt
G1 X137.040 Y72.786 E1.11989 ; skirt
G1 X137.590 Y73.006 E0.04424 ; skirt
G1 X138.240 Y73.326 E0.05411 ; skirt
G1 X138.750 Y73.626 E0.04419 ; skirt
G1 X139.280 Y73.986 E0.04785 ; skirt
G1 X139.750 Y74.356 E0.04467 ; skirt
G1 X140.280 Y74.846 E0.05391 ; skirt
G1 X140.700 Y75.296 E0.04597 ; skirt
G1 X141.170 Y75.886 E0.05634 ; skirt
G1 X141.500 Y76.376 E0.04412 ; skirt
G1 X141.820 Y76.936 E0.04817 ; skirt
G1 X142.080 Y77.466 E0.04409 ; skirt
G1 X142.390 Y78.236 E0.06199 ; skirt
G1 X142.560 Y78.816 E0.04514 ; skirt
G1 X142.690 Y79.406 E0.04512 ; skirt
G1 X142.790 Y80.106 E0.05281 ; skirt
G1 X142.840 Y81.026 E0.06881 ; skirt
G1 X142.840 Y111.486 E2.27491 ; skirt
G1 X142.820 Y112.106 E0.04633 ; skirt
G1 X142.750 Y112.786 E0.05105 ; skirt
G1 X142.640 Y113.406 E0.04703 ; skirt
G1 X142.490 Y114.006 E0.04619 ; skirt
G1 X142.300 Y114.606 E0.04700 ; skirt
G1 X142.000 Y115.366 E0.06102 ; skirt
G1 X141.740 Y115.876 E0.04275 ; skirt
G1 X137.170 Y123.746 E0.67968 ; skirt
G1 X136.600 Y124.586 E0.07582 ; skirt
G1 X136.230 Y125.046 E0.04409 ; skirt
G1 X135.770 Y125.536 E0.05019 ; skirt
G1 X135.330 Y125.946 E0.04492 ; skirt
G1 X134.800 Y126.376 E0.05097 ; skirt
G1 X134.310 Y126.716 E0.04454 ; skirt
G1 X133.680 Y127.086 E0.05457 ; skirt
G1 X119.450 Y134.016 E1.18210 ; skirt
G1 X118.950 Y134.226 E0.04050 ; skirt
G1 X118.610 Y134.346 E0.02693 ; skirt
G1 X118.020 Y134.506 E0.04566 ; skirt
G1 X117.410 Y134.596 E0.04605 ; skirt
G1 X117.040 Y134.626 E0.02772 ; skirt
G1 X116.360 Y134.636 E0.05079 ; skirt
G1 X90.420 Y132.986 E1.94125 ; skirt
G1 X89.810 Y132.916 E0.04586 ; skirt
G1 X64.390 Y127.966 E1.93416 ; skirt
G1 X63.680 Y127.806 E0.05436 ; skirt
G1 X62.980 Y127.596 E0.05458 ; skirt
G1 X62.420 Y127.376 E0.04494 ; skirt
G1 X61.750 Y127.046 E0.05578 ; skirt
G1 X61.240 Y126.746 E0.04419 ; skirt
G1 X60.710 Y126.386 E0.04785 ; skirt
G1 X60.240 Y126.016 E0.04467 ; skirt
G1 X59.710 Y125.526 E0.05391 ; skirt
G1 X59.300 Y125.086 E0.04492 ; skirt
G1 X58.870 Y124.556 E0.05097 ; skirt
G1 X58.530 Y124.066 E0.04454 ; skirt
G1 X58.150 Y123.416 E0.05623 ; skirt
G1 X57.890 Y122.876 E0.04476 ; skirt
G1 X57.620 Y122.176 E0.05603 ; skirt
G1 X57.450 Y121.606 E0.04442 ; skirt
G1 X57.280 Y120.876 E0.05598 ; skirt
G1 X57.200 Y120.266 E0.04595 ; skirt
G1 X57.160 Y119.676 E0.04417 ; skirt
G1 X57.150 Y78.336 E3.08749 ; skirt
G1 X57.180 Y77.816 E0.03890 ; skirt
G1 X57.250 Y77.186 E0.04734 ; skirt
G1 X57.360 Y76.556 E0.04776 ; skirt
G1 X57.510 Y75.956 E0.04619 ; skirt
G1 X57.710 Y75.356 E0.04724 ; skirt
G1 X57.940 Y74.776 E0.04660 ; skirt
G1 X58.250 Y74.136 E0.05311 ; skirt
G1 X58.570 Y73.586 E0.04752 ; skirt
G1 X58.950 Y73.016 E0.05116 ; skirt
G1 X59.340 Y72.526 E0.04677 ; skirt
G1 X59.740 Y72.086 E0.04441 ; skirt
G1 X60.190 Y71.646 E0.04700 ; skirt
G1 X64.918 Y67.183 E0.48560 ; skirt
G1 F1800.000 E-2.40000 ; retract
G1 X68.557 Y70.842 F6000.000 ; move to first perimeter point
G1 E2.40000 F1800.000 ; compensate retraction
G1 X68.761 Y70.672 E0.01979 F900.000 ; perimeter
G1 X68.876 Y70.607 E0.00992 ; perimeter
G1 X69.127 Y70.520 E0.01979 ; perimeter
G1 X69.391 Y70.496 E0.01980 ; perimeter
G1 X69.523 Y70.508 E0.00992 ; perimeter
G1 X69.788 Y70.583 E0.02056 ; perimeter
G1 X86.309 Y77.426 E1.33556 ; perimeter
G1 X90.185 Y77.426 E0.28945 ; perimeter
G1 X90.463 Y77.008 E0.03753 ; perimeter
G1 X90.810 Y76.586 E0.04080 ; perimeter
G1 X91.213 Y76.210 E0.04116 ; perimeter
G1 X91.663 Y75.892 E0.04120 ; perimeter
G1 X92.152 Y75.637 E0.04117 ; perimeter
G1 X92.668 Y75.450 E0.04098 ; perimeter
G1 X93.204 Y75.335 E0.04095 ; perimeter
G1 X93.725 Y75.276 E0.03914 ; perimeter
G1 X95.324 Y71.438 E0.31052 ; perimeter
G1 X95.481 Y71.224 E0.01979 ; perimeter
G1 X95.685 Y71.055 E0.01979 ; perimeter
G1 X95.923 Y70.939 E0.01979 ; perimeter
G1 X96.182 Y70.883 E0.01979 ; perimeter
G1 X96.447 Y70.891 E0.01979 ; perimeter
G1 X96.712 Y70.966 E0.02056 ; perimeter
G1 X112.309 Y77.426 E1.26087 ; perimeter
G1 X115.799 Y77.426 E0.26059 ; perimeter
G1 X115.712 Y76.680 E0.05608 ; perimeter
G1 X115.700 Y76.393 E0.02150 ; perimeter
G1 X115.734 Y75.818 E0.04298 ; perimeter
G1 X115.849 Y75.254 E0.04298 ; perimeter
G1 X116.042 Y74.712 E0.04298 ; perimeter
G1 X116.167 Y74.453 E0.02151 ; perimeter
G1 X116.468 Y73.963 E0.04298 ; perimeter
G1 X116.836 Y73.520 E0.04298 ; perimeter
G1 X117.042 Y73.319 E0.02150 ; perimeter
G1 X117.494 Y72.963 E0.04298 ; perimeter
G1 X117.992 Y72.673 E0.04298 ; perimeter
G1 X118.525 Y72.456 E0.04298 ; perimeter
G1 X119.083 Y72.316 E0.04298 ; perimeter
G1 X119.651 Y72.256 E0.04267 ; perimeter
G1 X120.227 Y72.276 E0.04299 ; perimeter
G1 X120.793 Y72.376 E0.04299 ; perimeter
G1 X121.086 Y72.461 E0.02274 ; perimeter
G1 X121.604 Y72.672 E0.04177 ; perimeter
G1 X122.115 Y72.970 E0.04422 ; perimeter
G1 X122.554 Y73.317 E0.04177 ; perimeter
G1 X122.760 Y73.518 E0.02151 ; perimeter
G1 X122.962 Y73.745 E0.02274 ; perimeter
G1 X123.288 Y74.200 E0.04177 ; perimeter
G1 X123.438 Y74.465 E0.02274 ; perimeter
G1 X123.661 Y74.977 E0.04177 ; perimeter
G1 X123.753 Y75.268 E0.02274 ; perimeter
G1 X123.864 Y75.816 E0.04177 ; perimeter
G1 X123.898 Y76.407 E0.04422 ; perimeter
G1 X123.886 Y76.678 E0.02028 ; perimeter
G1 X123.800 Y77.426 E0.05624 ; perimeter
G1 X134.369 Y77.437 E0.78935 ; perimeter
G1 X134.901 Y77.517 E0.04018 ; perimeter
G1 X135.161 Y77.586 E0.02011 ; perimeter
G1 X135.662 Y77.783 E0.04018 ; perimeter
G1 X136.128 Y78.052 E0.04018 ; perimeter
G1 X136.548 Y78.387 E0.04018 ; perimeter
G1 X136.914 Y78.782 E0.04018 ; perimeter
G1 X137.218 Y79.226 E0.04018 ; perimeter
G1 X137.451 Y79.711 E0.04018 ; perimeter
G1 X137.610 Y80.225 E0.04018 ; perimeter
G1 X137.660 Y80.490 E0.02011 ; perimeter
G1 X137.700 Y81.031 E0.04056 ; perimeter
G1 X137.700 Y86.351 E0.39732 ; perimeter
G1 X137.690 Y86.625 E0.02049 ; perimeter
G1 X137.610 Y87.157 E0.04018 ; perimeter
G1 X137.451 Y87.672 E0.04018 ; perimeter
G1 X137.218 Y88.156 E0.04018 ; perimeter
G1 X136.914 Y88.601 E0.04018 ; perimeter
G1 X136.548 Y88.995 E0.04018 ; perimeter
G1 X136.128 Y89.331 E0.04018 ; perimeter
G1 X135.662 Y89.600 E0.04018 ; perimeter
G1 X135.161 Y89.796 E0.04018 ; perimeter
G1 X134.637 Y89.916 E0.04018 ; perimeter
G1 X134.095 Y89.956 E0.04057 ; perimeter
G1 X112.855 Y89.956 E1.58629 ; perimeter
G1 X112.898 Y90.673 E0.05364 ; perimeter
G1 X112.895 Y90.964 E0.02169 ; perimeter
G1 X112.826 Y91.551 E0.04417 ; perimeter
G1 X112.677 Y92.112 E0.04336 ; perimeter
G1 X112.573 Y92.383 E0.02169 ; perimeter
G1 X112.309 Y92.901 E0.04336 ; perimeter
G1 X112.150 Y93.144 E0.02169 ; perimeter
G1 X111.783 Y93.593 E0.04337 ; perimeter
G1 X111.576 Y93.798 E0.02169 ; perimeter
G1 X111.356 Y93.987 E0.02170 ; perimeter
G1 X110.877 Y94.316 E0.04336 ; perimeter
G1 X110.357 Y94.574 E0.04336 ; perimeter
G1 X110.085 Y94.674 E0.02170 ; perimeter
G1 X109.522 Y94.817 E0.04336 ; perimeter
G1 X109.230 Y94.858 E0.02201 ; perimeter
G1 X108.666 Y94.879 E0.04214 ; perimeter
G1 X108.360 Y94.857 E0.02291 ; perimeter
G1 X107.789 Y94.755 E0.04335 ; perimeter
G1 X107.253 Y94.578 E0.04214 ; perimeter
G1 X106.974 Y94.452 E0.02291 ; perimeter
G1 X106.474 Y94.157 E0.04335 ; perimeter
G1 X106.032 Y93.806 E0.04214 ; perimeter
G1 X105.814 Y93.591 E0.02291 ; perimeter
G1 X105.456 Y93.154 E0.04214 ; perimeter
G1 X105.288 Y92.898 E0.02291 ; perimeter
G1 X105.024 Y92.381 E0.04335 ; perimeter
G1 X104.841 Y91.847 E0.04214 ; perimeter
G1 X104.772 Y91.548 E0.02291 ; perimeter
G1 X104.704 Y90.972 E0.04335 ; perimeter
G1 X104.701 Y90.681 E0.02169 ; perimeter
G1 X104.744 Y89.956 E0.05425 ; perimeter
G1 X99.309 Y89.956 E0.40586 ; perimeter
G1 X83.712 Y96.417 E1.26084 ; perimeter
G1 X83.447 Y96.491 E0.02059 ; perimeter
G1 X83.315 Y96.504 E0.00992 ; perimeter
G1 X83.051 Y96.480 E0.01979 ; perimeter
G1 X82.800 Y96.393 E0.01979 ; perimeter
G1 X82.578 Y96.249 E0.01980 ; perimeter
G1 X82.481 Y96.158 E0.00991 ; perimeter
G1 X82.324 Y95.945 E0.01979 ; perimeter
G1 X79.834 Y89.956 E0.48436 ; perimeter
G1 X70.131 Y89.946 E0.72469 ; perimeter
G1 X69.599 Y89.866 E0.04018 ; perimeter
G1 X69.085 Y89.707 E0.04019 ; perimeter
G1 X68.600 Y89.474 E0.04018 ; perimeter
G1 X68.156 Y89.171 E0.04018 ; perimeter
G1 X67.761 Y88.805 E0.04018 ; perimeter
G1 X67.426 Y88.384 E0.04018 ; perimeter
G1 X67.157 Y87.918 E0.04018 ; perimeter
G1 X66.960 Y87.417 E0.04018 ; perimeter
G1 X66.890 Y87.157 E0.02010 ; perimeter
G1 X66.810 Y86.625 E0.04018 ; perimeter
G1 X66.800 Y86.351 E0.02048 ; perimeter
G1 X66.800 Y82.620 E0.27871 ; perimeter
G1 X66.114 Y82.596 E0.05128 ; perimeter
G1 X65.547 Y82.516 E0.04278 ; perimeter
G1 X64.996 Y82.358 E0.04277 ; perimeter
G1 X64.473 Y82.125 E0.04277 ; perimeter
G1 X63.988 Y81.821 E0.04277 ; perimeter
G1 X63.549 Y81.452 E0.04277 ; perimeter
G1 X63.167 Y81.026 E0.04277 ; perimeter
G1 X62.847 Y80.551 E0.04277 ; perimeter
G1 X62.597 Y80.036 E0.04277 ; perimeter
G1 X62.420 Y79.491 E0.04277 ; perimeter
G1 X62.322 Y78.927 E0.04277 ; perimeter
G1 X62.303 Y78.355 E0.04277 ; perimeter
G1 X62.364 Y77.786 E0.04277 ; perimeter
G1 X62.504 Y77.230 E0.04277 ; perimeter
G1 X62.602 Y76.961 E0.02140 ; perimeter
G1 X62.854 Y76.447 E0.04277 ; perimeter
G1 X63.176 Y75.973 E0.04277 ; perimeter
G1 X63.560 Y75.549 E0.04277 ; perimeter
G1 X64.000 Y75.182 E0.04277 ; perimeter
G1 X64.486 Y74.880 E0.04277 ; perimeter
G1 X65.010 Y74.649 E0.04277 ; perimeter
G1 X65.561 Y74.493 E0.04277 ; perimeter
G1 X66.129 Y74.415 E0.04277 ; perimeter
G1 X66.415 Y74.406 E0.02140 ; perimeter
G1 X66.994 Y74.428 E0.04325 ; perimeter
G1 X68.337 Y71.184 E0.26228 ; perimeter
G1 X68.485 Y70.928 E0.02207 ; perimeter
G1 X68.814 Y70.908 F6000.000 ; move inwards before travel
G1 X69.179 Y71.165 F6000.000 ; move to first perimeter point
G1 X69.523 Y71.283 E0.02712 F900.000 ; perimeter
G1 X86.160 Y78.175 E1.34499 ; perimeter
G1 X91.201 Y78.175 E0.37641 ; perimeter
G1 X91.039 Y78.680 E0.03963 ; perimeter
G1 X90.976 Y79.000 E0.02431 ; perimeter
G1 X90.950 Y79.324 E0.02429 ; perimeter
G1 X90.961 Y79.649 E0.02431 ; perimeter
G1 X91.009 Y79.971 E0.02430 ; perimeter
G1 X91.093 Y80.285 E0.02431 ; perimeter
G1 X91.212 Y80.588 E0.02431 ; perimeter
G1 X91.366 Y80.875 E0.02430 ; perimeter
G1 X91.551 Y81.143 E0.02431 ; perimeter
G1 X91.765 Y81.388 E0.02431 ; perimeter
G1 X92.006 Y81.607 E0.02431 ; perimeter
G1 X92.270 Y81.797 E0.02432 ; perimeter
G1 X92.554 Y81.955 E0.02430 ; perimeter
G1 X92.855 Y82.081 E0.02430 ; perimeter
G1 X93.168 Y82.171 E0.02431 ; perimeter
G1 X93.489 Y82.225 E0.02432 ; perimeter
G1 X93.814 Y82.242 E0.02430 ; perimeter
G1 X94.139 Y82.221 E0.02432 ; perimeter
G1 X94.459 Y82.164 E0.02430 ; perimeter
G1 X94.771 Y82.071 E0.02430 ; perimeter
G1 X95.070 Y81.943 E0.02430 ; perimeter
G1 X95.352 Y81.781 E0.02430 ; perimeter
G1 X95.615 Y81.589 E0.02431 ; perimeter
G1 X95.853 Y81.368 E0.02430 ; perimeter
G1 X96.065 Y81.120 E0.02431 ; perimeter
G1 X96.248 Y80.851 E0.02430 ; perimeter
G1 X96.398 Y80.562 E0.02431 ; perimeter
G1 X96.515 Y80.258 E0.02431 ; perimeter
G1 X96.596 Y79.943 E0.02431 ; perimeter
G1 X96.640 Y79.621 E0.02431 ; perimeter
G1 X96.648 Y79.295 E0.02431 ; perimeter
G1 X96.619 Y78.971 E0.02429 ; perimeter
G1 X96.552 Y78.653 E0.02431 ; perimeter
G1 X96.450 Y78.344 E0.02431 ; perimeter
G1 X96.314 Y78.048 E0.02430 ; perimeter
G1 X96.144 Y77.770 E0.02431 ; perimeter
G1 X95.944 Y77.514 E0.02430 ; perimeter
G1 X95.716 Y77.282 E0.02430 ; perimeter
G1 X95.463 Y77.077 E0.02431 ; perimeter
G1 X95.189 Y76.902 E0.02431 ; perimeter
G1 X94.896 Y76.760 E0.02431 ; perimeter
G1 X94.589 Y76.652 E0.02430 ; perimeter
G1 X94.019 Y76.523 E0.04366 ; perimeter
G1 X95.944 Y71.874 E0.37580 ; perimeter
G1 X96.103 Y71.547 E0.02712 ; perimeter
G1 X96.446 Y71.666 E0.02712 ; perimeter
G1 X112.160 Y78.175 E1.27030 ; perimeter
G1 X116.639 Y78.175 E0.33444 ; perimeter
G1 X116.509 Y77.052 E0.08439 ; perimeter
G1 X116.856 Y76.938 E0.02731 ; perimeter
G1 X117.409 Y77.906 E0.08324 ; perimeter
G1 X117.650 Y78.221 E0.02959 ; perimeter
G1 X117.823 Y78.407 E0.01900 ; perimeter
G1 X118.070 Y78.619 E0.02430 ; perimeter
G1 X118.340 Y78.801 E0.02430 ; perimeter
G1 X118.628 Y78.952 E0.02432 ; perimeter
G1 X118.932 Y79.068 E0.02429 ; perimeter
G1 X119.247 Y79.150 E0.02432 ; perimeter
G1 X119.570 Y79.194 E0.02430 ; perimeter
G1 X119.895 Y79.202 E0.02431 ; perimeter
G1 X120.219 Y79.172 E0.02431 ; perimeter
G1 X120.538 Y79.106 E0.02429 ; perimeter
G1 X120.911 Y78.974 E0.02960 ; perimeter
G1 X121.142 Y78.867 E0.01900 ; perimeter
G1 X121.420 Y78.698 E0.02430 ; perimeter
G1 X121.677 Y78.498 E0.02430 ; perimeter
G1 X121.909 Y78.270 E0.02431 ; perimeter
G1 X122.114 Y78.017 E0.02431 ; perimeter
G1 X122.775 Y76.976 E0.09210 ; perimeter
G1 X123.086 Y77.086 E0.02461 ; perimeter
G1 X122.960 Y78.175 E0.08183 ; perimeter
G1 X134.081 Y78.175 E0.83058 ; perimeter
G1 X134.313 Y78.184 E0.01734 ; perimeter
G1 X134.734 Y78.247 E0.03182 ; perimeter
G1 X134.940 Y78.302 E0.01592 ; perimeter
G1 X135.337 Y78.458 E0.03182 ; perimeter
G1 X135.706 Y78.671 E0.03182 ; perimeter
G1 X136.039 Y78.937 E0.03182 ; perimeter
G1 X136.329 Y79.249 E0.03182 ; perimeter
G1 X136.569 Y79.601 E0.03182 ; perimeter
G1 X136.754 Y79.985 E0.03182 ; perimeter
G1 X136.879 Y80.392 E0.03182 ; perimeter
G1 X136.943 Y80.813 E0.03182 ; perimeter
G1 X136.951 Y81.045 E0.01734 ; perimeter
G1 X136.951 Y86.337 E0.39523 ; perimeter
G1 X136.943 Y86.569 E0.01735 ; perimeter
G1 X136.879 Y86.991 E0.03182 ; perimeter
G1 X136.754 Y87.398 E0.03182 ; perimeter
G1 X136.569 Y87.782 E0.03182 ; perimeter
G1 X136.329 Y88.134 E0.03182 ; perimeter
G1 X136.039 Y88.446 E0.03182 ; perimeter
G1 X135.706 Y88.712 E0.03182 ; perimeter
G1 X135.337 Y88.925 E0.03182 ; perimeter
G1 X134.940 Y89.080 E0.03182 ; perimeter
G1 X134.734 Y89.136 E0.01592 ; perimeter
G1 X134.313 Y89.199 E0.03182 ; perimeter
G1 X112.061 Y89.208 E1.66190 ; perimeter
G1 X112.125 Y90.281 E0.08030 ; perimeter
G1 X111.743 Y90.376 E0.02938 ; perimeter
G1 X111.320 Y89.451 E0.07596 ; perimeter
G1 X111.152 Y89.172 E0.02430 ; perimeter
G1 X110.953 Y88.915 E0.02431 ; perimeter
G1 X110.727 Y88.681 E0.02430 ; perimeter
G1 X110.475 Y88.475 E0.02431 ; perimeter
G1 X110.201 Y88.299 E0.02431 ; perimeter
G1 X109.909 Y88.156 E0.02430 ; perimeter
G1 X109.602 Y88.046 E0.02431 ; perimeter
G1 X109.215 Y87.964 E0.02958 ; perimeter
G1 X108.962 Y87.935 E0.01900 ; perimeter
G1 X108.637 Y87.935 E0.02429 ; perimeter
G1 X108.244 Y87.989 E0.02959 ; perimeter
G1 X107.996 Y88.046 E0.01899 ; perimeter
G1 X107.690 Y88.156 E0.02430 ; perimeter
G1 X107.338 Y88.338 E0.02960 ; perimeter
G1 X107.124 Y88.475 E0.01900 ; perimeter
G1 X106.872 Y88.681 E0.02430 ; perimeter
G1 X106.602 Y88.971 E0.02959 ; perimeter
G1 X106.447 Y89.172 E0.01899 ; perimeter
G1 X106.278 Y89.451 E0.02431 ; perimeter
G1 X105.856 Y90.376 E0.07594 ; perimeter
