; generated by Slic3r 1.0.1 on 2014-09-23 at 22:15:21

; layer_height = 0.24
; perimeters = 2
; top_solid_layers = 4
; bottom_solid_layers = 3
; fill_density = 0.25
; perimeter_speed = 30
; infill_speed = 30
; travel_speed = 100
; nozzle_diameter = 0.5
; filament_diameter = 1.75
; extrusion_multiplier = 1
; perimeters extrusion width = 0.50mm
; infill extrusion width = 0.50mm
; solid infill extrusion width = 0.50mm
; top infill extrusion width = 0.50mm
; first layer extrusion width = 0.80mm

G21 ; set units to millimeters
M107 ; disable fan
M190 S57 ; wait for bed temperature to be reached
M104 S200 ; set temperature

M109 S200 ; wait for temperature to be reached
G90 ; use absolute coordinates
M83 ; use relative distances for extrusion
G1 F1800.000 E-2.40000 ; retract
G1 Z0.240 F6000.000 ; move to next layer (0)
G1 X92.890 Y93.196 F6000.000 ; move to first skirt point
G1 E2.40000 F1800.000 ; compensate retraction
G1 X93.880 Y92.446 E0.09276 F900.000 ; skirt
G1 X95.020 Y91.966 E0.09238 ; skirt
G1 X96.250 Y91.806 E0.09264 ; skirt
G1 X103.750 Y91.806 E0.56014 ; skirt
G1 X104.980 Y91.966 E0.09264 ; skirt
G1 X106.120 Y92.446 E0.09238 ; skirt
G1 X107.110 Y93.196 E0.09276 ; skirt
G1 X107.860 Y94.186 E0.09276 ; skirt
G1 X108.340 Y95.326 E0.09238 ; skirt
G1 X108.500 Y96.556 E0.09264 ; skirt
G1 X108.500 Y103.816 E0.54221 ; skirt
G1 X108.340 Y105.046 E0.09264 ; skirt
G1 X107.860 Y106.186 E0.09238 ; skirt
G1 X107.110 Y107.176 E0.09276 ; skirt
G1 X106.120 Y107.926 E0.09276 ; skirt
G1 X104.980 Y108.406 E0.09238 ; skirt
G1 X103.750 Y108.566 E0.09264 ; skirt
G1 X96.250 Y108.566 E0.56014 ; skirt
G1 X95.020 Y108.406 E0.09264 ; skirt
G1 X93.880 Y107.926 E0.09238 ; skirt
G1 X92.890 Y107.176 E0.09276 ; skirt
G1 X92.140 Y106.186 E0.09276 ; skirt
G1 X91.660 Y105.046 E0.09238 ; skirt
G1 X91.500 Y103.816 E0.09264 ; skirt
G1 X91.500 Y96.556 E0.54221 ; skirt
G1 X91.660 Y95.326 E0.09264 ; skirt
G1 X92.140 Y94.186 E0.09238 ; skirt
G1 X92.822 Y93.286 E0.08437 ; skirt
G1 F1800.000 E-2.40000 ; retract
G1 X97.072 Y96.957 F6000.000 ; move to first perimeter point
G1 E2.40000 F1800.000 ; compensate retraction
G1 X103.350 Y96.962 E0.46884 F780.000 ; perimeter
G1 X103.350 Y103.421 E0.48241 ; perimeter
G1 X97.075 Y103.422 E0.46869 ; perimeter
G1 X97.003 Y103.146 E0.02135 ; perimeter
G1 X97.788 Y102.708 E0.06714 ; perimeter
G1 X98.035 Y102.540 E0.02228 ; perimeter
G1 X98.244 Y102.365 E0.02038 ; perimeter
G1 X98.437 Y102.172 E0.02037 ; perimeter
G1 X98.750 Y101.757 E0.03882 ; perimeter
G1 X98.896 Y101.497 E0.02228 ; perimeter
G1 X99.005 Y101.247 E0.02038 ; perimeter
G1 X99.091 Y100.987 E0.02038 ; perimeter
G1 X99.186 Y100.477 E0.03882 ; perimeter
G1 X99.200 Y100.179 E0.02228 ; perimeter
G1 X99.152 Y99.661 E0.03882 ; perimeter
G1 X99.091 Y99.395 E0.02038 ; perimeter
G1 X99.005 Y99.136 E0.02038 ; perimeter
G1 X98.884 Y98.863 E0.02228 ; perimeter
G1 X98.610 Y98.422 E0.03882 ; perimeter
G1 X98.419 Y98.192 E0.02228 ; perimeter
G1 X98.035 Y97.843 E0.03882 ; perimeter
G1 X97.788 Y97.675 E0.02228 ; perimeter
G1 X97.000 Y97.235 E0.06740 ; perimeter
G1 X97.044 Y97.065 E0.01311 ; perimeter
G1 X97.686 Y97.385 F6000.000 ; move inwards before travel
G1 X99.096 Y97.705 F6000.000 ; move to first perimeter point
G1 X102.602 Y97.709 E0.26183 F780.000 ; perimeter
G1 X102.602 Y102.675 E0.37087 ; perimeter
G1 X99.097 Y102.675 E0.26172 ; perimeter
G1 X99.545 Y101.871 E0.06874 ; perimeter
G1 X99.708 Y101.503 E0.03006 ; perimeter
G1 X99.815 Y101.177 E0.02559 ; perimeter
G1 X99.891 Y100.843 E0.02558 ; perimeter
G1 X99.935 Y100.504 E0.02558 ; perimeter
G1 X99.948 Y100.221 E0.02110 ; perimeter
G1 X99.935 Y99.879 E0.02559 ; perimeter
G1 X99.891 Y99.539 E0.02558 ; perimeter
G1 X99.798 Y99.148 E0.03006 ; perimeter
G1 X99.708 Y98.880 E0.02110 ; perimeter
G1 X99.572 Y98.566 E0.02558 ; perimeter
G1 X99.150 Y97.803 E0.06507 ; perimeter
G1 F1800.000 E-2.40000 ; retract
G1 X102.069 Y98.261 F6000.000 ; move to first fill point
G1 E2.40000 F1800.000 ; compensate retraction
G1 X102.049 Y98.241 E0.00236 F900.000 ; fill
G1 X100.863 Y98.238 E0.09901 ; fill
G1 X102.069 Y99.444 E0.14239 ; fill
G1 X102.069 Y100.628 E0.09883 ; fill
G1 X100.243 Y98.802 E0.21558 ; fill
G1 X100.479 Y100.221 E0.12014 ; fill
G1 X102.069 Y101.811 E0.18773 ; fill
G1 X101.216 Y102.142 E0.07637 ; fill
G1 X100.341 Y101.267 E0.10340 ; fill
G1 X100.015 Y102.125 E0.07663 ; fill
G1 X100.033 Y102.142 E0.00208 ; fill
M104 S190 ; set temperature
G1 F1800.000 E-2.40000 ; retract
G1 Z0.480 F6000.000 ; move to next layer (1)
G1 X98.748 Y101.456 F6000.000 ; move to first perimeter point
G1 E2.40000 F1800.000 ; compensate retraction
G1 X98.866 Y101.189 E0.01455 F600.000 ; perimeter
G1 X98.947 Y100.943 E0.01293 ; perimeter
G1 X99.005 Y100.691 E0.01293 ; perimeter
G1 X99.050 Y100.208 E0.02421 ; perimeter
G1 X99.039 Y99.949 E0.01293 ; perimeter
G1 X98.999 Y99.660 E0.01455 ; perimeter
G1 X98.866 Y99.193 E0.02421 ; perimeter
G1 X98.763 Y98.956 E0.01293 ; perimeter
G1 X98.620 Y98.701 E0.01455 ; perimeter
G1 X98.328 Y98.314 E0.02421 ; perimeter
G1 X98.145 Y98.130 E0.01293 ; perimeter
G1 X97.920 Y97.945 E0.01455 ; perimeter
G1 X97.507 Y97.690 E0.02421 ; perimeter
G1 X97.271 Y97.584 E0.01293 ; perimeter
G1 X96.994 Y97.493 E0.01455 ; perimeter
G1 X96.500 Y97.402 E0.02506 ; perimeter
G1 X96.500 Y96.561 E0.04193 ; perimeter
G1 X96.500 Y96.123 E0.03580 F1560 ; perimeter
G1 X100.420 Y96.120 E0.31997 ; perimeter
G1 X103.500 Y96.123 E0.25146 ; perimeter
G1 X103.500 Y96.562 E0.03583 ; perimeter
G1 X103.500 Y103.820 E0.36209 F600.000 ; perimeter
G1 X103.500 Y104.260 E0.03588 F1560 ; perimeter
G1 X101.578 Y104.263 E0.15689 ; perimeter
G1 X96.500 Y104.260 E0.41454 ; perimeter
G1 X96.500 Y103.820 E0.03588 ; perimeter
G1 X96.500 Y102.981 E0.04186 F600.000 ; perimeter
G1 X96.773 Y102.942 E0.01378 ; perimeter
G1 X97.240 Y102.810 E0.02421 ; perimeter
G1 X97.507 Y102.693 E0.01455 ; perimeter
G1 X97.733 Y102.566 E0.01293 ; perimeter
G1 X97.946 Y102.419 E0.01293 ; perimeter
G1 X98.305 Y102.092 E0.02421 ; perimeter
G1 X98.492 Y101.868 E0.01455 ; perimeter
G1 X98.711 Y101.521 E0.02047 ; perimeter
G1 X98.780 Y101.455 F6000.000 ; move inwards before travel
G1 X99.189 Y101.691 F6000.000 ; move to first perimeter point
G1 X99.336 Y101.361 E0.01802 F600.000 ; perimeter
G1 X99.431 Y101.070 E0.01525 ; perimeter
G1 X99.498 Y100.772 E0.01525 ; perimeter
G1 X99.550 Y100.219 E0.02770 ; perimeter
G1 X99.538 Y99.914 E0.01525 ; perimeter
G1 X99.488 Y99.556 E0.01802 ; perimeter
G1 X99.336 Y99.022 E0.02770 ; perimeter
G1 X99.215 Y98.742 E0.01525 ; perimeter
G1 X99.068 Y98.474 E0.01525 ; perimeter
G1 X98.897 Y98.220 E0.01525 ; perimeter
G1 X98.703 Y97.984 E0.01525 ; perimeter
G1 X98.488 Y97.766 E0.01525 ; perimeter
G1 X98.209 Y97.537 E0.01802 ; perimeter
G1 X97.737 Y97.245 E0.02770 ; perimeter
G1 X97.458 Y97.120 E0.01525 ; perimeter
G1 X96.825 Y96.888 E0.03366 ; perimeter
G1 X96.872 Y96.620 E0.01359 ; perimeter
G1 X103.000 Y96.623 E0.30571 ; perimeter
G1 X103.000 Y103.760 E0.35611 ; perimeter
G1 X96.877 Y103.760 E0.30547 ; perimeter
G1 X96.830 Y103.493 E0.01354 ; perimeter
G1 X97.687 Y103.162 E0.04584 ; perimeter
G1 X98.003 Y102.987 E0.01802 ; perimeter
G1 X98.254 Y102.813 E0.01525 ; perimeter
G1 X98.488 Y102.616 E0.01525 ; perimeter
G1 X98.703 Y102.399 E0.01525 ; perimeter
G1 X98.897 Y102.162 E0.01525 ; perimeter
G1 X99.153 Y101.756 E0.02396 ; perimeter
G1 X99.779 Y101.119 F6000.000 ; move to first fill point
G1 X102.648 Y98.250 E0.21011 F600.000 ; fill
G1 X102.648 Y97.516 E0.03801 ; fill
G1 X99.899 Y100.265 E0.20133 ; fill
G1 X99.850 Y99.580 E0.03556 ; fill
G1 X102.455 Y96.975 E0.19081 ; fill
G1 X101.722 Y96.974 E0.03797 ; fill
G1 X99.698 Y98.997 E0.14819 ; fill
G1 X99.476 Y98.485 E0.02889 ; fill
G1 X100.989 Y96.973 E0.11079 ; fill
G1 X100.255 Y96.972 E0.03798 ; fill
G1 X99.195 Y98.032 E0.07766 ; fill
G1 X98.856 Y97.637 E0.02696 ; fill
G1 X99.521 Y96.972 E0.04872 ; fill
G1 X98.787 Y96.972 E0.03801 ; fill
G1 X98.469 Y97.290 E0.02328 ; fill
G1 X98.053 Y96.972 E0.02712 ; fill
G1 X98.036 Y96.989 E0.00126 ; fill
G1 F1800.000 E-2.40000 ; retract
G1 X98.224 Y103.408 F6000.000 ; move to first fill point
G1 E2.40000 F1800.000 ; compensate retraction
G1 X102.648 Y98.984 E0.32400 F600.000 ; fill
G1 X102.648 Y99.718 E0.03801 ; fill
G1 X98.958 Y103.408 E0.27025 ; fill
G1 X99.692 Y103.408 E0.03801 ; fill
G1 X102.648 Y100.452 E0.21649 ; fill
G1 X102.648 Y101.186 E0.03801 ; fill
G1 X100.426 Y103.408 E0.16273 ; fill
G1 X101.160 Y103.408 E0.03801 ; fill
G1 X102.648 Y101.920 E0.10898 ; fill
G1 X102.648 Y102.654 E0.03801 ; fill
G1 X101.894 Y103.408 E0.05522 ; fill
G1 X102.628 Y103.408 E0.03801 ; fill
G1 X102.648 Y103.388 E0.00146 ; fill
G1 F1800.000 E-2.40000 ; retract
G1 Z0.720 F6000.000 ; move to next layer (2)
G1 X103.500 Y104.709 F6000.000 ; move to first perimeter point
G1 E2.40000 F1800.000 ; compensate retraction
G1 X96.500 Y104.709 E0.57143 F1560 ; perimeter
G1 X96.500 Y104.509 E0.01630 ; perimeter
G1 X96.500 Y102.981 E0.07623 F600.000 ; perimeter
G1 X96.777 Y102.941 E0.01397 ; perimeter
G1 X97.029 Y102.881 E0.01294 ; perimeter
G1 X97.511 Y102.691 E0.02585 ; perimeter
G1 X97.950 Y102.416 E0.02585 ; perimeter
G1 X98.331 Y102.064 E0.02585 ; perimeter
G1 X98.640 Y101.649 E0.02585 ; perimeter
G1 X98.868 Y101.184 E0.02584 ; perimeter
G1 X99.006 Y100.684 E0.02584 ; perimeter
G1 X99.050 Y100.215 E0.02353 ; perimeter
G1 X99.006 Y99.698 E0.02584 ; perimeter
G1 X98.868 Y99.199 E0.02584 ; perimeter
G1 X98.640 Y98.734 E0.02584 ; perimeter
G1 X98.331 Y98.318 E0.02585 ; perimeter
G1 X97.950 Y97.967 E0.02585 ; perimeter
G1 X97.511 Y97.692 E0.02585 ; perimeter
G1 X97.029 Y97.502 E0.02585 ; perimeter
G1 X96.777 Y97.441 E0.01294 ; perimeter
G1 X96.500 Y97.402 E0.01397 ; perimeter
G1 X96.500 Y95.873 E0.07628 ; perimeter
G1 X96.500 Y95.674 E0.01625 F1560 ; perimeter
G1 X98.976 Y95.670 E0.20210 ; perimeter
G1 X103.500 Y95.674 E0.36933 ; perimeter
G1 X103.500 Y95.873 E0.01626 ; perimeter
G1 X103.500 Y104.509 E0.43084 F600.000 ; perimeter
G1 X103.500 Y104.634 E0.01017 F1560 ; perimeter
G1 X103.067 Y104.459 F6000.000 ; move inwards before travel
G1 X103.000 Y104.209 F6000.000 ; move to first perimeter point
G1 X97.000 Y104.209 E0.29934 F600.000 ; perimeter
G1 X97.000 Y103.418 E0.03949 ; perimeter
G1 X97.462 Y103.261 E0.02435 ; perimeter
G1 X97.678 Y103.165 E0.01178 ; perimeter
G1 X98.007 Y102.985 E0.01873 ; perimeter
G1 X98.202 Y102.851 E0.01179 ; perimeter
G1 X98.440 Y102.659 E0.01526 ; perimeter
G1 X98.659 Y102.446 E0.01525 ; perimeter
G1 X98.858 Y102.213 E0.01526 ; perimeter
G1 X99.034 Y101.963 E0.01526 ; perimeter
G1 X99.217 Y101.636 E0.01873 ; perimeter
G1 X99.413 Y101.131 E0.02702 ; perimeter
G1 X99.500 Y100.765 E0.01873 ; perimeter
G1 X99.550 Y100.226 E0.02702 ; perimeter
G1 X99.532 Y99.851 E0.01873 ; perimeter
G1 X99.432 Y99.319 E0.02702 ; perimeter
G1 X99.313 Y98.963 E0.01873 ; perimeter
G1 X99.071 Y98.479 E0.02702 ; perimeter
G1 X98.900 Y98.225 E0.01526 ; perimeter
G1 X98.707 Y97.988 E0.01526 ; perimeter
G1 X98.492 Y97.770 E0.01526 ; perimeter
G1 X98.202 Y97.531 E0.01873 ; perimeter
G1 X98.007 Y97.398 E0.01178 ; perimeter
G1 X97.678 Y97.217 E0.01873 ; perimeter
G1 X97.462 Y97.122 E0.01178 ; perimeter
G1 X97.000 Y96.965 E0.02435 ; perimeter
G1 X97.000 Y96.172 E0.03955 ; perimeter
G1 X103.000 Y96.174 E0.29934 ; perimeter
G1 X103.000 Y104.134 E0.39716 ; perimeter
G1 F1800.000 E-2.40000 ; retract
G1 X98.267 Y103.857 F6000.000 ; move to first fill point
G1 E2.40000 F1800.000 ; compensate retraction
G1 X98.242 Y103.831 E0.00187 F600.000 ; fill
G1 X98.512 Y103.371 E0.02752 ; fill
G1 X98.998 Y103.857 E0.03542 ; fill
G1 X99.729 Y103.857 E0.03767 ; fill
G1 X98.934 Y103.062 E0.05797 ; fill
G1 X99.355 Y102.753 E0.02695 ; fill
G1 X100.459 Y103.857 E0.08052 ; fill
G1 X101.190 Y103.857 E0.03767 ; fill
G1 X99.389 Y102.056 E0.13132 ; fill
G1 X99.632 Y101.568 E0.02809 ; fill
G1 X101.921 Y103.857 E0.16686 ; fill
G1 X102.639 Y103.845 E0.03706 ; fill
G1 X99.806 Y101.011 E0.20662 ; fill
G1 X99.891 Y100.366 E0.03355 ; fill
G1 X102.648 Y103.122 E0.20097 ; fill
G1 X102.648 Y102.392 E0.03767 ; fill
G1 X99.852 Y99.596 E0.20381 ; fill
G1 X99.480 Y98.494 F6000.000 ; move to first fill point
G1 X102.648 Y101.661 E0.23091 F600.000 ; fill
G1 X102.648 Y100.930 E0.03767 ; fill
G1 X98.253 Y96.536 E0.32040 ; fill
G1 X98.971 Y96.522 E0.03700 ; fill
G1 X102.648 Y100.199 E0.26809 ; fill
G1 X102.648 Y99.469 E0.03767 ; fill
G1 X99.702 Y96.523 E0.21476 ; fill
G1 X100.433 Y96.524 E0.03771 ; fill
G1 X102.648 Y98.738 E0.16144 ; fill
G1 X102.648 Y98.007 E0.03767 ; fill
G1 X101.165 Y96.524 E0.10811 ; fill
G1 X101.896 Y96.525 E0.03771 ; fill
G1 X102.648 Y97.277 E0.05479 ; fill
G1 X102.648 Y96.546 E0.03767 ; fill
G1 X102.628 Y96.526 E0.00146 ; fill
G1 F1800.000 E-2.40000 ; retract
G1 X97.782 Y96.528 F6000.000 ; move to first fill point
G1 E2.40000 F1800.000 ; compensate retraction
G1 X97.764 Y96.510 E0.00110 F600.000 ; fill
G1 X97.340 Y96.703 E0.02027 F600.000 ; fill
G1 X97.366 Y96.729 E0.00159 F600.000 ; fill
G1 F1800.000 E-2.40000 ; retract
G1 X97.666 Y103.543 F6000.000 ; move to first fill point
G1 E2.40000 F1800.000 ; compensate retraction
G1 X97.689 Y103.566 E0.00147 F600.000 ; fill
G1 X97.666 Y103.543 F6000.000 ; move to first fill point
G1 X97.340 Y103.850 E0.02003 F600.000 ; fill
G1 X97.360 Y103.870 E0.00127 F600.000 ; fill
M106 S255 ; enable fan
G1 F1800.000 E-2.40000 ; retract
G1 Z0.960 F6000.000 ; move to next layer (3)
G1 X97.033 Y102.880 F6000.000 ; move to first perimeter point
G1 E2.40000 F1800.000 ; compensate retraction
G1 X97.516 Y102.689 E0.02587 F600.000 ; perimeter
G1 X97.905 Y102.449 E0.02286 ; perimeter
G1 X98.153 Y102.245 E0.01596 ; perimeter
G1 X98.499 Y101.859 E0.02587 ; perimeter
G1 X98.768 Y101.416 E0.02587 ; perimeter
G1 X98.950 Y100.931 E0.02586 ; perimeter
G1 X99.040 Y100.420 E0.02586 ; perimeter
G1 X99.040 Y99.962 E0.02286 ; perimeter
G1 X98.950 Y99.452 E0.02586 ; perimeter
G1 X98.768 Y98.967 E0.02586 ; perimeter
G1 X98.499 Y98.523 E0.02587 ; perimeter
G1 X98.293 Y98.278 E0.01596 ; perimeter
G1 X97.954 Y97.970 E0.02286 ; perimeter
G1 X97.516 Y97.694 E0.02587 ; perimeter
G1 X97.033 Y97.503 E0.02587 ; perimeter
G1 X96.781 Y97.442 E0.01295 ; perimeter
G1 X96.500 Y97.401 E0.01417 ; perimeter
G1 X96.500 Y95.424 E0.09867 ; perimeter
M106 S255 ; enable fan
G1 X96.500 Y95.326 E0.00797 F1560 ; perimeter
G1 X101.687 Y95.325 E0.42341 ; perimeter
G1 X103.500 Y95.326 E0.14802 ; perimeter
G1 X103.500 Y95.424 E0.00797 ; perimeter
M106 S255 ; enable fan
G1 X103.500 Y104.958 E0.47567 F600.000 ; perimeter
M106 S255 ; enable fan
G1 X103.500 Y105.056 E0.00800 F1560 ; perimeter
G1 X97.596 Y105.058 E0.48200 ; perimeter
G1 X96.500 Y105.056 E0.08943 ; perimeter
G1 X96.500 Y104.958 E0.00800 ; perimeter
M106 S255 ; enable fan
G1 X96.500 Y102.981 E0.09864 F600.000 ; perimeter
G1 X96.961 Y102.898 E0.02335 ; perimeter
G1 X97.179 Y103.016 F6000.000 ; move inwards before travel
G1 X97.388 Y103.288 F6000.000 ; move to first perimeter point
G1 X97.745 Y103.133 E0.01943 F600.000 ; perimeter
G1 X98.011 Y102.982 E0.01527 ; perimeter
G1 X98.262 Y102.807 E0.01527 ; perimeter
G1 X98.496 Y102.609 E0.01527 ; perimeter
G1 X98.710 Y102.391 E0.01527 ; perimeter
G1 X99.029 Y101.970 E0.02635 ; perimeter
G1 X99.220 Y101.630 E0.01943 ; perimeter
G1 X99.340 Y101.349 E0.01527 ; perimeter
G1 X99.434 Y101.058 E0.01527 ; perimeter
G1 X99.501 Y100.759 E0.01527 ; perimeter
G1 X99.539 Y100.455 E0.01527 ; perimeter
G1 X99.539 Y99.927 E0.02635 ; perimeter
G1 X99.501 Y99.624 E0.01527 ; perimeter
G1 X99.434 Y99.325 E0.01527 ; perimeter
G1 X99.310 Y98.956 E0.01943 ; perimeter
G1 X99.074 Y98.483 E0.02635 ; perimeter
G1 X98.903 Y98.229 E0.01527 ; perimeter
G1 X98.710 Y97.992 E0.01527 ; perimeter
G1 X98.433 Y97.718 E0.01943 ; perimeter
G1 X98.011 Y97.400 E0.02635 ; perimeter
G1 X97.745 Y97.249 E0.01527 ; perimeter
G1 X97.466 Y97.123 E0.01527 ; perimeter
G1 X97.000 Y96.965 E0.02457 ; perimeter
G1 X97.000 Y95.825 E0.05686 ; perimeter
G1 X103.000 Y95.826 E0.29934 ; perimeter
G1 X103.000 Y104.557 E0.43559 ; perimeter
G1 X97.000 Y104.557 E0.29934 ; perimeter
