; generated by Slic3r 1.2.5 on 2015-02-09 at 22:55:39

; external perimeters extrusion width = 0.50mm
; perimeters extrusion width = 0.50mm
; infill extrusion width = 0.50mm
; solid infill extrusion width = 0.50mm
; top infill extrusion width = 0.50mm

M107 ; disable fan
M190 S57 ; set bed temperature
M104 S185 ; set temperature

M109 S185 ; wait for temperature to be reached
G21 ; set units to millimeters
G90 ; use absolute coordinates
M83 ; use relative distances for extrusion
G1 E-4.00000 F1800.00000 ; retract
G1 Z0.240 F6000.000 ; move to next layer (0)
G1 X63.079 Y66.130 F6000.000 ; move to first skirt point
G1 E4.00000 F1800.00000 ; unretract
G1 X64.562 Y64.835 E0.07050 F600.000 ; skirt
G1 X66.977 Y64.197 E0.08944 ; skirt
G1 X83.249 Y64.197 E0.58255 ; skirt
G1 X139.779 Y64.362 E2.02384 F600.000 ; skirt
G1 X141.707 Y64.764 E0.07050 ; skirt
G1 X143.321 Y65.892 E0.07050 ; skirt
G1 X144.360 Y67.565 E0.07050 ; skirt
G1 X144.662 Y69.259 E0.06161 ; skirt
G1 X144.662 Y84.312 E0.53889 ; skirt
G1 X144.165 Y130.748 E1.66254 ; skirt
G1 X143.748 Y132.672 E0.07050 ; skirt
G1 X142.607 Y134.277 E0.07050 ; skirt
G1 X140.926 Y135.303 E0.07050 ; skirt
G1 X139.293 Y135.592 E0.05940 ; skirt
G1 X97.207 Y135.803 E1.50671 ; skirt
G1 X66.207 Y135.803 E1.10983 ; skirt
G1 X64.278 Y135.407 E0.07050 ; skirt
G1 X62.745 Y134.369 E0.06631 ; skirt
G1 X57.245 Y128.869 E0.27847 ; skirt
G1 X56.161 Y127.225 E0.07050 ; skirt
G1 X55.810 Y125.406 E0.06631 ; skirt
G1 X55.810 Y94.156 E1.11878 ; skirt
G1 X55.957 Y92.967 E0.04287 ; skirt
G1 X62.227 Y67.906 E0.92488 ; skirt
G1 X63.047 Y66.198 E0.06781 ; skirt
G1 X63.457 Y66.400 F6000.000 ; move to first skirt point
G1 X63.491 Y66.332 E0.00273 F600.000 ; skirt
G1 X64.939 Y65.140 E0.06716 ; skirt
G1 X66.977 Y64.646 E0.07508 ; skirt
G1 X83.248 Y64.646 E0.58250 ; skirt
G1 X139.778 Y64.811 E2.02384 F600.000 ; skirt
G1 X141.611 Y65.212 E0.06716 ; skirt
G1 X143.115 Y66.332 E0.06716 ; skirt
G1 X144.024 Y67.973 E0.06716 ; skirt
G1 X144.214 Y69.259 E0.04654 ; skirt
G1 X144.213 Y84.307 E0.53872 ; skirt
G1 X143.716 Y130.743 E1.66254 ; skirt
G1 X143.301 Y132.572 E0.06716 ; skirt
G1 X142.169 Y134.068 E0.06716 ; skirt
G1 X140.521 Y134.964 E0.06716 ; skirt
G1 X139.290 Y135.144 E0.04452 ; skirt
G1 X97.230 Y135.354 E1.50584 ; skirt
G1 X66.207 Y135.354 E1.11062 ; skirt
G1 X64.374 Y134.959 E0.06716 ; skirt
G1 X63.062 Y134.051 E0.05711 ; skirt
G1 X57.562 Y128.551 E0.27847 ; skirt
G1 X56.545 Y126.975 E0.06716 ; skirt
G1 X56.259 Y125.406 E0.05711 ; skirt
G1 X56.259 Y94.156 E1.11878 ; skirt
G1 X56.392 Y93.076 E0.03895 ; skirt
G1 X62.662 Y68.015 E0.92488 ; skirt
G1 X63.424 Y66.467 E0.06174 ; skirt
G1 E-4.00000 F1800.00000 ; retract
G1 X66.061 Y89.156 F6000.000 ; move to first perimeter point
G1 E4.00000 F1800.00000 ; unretract
G1 X79.709 Y89.156 E0.48862 F900.000 ; perimeter
G1 X80.063 Y89.191 E0.01271 ; perimeter
G1 X80.391 Y89.290 E0.01227 F900.000 ; perimeter
G1 X80.693 Y89.452 E0.01227 ; perimeter
G1 X80.958 Y89.669 E0.01227 ; perimeter
G1 X81.175 Y89.934 E0.01227 ; perimeter
G1 X81.337 Y90.237 E0.01227 ; perimeter
G1 X81.437 Y90.565 E0.01227 ; perimeter
G1 X81.471 Y90.918 E0.01272 ; perimeter
G1 X81.475 Y96.540 E0.20126 ; perimeter
G1 X81.447 Y96.861 E0.01153 ; perimeter
G1 X81.365 Y97.161 E0.01113 ; perimeter
G1 X81.231 Y97.441 E0.01113 ; perimeter
G1 X81.050 Y97.694 E0.01113 ; perimeter
G1 X80.827 Y97.911 E0.01113 ; perimeter
G1 X80.569 Y98.084 E0.01113 ; perimeter
G1 X80.284 Y98.209 E0.01113 ; perimeter
G1 X79.035 Y98.464 E0.04565 ; perimeter
G1 X78.105 Y98.721 E0.03453 ; perimeter
G1 X77.200 Y99.054 E0.03453 ; perimeter
G1 X76.325 Y99.461 E0.03453 ; perimeter
G1 X75.932 Y99.684 E0.01621 ; perimeter
G1 X75.932 Y99.633 E0.00182 ; perimeter
G1 X74.690 Y100.481 E0.05381 ; perimeter
G1 X73.941 Y101.088 E0.03453 ; perimeter
G1 X73.244 Y101.755 E0.03453 ; perimeter
G1 X72.604 Y102.476 E0.03453 ; perimeter
G1 X72.025 Y103.248 E0.03453 ; perimeter
G1 X71.512 Y104.064 E0.03453 ; perimeter
G1 X71.067 Y104.920 E0.03453 ; perimeter
G1 X70.694 Y105.810 E0.03453 ; perimeter
G1 X70.461 Y106.524 E0.02691 ; perimeter
G1 X70.443 Y106.524 E0.00064 ; perimeter
G1 X70.173 Y107.665 E0.04197 ; perimeter
G1 X70.028 Y108.619 E0.03453 ; perimeter
G1 X69.962 Y109.610 E0.03557 ; perimeter
G1 X69.974 Y110.545 E0.03349 ; perimeter
G1 X70.066 Y111.505 E0.03453 ; perimeter
G1 X70.237 Y112.455 E0.03453 ; perimeter
G1 X70.484 Y113.387 E0.03453 ; perimeter
G1 X70.808 Y114.295 E0.03453 ; perimeter
G1 X71.204 Y115.175 E0.03453 ; perimeter
G1 X71.672 Y116.018 E0.03453 ; perimeter
G1 X72.225 Y116.843 E0.03557 ; perimeter
G1 X72.806 Y117.576 E0.03349 ; perimeter
G1 X73.465 Y118.281 E0.03453 ; perimeter
G1 X74.180 Y118.928 E0.03453 ; perimeter
G1 X74.945 Y119.515 E0.03453 ; perimeter
G1 X75.756 Y120.038 E0.03453 ; perimeter
G1 X76.607 Y120.491 E0.03453 ; perimeter
G1 X77.492 Y120.874 E0.03453 ; perimeter
G1 X78.406 Y121.183 E0.03453 ; perimeter
G1 X79.342 Y121.416 E0.03453 ; perimeter
G1 X80.294 Y121.571 E0.03453 ; perimeter
G1 X81.255 Y121.647 E0.03453 ; perimeter
G1 X82.220 Y121.645 E0.03453 ; perimeter
G1 X83.181 Y121.563 E0.03453 ; perimeter
G1 X84.132 Y121.403 E0.03453 ; perimeter
G1 X85.067 Y121.166 E0.03453 ; perimeter
G1 X85.979 Y120.852 E0.03453 ; perimeter
G1 X86.862 Y120.465 E0.03453 ; perimeter
G1 X87.711 Y120.006 E0.03453 ; perimeter
G1 X88.542 Y119.462 E0.03557 ; perimeter
G1 X89.281 Y118.889 E0.03349 ; perimeter
G1 X89.993 Y118.238 E0.03453 ; perimeter
G1 X90.648 Y117.530 E0.03453 ; perimeter
G1 X91.243 Y116.771 E0.03453 ; perimeter
G1 X91.952 Y115.723 E0.04530 ; perimeter
G1 X92.168 Y115.513 E0.01078 ; perimeter
G1 X92.417 Y115.344 E0.01078 ; perimeter
G1 X92.691 Y115.219 E0.01078 ; perimeter
G1 X92.982 Y115.144 E0.01078 ; perimeter
G1 X93.293 Y115.119 E0.01117 ; perimeter
G1 X100.704 Y115.157 E0.26532 ; perimeter
G1 X101.056 Y115.193 E0.01267 ; perimeter
G1 X101.383 Y115.294 E0.01223 ; perimeter
G1 X101.684 Y115.456 E0.01223 ; perimeter
G1 X101.947 Y115.674 E0.01223 ; perimeter
G1 X102.163 Y115.938 E0.01223 ; perimeter
G1 X102.324 Y116.240 E0.01223 ; perimeter
G1 X102.423 Y116.567 E0.01223 ; perimeter
G1 X102.457 Y116.919 E0.01267 ; perimeter
G1 X102.457 Y125.302 E0.30012 ; perimeter
G1 X97.104 Y130.656 E0.27105 ; perimeter
G1 X66.311 Y130.656 E1.10241 ; perimeter
G1 X60.957 Y125.302 E0.27105 ; perimeter
G1 X60.957 Y94.259 E1.11136 ; perimeter
G1 X66.008 Y89.209 E0.25571 ; perimeter
G1 X66.414 Y89.509 F6000.000 ; move inwards before travel
G1 E-4.00000 F1800.00000 ; retract
G1 X101.788 Y116.188 F6000.000 ; move to first perimeter point
G1 E4.00000 F1800.00000 ; unretract
G1 X101.907 Y116.412 E0.00908 F900.000 ; perimeter
G1 X101.981 Y116.654 E0.00908 ; perimeter
G1 X102.009 Y116.941 E0.01031 ; perimeter
G1 X102.009 Y125.116 E0.29269 ; perimeter
G1 X96.918 Y130.207 E0.25775 ; perimeter
G1 X66.497 Y130.207 E1.08911 ; perimeter
G1 X61.406 Y125.116 E0.25775 ; perimeter
G1 X61.406 Y94.445 E1.09806 ; perimeter
G1 X66.247 Y89.604 E0.24509 ; perimeter
G1 X79.687 Y89.604 E0.48118 ; perimeter
G1 X79.975 Y89.633 E0.01034 ; perimeter
G1 X80.218 Y89.707 E0.00911 ; perimeter
G1 X80.443 Y89.826 E0.00911 ; perimeter
G1 X80.639 Y89.988 E0.00911 ; perimeter
G1 X80.801 Y90.185 E0.00911 ; perimeter
G1 X80.921 Y90.409 E0.00911 ; perimeter
G1 X80.995 Y90.653 E0.00911 ; perimeter
G1 X81.023 Y90.940 E0.01035 ; perimeter
G1 X81.027 Y96.520 E0.19976 ; perimeter
G1 X81.004 Y96.781 E0.00938 ; perimeter
G1 X80.943 Y97.004 E0.00827 ; perimeter
G1 X80.844 Y97.212 E0.00827 ; perimeter
G1 X80.709 Y97.400 E0.00827 ; perimeter
G1 X80.543 Y97.561 E0.00827 ; perimeter
G1 X80.352 Y97.690 E0.00827 ; perimeter
G1 X80.140 Y97.783 E0.00827 ; perimeter
G1 X78.933 Y98.026 E0.04411 ; perimeter
G1 X77.968 Y98.294 E0.03585 ; perimeter
G1 X77.028 Y98.640 E0.03585 ; perimeter
G1 X76.380 Y98.941 E0.02557 ; perimeter
G1 X76.380 Y98.784 E0.00559 ; perimeter
G1 X74.422 Y100.121 E0.08487 ; perimeter
G1 X73.644 Y100.751 E0.03585 ; perimeter
G1 X72.921 Y101.443 E0.03585 ; perimeter
G1 X72.256 Y102.192 E0.03585 ; perimeter
G1 X71.655 Y102.994 E0.03585 ; perimeter
G1 X71.122 Y103.841 E0.03585 ; perimeter
G1 X70.661 Y104.730 E0.03585 ; perimeter
G1 X70.273 Y105.653 E0.03585 ; perimeter
G1 X70.136 Y106.076 E0.01592 ; perimeter
G1 X70.089 Y106.076 E0.00168 ; perimeter
G1 X69.732 Y107.579 E0.05533 ; perimeter
G1 X69.582 Y108.569 E0.03585 ; perimeter
G1 X69.513 Y109.568 E0.03585 ; perimeter
G1 X69.526 Y110.570 E0.03585 ; perimeter
G1 X69.622 Y111.566 E0.03585 ; perimeter
G1 X69.799 Y112.552 E0.03585 ; perimeter
G1 X70.056 Y113.520 E0.03585 ; perimeter
G1 X70.391 Y114.463 E0.03585 ; perimeter
G1 X70.803 Y115.376 E0.03585 ; perimeter
G1 X71.289 Y116.252 E0.03585 ; perimeter
G1 X71.844 Y117.085 E0.03585 ; perimeter
G1 X72.466 Y117.869 E0.03585 ; perimeter
G1 X73.150 Y118.601 E0.03585 ; perimeter
G1 X73.892 Y119.273 E0.03585 ; perimeter
G1 X74.687 Y119.882 E0.03585 ; perimeter
G1 X75.529 Y120.425 E0.03585 ; perimeter
G1 X76.412 Y120.896 E0.03585 ; perimeter
G1 X77.331 Y121.293 E0.03585 ; perimeter
G1 X78.280 Y121.614 E0.03585 ; perimeter
G1 X79.252 Y121.855 E0.03585 ; perimeter
G1 X80.240 Y122.016 E0.03585 ; perimeter
G1 X81.238 Y122.096 E0.03585 ; perimeter
G1 X82.240 Y122.093 E0.03585 ; perimeter
G1 X83.237 Y122.009 E0.03585 ; perimeter
G1 X84.225 Y121.842 E0.03585 ; perimeter
G1 X85.195 Y121.596 E0.03585 ; perimeter
G1 X86.142 Y121.270 E0.03585 ; perimeter
G1 X87.059 Y120.868 E0.03585 ; perimeter
G1 X87.940 Y120.392 E0.03585 ; perimeter
G1 X88.779 Y119.846 E0.03585 ; perimeter
G1 X89.571 Y119.232 E0.03585 ; perimeter
G1 X90.309 Y118.556 E0.03585 ; perimeter
G1 X90.990 Y117.821 E0.03585 ; perimeter
G1 X91.607 Y117.033 E0.03585 ; perimeter
G1 X92.292 Y116.018 E0.04385 ; perimeter
G1 X92.452 Y115.862 E0.00800 ; perimeter
G1 X92.637 Y115.736 E0.00800 ; perimeter
G1 X92.841 Y115.644 E0.00800 ; perimeter
G1 X93.057 Y115.588 E0.00800 ; perimeter
G1 X93.310 Y115.567 E0.00909 ; perimeter
G1 X100.680 Y115.605 E0.26384 ; perimeter
G1 X100.966 Y115.635 E0.01031 ; perimeter
G1 X101.209 Y115.709 E0.00908 ; perimeter
G1 X101.432 Y115.830 E0.00908 ; perimeter
G1 X101.628 Y115.991 E0.00908 ; perimeter
G1 X101.741 Y116.130 E0.00640 ; perimeter
G1 E-4.00000 F1800.00000 ; retract
G1 X98.162 Y123.819 F6000.000 ; move to first perimeter point
G1 E4.00000 F1800.00000 ; unretract
G1 X98.481 Y124.062 E0.01433 F780.000 ; perimeter
G1 X98.740 Y124.367 E0.01433 ; perimeter
G1 X98.927 Y124.721 E0.01433 ; perimeter
G1 X99.034 Y125.106 E0.01433 ; perimeter
G1 X99.056 Y125.506 E0.01433 ; perimeter
G1 X98.991 Y125.901 E0.01434 ; perimeter
G1 X98.843 Y126.273 E0.01433 ; perimeter
G1 X98.638 Y126.576 E0.01311 ; perimeter
G1 X98.328 Y126.880 E0.01553 ; perimeter
G1 X97.985 Y127.086 E0.01433 ; perimeter
G1 X97.605 Y127.214 E0.01434 ; perimeter
G1 X97.207 Y127.257 E0.01433 ; perimeter
G1 X96.809 Y127.214 E0.01433 ; perimeter
G1 X96.430 Y127.086 E0.01433 ; perimeter
G1 X96.087 Y126.880 E0.01433 ; perimeter
G1 X95.796 Y126.604 E0.01433 ; perimeter
G1 X95.591 Y126.301 E0.01311 ; perimeter
G1 X95.423 Y125.901 E0.01553 ; perimeter
G1 X95.358 Y125.506 E0.01433 ; perimeter
G1 X95.380 Y125.106 E0.01433 ; perimeter
G1 X95.487 Y124.720 E0.01433 ; perimeter
G1 X95.675 Y124.367 E0.01433 ; perimeter
G1 X95.934 Y124.062 E0.01433 ; perimeter
G1 X96.253 Y123.819 E0.01433 ; perimeter
G1 X96.616 Y123.651 E0.01434 ; perimeter
G1 X97.000 Y123.567 E0.01409 ; perimeter
G1 X97.190 Y123.556 E0.00681 ; perimeter
G1 X97.414 Y123.567 E0.00802 F780.000 ; perimeter
G1 X97.798 Y123.651 E0.01409 ; perimeter
G1 X98.094 Y123.788 E0.01165 ; perimeter
G1 X98.519 Y123.638 F6000.000 ; move inwards before travel
G1 X98.282 Y123.381 F6000.000 ; move to first perimeter point
G1 X98.394 Y123.433 E0.00443 F780.000 ; perimeter
G1 X98.791 Y123.734 E0.01783 ; perimeter
G1 X99.113 Y124.114 E0.01782 ; perimeter
G1 X99.346 Y124.554 E0.01783 ; perimeter
G1 X99.480 Y125.033 E0.01782 ; perimeter
G1 X99.506 Y125.530 E0.01782 ; perimeter
G1 X99.426 Y126.022 E0.01783 ; perimeter
G1 X99.242 Y126.484 E0.01782 ; perimeter
G1 X98.962 Y126.896 E0.01783 ; perimeter
G1 X98.601 Y127.239 E0.01783 ; perimeter
G1 X98.174 Y127.496 E0.01782 ; perimeter
G1 X97.702 Y127.655 E0.01783 ; perimeter
G1 X97.207 Y127.708 E0.01782 ; perimeter
G1 X96.712 Y127.655 E0.01782 ; perimeter
G1 X96.240 Y127.496 E0.01782 ; perimeter
G1 X95.814 Y127.239 E0.01783 ; perimeter
G1 X95.452 Y126.896 E0.01783 ; perimeter
G1 X95.173 Y126.484 E0.01782 ; perimeter
G1 X94.989 Y126.022 E0.01783 ; perimeter
G1 X94.908 Y125.531 E0.01782 ; perimeter
G1 X94.935 Y125.033 E0.01783 ; perimeter
G1 X95.068 Y124.553 E0.01783 ; perimeter
G1 X95.301 Y124.114 E0.01782 ; perimeter
G1 X95.624 Y123.734 E0.01783 ; perimeter
G1 X96.020 Y123.433 E0.01782 ; perimeter
G1 X96.472 Y123.224 E0.01783 ; perimeter
G1 X96.940 Y123.121 E0.01714 ; perimeter
G1 X97.248 Y123.109 E0.01106 ; perimeter
G1 X97.475 Y123.121 E0.00812 F780.000 ; perimeter
G1 X97.943 Y123.224 E0.01715 ; perimeter
G1 X98.214 Y123.349 E0.01071 ; perimeter
G1 E-4.00000 F1800.00000 ; retract
G1 X68.034 Y125.106 F6000.000 ; move to first perimeter point
G1 E4.00000 F1800.00000 ; unretract
G1 X68.056 Y125.506 E0.01433 F780.000 ; perimeter
G1 X67.991 Y125.901 E0.01433 ; perimeter
G1 X67.843 Y126.273 E0.01433 ; perimeter
G1 X67.618 Y126.604 E0.01433 ; perimeter
G1 X67.328 Y126.880 E0.01433 ; perimeter
G1 X66.985 Y127.086 E0.01433 ; perimeter
G1 X66.638 Y127.203 E0.01311 ; perimeter
G1 X66.207 Y127.257 E0.01553 ; perimeter
G1 X65.809 Y127.214 E0.01433 ; perimeter
G1 X65.430 Y127.086 E0.01433 ; perimeter
G1 X65.087 Y126.880 E0.01433 ; perimeter
G1 X64.796 Y126.604 E0.01433 ; perimeter
G1 X64.571 Y126.273 E0.01433 ; perimeter
G1 X64.423 Y125.901 E0.01433 ; perimeter
G1 X64.358 Y125.506 E0.01433 ; perimeter
G1 X64.380 Y125.106 E0.01433 ; perimeter
G1 X64.487 Y124.721 E0.01433 ; perimeter
G1 X64.675 Y124.367 E0.01433 ; perimeter
G1 X64.912 Y124.088 E0.01311 ; perimeter
G1 X65.253 Y123.819 E0.01553 ; perimeter
G1 X65.616 Y123.651 E0.01433 ; perimeter
G1 X66.000 Y123.567 E0.01409 ; perimeter
G1 X66.190 Y123.556 E0.00680 ; perimeter
G1 X66.414 Y123.567 E0.00802 F780.000 ; perimeter
G1 X66.798 Y123.651 E0.01409 ; perimeter
G1 X67.162 Y123.819 E0.01433 ; perimeter
G1 X67.480 Y124.062 E0.01433 ; perimeter
G1 X67.740 Y124.367 E0.01433 ; perimeter
G1 X67.927 Y124.720 E0.01433 ; perimeter
G1 X68.014 Y125.034 E0.01165 ; perimeter
G1 X68.404 Y125.261 F6000.000 ; move inwards before travel
G1 X68.446 Y124.914 F6000.000 ; move to first perimeter point
G1 X68.480 Y125.033 E0.00443 F780.000 ; perimeter
G1 X68.506 Y125.530 E0.01783 ; perimeter
G1 X68.426 Y126.022 E0.01783 ; perimeter
G1 X68.242 Y126.484 E0.01782 ; perimeter
G1 X67.962 Y126.896 E0.01782 ; perimeter
G1 X67.601 Y127.239 E0.01782 ; perimeter
G1 X67.174 Y127.496 E0.01783 ; perimeter
G1 X66.781 Y127.628 E0.01486 ; perimeter
G1 X66.702 Y127.655 E0.00297 ; perimeter
G1 X66.207 Y127.708 E0.01782 ; perimeter
G1 X65.712 Y127.655 E0.01782 ; perimeter
G1 X65.240 Y127.496 E0.01782 ; perimeter
G1 X64.814 Y127.239 E0.01783 ; perimeter
G1 X64.452 Y126.896 E0.01783 ; perimeter
G1 X64.173 Y126.484 E0.01783 ; perimeter
G1 X63.989 Y126.022 E0.01782 ; perimeter
G1 X63.908 Y125.530 E0.01783 ; perimeter
G1 X63.935 Y125.033 E0.01783 ; perimeter
G1 X64.068 Y124.554 E0.01783 ; perimeter
G1 X64.301 Y124.114 E0.01783 ; perimeter
G1 X64.570 Y123.797 E0.01486 ; perimeter
G1 X64.624 Y123.734 E0.00297 ; perimeter
G1 X65.020 Y123.433 E0.01782 ; perimeter
G1 X65.472 Y123.224 E0.01783 ; perimeter
G1 X65.940 Y123.121 E0.01714 ; perimeter
G1 X66.249 Y123.109 E0.01107 ; perimeter
G1 X66.475 Y123.121 E0.00811 F780.000 ; perimeter
G1 X66.943 Y123.224 E0.01714 ; perimeter
G1 X67.394 Y123.433 E0.01782 ; perimeter
G1 X67.791 Y123.734 E0.01783 ; perimeter
G1 X68.113 Y124.114 E0.01782 ; perimeter
G1 X68.346 Y124.553 E0.01783 ; perimeter
G1 X68.426 Y124.842 E0.01071 ; perimeter
G1 E-4.00000 F1800.00000 ; retract
G1 X66.207 Y96.257 F6000.000 ; move to first perimeter point
G1 E4.00000 F1800.00000 ; unretract
G1 X65.809 Y96.214 E0.01433 F780.000 ; perimeter
