; generated by Slic3r 1.0.1 on 2014-09-28 at 11:13:48

; layer_height = 0.24
; perimeters = 2
; top_solid_layers = 4
; bottom_solid_layers = 4
; fill_density = 0.25
; perimeter_speed = 30
; infill_speed = 30
; travel_speed = 100
; nozzle_diameter = 0.5
; filament_diameter = 1.75
; extrusion_multiplier = 1
; perimeters extrusion width = 0.50mm
; infill extrusion width = 0.50mm
; solid infill extrusion width = 0.50mm
; top infill extrusion width = 0.50mm
; first layer extrusion width = 0.80mm

G21 ; set units to millimeters
M107 ; disable fan
M190 S57 ; wait for bed temperature to be reached
M104 S200 ; set temperature

M109 S200 ; wait for temperature to be reached
G90 ; use absolute coordinates
M83 ; use relative distances for extrusion
G1 F1800.000 E-2.40000 ; retract
G1 Z0.240 F6000.000 ; move to next layer (0)
G1 X69.651 Y52.708 F6000.000 ; move to first skirt point
G1 E2.40000 F1800.000 ; compensate retraction
G1 X70.381 Y51.978 E0.07710 F900.000 ; skirt
G1 X71.541 Y51.098 E0.10874 ; skirt
G1 X72.891 Y50.548 E0.10887 ; skirt
G1 X73.891 Y50.288 E0.07717 ; skirt
G1 X74.571 Y50.158 E0.05171 ; skirt
G1 X75.271 Y50.108 E0.05241 ; skirt
G1 X124.721 Y50.108 E3.69318 ; skirt
G1 X125.441 Y50.158 E0.05390 ; skirt
G1 X126.141 Y50.298 E0.05331 ; skirt
G1 X127.151 Y50.568 E0.07808 ; skirt
G1 X128.481 Y51.118 E0.10749 ; skirt
G1 X129.621 Y51.988 E0.10710 ; skirt
G1 X130.351 Y52.718 E0.07710 ; skirt
G1 X131.231 Y53.868 E0.10815 ; skirt
G1 X131.781 Y55.208 E0.10818 ; skirt
G1 X132.041 Y56.198 E0.07645 ; skirt
G1 X132.171 Y56.898 E0.05317 ; skirt
G1 X132.221 Y57.598 E0.05241 ; skirt
G1 X132.221 Y103.898 E3.45792 ; skirt
G1 X130.961 Y134.898 E2.31715 ; skirt
G1 X130.821 Y136.498 E0.11995 ; skirt
G1 X130.691 Y137.318 E0.06201 ; skirt
G1 X130.371 Y138.618 E0.09999 ; skirt
G1 X130.231 Y139.088 E0.03663 ; skirt
G1 X130.061 Y139.528 E0.03523 ; skirt
G1 X129.521 Y140.748 E0.09964 ; skirt
G1 X129.101 Y141.528 E0.06616 ; skirt
G1 X128.371 Y142.648 E0.09985 ; skirt
G1 X127.811 Y143.368 E0.06812 ; skirt
G1 X126.901 Y144.358 E0.10043 ; skirt
G1 X126.231 Y144.968 E0.06767 ; skirt
G1 X125.181 Y145.788 E0.09950 ; skirt
G1 X124.421 Y146.288 E0.06794 ; skirt
G1 X123.241 Y146.928 E0.10026 ; skirt
G1 X122.381 Y147.308 E0.07022 ; skirt
G1 X121.111 Y147.738 E0.10014 ; skirt
G1 X120.251 Y147.948 E0.06612 ; skirt
G1 X118.931 Y148.168 E0.09994 ; skirt
G1 X118.271 Y148.238 E0.04957 ; skirt
G1 X80.771 Y149.878 E2.80337 ; skirt
G1 X79.601 Y149.888 E0.08738 ; skirt
G1 X78.831 Y149.828 E0.05768 ; skirt
G1 X77.911 Y149.698 E0.06939 ; skirt
G1 X77.191 Y149.548 E0.05493 ; skirt
G1 X76.301 Y149.298 E0.06904 ; skirt
G1 X75.601 Y149.048 E0.05551 ; skirt
G1 X74.751 Y148.678 E0.06924 ; skirt
G1 X74.111 Y148.348 E0.05378 ; skirt
G1 X73.311 Y147.868 E0.06968 ; skirt
G1 X72.661 Y147.408 E0.05947 ; skirt
G1 X71.941 Y146.818 E0.06952 ; skirt
G1 X71.391 Y146.298 E0.05653 ; skirt
G1 X70.771 Y145.628 E0.06818 ; skirt
G1 X70.351 Y145.118 E0.04934 ; skirt
G1 X69.801 Y144.358 E0.07006 ; skirt
G1 X69.351 Y143.618 E0.06468 ; skirt
G1 X68.931 Y142.788 E0.06947 ; skirt
G1 X68.651 Y142.158 E0.05149 ; skirt
G1 X68.341 Y141.288 E0.06898 ; skirt
G1 X68.141 Y140.558 E0.05653 ; skirt
G1 X67.951 Y139.648 E0.06943 ; skirt
G1 X67.841 Y138.878 E0.05809 ; skirt
G1 X67.771 Y137.598 E0.09574 ; skirt
G1 X67.771 Y57.598 E5.97482 ; skirt
G1 X67.821 Y56.878 E0.05390 ; skirt
G1 X67.961 Y56.168 E0.05405 ; skirt
G1 X68.231 Y55.168 E0.07736 ; skirt
G1 X68.781 Y53.848 E0.10680 ; skirt
G1 X69.583 Y52.797 E0.09872 ; skirt
G1 X70.181 Y53.238 F6000.000 ; move to first skirt point
G1 X70.911 Y52.508 E0.07710 F900.000 ; skirt
G1 X71.911 Y51.748 E0.09381 ; skirt
G1 X73.081 Y51.268 E0.09445 ; skirt
G1 X74.081 Y51.008 E0.07717 ; skirt
G1 X74.671 Y50.898 E0.04482 ; skirt
G1 X75.271 Y50.858 E0.04491 ; skirt
G1 X124.721 Y50.858 E3.69318 ; skirt
G1 X125.341 Y50.898 E0.04640 ; skirt
G1 X125.951 Y51.018 E0.04643 ; skirt
G1 X126.961 Y51.288 E0.07808 ; skirt
G1 X128.101 Y51.768 E0.09238 ; skirt
G1 X129.091 Y52.518 E0.09276 ; skirt
G1 X129.821 Y53.248 E0.07710 ; skirt
G1 X130.581 Y54.248 E0.09381 ; skirt
G1 X131.051 Y55.398 E0.09278 ; skirt
G1 X131.311 Y56.388 E0.07645 ; skirt
G1 X131.431 Y56.988 E0.04570 ; skirt
G1 X131.471 Y57.598 E0.04566 ; skirt
G1 X131.471 Y103.898 E3.45792 ; skirt
G1 X130.201 Y135.108 E2.33285 ; skirt
G1 X130.081 Y136.438 E0.09973 ; skirt
G1 X129.961 Y137.138 E0.05304 ; skirt
G1 X129.641 Y138.438 E0.09999 ; skirt
G1 X129.521 Y138.838 E0.03119 ; skirt
G1 X129.371 Y139.228 E0.03121 ; skirt
G1 X128.831 Y140.448 E0.09964 ; skirt
G1 X128.471 Y141.118 E0.05680 ; skirt
G1 X127.741 Y142.238 E0.09985 ; skirt
G1 X127.261 Y142.858 E0.05856 ; skirt
G1 X126.351 Y143.848 E0.10043 ; skirt
G1 X125.771 Y144.378 E0.05868 ; skirt
G1 X124.721 Y145.198 E0.09950 ; skirt
G1 X124.061 Y145.628 E0.05883 ; skirt
G1 X122.881 Y146.268 E0.10026 ; skirt
G1 X122.141 Y146.598 E0.06051 ; skirt
G1 X120.871 Y147.028 E0.10014 ; skirt
G1 X120.131 Y147.208 E0.05688 ; skirt
G1 X118.811 Y147.428 E0.09994 ; skirt
G1 X118.241 Y147.488 E0.04281 ; skirt
G1 X80.531 Y149.138 E2.81907 ; skirt
G1 X79.601 Y149.138 E0.06946 ; skirt
G1 X78.941 Y149.088 E0.04943 ; skirt
G1 X78.021 Y148.958 E0.06939 ; skirt
G1 X77.401 Y148.828 E0.04731 ; skirt
G1 X76.511 Y148.578 E0.06904 ; skirt
G1 X75.891 Y148.358 E0.04913 ; skirt
G1 X75.041 Y147.988 E0.06924 ; skirt
G1 X74.501 Y147.708 E0.04543 ; skirt
G1 X73.701 Y147.228 E0.06968 ; skirt
G1 X73.131 Y146.828 E0.05201 ; skirt
G1 X72.411 Y146.238 E0.06952 ; skirt
G1 X71.931 Y145.798 E0.04863 ; skirt
G1 X71.311 Y145.128 E0.06818 ; skirt
G1 X70.951 Y144.678 E0.04304 ; skirt
G1 X70.401 Y143.918 E0.07006 ; skirt
G1 X70.011 Y143.278 E0.05597 ; skirt
G1 X69.591 Y142.448 E0.06947 ; skirt
G1 X69.361 Y141.898 E0.04452 ; skirt
G1 X69.051 Y141.028 E0.06898 ; skirt
G1 X68.871 Y140.408 E0.04822 ; skirt
G1 X68.681 Y139.498 E0.06943 ; skirt
G1 X68.591 Y138.838 E0.04975 ; skirt
G1 X68.521 Y137.598 E0.09276 ; skirt
G1 X68.521 Y57.598 E5.97482 ; skirt
G1 X68.561 Y56.978 E0.04640 ; skirt
G1 X68.691 Y56.358 E0.04731 ; skirt
G1 X68.961 Y55.358 E0.07736 ; skirt
G1 X69.431 Y54.218 E0.09209 ; skirt
G1 X70.113 Y53.327 E0.08378 ; skirt
G1 F1800.000 E-2.40000 ; retract
G1 X73.898 Y56.815 F6000.000 ; move to first perimeter point
G1 E2.40000 F1800.000 ; compensate retraction
G1 X74.479 Y56.234 E0.06136 F900.000 ; perimeter
G1 X75.324 Y56.008 E0.06534 ; perimeter
G1 X124.678 Y56.008 E3.68603 ; perimeter
G1 X125.522 Y56.234 E0.06523 ; perimeter
G1 X126.103 Y56.815 E0.06132 ; perimeter
G1 X126.329 Y57.659 E0.06526 ; perimeter
G1 X126.329 Y103.855 E3.45021 ; perimeter
G1 X126.102 Y104.701 E0.06538 ; perimeter
G1 X125.522 Y105.281 E0.06131 ; perimeter
G1 X124.676 Y105.508 E0.06538 ; perimeter
G1 X75.324 Y105.508 E3.68586 ; perimeter
G1 X74.478 Y105.281 E0.06538 ; perimeter
G1 X73.898 Y104.701 E0.06131 ; perimeter
G1 X73.671 Y103.855 E0.06538 ; perimeter
G1 X73.671 Y57.661 E3.45001 ; perimeter
G1 X73.869 Y56.924 E0.05703 ; perimeter
G1 X74.644 Y56.881 F6000.000 ; move inwards before travel
G1 X74.866 Y56.905 F6000.000 ; move to first perimeter point
G1 X75.423 Y56.756 E0.04300 F900.000 ; perimeter
G1 X124.580 Y56.756 E3.67131 ; perimeter
G1 X125.134 Y56.905 E0.04289 ; perimeter
G1 X125.431 Y57.202 E0.03137 ; perimeter
G1 X125.580 Y57.757 E0.04292 ; perimeter
G1 X125.580 Y103.757 E3.43549 ; perimeter
G1 X125.431 Y104.313 E0.04304 ; perimeter
G1 X125.134 Y104.610 E0.03135 ; perimeter
G1 X124.577 Y104.759 E0.04304 ; perimeter
G1 X75.423 Y104.759 E3.67114 ; perimeter
G1 X74.866 Y104.610 E0.04304 ; perimeter
G1 X74.569 Y104.313 E0.03135 ; perimeter
G1 X74.420 Y103.757 E0.04304 ; perimeter
G1 X74.420 Y57.760 E3.43529 ; perimeter
G1 X74.569 Y57.203 E0.04307 ; perimeter
G1 X74.787 Y56.985 E0.02302 ; perimeter
G1 F1800.000 E-2.40000 ; retract
G1 X98.212 Y75.576 F6000.000 ; move to first perimeter point
G1 E2.40000 F1800.000 ; compensate retraction
G1 X98.968 Y74.820 E0.07980 F780.000 ; perimeter
G1 X100.000 Y74.544 E0.07980 ; perimeter
G1 X101.032 Y74.820 E0.07980 ; perimeter
G1 X101.788 Y75.576 E0.07980 ; perimeter
G1 X102.064 Y76.608 E0.07980 ; perimeter
G1 X101.788 Y77.640 E0.07980 ; perimeter
G1 X101.032 Y78.395 E0.07980 ; perimeter
G1 X100.000 Y78.672 E0.07980 ; perimeter
G1 X98.968 Y78.395 E0.07980 ; perimeter
G1 X98.212 Y77.640 E0.07980 ; perimeter
G1 X97.936 Y76.608 E0.07980 ; perimeter
G1 X98.183 Y75.684 E0.07141 ; perimeter
G1 X97.896 Y74.898 F6000.000 ; move inwards before travel
G1 X97.775 Y74.955 F6000.000 ; move to first perimeter point
G1 X98.580 Y74.149 E0.08507 F780.000 ; perimeter
G1 X100.000 Y73.769 E0.10976 ; perimeter
G1 X101.420 Y74.149 E0.10976 ; perimeter
G1 X102.459 Y75.188 E0.10976 ; perimeter
G1 X102.839 Y76.608 E0.10975 ; perimeter
G1 X102.459 Y78.027 E0.10976 ; perimeter
G1 X101.420 Y79.067 E0.10975 ; perimeter
G1 X100.000 Y79.447 E0.10976 ; perimeter
G1 X98.580 Y79.067 E0.10976 ; perimeter
G1 X97.541 Y78.027 E0.10975 ; perimeter
G1 X97.161 Y76.608 E0.10976 ; perimeter
G1 X97.541 Y75.188 E0.10976 ; perimeter
G1 X97.696 Y75.034 E0.01630 ; perimeter
G1 F1800.000 E-2.40000 ; retract
G1 X116.785 Y62.608 F6000.000 ; move to first perimeter point
G1 E2.40000 F1800.000 ; compensate retraction
G1 X116.785 Y59.208 E0.25393 F780.000 ; perimeter
G1 X123.215 Y59.208 E0.48016 ; perimeter
G1 X123.215 Y62.608 E0.25393 ; perimeter
G1 X116.898 Y62.608 E0.47178 ; perimeter
G1 X116.037 Y62.608 F6000.000 ; move inwards before travel
G1 X116.037 Y63.356 F6000.000 ; move to first perimeter point
G1 X116.037 Y58.459 E0.36573 F780.000 ; perimeter
G1 X123.963 Y58.459 E0.59197 ; perimeter
G1 X123.963 Y63.356 E0.36573 ; perimeter
G1 X116.149 Y63.356 E0.58358 ; perimeter
G1 F1800.000 E-2.40000 ; retract
G1 X83.215 Y62.608 F6000.000 ; move to first perimeter point
G1 E2.40000 F1800.000 ; compensate retraction
G1 X76.785 Y62.608 E0.48016 F780.000 ; perimeter
G1 X76.785 Y59.208 E0.25393 ; perimeter
G1 X83.215 Y59.208 E0.48016 ; perimeter
G1 X83.215 Y62.496 E0.24554 ; perimeter
G1 X83.215 Y63.356 F6000.000 ; move inwards before travel
G1 X83.963 Y63.356 F6000.000 ; move to first perimeter point
G1 X76.037 Y63.356 E0.59197 F780.000 ; perimeter
G1 X76.037 Y58.459 E0.36573 ; perimeter
G1 X83.963 Y58.459 E0.59197 ; perimeter
G1 X83.963 Y63.244 E0.35735 ; perimeter
G1 F1800.000 E-2.40000 ; retract
G1 X101.179 Y73.533 F6000.000 ; move to first fill point
G1 E2.40000 F1800.000 ; compensate retraction
G1 X84.935 Y57.289 E1.73165 F900.000 ; fill
G1 X84.870 Y58.293 E0.07582 ; fill
G1 X99.838 Y73.261 E1.59560 ; fill
G1 X98.995 Y73.487 E0.06575 ; fill
G1 X84.496 Y58.987 E1.54567 ; fill
G1 X84.496 Y60.055 E0.08053 ; fill
G1 X98.208 Y73.768 E1.46178 ; fill
G1 X97.674 Y74.302 E0.05694 ; fill
G1 X84.496 Y61.124 E1.40484 ; fill
G1 X84.496 Y62.192 E0.08053 ; fill
G1 X97.140 Y74.836 E1.34790 ; fill
G1 X96.870 Y75.635 E0.06353 ; fill
G1 X84.496 Y63.260 E1.31913 ; fill
G1 X84.056 Y63.889 E0.05783 ; fill
G1 X96.645 Y76.477 E1.34193 ; fill
G1 X96.940 Y77.841 E0.10519 ; fill
G1 X82.988 Y63.889 E1.48732 ; fill
G1 X81.919 Y63.889 E0.08053 ; fill
G1 X122.257 Y104.227 E4.30001 ; fill
G1 X121.189 Y104.227 E0.08053 ; fill
G1 X80.851 Y63.889 E4.30001 ; fill
G1 X79.783 Y63.889 E0.08053 ; fill
G1 X120.120 Y104.227 E4.30001 ; fill
G1 X119.052 Y104.227 E0.08053 ; fill
G1 X78.714 Y63.889 E4.30001 ; fill
G1 X77.646 Y63.889 E0.08053 ; fill
G1 X117.984 Y104.227 E4.30001 ; fill
G1 X116.915 Y104.227 E0.08053 ; fill
G1 X76.578 Y63.889 E4.30001 ; fill
G1 X75.884 Y64.263 E0.05944 ; fill
G1 X115.847 Y104.227 E4.26012 ; fill
G1 X114.779 Y104.227 E0.08053 ; fill
G1 X74.952 Y64.401 E4.24548 ; fill
G1 X74.952 Y65.469 E0.08053 ; fill
G1 X113.710 Y104.227 E4.13160 ; fill
G1 X112.642 Y104.227 E0.08053 ; fill
G1 X74.952 Y66.537 E4.01771 ; fill
G1 X74.952 Y67.606 E0.08053 ; fill
G1 X111.574 Y104.227 E3.90383 ; fill
G1 X110.505 Y104.227 E0.08053 ; fill
G1 X74.952 Y68.674 E3.78994 ; fill
G1 X74.952 Y69.742 E0.08053 ; fill
G1 X109.437 Y104.227 E3.67605 ; fill
G1 X108.369 Y104.227 E0.08053 ; fill
G1 X74.952 Y70.811 E3.56217 ; fill
G1 X74.952 Y71.879 E0.08053 ; fill
G1 X107.300 Y104.227 E3.44828 ; fill
G1 X106.232 Y104.227 E0.08053 ; fill
G1 X74.952 Y72.947 E3.33439 ; fill
G1 X74.952 Y74.016 E0.08053 ; fill
G1 X105.164 Y104.227 E3.22051 ; fill
G1 X104.095 Y104.227 E0.08053 ; fill
G1 X74.952 Y75.084 E3.10662 ; fill
G1 X74.952 Y76.152 E0.08053 ; fill
G1 X103.027 Y104.227 E2.99274 ; fill
G1 X101.959 Y104.227 E0.08053 ; fill
G1 X74.952 Y77.221 E2.87885 ; fill
G1 X74.952 Y78.289 E0.08053 ; fill
G1 X100.890 Y104.227 E2.76496 ; fill
G1 X99.822 Y104.227 E0.08053 ; fill
G1 X74.952 Y79.357 E2.65108 ; fill
G1 X74.952 Y80.426 E0.08053 ; fill
G1 X98.753 Y104.227 E2.53719 ; fill
G1 X97.685 Y104.227 E0.08053 ; fill
G1 X74.952 Y81.494 E2.42330 ; fill
G1 X74.952 Y82.563 E0.08053 ; fill
G1 X96.617 Y104.227 E2.30942 ; fill
G1 X95.548 Y104.227 E0.08053 ; fill
G1 X74.952 Y83.631 E2.19553 ; fill
G1 X74.952 Y84.699 E0.08053 ; fill
G1 X94.480 Y104.227 E2.08165 ; fill
G1 X93.412 Y104.227 E0.08053 ; fill
G1 X74.952 Y85.768 E1.96776 ; fill
G1 X74.952 Y86.836 E0.08053 ; fill
G1 X92.343 Y104.227 E1.85387 ; fill
G1 X91.275 Y104.227 E0.08053 ; fill
G1 X74.952 Y87.904 E1.73999 ; fill
G1 X74.952 Y88.973 E0.08053 ; fill
G1 X90.207 Y104.227 E1.62610 ; fill
G1 X89.138 Y104.227 E0.08053 ; fill
G1 X74.952 Y90.041 E1.51221 ; fill
G1 X74.952 Y91.109 E0.08053 ; fill
G1 X88.070 Y104.227 E1.39833 ; fill
G1 X87.002 Y104.227 E0.08053 ; fill
G1 X74.952 Y92.178 E1.28444 ; fill
G1 X74.952 Y93.246 E0.08053 ; fill
G1 X85.933 Y104.227 E1.17056 ; fill
G1 X84.865 Y104.227 E0.08053 ; fill
G1 X74.952 Y94.314 E1.05667 ; fill
G1 X74.952 Y95.383 E0.08053 ; fill
G1 X83.797 Y104.227 E0.94278 ; fill
G1 X82.728 Y104.227 E0.08053 ; fill
G1 X74.952 Y96.451 E0.82890 ; fill
G1 X74.952 Y97.519 E0.08053 ; fill
G1 X81.660 Y104.227 E0.71501 ; fill
G1 X80.592 Y104.227 E0.08053 ; fill
G1 X74.952 Y98.588 E0.60112 ; fill
G1 X74.952 Y99.656 E0.08053 ; fill
G1 X79.523 Y104.227 E0.48724 ; fill
G1 X78.455 Y104.227 E0.08053 ; fill
G1 X74.952 Y100.724 E0.37335 ; fill
G1 X74.952 Y101.793 E0.08053 ; fill
G1 X77.386 Y104.227 E0.25947 ; fill
G1 X76.318 Y104.227 E0.08053 ; fill
G1 X74.952 Y102.861 E0.14558 ; fill
G1 X75.041 Y104.018 E0.08749 ; fill
G1 X75.161 Y104.138 E0.01274 ; fill
G1 F1800.000 E-2.40000 ; retract
G1 X103.075 Y75.429 F6000.000 ; move to first fill point
G1 E2.40000 F1800.000 ; compensate retraction
G1 X125.048 Y97.402 E2.34232 F900.000 ; fill
G1 X125.048 Y98.470 E0.08053 ; fill
G1 X103.347 Y76.770 E2.31328 ; fill
G1 X103.121 Y77.612 E0.06575 ; fill
G1 X125.048 Y99.539 E2.33734 ; fill
G1 X125.048 Y100.607 E0.08053 ; fill
G1 X102.840 Y78.399 E2.36734 ; fill
G1 X102.306 Y78.934 E0.05694 ; fill
G1 X125.048 Y101.675 E2.42428 ; fill
G1 X125.048 Y102.744 E0.08053 ; fill
G1 X101.772 Y79.468 E2.48122 ; fill
G1 X100.973 Y79.738 E0.06353 ; fill
G1 X125.021 Y103.786 E2.56352 ; fill
G1 X124.394 Y104.227 E0.05780 ; fill
G1 X100.130 Y79.963 E2.58648 ; fill
G1 X98.767 Y79.668 E0.10519 ; fill
G1 X123.325 Y104.227 E2.61799 ; fill
G1 F1800.000 E-2.40000 ; retract
G1 X125.048 Y96.334 F6000.000 ; move to first fill point
G1 E2.40000 F1800.000 ; compensate retraction
G1 X86.003 Y57.289 E4.16217 F900.000 ; fill
G1 X87.071 Y57.289 E0.08053 ; fill
G1 X125.048 Y95.265 E4.04828 ; fill
G1 X125.048 Y94.197 E0.08053 ; fill
G1 X88.140 Y57.289 E3.93440 ; fill
G1 X89.208 Y57.289 E0.08053 ; fill
G1 X125.048 Y93.129 E3.82051 ; fill
G1 X125.048 Y92.060 E0.08053 ; fill
G1 X90.276 Y57.289 E3.70662 ; fill
G1 X91.345 Y57.289 E0.08053 ; fill
G1 X125.048 Y90.992 E3.59274 ; fill
G1 X125.048 Y89.924 E0.08053 ; fill
G1 X92.413 Y57.289 E3.47885 ; fill
G1 X93.481 Y57.289 E0.08053 ; fill
G1 X125.048 Y88.855 E3.36496 ; fill
G1 X125.048 Y87.787 E0.08053 ; fill
G1 X94.550 Y57.289 E3.25108 ; fill
G1 X95.618 Y57.289 E0.08053 ; fill
G1 X125.048 Y86.719 E3.13719 ; fill
G1 X125.048 Y85.650 E0.08053 ; fill
G1 X96.686 Y57.289 E3.02331 ; fill
G1 X97.755 Y57.289 E0.08053 ; fill
G1 X125.048 Y84.582 E2.90942 ; fill
G1 X125.048 Y83.514 E0.08053 ; fill
G1 X98.823 Y57.289 E2.79553 ; fill
