; generated by Slic3r 1.0.1 on 2014-09-27 at 19:19:28

; layer_height = 0.24
; perimeters = 2
; top_solid_layers = 4
; bottom_solid_layers = 4
; fill_density = 0.25
; perimeter_speed = 30
; infill_speed = 30
; travel_speed = 100
; nozzle_diameter = 0.5
; filament_diameter = 1.75
; extrusion_multiplier = 1
; perimeters extrusion width = 0.50mm
; infill extrusion width = 0.50mm
; solid infill extrusion width = 0.50mm
; top infill extrusion width = 0.50mm
; first layer extrusion width = 0.80mm

G21 ; set units to millimeters
M107 ; disable fan
M190 S57 ; wait for bed temperature to be reached
M104 S200 ; set temperature

M109 S200 ; wait for temperature to be reached
G90 ; use absolute coordinates
M83 ; use relative distances for extrusion
G1 F1800.000 E-2.40000 ; retract
G1 Z0.240 F6000.000 ; move to next layer (0)
G1 X46.761 Y79.341 F6000.000 ; move to first skirt point
G1 E2.40000 F1800.000 ; compensate retraction
G1 X47.901 Y78.931 E0.09048 F900.000 ; skirt
G1 X93.651 Y67.931 E3.51422 ; skirt
G1 X94.291 Y67.811 E0.04863 ; skirt
G1 X94.941 Y67.771 E0.04864 ; skirt
G1 X148.801 Y67.771 E4.02254 ; skirt
G1 X149.501 Y67.821 E0.05241 ; skirt
G1 X150.181 Y67.951 E0.05171 ; skirt
G1 X151.181 Y68.211 E0.07717 ; skirt
G1 X152.551 Y68.771 E0.11054 ; skirt
G1 X153.711 Y69.671 E0.10965 ; skirt
G1 X154.441 Y70.411 E0.07763 ; skirt
G1 X155.291 Y71.531 E0.10501 ; skirt
G1 X155.831 Y72.821 E0.10444 ; skirt
G1 X156.101 Y73.811 E0.07664 ; skirt
G1 X156.251 Y74.531 E0.05493 ; skirt
G1 X156.301 Y75.261 E0.05465 ; skirt
G1 X156.301 Y124.721 E3.69393 ; skirt
G1 X156.271 Y125.251 E0.03965 ; skirt
G1 X156.201 Y125.771 E0.03919 ; skirt
G1 X156.051 Y126.541 E0.05859 ; skirt
G1 X155.741 Y127.571 E0.08033 ; skirt
G1 X155.231 Y128.521 E0.08053 ; skirt
G1 X154.801 Y129.171 E0.05821 ; skirt
G1 X154.111 Y130.031 E0.08235 ; skirt
G1 X153.251 Y130.721 E0.08235 ; skirt
G1 X152.601 Y131.151 E0.05821 ; skirt
G1 X151.651 Y131.661 E0.08053 ; skirt
G1 X150.621 Y131.971 E0.08033 ; skirt
G1 X149.851 Y132.121 E0.05859 ; skirt
G1 X149.331 Y132.191 E0.03919 ; skirt
G1 X148.801 Y132.221 E0.03965 ; skirt
G1 X94.941 Y132.221 E4.02254 ; skirt
G1 X94.411 Y132.191 E0.03965 ; skirt
G1 X93.891 Y132.121 E0.03919 ; skirt
G1 X92.871 Y131.911 E0.07778 ; skirt
G1 X53.301 Y122.261 E3.04190 ; skirt
G1 X52.221 Y121.961 E0.08371 ; skirt
G1 X51.521 Y121.711 E0.05551 ; skirt
G1 X50.671 Y121.341 E0.06924 ; skirt
G1 X50.031 Y121.011 E0.05378 ; skirt
G1 X49.231 Y120.531 E0.06968 ; skirt
G1 X48.581 Y120.071 E0.05947 ; skirt
G1 X47.861 Y119.481 E0.06952 ; skirt
G1 X47.311 Y118.961 E0.05653 ; skirt
G1 X46.691 Y118.291 E0.06818 ; skirt
G1 X46.271 Y117.781 E0.04934 ; skirt
G1 X45.721 Y117.021 E0.07006 ; skirt
G1 X45.271 Y116.281 E0.06468 ; skirt
G1 X44.851 Y115.451 E0.06947 ; skirt
G1 X44.571 Y114.821 E0.05149 ; skirt
G1 X44.261 Y113.951 E0.06898 ; skirt
G1 X44.061 Y113.221 E0.05653 ; skirt
G1 X43.871 Y112.311 E0.06943 ; skirt
G1 X43.761 Y111.541 E0.05809 ; skirt
G1 X43.691 Y110.261 E0.09574 ; skirt
G1 X43.691 Y84.271 E1.94107 ; skirt
G1 X43.831 Y83.061 E0.09097 ; skirt
G1 X44.231 Y81.901 E0.09164 ; skirt
G1 X44.871 Y80.871 E0.09057 ; skirt
G1 X45.731 Y80.001 E0.09136 ; skirt
G1 X46.667 Y79.402 E0.08298 ; skirt
G1 X46.901 Y80.111 F6000.000 ; move to first skirt point
G1 X48.081 Y79.651 E0.09459 F900.000 ; skirt
G1 X93.831 Y68.651 E3.51422 ; skirt
G1 X94.381 Y68.551 E0.04175 ; skirt
G1 X94.941 Y68.521 E0.04188 ; skirt
G1 X148.801 Y68.521 E4.02254 ; skirt
G1 X149.401 Y68.561 E0.04491 ; skirt
G1 X149.991 Y68.671 E0.04482 ; skirt
G1 X150.991 Y68.931 E0.07717 ; skirt
G1 X152.171 Y69.421 E0.09542 ; skirt
G1 X153.181 Y70.201 E0.09531 ; skirt
G1 X153.911 Y70.941 E0.07763 ; skirt
G1 X154.651 Y71.901 E0.09053 ; skirt
G1 X155.111 Y73.021 E0.09043 ; skirt
G1 X155.381 Y74.011 E0.07664 ; skirt
G1 X155.511 Y74.631 E0.04731 ; skirt
G1 X155.551 Y75.261 E0.04715 ; skirt
G1 X155.551 Y124.721 E3.69393 ; skirt
G1 X155.531 Y125.181 E0.03439 ; skirt
G1 X155.311 Y126.401 E0.09259 ; skirt
G1 X155.041 Y127.291 E0.06946 ; skirt
G1 X154.611 Y128.111 E0.06915 ; skirt
G1 X154.181 Y128.761 E0.05821 ; skirt
G1 X153.581 Y129.501 E0.07115 ; skirt
G1 X152.841 Y130.101 E0.07115 ; skirt
G1 X152.191 Y130.531 E0.05821 ; skirt
G1 X151.371 Y130.961 E0.06915 ; skirt
G1 X150.481 Y131.231 E0.06946 ; skirt
G1 X149.261 Y131.451 E0.09259 ; skirt
G1 X148.801 Y131.471 E0.03439 ; skirt
G1 X94.941 Y131.471 E4.02254 ; skirt
G1 X94.481 Y131.451 E0.03439 ; skirt
G1 X94.031 Y131.381 E0.03401 ; skirt
G1 X93.041 Y131.181 E0.07543 ; skirt
G1 X53.471 Y121.531 E3.04190 ; skirt
G1 X52.431 Y121.241 E0.08064 ; skirt
G1 X51.811 Y121.021 E0.04913 ; skirt
G1 X50.961 Y120.651 E0.06924 ; skirt
G1 X50.421 Y120.371 E0.04543 ; skirt
G1 X49.621 Y119.891 E0.06968 ; skirt
G1 X49.051 Y119.491 E0.05201 ; skirt
G1 X48.331 Y118.901 E0.06952 ; skirt
G1 X47.851 Y118.461 E0.04863 ; skirt
G1 X47.231 Y117.791 E0.06818 ; skirt
G1 X46.871 Y117.341 E0.04304 ; skirt
G1 X46.321 Y116.581 E0.07006 ; skirt
G1 X45.931 Y115.941 E0.05597 ; skirt
G1 X45.511 Y115.111 E0.06947 ; skirt
G1 X45.281 Y114.561 E0.04452 ; skirt
G1 X44.971 Y113.691 E0.06898 ; skirt
G1 X44.791 Y113.071 E0.04822 ; skirt
G1 X44.601 Y112.161 E0.06943 ; skirt
G1 X44.511 Y111.501 E0.04975 ; skirt
G1 X44.441 Y110.261 E0.09276 ; skirt
G1 X44.441 Y84.271 E1.94107 ; skirt
G1 X44.611 Y83.021 E0.09422 ; skirt
G1 X45.101 Y81.851 E0.09474 ; skirt
G1 X45.881 Y80.861 E0.09413 ; skirt
G1 X46.811 Y80.178 E0.08617 ; skirt
G1 F1800.000 E-2.40000 ; retract
G1 X72.088 Y96.699 F6000.000 ; move to first perimeter point
G1 E2.40000 F1800.000 ; compensate retraction
G1 X95.116 Y73.671 E2.43223 F900.000 ; perimeter
G1 X148.756 Y73.671 E4.00611 ; perimeter
G1 X149.601 Y73.898 E0.06538 ; perimeter
G1 X150.182 Y74.478 E0.06131 ; perimeter
G1 X150.409 Y75.324 E0.06538 ; perimeter
G1 X150.409 Y124.689 E3.68685 ; perimeter
G1 X150.280 Y125.338 E0.04940 ; perimeter
G1 X149.934 Y125.854 E0.04640 ; perimeter
G1 X149.418 Y126.200 E0.04640 ; perimeter
G1 X148.769 Y126.329 E0.04940 ; perimeter
G1 X94.982 Y126.329 E4.01714 ; perimeter
G1 X94.333 Y126.200 E0.04940 ; perimeter
G1 X93.783 Y125.832 E0.04940 ; perimeter
G1 X72.088 Y104.137 E2.29145 ; perimeter
G1 X71.720 Y103.587 E0.04940 ; perimeter
G1 X71.591 Y102.938 E0.04940 ; perimeter
G1 X71.591 Y97.898 E0.37645 ; perimeter
G1 X71.720 Y97.249 E0.04940 ; perimeter
G1 X72.026 Y96.793 E0.04101 ; perimeter
G1 X72.822 Y96.845 F6000.000 ; move inwards before travel
G1 X72.669 Y97.176 F6000.000 ; move to first perimeter point
G1 X95.426 Y74.420 E2.40357 F900.000 ; perimeter
G1 X148.657 Y74.420 E3.97560 ; perimeter
G1 X149.214 Y74.569 E0.04304 ; perimeter
G1 X149.511 Y74.866 E0.03135 ; perimeter
G1 X149.660 Y75.423 E0.04304 ; perimeter
G1 X149.660 Y99.088 E1.76746 ; perimeter
G1 X148.503 Y97.931 E0.12220 ; perimeter
G1 X147.309 Y97.611 E0.09236 ; perimeter
G1 X146.114 Y97.931 E0.09236 ; perimeter
G1 X145.240 Y98.805 E0.09236 ; perimeter
G1 X144.920 Y100.000 E0.09236 ; perimeter
G1 X145.240 Y101.195 E0.09236 ; perimeter
G1 X146.114 Y102.069 E0.09236 ; perimeter
G1 X147.309 Y102.389 E0.09236 ; perimeter
G1 X148.503 Y102.069 E0.09236 ; perimeter
G1 X149.660 Y100.912 E0.12220 ; perimeter
G1 X149.660 Y124.616 E1.77031 ; perimeter
G1 X149.574 Y125.046 E0.03277 ; perimeter
G1 X149.395 Y125.315 E0.02416 ; perimeter
G1 X149.126 Y125.495 E0.02416 ; perimeter
G1 X148.695 Y125.580 E0.03277 ; perimeter
G1 X95.055 Y125.580 E4.00612 ; perimeter
G1 X94.625 Y125.495 E0.03277 ; perimeter
G1 X94.260 Y125.251 E0.03277 ; perimeter
G1 X72.669 Y103.660 E2.28044 ; perimeter
G1 X72.426 Y103.295 E0.03277 ; perimeter
G1 X72.340 Y102.865 E0.03277 ; perimeter
G1 X72.340 Y97.972 E0.36544 ; perimeter
G1 X72.426 Y97.541 E0.03277 ; perimeter
G1 X72.607 Y97.270 E0.02439 ; perimeter
G1 F1800.000 E-2.40000 ; retract
G1 X87.687 Y98.306 F6000.000 ; move to first perimeter point
G1 E2.40000 F1800.000 ; compensate retraction
G1 X88.642 Y95.055 E0.25305 F900.000 ; perimeter
G1 X88.689 Y94.981 E0.00655 ; perimeter
G1 X90.474 Y92.204 E0.24650 ; perimeter
G1 X93.034 Y89.986 E0.25305 ; perimeter
G1 X96.116 Y88.578 E0.25305 ; perimeter
G1 X99.441 Y88.100 E0.25089 ; perimeter
G1 X103.599 Y88.100 E0.31048 ; perimeter
G1 X106.924 Y88.578 E0.25089 ; perimeter
G1 X110.006 Y89.986 E0.25305 ; perimeter
G1 X112.547 Y92.187 E0.25109 ; perimeter
G1 X114.399 Y95.057 E0.25513 ; perimeter
G1 X115.320 Y98.170 E0.24238 ; perimeter
G1 X115.353 Y98.320 E0.01150 ; perimeter
G1 X115.353 Y101.680 E0.25097 ; perimeter
G1 X114.390 Y104.958 E0.25513 ; perimeter
G1 X112.547 Y107.813 E0.25381 ; perimeter
G1 X110.006 Y110.014 E0.25109 ; perimeter
G1 X106.924 Y111.422 E0.25305 ; perimeter
G1 X103.599 Y111.900 E0.25089 ; perimeter
G1 X99.441 Y111.900 E0.31048 ; perimeter
G1 X96.116 Y111.422 E0.25089 ; perimeter
G1 X93.034 Y110.014 E0.25305 ; perimeter
G1 X90.474 Y107.796 E0.25305 ; perimeter
G1 X88.642 Y104.945 E0.25305 ; perimeter
G1 X87.687 Y101.694 E0.25305 ; perimeter
G1 X87.687 Y98.418 E0.24467 ; perimeter
G1 X87.121 Y97.816 F6000.000 ; move inwards before travel
G1 X86.994 Y98.011 F6000.000 ; move to first perimeter point
G1 X87.954 Y94.741 E0.25454 F900.000 ; perimeter
G1 X89.902 Y91.709 E0.26913 ; perimeter
G1 X92.625 Y89.349 E0.26913 ; perimeter
G1 X95.903 Y87.853 E0.26913 ; perimeter
G1 X99.388 Y87.352 E0.26293 ; perimeter
G1 X103.652 Y87.352 E0.31848 ; perimeter
G1 X107.137 Y87.853 E0.26293 ; perimeter
G1 X110.415 Y89.349 E0.26913 ; perimeter
G1 X113.081 Y91.660 E0.26350 ; perimeter
G1 X113.196 Y91.797 E0.01335 ; perimeter
G1 X115.088 Y94.748 E0.26184 ; perimeter
G1 X116.039 Y97.956 E0.24990 ; perimeter
G1 X116.102 Y98.238 E0.02158 ; perimeter
G1 X116.102 Y101.762 E0.26315 ; perimeter
G1 X116.049 Y102.002 E0.01839 ; perimeter
G1 X115.147 Y105.071 E0.23885 ; perimeter
G1 X115.063 Y105.296 E0.01794 ; perimeter
G1 X113.201 Y108.198 E0.25750 ; perimeter
G1 X113.081 Y108.340 E0.01392 ; perimeter
G1 X110.415 Y110.651 E0.26350 ; perimeter
G1 X107.137 Y112.147 E0.26913 ; perimeter
G1 X103.652 Y112.648 E0.26293 ; perimeter
G1 X99.388 Y112.648 E0.31848 ; perimeter
G1 X95.903 Y112.147 E0.26293 ; perimeter
G1 X92.625 Y110.651 E0.26913 ; perimeter
G1 X89.902 Y108.291 E0.26913 ; perimeter
G1 X87.954 Y105.259 E0.26913 ; perimeter
G1 X86.939 Y101.802 E0.26913 ; perimeter
G1 X86.939 Y98.198 E0.26913 ; perimeter
G1 X86.962 Y98.119 E0.00620 ; perimeter
G1 F1800.000 E-2.40000 ; retract
G1 X83.681 Y99.018 F6000.000 ; move to first perimeter point
G1 E2.40000 F1800.000 ; compensate retraction
G1 X83.944 Y100.000 E0.07593 F780.000 ; perimeter
G1 X83.681 Y100.982 E0.07593 ; perimeter
G1 X82.962 Y101.701 E0.07593 ; perimeter
G1 X82.033 Y101.950 E0.07186 ; perimeter
G1 X77.827 Y101.950 E0.31408 ; perimeter
G1 X76.898 Y101.701 E0.07186 ; perimeter
G1 X76.179 Y100.982 E0.07593 ; perimeter
G1 X75.916 Y100.000 E0.07593 ; perimeter
G1 X76.179 Y99.018 E0.07593 ; perimeter
G1 X76.898 Y98.299 E0.07593 ; perimeter
G1 X77.827 Y98.050 E0.07186 ; perimeter
G1 X82.033 Y98.050 E0.31407 ; perimeter
G1 X82.962 Y98.299 E0.07186 ; perimeter
G1 X83.602 Y98.939 E0.06755 ; perimeter
G1 X84.427 Y99.083 F6000.000 ; move inwards before travel
G1 X84.352 Y98.630 F6000.000 ; move to first perimeter point
G1 X84.719 Y100.000 E0.10589 F780.000 ; perimeter
G1 X84.352 Y101.370 E0.10589 ; perimeter
G1 X83.350 Y102.372 E0.10589 ; perimeter
G1 X82.131 Y102.698 E0.09420 ; perimeter
G1 X77.729 Y102.698 E0.32880 ; perimeter
G1 X76.511 Y102.372 E0.09419 ; perimeter
G1 X75.508 Y101.370 E0.10589 ; perimeter
G1 X75.141 Y100.000 E0.10589 ; perimeter
G1 X75.508 Y98.630 E0.10589 ; perimeter
G1 X76.511 Y97.628 E0.10589 ; perimeter
G1 X77.729 Y97.302 E0.09420 ; perimeter
G1 X82.131 Y97.302 E0.32879 ; perimeter
G1 X83.350 Y97.628 E0.09420 ; perimeter
G1 X84.273 Y98.551 E0.09750 ; perimeter
G1 F1800.000 E-2.40000 ; retract
G1 X119.096 Y100.000 F6000.000 ; move to first perimeter point
G1 E2.40000 F1800.000 ; compensate retraction
G1 X119.359 Y99.018 E0.07595 F780.000 ; perimeter
G1 X120.078 Y98.299 E0.07595 ; perimeter
G1 X121.007 Y98.049 E0.07188 ; perimeter
G1 X125.212 Y98.048 E0.31406 ; perimeter
G1 X126.143 Y98.298 E0.07192 ; perimeter
G1 X126.862 Y99.017 E0.07599 ; perimeter
G1 X127.125 Y100.000 E0.07599 ; perimeter
G1 X126.862 Y100.983 E0.07599 ; perimeter
G1 X126.142 Y101.702 E0.07599 ; perimeter
G1 X125.212 Y101.952 E0.07192 ; perimeter
G1 X121.007 Y101.951 E0.31406 ; perimeter
G1 X120.078 Y101.701 E0.07188 ; perimeter
G1 X119.359 Y100.982 E0.07595 ; perimeter
G1 X119.125 Y100.108 E0.06756 ; perimeter
G1 X118.482 Y99.571 F6000.000 ; move inwards before travel
G1 X118.321 Y100.000 F6000.000 ; move to first perimeter point
G1 X118.688 Y98.630 E0.10590 F780.000 ; perimeter
G1 X119.690 Y97.628 E0.10590 ; perimeter
G1 X120.909 Y97.301 E0.09421 ; perimeter
G1 X125.311 Y97.300 E0.32880 ; perimeter
G1 X126.530 Y97.627 E0.09426 ; perimeter
G1 X127.533 Y98.630 E0.10595 ; perimeter
G1 X127.900 Y100.000 E0.10595 ; perimeter
G1 X127.533 Y101.370 E0.10595 ; perimeter
G1 X126.530 Y102.373 E0.10595 ; perimeter
G1 X125.311 Y102.700 E0.09426 ; perimeter
G1 X120.909 Y102.699 E0.32879 ; perimeter
G1 X119.690 Y102.372 E0.09421 ; perimeter
G1 X118.688 Y101.370 E0.10590 ; perimeter
G1 X118.350 Y100.108 E0.09752 ; perimeter
G1 F1800.000 E-2.40000 ; retract
G1 X145.694 Y100.000 F6000.000 ; move to first perimeter point
G1 E2.40000 F1800.000 ; compensate retraction
G1 X145.911 Y99.193 E0.06240 F780.000 ; perimeter
G1 X146.502 Y98.602 E0.06240 ; perimeter
G1 X147.309 Y98.386 E0.06240 ; perimeter
G1 X148.116 Y98.602 E0.06240 ; perimeter
G1 X148.706 Y99.193 E0.06240 ; perimeter
G1 X148.923 Y100.000 E0.06240 ; perimeter
G1 X148.706 Y100.807 E0.06240 ; perimeter
G1 X148.116 Y101.398 E0.06240 ; perimeter
G1 X147.309 Y101.614 E0.06240 ; perimeter
G1 X146.502 Y101.398 E0.06240 ; perimeter
G1 X145.911 Y100.807 E0.06240 ; perimeter
G1 X145.724 Y100.108 E0.05402 ; perimeter
G1 X145.081 Y99.571 F6000.000 ; move inwards before travel
G1 X144.454 Y100.319 F6000.000 ; move to first fill point
G1 X119.087 Y74.952 E2.68865 F900.000 ; fill
G1 X120.149 Y74.952 E0.07961 ; fill
G1 X144.543 Y99.346 E2.58557 ; fill
G1 X144.775 Y98.516 E0.06460 ; fill
G1 X121.212 Y74.952 E2.49759 ; fill
G1 X122.274 Y74.952 E0.07961 ; fill
G1 X145.307 Y97.985 E2.44129 ; fill
G1 X145.838 Y97.454 E0.05630 ; fill
G1 X123.336 Y74.952 E2.38500 ; fill
G1 X124.398 Y74.952 E0.07961 ; fill
G1 X146.675 Y97.229 E2.36117 ; fill
G1 X147.662 Y97.154 E0.07421 ; fill
G1 X125.461 Y74.952 E2.35323 ; fill
G1 X126.523 Y74.952 E0.07961 ; fill
G1 X149.127 Y97.557 E2.39591 ; fill
G1 X149.127 Y96.495 E0.07961 ; fill
G1 X127.585 Y74.952 E2.28332 ; fill
G1 X128.647 Y74.952 E0.07961 ; fill
G1 X149.127 Y95.433 E2.17073 ; fill
G1 X149.127 Y94.370 E0.07961 ; fill
G1 X129.710 Y74.952 E2.05814 ; fill
G1 X130.772 Y74.952 E0.07961 ; fill
G1 X149.127 Y93.308 E1.94555 ; fill
G1 X149.127 Y92.246 E0.07961 ; fill
G1 X131.834 Y74.952 E1.83295 ; fill
G1 X132.896 Y74.952 E0.07961 ; fill
G1 X149.127 Y91.184 E1.72036 ; fill
G1 X149.127 Y90.121 E0.07961 ; fill
G1 X133.959 Y74.952 E1.60777 ; fill
G1 X135.021 Y74.952 E0.07961 ; fill
G1 X149.127 Y89.059 E1.49518 ; fill
G1 X149.127 Y87.997 E0.07961 ; fill
G1 X136.083 Y74.952 E1.38259 ; fill
G1 X137.145 Y74.952 E0.07961 ; fill
G1 X149.127 Y86.935 E1.27000 ; fill
G1 X149.127 Y85.872 E0.07961 ; fill
G1 X138.208 Y74.952 E1.15741 ; fill
G1 X139.270 Y74.952 E0.07961 ; fill
G1 X149.127 Y84.810 E1.04482 ; fill
G1 X149.127 Y83.748 E0.07961 ; fill
G1 X140.332 Y74.952 E0.93223 ; fill
G1 X141.394 Y74.952 E0.07961 ; fill
G1 X149.127 Y82.686 E0.81964 ; fill
G1 X149.127 Y81.623 E0.07961 ; fill
G1 X142.457 Y74.952 E0.70705 ; fill
G1 X143.519 Y74.952 E0.07961 ; fill
G1 X149.127 Y80.561 E0.59446 ; fill
G1 X149.127 Y79.499 E0.07961 ; fill
G1 X144.581 Y74.952 E0.48187 ; fill
G1 X145.643 Y74.952 E0.07961 ; fill
G1 X149.127 Y78.436 E0.36928 ; fill
G1 X149.127 Y77.374 E0.07961 ; fill
G1 X146.706 Y74.952 E0.25669 ; fill
G1 X147.768 Y74.952 E0.07961 ; fill
G1 X149.127 Y76.312 E0.14409 ; fill
G1 X149.038 Y75.161 E0.08654 ; fill
G1 X148.919 Y75.041 E0.01265 ; fill
