; generated by Slic3r 1.0.1 on 2014-09-27 at 19:21:12

; layer_height = 0.24
; perimeters = 2
; top_solid_layers = 4
; bottom_solid_layers = 4
; fill_density = 0.25
; perimeter_speed = 30
; infill_speed = 30
; travel_speed = 100
; nozzle_diameter = 0.5
; filament_diameter = 1.75
; extrusion_multiplier = 1
; perimeters extrusion width = 0.50mm
; infill extrusion width = 0.50mm
; solid infill extrusion width = 0.50mm
; top infill extrusion width = 0.50mm
; first layer extrusion width = 0.80mm

G21 ; set units to millimeters
M107 ; disable fan
M190 S57 ; wait for bed temperature to be reached
M104 S200 ; set temperature

M109 S200 ; wait for temperature to be reached
G90 ; use absolute coordinates
M83 ; use relative distances for extrusion
G1 F1800.000 E-2.40000 ; retract
G1 Z0.240 F6000.000 ; move to next layer (0)
G1 X52.611 Y81.319 F6000.000 ; move to first skirt point
G1 E2.40000 F1800.000 ; compensate retraction
G1 X88.601 Y55.979 E3.28733 F900.000 ; skirt
G1 X89.431 Y55.489 E0.07199 ; skirt
G1 X90.331 Y55.159 E0.07159 ; skirt
G1 X91.331 Y54.889 E0.07736 ; skirt
G1 X92.041 Y54.749 E0.05405 ; skirt
G1 X92.761 Y54.699 E0.05390 ; skirt
G1 X142.221 Y54.699 E3.69393 ; skirt
G1 X142.751 Y54.729 E0.03965 ; skirt
G1 X143.271 Y54.799 E0.03919 ; skirt
G1 X144.041 Y54.949 E0.05859 ; skirt
G1 X145.071 Y55.259 E0.08033 ; skirt
G1 X146.021 Y55.769 E0.08053 ; skirt
G1 X146.671 Y56.199 E0.05821 ; skirt
G1 X147.531 Y56.889 E0.08235 ; skirt
G1 X148.221 Y57.749 E0.08235 ; skirt
G1 X148.651 Y58.399 E0.05821 ; skirt
G1 X149.161 Y59.349 E0.08053 ; skirt
G1 X149.471 Y60.379 E0.08033 ; skirt
G1 X149.621 Y61.149 E0.05859 ; skirt
G1 X149.691 Y61.669 E0.03919 ; skirt
G1 X149.721 Y62.199 E0.03965 ; skirt
G1 X149.721 Y116.049 E4.02180 ; skirt
G1 X149.691 Y116.579 E0.03965 ; skirt
G1 X149.621 Y117.099 E0.03919 ; skirt
G1 X149.471 Y117.869 E0.05859 ; skirt
G1 X149.161 Y118.899 E0.08033 ; skirt
G1 X148.651 Y119.849 E0.08053 ; skirt
G1 X148.221 Y120.499 E0.05821 ; skirt
G1 X147.901 Y120.949 E0.04124 ; skirt
G1 X147.531 Y121.359 E0.04125 ; skirt
G1 X125.781 Y143.109 E2.29725 ; skirt
G1 X125.371 Y143.479 E0.04125 ; skirt
G1 X124.921 Y143.799 E0.04124 ; skirt
G1 X124.271 Y144.229 E0.05821 ; skirt
G1 X123.351 Y144.719 E0.07785 ; skirt
G1 X122.361 Y145.029 E0.07748 ; skirt
G1 X121.591 Y145.189 E0.05874 ; skirt
G1 X121.031 Y145.279 E0.04236 ; skirt
G1 X120.471 Y145.309 E0.04188 ; skirt
G1 X115.351 Y145.309 E0.38239 ; skirt
G1 X114.781 Y145.279 E0.04263 ; skirt
G1 X114.221 Y145.189 E0.04236 ; skirt
G1 X113.461 Y145.029 E0.05800 ; skirt
G1 X112.571 Y144.759 E0.06946 ; skirt
G1 X58.101 Y123.249 E4.37381 ; skirt
G1 X57.251 Y122.879 E0.06924 ; skirt
G1 X56.611 Y122.549 E0.05378 ; skirt
G1 X55.811 Y122.069 E0.06968 ; skirt
G1 X55.161 Y121.609 E0.05947 ; skirt
G1 X54.441 Y121.019 E0.06952 ; skirt
G1 X53.891 Y120.499 E0.05653 ; skirt
G1 X53.271 Y119.829 E0.06818 ; skirt
G1 X52.851 Y119.319 E0.04934 ; skirt
G1 X52.301 Y118.559 E0.07006 ; skirt
G1 X51.851 Y117.819 E0.06468 ; skirt
G1 X51.431 Y116.989 E0.06947 ; skirt
G1 X51.151 Y116.359 E0.05149 ; skirt
G1 X50.841 Y115.489 E0.06898 ; skirt
G1 X50.641 Y114.759 E0.05653 ; skirt
G1 X50.451 Y113.849 E0.06943 ; skirt
G1 X50.341 Y113.079 E0.05809 ; skirt
G1 X50.281 Y112.149 E0.06960 ; skirt
G1 X50.271 Y85.809 E1.96721 ; skirt
G1 X50.431 Y84.509 E0.09782 ; skirt
G1 X50.891 Y83.279 E0.09808 ; skirt
G1 X51.631 Y82.189 E0.09839 ; skirt
G1 X52.527 Y81.393 E0.08949 ; skirt
G1 X53.041 Y81.929 F6000.000 ; move to first skirt point
G1 X89.031 Y56.589 E3.28733 F900.000 ; skirt
G1 X89.741 Y56.169 E0.06161 ; skirt
G1 X90.521 Y55.889 E0.06189 ; skirt
G1 X91.521 Y55.619 E0.07736 ; skirt
G1 X92.141 Y55.489 E0.04731 ; skirt
G1 X92.761 Y55.449 E0.04640 ; skirt
G1 X142.221 Y55.449 E3.69393 ; skirt
G1 X142.681 Y55.469 E0.03439 ; skirt
G1 X143.901 Y55.689 E0.09259 ; skirt
G1 X144.791 Y55.959 E0.06946 ; skirt
G1 X145.611 Y56.389 E0.06915 ; skirt
G1 X146.261 Y56.819 E0.05821 ; skirt
G1 X147.001 Y57.419 E0.07115 ; skirt
G1 X147.601 Y58.159 E0.07115 ; skirt
G1 X148.031 Y58.809 E0.05821 ; skirt
G1 X148.461 Y59.629 E0.06915 ; skirt
G1 X148.731 Y60.519 E0.06946 ; skirt
G1 X148.951 Y61.739 E0.09259 ; skirt
G1 X148.971 Y62.199 E0.03439 ; skirt
G1 X148.971 Y116.049 E4.02180 ; skirt
G1 X148.951 Y116.509 E0.03439 ; skirt
G1 X148.731 Y117.729 E0.09259 ; skirt
G1 X148.461 Y118.619 E0.06946 ; skirt
G1 X148.031 Y119.439 E0.06915 ; skirt
G1 X147.601 Y120.089 E0.05821 ; skirt
G1 X147.321 Y120.469 E0.03525 ; skirt
G1 X147.001 Y120.829 E0.03597 ; skirt
G1 X125.251 Y142.579 E2.29725 ; skirt
G1 X124.891 Y142.899 E0.03597 ; skirt
G1 X124.511 Y143.179 E0.03525 ; skirt
G1 X123.861 Y143.609 E0.05821 ; skirt
G1 X123.071 Y144.029 E0.06682 ; skirt
G1 X122.211 Y144.299 E0.06732 ; skirt
G1 X121.441 Y144.459 E0.05874 ; skirt
G1 X120.961 Y144.529 E0.03623 ; skirt
G1 X120.471 Y144.559 E0.03666 ; skirt
G1 X115.351 Y144.559 E0.38239 ; skirt
G1 X114.861 Y144.529 E0.03666 ; skirt
G1 X114.371 Y144.459 E0.03697 ; skirt
G1 X113.611 Y144.299 E0.05800 ; skirt
G1 X112.851 Y144.069 E0.05930 ; skirt
G1 X58.551 Y122.629 E4.36008 ; skirt
G1 X57.541 Y122.189 E0.08228 ; skirt
G1 X57.001 Y121.909 E0.04543 ; skirt
G1 X56.201 Y121.429 E0.06968 ; skirt
G1 X55.631 Y121.029 E0.05201 ; skirt
G1 X54.911 Y120.439 E0.06952 ; skirt
G1 X54.431 Y119.999 E0.04863 ; skirt
G1 X53.811 Y119.329 E0.06818 ; skirt
G1 X53.451 Y118.879 E0.04304 ; skirt
G1 X52.901 Y118.119 E0.07006 ; skirt
G1 X52.511 Y117.479 E0.05597 ; skirt
G1 X52.091 Y116.649 E0.06947 ; skirt
G1 X51.861 Y116.099 E0.04452 ; skirt
G1 X51.551 Y115.229 E0.06898 ; skirt
G1 X51.371 Y114.609 E0.04822 ; skirt
G1 X51.181 Y113.699 E0.06943 ; skirt
G1 X51.091 Y113.039 E0.04975 ; skirt
G1 X51.031 Y112.109 E0.06960 ; skirt
G1 X51.021 Y85.809 E1.96422 ; skirt
G1 X51.161 Y84.679 E0.08504 ; skirt
G1 X51.561 Y83.619 E0.08462 ; skirt
G1 X52.191 Y82.689 E0.08389 ; skirt
G1 X52.958 Y82.003 E0.07677 ; skirt
G1 F1800.000 E-2.40000 ; retract
G1 X91.171 Y62.244 F6000.000 ; move to first perimeter point
G1 E2.40000 F1800.000 ; compensate retraction
G1 X91.398 Y61.399 E0.06538 F900.000 ; perimeter
G1 X91.978 Y60.818 E0.06131 ; perimeter
G1 X92.824 Y60.591 E0.06538 ; perimeter
G1 X142.189 Y60.591 E3.68685 ; perimeter
G1 X142.838 Y60.720 E0.04940 ; perimeter
G1 X143.354 Y61.066 E0.04640 ; perimeter
G1 X143.700 Y61.582 E0.04640 ; perimeter
G1 X143.829 Y62.231 E0.04940 ; perimeter
G1 X143.829 Y116.018 E4.01714 ; perimeter
G1 X143.700 Y116.667 E0.04940 ; perimeter
G1 X143.332 Y117.217 E0.04940 ; perimeter
G1 X121.637 Y138.912 E2.29145 ; perimeter
G1 X121.087 Y139.280 E0.04940 ; perimeter
G1 X120.438 Y139.409 E0.04940 ; perimeter
G1 X115.398 Y139.409 E0.37645 ; perimeter
G1 X114.749 Y139.280 E0.04940 ; perimeter
G1 X114.199 Y138.912 E0.04940 ; perimeter
G1 X91.171 Y115.884 E2.43223 ; perimeter
G1 X91.171 Y62.356 E3.99773 ; perimeter
G1 X91.875 Y61.988 F6000.000 ; move inwards before travel
G1 X92.069 Y61.786 F6000.000 ; move to first perimeter point
G1 X92.366 Y61.489 E0.03135 F900.000 ; perimeter
G1 X92.923 Y61.340 E0.04304 ; perimeter
G1 X116.588 Y61.340 E1.76746 ; perimeter
G1 X115.431 Y62.497 E0.12220 ; perimeter
G1 X115.111 Y63.691 E0.09236 ; perimeter
G1 X115.431 Y64.886 E0.09236 ; perimeter
G1 X116.305 Y65.760 E0.09236 ; perimeter
G1 X117.500 Y66.080 E0.09236 ; perimeter
G1 X118.695 Y65.760 E0.09236 ; perimeter
G1 X119.569 Y64.886 E0.09236 ; perimeter
G1 X119.889 Y63.691 E0.09236 ; perimeter
G1 X119.569 Y62.497 E0.09236 ; perimeter
G1 X118.412 Y61.340 E0.12220 ; perimeter
G1 X142.116 Y61.340 E1.77031 ; perimeter
G1 X142.546 Y61.426 E0.03277 ; perimeter
G1 X142.815 Y61.605 E0.02416 ; perimeter
G1 X142.995 Y61.874 E0.02416 ; perimeter
G1 X143.080 Y62.305 E0.03277 ; perimeter
G1 X143.080 Y115.945 E4.00612 ; perimeter
G1 X142.995 Y116.375 E0.03277 ; perimeter
G1 X142.751 Y116.740 E0.03277 ; perimeter
G1 X121.160 Y138.331 E2.28044 ; perimeter
G1 X120.795 Y138.574 E0.03277 ; perimeter
G1 X120.365 Y138.660 E0.03277 ; perimeter
G1 X115.472 Y138.660 E0.36544 ; perimeter
G1 X115.041 Y138.574 E0.03277 ; perimeter
G1 X114.676 Y138.331 E0.03277 ; perimeter
G1 X91.920 Y115.574 E2.40357 ; perimeter
G1 X91.920 Y62.343 E3.97560 ; perimeter
G1 X92.040 Y61.894 E0.03466 ; perimeter
G1 F1800.000 E-2.40000 ; retract
G1 X116.518 Y127.319 F6000.000 ; move to first perimeter point
G1 E2.40000 F1800.000 ; compensate retraction
G1 X117.500 Y127.056 E0.07593 F780.000 ; perimeter
G1 X118.482 Y127.319 E0.07593 ; perimeter
G1 X119.201 Y128.038 E0.07593 ; perimeter
G1 X119.450 Y128.967 E0.07186 ; perimeter
G1 X119.450 Y133.173 E0.31408 ; perimeter
G1 X119.201 Y134.102 E0.07186 ; perimeter
G1 X118.482 Y134.821 E0.07593 ; perimeter
G1 X117.500 Y135.084 E0.07593 ; perimeter
G1 X116.518 Y134.821 E0.07593 ; perimeter
G1 X115.799 Y134.102 E0.07593 ; perimeter
G1 X115.550 Y133.173 E0.07186 ; perimeter
G1 X115.550 Y128.967 E0.31407 ; perimeter
G1 X115.799 Y128.038 E0.07186 ; perimeter
G1 X116.439 Y127.398 E0.06755 ; perimeter
G1 X116.583 Y126.573 F6000.000 ; move inwards before travel
G1 X116.130 Y126.648 F6000.000 ; move to first perimeter point
G1 X117.500 Y126.281 E0.10589 F780.000 ; perimeter
G1 X118.870 Y126.648 E0.10589 ; perimeter
G1 X119.872 Y127.650 E0.10589 ; perimeter
G1 X120.198 Y128.869 E0.09420 ; perimeter
G1 X120.198 Y133.271 E0.32880 ; perimeter
G1 X119.872 Y134.489 E0.09420 ; perimeter
G1 X118.870 Y135.492 E0.10589 ; perimeter
G1 X117.500 Y135.859 E0.10589 ; perimeter
G1 X116.130 Y135.492 E0.10589 ; perimeter
G1 X115.128 Y134.489 E0.10589 ; perimeter
G1 X114.802 Y133.271 E0.09420 ; perimeter
G1 X114.802 Y128.869 E0.32878 ; perimeter
G1 X115.128 Y127.650 E0.09421 ; perimeter
G1 X116.051 Y126.727 E0.09750 ; perimeter
G1 F1800.000 E-2.40000 ; retract
G1 X115.806 Y123.313 F6000.000 ; move to first perimeter point
G1 E2.40000 F1800.000 ; compensate retraction
G1 X112.555 Y122.358 E0.25305 F900.000 ; perimeter
G1 X109.704 Y120.526 E0.25305 ; perimeter
G1 X107.486 Y117.966 E0.25305 ; perimeter
G1 X106.078 Y114.884 E0.25305 ; perimeter
G1 X105.600 Y111.559 E0.25089 ; perimeter
G1 X105.600 Y107.401 E0.31048 ; perimeter
G1 X106.078 Y104.076 E0.25089 ; perimeter
G1 X107.486 Y100.994 E0.25305 ; perimeter
G1 X109.687 Y98.453 E0.25109 ; perimeter
G1 X112.557 Y96.601 E0.25513 ; perimeter
G1 X115.670 Y95.680 E0.24239 ; perimeter
G1 X115.820 Y95.647 E0.01150 ; perimeter
G1 X119.180 Y95.647 E0.25097 ; perimeter
G1 X122.458 Y96.610 E0.25513 ; perimeter
G1 X125.313 Y98.453 E0.25381 ; perimeter
G1 X127.514 Y100.994 E0.25109 ; perimeter
G1 X128.922 Y104.076 E0.25305 ; perimeter
G1 X129.400 Y107.401 E0.25089 ; perimeter
G1 X129.400 Y111.559 E0.31048 ; perimeter
G1 X128.922 Y114.884 E0.25089 ; perimeter
G1 X127.514 Y117.966 E0.25305 ; perimeter
G1 X125.296 Y120.526 E0.25305 ; perimeter
G1 X122.445 Y122.358 E0.25305 ; perimeter
G1 X119.194 Y123.313 E0.25305 ; perimeter
G1 X115.918 Y123.313 E0.24467 ; perimeter
G1 X115.316 Y123.879 F6000.000 ; move inwards before travel
G1 X115.511 Y124.006 F6000.000 ; move to first perimeter point
G1 X112.241 Y123.046 E0.25454 F900.000 ; perimeter
G1 X109.209 Y121.098 E0.26913 ; perimeter
G1 X106.849 Y118.375 E0.26913 ; perimeter
G1 X105.353 Y115.097 E0.26913 ; perimeter
G1 X104.852 Y111.612 E0.26293 ; perimeter
G1 X104.852 Y107.348 E0.31848 ; perimeter
G1 X105.353 Y103.863 E0.26293 ; perimeter
G1 X106.849 Y100.585 E0.26913 ; perimeter
G1 X109.160 Y97.919 E0.26350 ; perimeter
G1 X109.297 Y97.804 E0.01335 ; perimeter
G1 X112.248 Y95.912 E0.26184 ; perimeter
G1 X115.456 Y94.961 E0.24990 ; perimeter
G1 X115.738 Y94.898 E0.02158 ; perimeter
G1 X119.262 Y94.898 E0.26314 ; perimeter
G1 X119.502 Y94.951 E0.01839 ; perimeter
G1 X122.571 Y95.853 E0.23886 ; perimeter
G1 X122.796 Y95.937 E0.01794 ; perimeter
G1 X125.698 Y97.799 E0.25750 ; perimeter
G1 X125.840 Y97.919 E0.01392 ; perimeter
G1 X128.151 Y100.585 E0.26350 ; perimeter
G1 X129.647 Y103.863 E0.26913 ; perimeter
G1 X130.148 Y107.348 E0.26293 ; perimeter
G1 X130.148 Y111.612 E0.31848 ; perimeter
G1 X129.647 Y115.097 E0.26293 ; perimeter
G1 X128.151 Y118.375 E0.26913 ; perimeter
G1 X125.791 Y121.098 E0.26913 ; perimeter
G1 X122.759 Y123.046 E0.26913 ; perimeter
G1 X119.302 Y124.061 E0.26913 ; perimeter
G1 X115.698 Y124.061 E0.26913 ; perimeter
G1 X115.619 Y124.038 E0.00620 ; perimeter
G1 F1800.000 E-2.40000 ; retract
G1 X117.500 Y91.904 F6000.000 ; move to first perimeter point
G1 E2.40000 F1800.000 ; compensate retraction
G1 X116.518 Y91.641 E0.07595 F780.000 ; perimeter
G1 X115.799 Y90.922 E0.07595 ; perimeter
G1 X115.549 Y89.993 E0.07188 ; perimeter
G1 X115.548 Y85.788 E0.31406 ; perimeter
G1 X115.798 Y84.857 E0.07192 ; perimeter
G1 X116.517 Y84.138 E0.07599 ; perimeter
G1 X117.500 Y83.875 E0.07599 ; perimeter
G1 X118.483 Y84.138 E0.07599 ; perimeter
G1 X119.202 Y84.858 E0.07599 ; perimeter
G1 X119.452 Y85.788 E0.07192 ; perimeter
G1 X119.451 Y89.993 E0.31406 ; perimeter
G1 X119.201 Y90.922 E0.07188 ; perimeter
G1 X118.482 Y91.641 E0.07595 ; perimeter
G1 X117.608 Y91.875 E0.06756 ; perimeter
G1 X117.071 Y92.518 F6000.000 ; move inwards before travel
G1 X117.500 Y92.679 F6000.000 ; move to first perimeter point
G1 X116.130 Y92.312 E0.10590 F780.000 ; perimeter
G1 X115.128 Y91.310 E0.10590 ; perimeter
G1 X114.801 Y90.091 E0.09421 ; perimeter
G1 X114.800 Y85.689 E0.32880 ; perimeter
G1 X115.127 Y84.470 E0.09426 ; perimeter
G1 X116.130 Y83.467 E0.10595 ; perimeter
G1 X117.500 Y83.100 E0.10595 ; perimeter
G1 X118.870 Y83.467 E0.10595 ; perimeter
G1 X119.873 Y84.470 E0.10595 ; perimeter
G1 X120.200 Y85.689 E0.09426 ; perimeter
G1 X120.199 Y90.091 E0.32879 ; perimeter
G1 X119.872 Y91.310 E0.09421 ; perimeter
G1 X118.870 Y92.312 E0.10590 ; perimeter
G1 X117.608 Y92.650 E0.09752 ; perimeter
G1 F1800.000 E-2.40000 ; retract
G1 X117.500 Y65.306 F6000.000 ; move to first perimeter point
G1 E2.40000 F1800.000 ; compensate retraction
G1 X116.693 Y65.089 E0.06240 F780.000 ; perimeter
G1 X116.102 Y64.498 E0.06240 ; perimeter
G1 X115.886 Y63.691 E0.06240 ; perimeter
G1 X116.102 Y62.884 E0.06240 ; perimeter
G1 X116.693 Y62.294 E0.06240 ; perimeter
G1 X117.500 Y62.077 E0.06240 ; perimeter
G1 X118.307 Y62.294 E0.06240 ; perimeter
G1 X118.898 Y62.884 E0.06240 ; perimeter
G1 X119.114 Y63.691 E0.06240 ; perimeter
G1 X118.898 Y64.498 E0.06240 ; perimeter
G1 X118.307 Y65.089 E0.06240 ; perimeter
G1 X117.608 Y65.276 E0.05402 ; perimeter
G1 X117.071 Y65.919 F6000.000 ; move inwards before travel
G1 F1800.000 E-2.40000 ; retract
G1 X114.955 Y62.220 F6000.000 ; move to first fill point
G1 E2.40000 F1800.000 ; compensate retraction
G1 X114.607 Y61.873 E0.03692 F900.000 ; fill
G1 X113.542 Y61.873 E0.08004 ; fill
G1 X114.729 Y63.059 E0.12611 ; fill
G1 X114.656 Y64.051 E0.07476 ; fill
G1 X112.477 Y61.873 E0.23155 ; fill
G1 F1800.000 E-2.40000 ; retract
G1 X92.452 Y70.605 F6000.000 ; move to first fill point
G1 E2.40000 F1800.000 ; compensate retraction
G1 X116.213 Y94.366 E2.52515 F900.000 ; fill
G1 X115.249 Y94.467 E0.07286 ; fill
G1 X92.452 Y71.670 E2.42267 ; fill
G1 X92.452 Y72.736 E0.08004 ; fill
G1 X114.427 Y94.710 E2.33536 ; fill
G1 X113.605 Y94.954 E0.06439 ; fill
G1 X92.452 Y73.801 E2.24804 ; fill
G1 X92.452 Y74.866 E0.08004 ; fill
G1 X112.784 Y95.197 E2.16073 ; fill
G1 X111.975 Y95.454 E0.06375 ; fill
G1 X92.452 Y75.931 E2.07480 ; fill
G1 X92.452 Y76.996 E0.08004 ; fill
G1 X111.326 Y95.870 E2.00582 ; fill
G1 X110.677 Y96.286 E0.05793 ; fill
G1 X92.452 Y78.061 E1.93685 ; fill
G1 X92.452 Y79.126 E0.08004 ; fill
G1 X110.028 Y96.702 E1.86787 ; fill
G1 X109.379 Y97.118 E0.05793 ; fill
G1 X92.452 Y80.191 E1.79889 ; fill
G1 X92.452 Y81.256 E0.08004 ; fill
G1 X108.761 Y97.565 E1.73324 ; fill
G1 X108.267 Y98.136 E0.05674 ; fill
G1 X92.452 Y82.321 E1.68070 ; fill
G1 X92.452 Y83.386 E0.08004 ; fill
G1 X107.773 Y98.707 E1.62815 ; fill
G1 X107.278 Y99.277 E0.05674 ; fill
G1 X92.452 Y84.452 E1.57560 ; fill
G1 X92.452 Y85.517 E0.08004 ; fill
G1 X106.784 Y99.848 E1.52305 ; fill
G1 X106.324 Y100.453 E0.05713 ; fill
G1 X92.452 Y86.582 E1.47421 ; fill
G1 X92.452 Y87.647 E0.08004 ; fill
G1 X105.990 Y101.185 E1.43873 ; fill
