; generated by Slic3r 1.0.1 on 2014-09-27 at 19:12:53

; layer_height = 0.24
; perimeters = 2
; top_solid_layers = 4
; bottom_solid_layers = 4
; fill_density = 0.25
; perimeter_speed = 30
; infill_speed = 30
; travel_speed = 100
; nozzle_diameter = 0.5
; filament_diameter = 1.75
; extrusion_multiplier = 1
; perimeters extrusion width = 0.50mm
; infill extrusion width = 0.50mm
; solid infill extrusion width = 0.50mm
; top infill extrusion width = 0.50mm
; first layer extrusion width = 0.80mm

G21 ; set units to millimeters
M107 ; disable fan
M190 S57 ; wait for bed temperature to be reached
M104 S200 ; set temperature

M109 S200 ; wait for temperature to be reached
G90 ; use absolute coordinates
M83 ; use relative distances for extrusion
G1 F1800.000 E-2.40000 ; retract
G1 Z0.240 F6000.000 ; move to next layer (0)
G1 X80.051 Y69.381 F6000.000 ; move to first skirt point
G1 E2.40000 F1800.000 ; compensate retraction
G1 X81.191 Y68.511 E0.10710 F900.000 ; skirt
G1 X82.521 Y67.961 E0.10749 ; skirt
G1 X83.941 Y67.771 E0.10700 ; skirt
G1 X137.801 Y67.771 E4.02254 ; skirt
G1 X138.501 Y67.821 E0.05241 ; skirt
G1 X139.181 Y67.951 E0.05171 ; skirt
G1 X140.181 Y68.211 E0.07717 ; skirt
G1 X141.551 Y68.771 E0.11054 ; skirt
G1 X142.711 Y69.671 E0.10965 ; skirt
G1 X143.441 Y70.411 E0.07763 ; skirt
G1 X144.291 Y71.531 E0.10501 ; skirt
G1 X144.831 Y72.821 E0.10444 ; skirt
G1 X145.101 Y73.811 E0.07664 ; skirt
G1 X145.251 Y74.531 E0.05493 ; skirt
G1 X145.301 Y75.261 E0.05465 ; skirt
G1 X145.301 Y124.721 E3.69393 ; skirt
G1 X145.271 Y125.251 E0.03965 ; skirt
G1 X145.201 Y125.771 E0.03919 ; skirt
G1 X145.051 Y126.541 E0.05859 ; skirt
G1 X144.741 Y127.571 E0.08033 ; skirt
G1 X144.231 Y128.521 E0.08053 ; skirt
G1 X143.801 Y129.171 E0.05821 ; skirt
G1 X143.111 Y130.031 E0.08235 ; skirt
G1 X142.251 Y130.721 E0.08235 ; skirt
G1 X141.601 Y131.151 E0.05821 ; skirt
G1 X140.651 Y131.661 E0.08053 ; skirt
G1 X139.621 Y131.971 E0.08033 ; skirt
G1 X138.851 Y132.121 E0.05859 ; skirt
G1 X138.331 Y132.191 E0.03919 ; skirt
G1 X137.801 Y132.221 E0.03965 ; skirt
G1 X83.941 Y132.221 E4.02254 ; skirt
G1 X83.411 Y132.191 E0.03965 ; skirt
G1 X82.891 Y132.121 E0.03919 ; skirt
G1 X82.121 Y131.971 E0.05859 ; skirt
G1 X81.091 Y131.661 E0.08033 ; skirt
G1 X80.141 Y131.151 E0.08053 ; skirt
G1 X79.491 Y130.721 E0.05821 ; skirt
G1 X79.041 Y130.401 E0.04124 ; skirt
G1 X78.631 Y130.031 E0.04125 ; skirt
G1 X56.881 Y108.281 E2.29725 ; skirt
G1 X56.511 Y107.871 E0.04125 ; skirt
G1 X55.761 Y106.771 E0.09943 ; skirt
G1 X55.251 Y105.821 E0.08053 ; skirt
G1 X54.941 Y104.791 E0.08033 ; skirt
G1 X54.791 Y104.021 E0.05859 ; skirt
G1 X54.721 Y103.501 E0.03919 ; skirt
G1 X54.691 Y102.971 E0.03965 ; skirt
G1 X54.691 Y97.851 E0.38239 ; skirt
G1 X54.721 Y97.321 E0.03965 ; skirt
G1 X54.801 Y96.791 E0.04003 ; skirt
G1 X54.951 Y96.031 E0.05786 ; skirt
G1 X55.261 Y95.001 E0.08033 ; skirt
G1 X55.761 Y94.061 E0.07952 ; skirt
G1 X56.511 Y92.961 E0.09943 ; skirt
G1 X56.881 Y92.551 E0.04125 ; skirt
G1 X79.972 Y69.461 E2.43885 ; skirt
G1 X80.581 Y69.911 F6000.000 ; move to first skirt point
G1 X81.571 Y69.161 E0.09276 F900.000 ; skirt
G1 X82.711 Y68.681 E0.09238 ; skirt
G1 X83.941 Y68.521 E0.09264 ; skirt
G1 X137.801 Y68.521 E4.02254 ; skirt
G1 X138.401 Y68.561 E0.04491 ; skirt
G1 X138.991 Y68.671 E0.04482 ; skirt
G1 X139.991 Y68.931 E0.07717 ; skirt
G1 X141.171 Y69.421 E0.09542 ; skirt
G1 X142.181 Y70.201 E0.09531 ; skirt
G1 X142.911 Y70.941 E0.07763 ; skirt
G1 X143.651 Y71.901 E0.09053 ; skirt
G1 X144.111 Y73.021 E0.09043 ; skirt
G1 X144.381 Y74.011 E0.07664 ; skirt
G1 X144.511 Y74.631 E0.04731 ; skirt
G1 X144.551 Y75.261 E0.04715 ; skirt
G1 X144.551 Y124.721 E3.69393 ; skirt
G1 X144.531 Y125.181 E0.03439 ; skirt
G1 X144.311 Y126.401 E0.09259 ; skirt
G1 X144.041 Y127.291 E0.06946 ; skirt
G1 X143.611 Y128.111 E0.06915 ; skirt
G1 X143.181 Y128.761 E0.05821 ; skirt
G1 X142.581 Y129.501 E0.07115 ; skirt
G1 X141.841 Y130.101 E0.07115 ; skirt
G1 X141.191 Y130.531 E0.05821 ; skirt
G1 X140.371 Y130.961 E0.06915 ; skirt
G1 X139.481 Y131.231 E0.06946 ; skirt
G1 X138.261 Y131.451 E0.09259 ; skirt
G1 X137.801 Y131.471 E0.03439 ; skirt
G1 X83.941 Y131.471 E4.02254 ; skirt
G1 X83.481 Y131.451 E0.03439 ; skirt
G1 X82.261 Y131.231 E0.09259 ; skirt
G1 X81.371 Y130.961 E0.06946 ; skirt
G1 X80.551 Y130.531 E0.06915 ; skirt
G1 X79.901 Y130.101 E0.05821 ; skirt
G1 X79.521 Y129.821 E0.03525 ; skirt
G1 X79.161 Y129.501 E0.03597 ; skirt
G1 X57.411 Y107.751 E2.29725 ; skirt
G1 X57.091 Y107.391 E0.03597 ; skirt
G1 X56.811 Y107.011 E0.03525 ; skirt
G1 X56.381 Y106.361 E0.05821 ; skirt
G1 X55.951 Y105.541 E0.06915 ; skirt
G1 X55.681 Y104.651 E0.06946 ; skirt
G1 X55.531 Y103.881 E0.05859 ; skirt
G1 X55.461 Y103.431 E0.03401 ; skirt
G1 X55.441 Y102.971 E0.03439 ; skirt
G1 X55.441 Y97.851 E0.38239 ; skirt
G1 X55.461 Y97.391 E0.03439 ; skirt
G1 X55.531 Y96.931 E0.03475 ; skirt
G1 X55.681 Y96.171 E0.05786 ; skirt
G1 X55.951 Y95.291 E0.06875 ; skirt
G1 X56.381 Y94.471 E0.06915 ; skirt
G1 X56.811 Y93.821 E0.05821 ; skirt
G1 X57.091 Y93.441 E0.03525 ; skirt
G1 X57.411 Y93.081 E0.03597 ; skirt
G1 X80.502 Y69.991 E2.43885 ; skirt
G1 F1800.000 E-2.40000 ; retract
G1 X84.116 Y73.671 F6000.000 ; move to first perimeter point
G1 E2.40000 F1800.000 ; compensate retraction
G1 X137.756 Y73.671 E4.00611 F900.000 ; perimeter
G1 X138.601 Y73.898 E0.06538 ; perimeter
G1 X139.182 Y74.478 E0.06131 ; perimeter
G1 X139.409 Y75.324 E0.06538 ; perimeter
G1 X139.409 Y124.689 E3.68685 ; perimeter
G1 X139.280 Y125.338 E0.04940 ; perimeter
G1 X138.934 Y125.854 E0.04640 ; perimeter
G1 X138.418 Y126.200 E0.04640 ; perimeter
G1 X137.769 Y126.329 E0.04940 ; perimeter
G1 X83.982 Y126.329 E4.01714 ; perimeter
G1 X83.333 Y126.200 E0.04940 ; perimeter
G1 X82.783 Y125.832 E0.04940 ; perimeter
G1 X61.088 Y104.137 E2.29145 ; perimeter
G1 X60.720 Y103.587 E0.04940 ; perimeter
G1 X60.591 Y102.938 E0.04940 ; perimeter
G1 X60.591 Y97.898 E0.37645 ; perimeter
G1 X60.720 Y97.249 E0.04940 ; perimeter
G1 X61.088 Y96.699 E0.04940 ; perimeter
G1 X84.037 Y73.751 E2.42385 ; perimeter
G1 X84.645 Y74.201 F6000.000 ; move inwards before travel
G1 X84.426 Y74.420 F6000.000 ; move to first perimeter point
G1 X137.657 Y74.420 E3.97560 F900.000 ; perimeter
G1 X138.214 Y74.569 E0.04304 ; perimeter
G1 X138.511 Y74.866 E0.03135 ; perimeter
G1 X138.660 Y75.423 E0.04304 ; perimeter
G1 X138.660 Y99.088 E1.76746 ; perimeter
G1 X137.503 Y97.931 E0.12220 ; perimeter
G1 X136.309 Y97.611 E0.09236 ; perimeter
G1 X135.114 Y97.931 E0.09236 ; perimeter
G1 X134.240 Y98.805 E0.09236 ; perimeter
G1 X133.920 Y100.000 E0.09236 ; perimeter
G1 X134.240 Y101.195 E0.09236 ; perimeter
G1 X135.114 Y102.069 E0.09236 ; perimeter
G1 X136.309 Y102.389 E0.09236 ; perimeter
G1 X137.503 Y102.069 E0.09236 ; perimeter
G1 X138.660 Y100.912 E0.12220 ; perimeter
G1 X138.660 Y124.616 E1.77031 ; perimeter
G1 X138.574 Y125.046 E0.03277 ; perimeter
G1 X138.395 Y125.315 E0.02416 ; perimeter
G1 X138.126 Y125.495 E0.02416 ; perimeter
G1 X137.695 Y125.580 E0.03277 ; perimeter
G1 X84.055 Y125.580 E4.00612 ; perimeter
G1 X83.625 Y125.495 E0.03277 ; perimeter
G1 X83.260 Y125.251 E0.03277 ; perimeter
G1 X61.669 Y103.660 E2.28044 ; perimeter
G1 X61.426 Y103.295 E0.03277 ; perimeter
G1 X61.340 Y102.865 E0.03277 ; perimeter
G1 X61.340 Y97.972 E0.36544 ; perimeter
G1 X61.426 Y97.541 E0.03277 ; perimeter
G1 X61.669 Y97.176 E0.03277 ; perimeter
G1 X84.347 Y74.499 E2.39519 ; perimeter
G1 F1800.000 E-2.40000 ; retract
G1 X85.203 Y88.566 F6000.000 ; move to first perimeter point
G1 E2.40000 F1800.000 ; compensate retraction
G1 X88.441 Y88.100 E0.24434 F900.000 ; perimeter
G1 X92.599 Y88.100 E0.31048 ; perimeter
G1 X95.924 Y88.578 E0.25089 ; perimeter
G1 X99.006 Y89.986 E0.25305 ; perimeter
G1 X101.593 Y92.242 E0.25639 ; perimeter
G1 X103.399 Y95.057 E0.24981 ; perimeter
G1 X104.320 Y98.170 E0.24238 ; perimeter
G1 X104.353 Y98.320 E0.01150 ; perimeter
G1 X104.353 Y101.680 E0.25097 ; perimeter
G1 X103.390 Y104.958 E0.25513 ; perimeter
G1 X101.547 Y107.813 E0.25381 ; perimeter
G1 X99.006 Y110.014 E0.25109 ; perimeter
G1 X95.924 Y111.422 E0.25305 ; perimeter
G1 X92.599 Y111.900 E0.25089 ; perimeter
G1 X88.441 Y111.900 E0.31048 ; perimeter
G1 X85.116 Y111.422 E0.25089 ; perimeter
G1 X82.034 Y110.014 E0.25305 ; perimeter
G1 X79.474 Y107.796 E0.25305 ; perimeter
G1 X77.642 Y104.945 E0.25305 ; perimeter
G1 X77.617 Y104.861 E0.00655 ; perimeter
G1 X76.687 Y101.694 E0.24650 ; perimeter
G1 X76.687 Y98.306 E0.25305 ; perimeter
G1 X77.642 Y95.055 E0.25305 ; perimeter
G1 X79.474 Y92.204 E0.25305 ; perimeter
G1 X82.034 Y89.986 E0.25305 ; perimeter
G1 X85.094 Y88.588 E0.25122 ; perimeter
G1 X85.416 Y87.848 F6000.000 ; move inwards before travel
G1 X85.097 Y87.825 F6000.000 ; move to first perimeter point
G1 X88.388 Y87.352 E0.24834 F900.000 ; perimeter
G1 X92.652 Y87.352 E0.31848 ; perimeter
G1 X96.137 Y87.853 E0.26293 ; perimeter
G1 X99.415 Y89.349 E0.26913 ; perimeter
G1 X102.081 Y91.660 E0.26350 ; perimeter
G1 X102.196 Y91.797 E0.01335 ; perimeter
G1 X103.926 Y94.487 E0.23886 ; perimeter
G1 X104.088 Y94.748 E0.02298 ; perimeter
G1 X105.039 Y97.956 E0.24990 ; perimeter
G1 X105.102 Y98.238 E0.02158 ; perimeter
G1 X105.102 Y101.762 E0.26315 ; perimeter
G1 X105.049 Y102.002 E0.01839 ; perimeter
G1 X104.147 Y105.071 E0.23885 ; perimeter
G1 X104.063 Y105.296 E0.01794 ; perimeter
G1 X102.201 Y108.198 E0.25750 ; perimeter
G1 X102.081 Y108.340 E0.01392 ; perimeter
G1 X99.415 Y110.651 E0.26350 ; perimeter
G1 X96.137 Y112.147 E0.26913 ; perimeter
G1 X92.652 Y112.648 E0.26293 ; perimeter
G1 X88.388 Y112.648 E0.31848 ; perimeter
G1 X84.903 Y112.147 E0.26293 ; perimeter
G1 X81.625 Y110.651 E0.26913 ; perimeter
G1 X78.902 Y108.291 E0.26913 ; perimeter
G1 X76.954 Y105.259 E0.26913 ; perimeter
G1 X75.939 Y101.802 E0.26913 ; perimeter
G1 X75.939 Y98.198 E0.26913 ; perimeter
G1 X76.954 Y94.741 E0.26913 ; perimeter
G1 X78.902 Y91.709 E0.26913 ; perimeter
G1 X81.625 Y89.349 E0.26913 ; perimeter
G1 X84.903 Y87.853 E0.26913 ; perimeter
G1 X84.985 Y87.841 E0.00620 ; perimeter
G1 F1800.000 E-2.40000 ; retract
G1 X72.681 Y99.018 F6000.000 ; move to first perimeter point
G1 E2.40000 F1800.000 ; compensate retraction
G1 X72.944 Y100.000 E0.07593 F780.000 ; perimeter
G1 X72.681 Y100.982 E0.07593 ; perimeter
G1 X71.962 Y101.701 E0.07593 ; perimeter
G1 X71.033 Y101.950 E0.07186 ; perimeter
G1 X66.827 Y101.950 E0.31408 ; perimeter
G1 X65.898 Y101.701 E0.07186 ; perimeter
G1 X65.179 Y100.982 E0.07593 ; perimeter
G1 X64.916 Y100.000 E0.07593 ; perimeter
G1 X65.179 Y99.018 E0.07593 ; perimeter
G1 X65.898 Y98.299 E0.07593 ; perimeter
G1 X66.827 Y98.050 E0.07186 ; perimeter
G1 X71.033 Y98.050 E0.31407 ; perimeter
G1 X71.962 Y98.299 E0.07186 ; perimeter
G1 X72.602 Y98.939 E0.06755 ; perimeter
G1 X73.427 Y99.083 F6000.000 ; move inwards before travel
G1 X73.352 Y98.630 F6000.000 ; move to first perimeter point
G1 X73.719 Y100.000 E0.10589 F780.000 ; perimeter
G1 X73.352 Y101.370 E0.10589 ; perimeter
G1 X72.350 Y102.372 E0.10589 ; perimeter
G1 X71.131 Y102.698 E0.09420 ; perimeter
G1 X66.729 Y102.698 E0.32880 ; perimeter
G1 X65.511 Y102.372 E0.09419 ; perimeter
G1 X64.508 Y101.370 E0.10589 ; perimeter
G1 X64.141 Y100.000 E0.10589 ; perimeter
G1 X64.508 Y98.630 E0.10589 ; perimeter
G1 X65.511 Y97.628 E0.10589 ; perimeter
G1 X66.729 Y97.302 E0.09420 ; perimeter
G1 X71.131 Y97.302 E0.32879 ; perimeter
G1 X72.350 Y97.628 E0.09420 ; perimeter
G1 X73.273 Y98.551 E0.09750 ; perimeter
G1 F1800.000 E-2.40000 ; retract
G1 X108.096 Y100.000 F6000.000 ; move to first perimeter point
G1 E2.40000 F1800.000 ; compensate retraction
G1 X108.359 Y99.018 E0.07595 F780.000 ; perimeter
G1 X109.078 Y98.299 E0.07595 ; perimeter
G1 X110.007 Y98.049 E0.07188 ; perimeter
G1 X114.212 Y98.048 E0.31406 ; perimeter
G1 X115.143 Y98.298 E0.07192 ; perimeter
G1 X115.862 Y99.017 E0.07599 ; perimeter
G1 X116.125 Y100.000 E0.07599 ; perimeter
G1 X115.862 Y100.983 E0.07599 ; perimeter
G1 X115.142 Y101.702 E0.07599 ; perimeter
G1 X114.212 Y101.952 E0.07192 ; perimeter
G1 X110.007 Y101.951 E0.31406 ; perimeter
G1 X109.078 Y101.701 E0.07188 ; perimeter
G1 X108.359 Y100.982 E0.07595 ; perimeter
G1 X108.125 Y100.108 E0.06756 ; perimeter
G1 X107.482 Y99.571 F6000.000 ; move inwards before travel
G1 X107.321 Y100.000 F6000.000 ; move to first perimeter point
G1 X107.688 Y98.630 E0.10590 F780.000 ; perimeter
G1 X108.690 Y97.628 E0.10590 ; perimeter
G1 X109.909 Y97.301 E0.09421 ; perimeter
G1 X114.311 Y97.300 E0.32880 ; perimeter
G1 X115.530 Y97.627 E0.09426 ; perimeter
G1 X116.533 Y98.630 E0.10595 ; perimeter
G1 X116.900 Y100.000 E0.10595 ; perimeter
G1 X116.533 Y101.370 E0.10595 ; perimeter
G1 X115.530 Y102.373 E0.10595 ; perimeter
G1 X114.311 Y102.700 E0.09426 ; perimeter
G1 X109.909 Y102.699 E0.32879 ; perimeter
G1 X108.690 Y102.372 E0.09421 ; perimeter
G1 X107.688 Y101.370 E0.10590 ; perimeter
G1 X107.350 Y100.108 E0.09752 ; perimeter
G1 F1800.000 E-2.40000 ; retract
G1 X134.694 Y100.000 F6000.000 ; move to first perimeter point
G1 E2.40000 F1800.000 ; compensate retraction
G1 X134.911 Y99.193 E0.06240 F780.000 ; perimeter
G1 X135.502 Y98.602 E0.06240 ; perimeter
G1 X136.309 Y98.386 E0.06240 ; perimeter
G1 X137.116 Y98.602 E0.06240 ; perimeter
G1 X137.706 Y99.193 E0.06240 ; perimeter
G1 X137.923 Y100.000 E0.06240 ; perimeter
G1 X137.706 Y100.807 E0.06240 ; perimeter
G1 X137.116 Y101.398 E0.06240 ; perimeter
G1 X136.309 Y101.614 E0.06240 ; perimeter
G1 X135.502 Y101.398 E0.06240 ; perimeter
G1 X134.911 Y100.807 E0.06240 ; perimeter
G1 X134.724 Y100.108 E0.05402 ; perimeter
G1 X134.081 Y99.571 F6000.000 ; move inwards before travel
G1 X133.454 Y100.319 F6000.000 ; move to first fill point
G1 X108.087 Y74.952 E2.68865 F900.000 ; fill
G1 X109.149 Y74.952 E0.07961 ; fill
G1 X133.543 Y99.346 E2.58557 ; fill
G1 X133.775 Y98.516 E0.06460 ; fill
G1 X110.212 Y74.952 E2.49759 ; fill
G1 X111.274 Y74.952 E0.07961 ; fill
G1 X134.307 Y97.985 E2.44129 ; fill
G1 X134.838 Y97.454 E0.05630 ; fill
G1 X112.336 Y74.952 E2.38500 ; fill
G1 X113.398 Y74.952 E0.07961 ; fill
G1 X135.675 Y97.229 E2.36117 ; fill
G1 X136.662 Y97.154 E0.07421 ; fill
G1 X114.461 Y74.952 E2.35323 ; fill
G1 X115.523 Y74.952 E0.07961 ; fill
G1 X138.127 Y97.557 E2.39591 ; fill
G1 X138.127 Y96.495 E0.07961 ; fill
G1 X116.585 Y74.952 E2.28332 ; fill
G1 X117.647 Y74.952 E0.07961 ; fill
G1 X138.127 Y95.433 E2.17073 ; fill
G1 X138.127 Y94.370 E0.07961 ; fill
G1 X118.710 Y74.952 E2.05814 ; fill
G1 X119.772 Y74.952 E0.07961 ; fill
G1 X138.127 Y93.308 E1.94555 ; fill
G1 X138.127 Y92.246 E0.07961 ; fill
G1 X120.834 Y74.952 E1.83295 ; fill
G1 X121.896 Y74.952 E0.07961 ; fill
G1 X138.127 Y91.184 E1.72036 ; fill
G1 X138.127 Y90.121 E0.07961 ; fill
G1 X122.959 Y74.952 E1.60777 ; fill
G1 X124.021 Y74.952 E0.07961 ; fill
G1 X138.127 Y89.059 E1.49518 ; fill
G1 X138.127 Y87.997 E0.07961 ; fill
G1 X125.083 Y74.952 E1.38259 ; fill
G1 X126.145 Y74.952 E0.07961 ; fill
G1 X138.127 Y86.935 E1.27000 ; fill
G1 X138.127 Y85.872 E0.07961 ; fill
G1 X127.208 Y74.952 E1.15741 ; fill
G1 X128.270 Y74.952 E0.07961 ; fill
G1 X138.127 Y84.810 E1.04482 ; fill
G1 X138.127 Y83.748 E0.07961 ; fill
G1 X129.332 Y74.952 E0.93223 ; fill
G1 X130.394 Y74.952 E0.07961 ; fill
G1 X138.127 Y82.686 E0.81964 ; fill
G1 X138.127 Y81.623 E0.07961 ; fill
G1 X131.457 Y74.952 E0.70705 ; fill
G1 X132.519 Y74.952 E0.07961 ; fill
G1 X138.127 Y80.561 E0.59446 ; fill
G1 X138.127 Y79.499 E0.07961 ; fill
G1 X133.581 Y74.952 E0.48187 ; fill
G1 X134.643 Y74.952 E0.07961 ; fill
G1 X138.127 Y78.436 E0.36928 ; fill
G1 X138.127 Y77.374 E0.07961 ; fill
G1 X135.706 Y74.952 E0.25669 ; fill
G1 X136.768 Y74.952 E0.07961 ; fill
G1 X138.127 Y76.312 E0.14409 ; fill
G1 X138.038 Y75.161 E0.08654 ; fill
G1 X137.919 Y75.041 E0.01265 ; fill
G1 F1800.000 E-2.40000 ; retract
G1 X137.792 Y102.533 F6000.000 ; move to first fill point
G1 E2.40000 F1800.000 ; compensate retraction
G1 X138.127 Y102.868 E0.03553 F900.000 ; fill
G1 X138.127 Y103.931 E0.07961 ; fill
G1 X136.962 Y102.765 E0.12351 ; fill
G1 X135.990 Y102.855 E0.07320 ; fill
